Freshhhhh-LC/Legged_odom/data/5/segments/booster_seg_9.78s.csv
time,yaw,projected_gravity_x,projected_gravity_y,projected_gravity_z,ang_vel_x,ang_vel_y,ang_vel_z,lin_acc_x,lin_acc_y,lin_acc_z,q_0,q_1,q_2,q_3,q_4,q_5,q_6,q_7,q_8,q_9,q_10,q_11,q_12,q_13,q_14,q_15,q_16,q_17,q_18,q_19,q_20,q_21,q_22,dq_0,dq_1,dq_2,dq_3,dq_4,dq_5,dq_6,dq_7,dq_8,dq_9,dq_10,dq_11,dq_12,dq_13,dq_14,dq_15,dq_16,dq_17,dq_18,dq_19,dq_20,dq_21,dq_22,mocap_time,mocap_timestamp,robot_x,robot_y,robot_yaw,ball_x,ball_y
1741522760.941911,3.4623671770095825,0.05385029865433047,-0.06812457295050156,-0.9962224590397223,-0.3037319481372833,-0.2625647187232971,0.48368605971336365,-0.6431573033332825,2.0240345001220703,4.973726749420166,0.11425209045410156,0.9035243988037109,0.24891279637813568,-1.373335599899292,0.005531395319849253,-0.5132753252983093,0.040627144277095795,1.318021535873413,0.010872052982449532,0.5540932416915894,-0.03604944050312042,-0.6731135845184326,-0.04940108209848404,0.14095520973205566,0.7597085237503052,-0.25909867882728577,0.002306782640516758,-0.5956740379333496,-0.12684062123298645,0.037193864583969116,0.7879377603530884,-0.15266315639019012,0.040021222084760666,0.1629287451505661,-0.03540380299091339,-0.42225712537765503,-0.031028976663947105,-0.006512995809316635,-0.11245032399892807,0.6804941892623901,0.36015594005584717,0.0033794273622334003,-0.32774055004119873,-0.1826997846364975,2.520843982696533,0.09198042005300522,0.23847922682762146,-6.89327335357666,2.781933546066284,0.24265894293785095,-0.006399096921086311,0.9071860909461975,0.9666996598243713,1.8700939416885376,-0.11332373321056366,-0.20728233456611633,1741522760.9150887,1741522759833,-5.5343056640625,0.8507631225585938,2.5204948532085907,-5.266044921875,-0.4256471252441406
1741522760.9438703,3.5303841829299927,0.07543165434524575,-0.031775181096452484,-0.99664457224681,-0.05082231014966965,0.15909512341022491,0.0948646143078804,0.3257209360599518,-0.31600600481033325,6.839864253997803,0.15278053283691406,0.8993282318115234,0.10814831405878067,-1.3466322422027588,0.005531395319849253,-0.5552376508712769,0.18673227727413177,1.3889760971069336,0.011635004542768002,0.5327305793762207,-0.08449683338403702,-0.5476081371307373,-0.028038453310728073,0.11539635062217712,0.5910963416099548,-0.14733387529850006,0.04142571613192558,-0.8649957776069641,0.029564354568719864,0.06580453366041183,1.1598763465881348,-0.36694639921188354,0.006389837246388197,0.23403172194957733,-0.03704288601875305,-0.3406117558479309,0.3103744685649872,-0.009139603935182095,-0.6294522285461426,1.0346159934997559,0.14779029786586761,0.008641117252409458,0.19047804176807404,-0.35923880338668823,-0.08052999526262283,0.051856040954589844,-0.1522255837917328,0.5653904676437378,0.07465267926454544,-0.05474144220352173,-2.3940911293029785,0.7396755814552307,-0.910327672958374,1.8129204511642456,-2.1378748416900635,0.2730860710144043,1741522760.9150887,1741522759833,-5.5343056640625,0.8507631225585938,2.5204948532085907,-5.266044921875,-0.4256471252441406
1741522760.9492636,4.052232384681702,0.04348338570056307,-0.10795877332097661,-0.9932039561092404,-0.4580204486846924,0.10750344395637512,0.7972205877304077,0.13525903224945068,4.157365798950195,8.276822090148926,0.7276649475097656,0.6391620635986328,0.21877622604370117,-1.3695207834243774,0.005531395319849253,-0.5312047004699707,0.135233074426651,1.3199290037155151,0.010490577667951584,0.5464637279510498,-0.12684062123298645,-0.7177462577819824,-0.015449759550392628,0.2603570520877838,1.0797665119171143,-0.3791316747665405,-0.004191473592072725,-0.5926222801208496,-0.06427863240242004,0.1340886503458023,0.7486457824707031,-0.19173064827919006,0.026152171194553375,0.5334957838058472,-0.5346351861953735,1.1218276023864746,0.2050464153289795,-0.007141377776861191,0.582481861114502,-2.2913577556610107,-0.014698273502290249,-9.80909971985966e-05,-0.2283254712820053,0.9736608862876892,-1.0236903429031372,0.14046692848205566,0.009020023047924042,-1.0158392190933228,0.2125096321105957,0.14547760784626007,1.7926294803619385,-0.3944273889064789,-0.2177502065896988,-0.7785871028900146,0.31204766035079956,0.2653859257698059,1741522760.9150887,1741522759833,-5.5343056640625,0.8507631225585938,2.5204948532085907,-5.266044921875,-0.4256471252441406
1741522760.9692996,4.065945506095886,0.039955676139386956,-0.09846150340378171,-0.994338411352851,-0.49102920293807983,-0.08902974426746368,0.6628970503807068,-3.5270001888275146,-0.7553536891937256,5.633321762084961,0.7387275695800781,0.6280994415283203,0.23746852576732635,-1.369139313697815,0.005531395319849253,-0.5201418995857239,0.10852979123592377,1.3199290037155151,0.010490577667951584,0.5449378490447998,-0.11425192654132843,-0.728427529335022,-0.010490577667951584,0.2584496736526489,1.0496299266815186,-0.36392924189567566,-0.004812497179955244,-0.577744722366333,-0.07343403995037079,0.12951095402240753,0.7337682247161865,-0.19179219007492065,0.028074102476239204,0.3143663704395294,-0.36170125007629395,0.9012042284011841,-0.06203494966030121,-0.005648618098348379,0.5482418537139893,-1.5693916082382202,0.002595365745946765,-0.01631532795727253,-0.0557989776134491,0.5027949810028076,-0.44423821568489075,0.24201495945453644,-0.04826808720827103,-1.6351335048675537,0.8523895740509033,-0.048048440366983414,0.700949490070343,-0.3105292320251465,-0.2144947052001953,-0.6603033542633057,0.04419982060790062,0.10487119108438492,1741522760.9150887,1741522759833,-5.5343056640625,0.8507631225585938,2.5204948532085907,-5.266044921875,-0.4256471252441406
1741522760.9893408,4.082324862480164,0.04092987629026096,-0.08885190821246268,-0.9952035387968976,-0.5147998332977295,0.14206767082214355,0.8170173168182373,0.34120702743530273,2.0386061668395996,5.190694808959961,0.7494087219238281,0.6075000762939453,0.24929426610469818,-1.3687578439712524,0.005531395319849253,-0.5125123858451843,0.09212634712457657,1.3203104734420776,0.010490577667951584,0.5449378490447998,-0.11463340371847153,-0.732623815536499,0.000572213320992887,0.2573052644729614,1.0042344331741333,-0.3374893367290497,-0.005950443912297487,-0.5544747114181519,-0.07572289556264877,0.135233074426651,0.7303349375724792,-0.1913430094718933,0.029621170833706856,0.3177119195461273,-0.6036775708198547,0.6101494431495667,0.06069285422563553,-0.0019586351700127125,0.406119167804718,-1.0140855312347412,0.0495745874941349,0.003528931410983205,-0.041427407413721085,-0.1854427307844162,-0.2890227735042572,0.4968380928039551,-0.024760141968727112,-2.3294620513916016,1.373880386352539,-0.06971052289009094,1.2434563636779785,-0.05961459502577782,0.41136598587036133,-0.08831128478050232,-0.024295933544635773,0.030072815716266632,1741522760.9150887,1741522759833,-5.5343056640625,0.8507631225585938,2.5204948532085907,-5.266044921875,-0.4256471252441406
1741522761.0093277,4.099540591239929,0.038432697053781065,-0.08302657676659637,-0.9958059626993567,-0.2846550941467285,-0.08395669609308243,0.8407391309738159,1.4040417671203613,0.032079871743917465,4.086780548095703,0.7597084045410156,0.6010150909423828,0.2573052644729614,-1.369139313697815,0.005531395319849253,-0.5037384629249573,0.0871671661734581,1.3222178220748901,0.010490577667951584,0.541886031627655,-0.12607766687870026,-0.7280460596084595,0.01430533267557621,0.24929426610469818,0.9435797929763794,-0.30480897426605225,-0.0030000440310686827,-0.5495155453681946,-0.07572289556264877,0.14553292095661163,0.7314793467521667,-0.19884176552295685,0.025984378531575203,0.2987368404865265,-0.22870001196861267,0.33853423595428467,-0.04861822351813316,-0.001852841698564589,0.4040675461292267,-0.25165876746177673,0.11479921638965607,0.002646844135597348,-0.22761507332324982,-0.5988314151763916,0.3839704692363739,0.7057612538337708,-0.47501954436302185,-3.1482627391815186,1.5930172204971313,0.1894703507423401,-0.02375163324177265,-0.012565186247229576,0.5994754433631897,0.061175402253866196,-0.44417881965637207,-0.16071145236492157,1741522760.9150887,1741522759833,-5.5343056640625,0.8507631225585938,2.5204948532085907,-5.266044921875,-0.4256471252441406
1741522761.0293338,4.114458441734314,0.03565201696934088,-0.08108791271896704,-0.9960691161244278,-0.09882201254367828,-0.03404786065220833,0.7244402170181274,0.21243064105510712,1.635317087173462,4.977752208709717,0.7673377990722656,0.5918588638305664,0.2573052644729614,-1.3710466623306274,0.005531395319849253,-0.4964904189109802,0.0879301130771637,1.3229807615280151,0.010490577667951584,0.5376898050308228,-0.1489662081003189,-0.7055390477180481,0.023079270496964455,0.24128328263759613,0.8588922023773193,-0.27133071422576904,-0.0005269661778584123,-0.5460822582244873,-0.07572289556264877,0.15621423721313477,0.7497901916503906,-0.2158321738243103,0.028678640723228455,0.22059372067451477,-0.27804309129714966,-0.04427386820316315,-0.10946657508611679,0.007296984549611807,0.3520828187465668,0.10152361541986465,0.03486001119017601,-0.007292044814676046,-0.2770117521286011,-1.1185442209243774,1.4290887117385864,0.39267951250076294,-0.47756120562553406,-4.458232879638672,1.6275265216827393,0.12887702882289886,0.15377630293369293,0.03552358224987984,0.529389500617981,1.0742247104644775,-0.9361366629600525,0.16261114180088043,1741522760.9150887,1741522759833,-5.5343056640625,0.8507631225585938,2.5204948532085907,-5.266044921875,-0.4256471252441406
1741522761.0493944,4.123824238777161,0.03269903005454921,-0.08267508775667934,-0.9960399606933033,0.09340420365333557,-0.14803189039230347,0.40153178572654724,-1.3804798126220703,3.0183141231536865,5.588364124298096,0.7814531326293945,0.5796518325805664,0.25463491678237915,-1.37295401096344,0.005531395319849253,-0.4968718886375427,0.09365224838256836,1.3237437009811401,0.010490577667951584,0.5334935784339905,-0.17185473442077637,-0.6631952524185181,0.018501564860343933,0.2470054179430008,0.7413977384567261,-0.2454957664012909,0.0013108771527186036,-0.5552376508712769,-0.06809338182210922,0.1653696447610855,0.7749675512313843,-0.2439514845609665,0.02451988123357296,0.407097727060318,-0.3385677635669708,-0.09060332924127579,-0.1698368489742279,-0.010019652545452118,-0.09923834353685379,0.3841288387775421,0.06419672816991806,0.004013655241578817,-0.2884582579135895,-1.1662120819091797,2.1386940479278564,-0.38651517033576965,0.44847890734672546,-6.026210308074951,1.1614137887954712,0.16060815751552582,-0.5091326832771301,0.4505315124988556,0.4022470712661743,1.2737764120101929,-1.4913907051086426,-0.4255051016807556,1741522760.9150887,1741522759833,-5.5343056640625,0.8507631225585938,2.5204948532085907,-5.266044921875,-0.4256471252441406
1741522761.069404,4.126903414726257,0.032534914077451356,-0.08637974202832427,-0.9957308971469616,0.16026803851127625,0.058710429817438126,0.14301107823848724,-1.2154872417449951,1.6205869913101196,7.122542858123779,0.787175178527832,0.5598154067993164,0.25196459889411926,-1.374098539352417,0.005531395319849253,-0.5022125840187073,0.10013733059167862,1.3241251707077026,0.010490577667951584,0.5304417610168457,-0.19512474536895752,-0.6109330654144287,0.01888304017484188,0.2637903392314911,0.6067368388175964,-0.2304125726222992,0.005915661342442036,-0.5594338774681091,-0.05130846053361893,0.1646067053079605,0.810826301574707,-0.27399957180023193,0.016805453225970268,0.19027741253376007,-0.5819752812385559,-0.17827144265174866,-0.0030723537784069777,-0.008182513527572155,-0.25490471720695496,0.43849891424179077,0.019139615818858147,0.004141543060541153,-0.21076813340187073,-1.1199840307235718,2.6246700286865234,0.3450838029384613,0.7933230996131897,-6.6904706954956055,0.8329402208328247,0.2768532931804657,-0.24412035942077637,0.7369099855422974,-0.06255877763032913,1.8612738847732544,-1.5719425678253174,-0.26437029242515564,1741522760.9150887,1741522759833,-5.5343056640625,0.8507631225585938,2.5204948532085907,-5.266044921875,-0.4256471252441406
1741522761.0894876,4.131474614143372,0.03272456442276699,-0.09119403728966265,-0.9952953081604232,0.30737316608428955,0.10565485060214996,0.3131323456764221,-1.247802495956421,7.547787189483643,16.036527633666992,0.7898454666137695,0.5537118911743164,0.24319066107273102,-1.372191071510315,0.005531395319849253,-0.5018310546875,0.10662241280078888,1.3229807615280151,0.010490577667951584,0.5254825949668884,-0.2157244235277176,-0.5891889929771423,0.013923857361078262,0.2965972423553467,0.5815594792366028,-0.18915002048015594,0.03586304932832718,-0.5632486343383789,-0.07381551712751389,0.16880293190479279,0.8485923409461975,-0.30862075090408325,0.025114506483078003,0.057720258831977844,-0.14761708676815033,-0.47440341114997864,0.04370424896478653,0.014285833574831486,0.1051671952009201,0.3968748450279236,-0.043438635766506195,-0.012999334372580051,-0.34289470314979553,-0.8584811091423035,0.7002236247062683,-0.8750006556510925,1.5122984647750854,-0.2473476380109787,2.066549062728882,1.849292516708374,-0.09475778788328171,-1.4626809358596802,0.29280078411102295,1.770907998085022,-1.7959699630737305,0.3437209725379944,1741522760.9150887,1741522759833,-5.5343056640625,0.8507631225585938,2.5204948532085907,-5.266044921875,-0.4256471252441406
1741522761.1094227,4.142030596733093,0.033093671038820785,-0.10438790400082934,-0.9939859025335762,0.5831418037414551,-0.04017520323395729,0.5786497592926025,1.797094464302063,-5.705732822418213,3.335289478302002,0.791752815246582,0.5575265884399414,0.22564278542995453,-1.379439115524292,0.005531395319849253,-0.501068115234375,0.1199740618467331,1.3256510496139526,0.010490577667951584,0.5235751867294312,-0.22335393726825714,-0.6029220819473267,-0.01506828423589468,0.2927824854850769,0.5910963416099548,-0.16321787238121033,0.04547560214996338,-0.5525673031806946,-0.07801175117492676,0.15850308537483215,0.8680475950241089,-0.3171861171722412,0.0241465475410223,0.08347955346107483,0.035602644085884094,-0.9285786747932434,-0.4393738806247711,-0.009279303252696991,0.0014704227214679122,1.0127320289611816,0.1836169958114624,-0.001973091857507825,-0.11835603415966034,-0.3104380965232849,-0.5781630277633667,-0.878410279750824,-0.5558360815048218,0.17928464710712433,1.1213682889938354,-0.18011899292469025,0.5032559037208557,-0.16794513165950775,-0.4497162997722626,0.816479504108429,-0.14607414603233337,-0.18066416680812836,1741522760.9150887,1741522759833,-5.5343056640625,0.8507631225585938,2.5204948532085907,-5.266044921875,-0.4256471252441406
1741522761.1294758,4.154419541358948,0.03183409202878106,-0.10489383650871205,-0.9939737791547555,-0.051676858216524124,0.06009276583790779,0.5840104818344116,-5.721312046051025,-0.9257696866989136,20.028995513916016,0.7795448303222656,0.5315866470336914,0.20580606162548065,-1.3798205852508545,0.005149920005351305,-0.5018310546875,0.13904783129692078,1.3279399871826172,0.010490577667951584,0.5220493078231812,-0.23212787508964539,-0.5724040865898132,-0.01125352829694748,0.2504386901855469,0.5781261920928955,-0.1497538983821869,0.02187143824994564,-0.5590524077415466,-0.08297093212604523,0.17261768877506256,0.9107728600502014,-0.30812719464302063,0.011511829681694508,-0.29291269183158875,-0.7223699688911438,-0.9876582026481628,0.04747853800654411,-0.033238187432289124,-0.031043874099850655,1.2638418674468994,0.14404968917369843,-0.010552062653005123,-0.1260216236114502,-0.5017735362052917,1.9389127492904663,0.13289275765419006,-1.912690281867981,-0.5792588591575623,0.6414716839790344,-0.8664606213569641,-0.5592213273048401,-0.2274640053510666,0.784811794757843,2.5005152225494385,0.43017831444740295,-0.5347598791122437,1741522760.9150887,1741522759833,-5.5343056640625,0.8507631225585938,2.5204948532085907,-5.266044921875,-0.4256471252441406
1741522761.1494942,4.167124390602112,0.02914978539890541,-0.09758549509021158,-0.9948001614189637,-0.40766578912734985,-0.16125738620758057,0.5184263586997986,1.5269774198532104,-8.707576751708984,7.7804365158081055,0.7738227844238281,0.5220489501953125,0.17872129380702972,-1.3752429485321045,0.005531395319849253,-0.5014495849609375,0.1493476778268814,1.3447248935699463,0.01125352829694748,0.5189974904060364,-0.23899443447589874,-0.5617227554321289,-0.023460745811462402,0.23594263195991516,0.5735484957695007,-0.14625677466392517,0.03841374069452286,-0.6036850810050964,-0.07572289556264877,0.19130998849868774,0.9786755442619324,-0.2904846966266632,0.008036444894969463,-0.20529493689537048,-0.27785754203796387,-1.4767553806304932,0.33022409677505493,-0.012651406228542328,0.00977267324924469,0.5402073860168457,1.4125971794128418,0.06262800097465515,-0.20096956193447113,-0.20637290179729462,0.46499884128570557,-0.5386561155319214,-0.7153801321983337,-0.19471508264541626,0.1906750500202179,0.9273338317871094,-2.505652904510498,0.5832695960998535,0.7714914679527283,3.5353689193725586,1.0129824876785278,-0.13254550099372864,1741522760.9150887,1741522759833,-5.5343056640625,0.8507631225585938,2.5204948532085907,-5.266044921875,-0.4256471252441406
1741522761.169505,4.178365588188171,0.02740590375100688,-0.08789531871848283,-0.9957526446798757,-0.49187541007995605,0.08111683279275894,0.5386858582496643,7.942839622497559,-2.280025005340576,9.720808029174805,0.7787818908691406,0.5167083740234375,0.1508735716342926,-1.3664690256118774,0.005149920005351305,-0.5022125840187073,0.15583276748657227,1.370665192604065,0.01125352829694748,0.5159456729888916,-0.2309834510087967,-0.5422675013542175,-0.031090257689356804,0.21038375794887543,0.5670633912086487,-0.13397599756717682,0.03633428364992142,-0.6521324515342712,-0.04596780240535736,0.20809490978717804,1.0744259357452393,-0.2838206887245178,-0.004731923807412386,0.11517896503210068,-0.1159064844250679,-1.3929755687713623,0.6221340298652649,-0.011360891163349152,-0.030451755970716476,0.48359397053718567,1.6045112609863281,-0.0294443741440773,-0.1889025717973709,0.39256739616394043,0.7898969054222107,-0.3584524989128113,-1.1989126205444336,-0.46407565474510193,0.6281244158744812,-0.2555401027202606,-2.35249662399292,1.608728051185608,0.6120226979255676,5.039633750915527,0.10038285702466965,-0.62673419713974,1741522760.9150887,1741522759833,-5.5343056640625,0.8507631225585938,2.5204948532085907,-5.266044921875,-0.4256471252441406
1741522761.1895378,4.1906527280807495,0.021638423672258135,-0.07692134043531453,-0.9968023304580574,-0.5505900979042053,-0.18471278250217438,0.6604946255683899,-3.0477442741394043,1.508095145225525,11.073728561401367,0.7784004211425781,0.517852783203125,0.12798504531383514,-1.3576951026916504,0.005531395319849253,-0.5022125840187073,0.16269932687282562,1.385161280632019,0.010872052982449532,0.5117494463920593,-0.21839475631713867,-0.5399786233901978,-0.03452353551983833,0.19474326074123383,0.5560005903244019,-0.12416479736566544,0.0338112972676754,-0.7162203192710876,-0.01125352829694748,0.20695048570632935,1.1797131299972534,-0.3080885112285614,-0.011342993937432766,-0.05363192781805992,0.00581482145935297,-1.0901999473571777,0.5749828219413757,-0.0007065738318488002,-0.02807047590613365,0.418270468711853,0.9391999840736389,0.019093472510576248,-0.2963028848171234,0.7117842435836792,0.2275056689977646,-0.09128586202859879,-0.7022504806518555,-0.4365476369857788,0.4991239309310913,-0.0553668849170208,-3.213810920715332,1.6301997900009155,-0.08712315559387207,5.154096603393555,-1.4747288227081299,-0.2645585238933563,1741522760.9150887,1741522759833,-5.5343056640625,0.8507631225585938,2.5204948532085907,-5.266044921875,-0.4256471252441406
1741522761.2164874,4.203311324119568,0.025493240113503908,-0.07026251206698286,-0.9972027246786644,-0.34387561678886414,0.24358591437339783,0.5939712524414062,2.8931057453155518,0.5936871767044067,6.881231784820557,0.7860307693481445,0.5090789794921875,0.10585946589708328,-1.3527358770370483,0.005531395319849253,-0.5045014023780823,0.1676585078239441,1.396224021911621,0.01125352829694748,0.509079098701477,-0.20466163754463196,-0.5315861701965332,-0.03452353551983833,0.17643244564533234,0.5506599545478821,-0.11699052900075912,0.03330571949481964,-0.7730602025985718,0.02040894143283367,0.19016556441783905,1.254482388496399,-0.3502490818500519,-0.003546765772625804,0.21067041158676147,-0.24958635866641998,-1.0093519687652588,0.24709893763065338,-0.007100705057382584,-0.08410397917032242,0.24897652864456177,0.6544073224067688,0.021357975900173187,-0.14862249791622162,0.6700261831283569,0.28412678837776184,0.007217871956527233,-1.015678882598877,-0.3193705677986145,0.31851866841316223,0.012398174963891506,-2.6868247985839844,1.5886125564575195,-0.8757750391960144,3.295090675354004,-2.17521333694458,0.40585771203041077,1741522760.9150887,1741522759833,-5.5343056640625,0.8507631225585938,2.5204948532085907,-5.266044921875,-0.4256471252441406
1741522761.229655,4.214897036552429,0.026124788602164488,-0.06380264897378213,-0.9976205277581354,-0.3579269349575043,0.06807534396648407,0.5491818189620972,-2.7114076614379883,-0.40704426169395447,8.81303596496582,0.7837419509887695,0.502593994140625,0.09861142933368683,-1.3527358770370483,0.005531395319849253,-0.5041199326515198,0.1676585078239441,1.3996573686599731,0.01125352829694748,0.5071717500686646,-0.18635080754756927,-0.5373083353042603,-0.03337911143898964,0.1646067053079605,0.54264897108078,-0.11829627305269241,0.029865633696317673,-0.8180742859840393,0.045204851776361465,0.17071031033992767,1.2716487646102905,-0.38588178157806396,0.005872249603271484,-0.06378556787967682,-0.1789899319410324,-0.26576346158981323,-0.009690194390714169,-0.009936423972249031,-0.012237056158483028,0.02578570321202278,0.12661997973918915,-0.0024286964908242226,-0.1454441249370575,0.944129228591919,-0.2663908004760742,0.03809735178947449,-0.48042216897010803,-0.33853864669799805,-0.13036662340164185,-0.17932435870170593,-2.0738027095794678,1.0830862522125244,-0.8544726371765137,0.3872475028038025,-1.5725585222244263,0.3598811626434326,1741522760.9150887,1741522759833,-5.5343056640625,0.8507631225585938,2.5204948532085907,-5.266044921875,-0.4256471252441406
1741522761.2495615,4.2219144105911255,0.030481416430518587,-0.055440546959315815,-0.9979966077122914,-0.4253549873828888,0.2743191421031952,0.3389602601528168,0.03532378375530243,1.5342923402786255,7.190635681152344,0.7787818908691406,0.488861083984375,0.10090028494596481,-1.3531173467636108,0.005531395319849253,-0.5045014023780823,0.1672770231962204,1.3992758989334106,0.01125352829694748,0.5048828721046448,-0.17071031033992767,-0.535400927066803,-0.03147173300385475,0.14476996660232544,0.5483710765838623,-0.12499044835567474,0.023202909156680107,-0.8356221914291382,0.05855649709701538,0.15621423721313477,1.2323567867279053,-0.3969395160675049,0.004673715680837631,-0.14505890011787415,-0.3854166567325592,0.13195939362049103,-0.030660806223750114,-0.0077883279882371426,0.016652392223477364,-0.02406330779194832,-0.026766235008835793,0.0062002744525671005,-0.1917196363210678,0.7489056587219238,0.11074475198984146,0.05510792136192322,-1.0291316509246826,0.4009625017642975,-0.3597322702407837,-0.36548125743865967,-0.5983344316482544,0.644657552242279,-0.7256765961647034,-2.36771821975708,-0.3116752803325653,-0.05058244243264198,1741522760.9150887,1741522759833,-5.5343056640625,0.8507631225585938,2.5204948532085907,-5.266044921875,-0.4256471252441406
1741522761.2695835,4.230108380317688,0.033348842881622195,-0.047004922897925926,-0.9983378145206245,-0.4392387866973877,0.128703311085701,0.38360077142715454,1.225952386856079,-1.8772943019866943,6.831031799316406,0.7803077697753906,0.482757568359375,0.10891126841306686,-1.3542617559432983,0.005531395319849253,-0.5025940537452698,0.1672770231962204,1.3958425521850586,0.010872052982449532,0.5014495849609375,-0.15926603972911835,-0.5540932416915894,-0.03147173300385475,0.13027389347553253,0.5609598159790039,-0.14010688662528992,0.02342560701072216,-0.8253223299980164,0.07000076025724411,0.13828489184379578,1.1423285007476807,-0.38182953000068665,0.004862356930971146,0.00840026792138815,-0.16707928478717804,0.49115580320358276,-0.11766578257083893,-0.00651673786342144,0.08447615802288055,0.01026082318276167,-0.2593350410461426,0.0053812917321920395,-0.23648856580257416,0.45805057883262634,-1.103354573249817,-0.007894153706729412,-0.5792078971862793,0.6875506639480591,-0.8075226545333862,0.08141789585351944,0.5552797913551331,0.5899410843849182,-0.9420965313911438,-4.775977611541748,0.9362791180610657,0.10111159831285477,1741522760.9150887,1741522759833,-5.5343056640625,0.8507631225585938,2.5204948532085907,-5.266044921875,-0.4256471252441406
1741522761.2896683,4.241155505180359,0.03369279924276674,-0.038599605376718416,-0.9986865703232163,-0.4243380129337311,0.04562349244952202,0.5887147784233093,1.1036477088928223,-0.14967098832130432,5.622302055358887,0.7742042541503906,0.478179931640625,0.12340734153985977,-1.3561691045761108,0.005531395319849253,-0.5014495849609375,0.1676585078239441,1.389357566833496,0.010872052982449532,0.5018310546875,-0.15774014592170715,-0.568970799446106,-0.03185320645570755,0.11425192654132843,0.5926222801208496,-0.15684863924980164,0.028249315917491913,-0.8024337887763977,0.07724879682064056,0.1199740618467331,1.0160601139068604,-0.34835344552993774,0.007243282627314329,-0.17962314188480377,-0.12154904007911682,0.7032652497291565,-0.09236592799425125,-0.008448734879493713,0.0452311709523201,0.024879300966858864,-0.4412018358707428,0.005115843843668699,0.07295317947864532,0.0036389189772307873,-0.5456939935684204,-0.022890018299221992,-0.7958273887634277,1.7264775037765503,-0.8007526397705078,0.17097119987010956,1.3476873636245728,0.2988471984863281,-0.9154744148254395,-6.505905628204346,1.738794207572937,0.04593046382069588,1741522760.9150887,1741522759833,-5.5343056640625,0.8507631225585938,2.5204948532085907,-5.266044921875,-0.4256471252441406
1741522761.3096342,4.257607817649841,0.031916353045627184,-0.03366158267422997,-0.9989235427499609,-0.23505355417728424,-0.09779435396194458,0.8719305396080017,4.758066177368164,-1.044686198234558,6.032000541687012,0.7742042541503906,0.4774169921875,0.13828489184379578,-1.3557876348495483,0.005531395319849253,-0.5014495849609375,0.16918440163135529,1.380964994430542,0.010872052982449532,0.5041199326515198,-0.1653696447610855,-0.5899519324302673,-0.03643091395497322,0.10471503436565399,0.6277180314064026,-0.17749963700771332,0.027615634724497795,-0.7593270540237427,0.07801175117492676,0.11348897218704224,0.8642328381538391,-0.31513139605522156,0.00034005887573584914,-0.021088574081659317,-0.037055812776088715,0.7429125308990479,0.018725048750638962,-0.007822545245289803,0.0016285735182464123,0.104715995490551,-0.5740548968315125,0.0077544888481497765,0.10205329954624176,-0.4695916175842285,-1.2577427625656128,-0.3154834508895874,-0.30357852578163147,1.6987457275390625,-1.0834989547729492,0.06958193331956863,2.1429688930511475,-0.058857716619968414,-0.2082110494375229,-7.819957733154297,1.608594298362732,-0.3869360387325287,1741522760.9150887,1741522759833,-5.5343056640625,0.8507631225585938,2.5204948532085907,-5.266044921875,-0.4256471252441406
1741522761.3296673,4.27999746799469,0.028394665177655563,-0.036355795978853814,-0.9989354328925332,0.1830057054758072,-0.0572018139064312,1.1108534336090088,0.71925950050354,1.6340818405151367,5.785639762878418,0.7761116027832031,0.4770355224609375,0.1504921019077301,-1.3573135137557983,0.005531395319849253,-0.5014495849609375,0.17185473442077637,1.3718096017837524,0.010872052982449532,0.5037384629249573,-0.17643244564533234,-0.6044480204582214,-0.049782559275627136,0.10547798871994019,0.6628137826919556,-0.20408909022808075,0.034967608749866486,-0.7158388495445251,0.06733043491840363,0.11120012402534485,0.7196536064147949,-0.28778544068336487,-0.0016423002816736698,0.010028754360973835,-0.014605086296796799,0.6093300580978394,-0.1782730221748352,-0.004813659470528364,-0.0050313277170062065,0.19470849633216858,-0.6200610399246216,-0.017749356105923653,-0.012655360624194145,-0.5842499732971191,-0.5955973863601685,-0.6577740907669067,0.053865715861320496,1.6295475959777832,-1.3878673315048218,0.45861366391181946,2.105058431625366,-0.565995991230011,-0.12237433344125748,-6.7543745040893555,1.495646595954895,0.08912476152181625,1741522760.9150887,1741522759833,-5.5343056640625,0.8507631225585938,2.5204948532085907,-5.266044921875,-0.4256471252441406
1741522761.3497524,4.307130217552185,0.022009472909926955,-0.04776499893043793,-0.9986160863812491,0.4952322542667389,-0.2591474950313568,1.432223916053772,3.8560588359832764,2.2075393199920654,13.48452091217041,0.7795448303222656,0.4777984619140625,0.15964750945568085,-1.36990225315094,0.005531395319849253,-0.4972533881664276,0.17757686972618103,1.3637986183166504,0.010872052982449532,0.50030517578125,-0.182917520403862,-0.6105515956878662,-0.06313420087099075,0.11081864684820175,0.6807430982589722,-0.23550494015216827,0.05077075958251953,-0.7063019871711731,0.06504157930612564,0.11577782779932022,0.7085908055305481,-0.2379244714975357,0.00488717295229435,0.03522469475865364,0.022165553644299507,0.4323885440826416,-0.9101553559303284,-0.006631104275584221,0.24183601140975952,0.4375365376472473,-0.5025744438171387,-0.00476046372205019,-0.32028505206108093,-0.35822999477386475,-0.16526098549365997,-0.6266365051269531,0.33830708265304565,0.568575382232666,-1.566454529762268,0.9066245555877686,0.5228143334388733,-0.16747364401817322,0.37648212909698486,0.2357395589351654,2.2591497898101807,0.1477470099925995,1741522760.9150887,1741522759833,-5.5343056640625,0.8507631225585938,2.5204948532085907,-5.266044921875,-0.4256471252441406
1741522761.369795,4.33195436000824,0.023928109213472083,-0.05667745429604691,-0.9981057618128389,0.4160529375076294,0.04881245270371437,1.2118457555770874,-2.2734475135803223,1.9676631689071655,7.3527631759643555,0.7722969055175781,0.4633016586303711,0.17109178006649017,-1.375624418258667,0.005149920005351305,-0.50030517578125,0.1844434291124344,1.3569320440292358,0.010872052982449532,0.4991607666015625,-0.20122835040092468,-0.6017776727676392,-0.08030059933662415,0.13027389347553253,0.6731135845184326,-0.2666880190372467,0.05152944475412369,-0.7074463963508606,0.021171892061829567,0.134470134973526,0.7177462577819824,-0.2109002321958542,-0.004597543738782406,-0.18991069495677948,-0.3369198441505432,0.6093780994415283,-0.2223111242055893,0.0036679767072200775,-0.22293861210346222,0.4309740662574768,-0.4102962613105774,0.0062553249299526215,-0.031835105270147324,-0.8770266175270081,0.43293115496635437,-0.9786506295204163,1.1451313495635986,-0.4396129846572876,-1.5516413450241089,-0.04235168546438217,-0.036464158445596695,-2.423875570297241,0.976659893989563,-0.07272473722696304,1.1221823692321777,-0.41047966480255127,1741522760.9150887,1741522759833,-5.5343056640625,0.8507631225585938,2.5204948532085907,-5.266044921875,-0.4256471252441406
1741522761.3914514,4.352943778038025,0.020724271237592205,-0.07449088848376123,-0.9970063250123193,0.9668499231338501,-0.12911009788513184,0.9647222757339478,-0.2700365483760834,5.565060615539551,12.122544288635254,0.7764930725097656,0.4671163558959961,0.1840619444847107,-1.380202054977417,0.005531395319849253,-0.5025940537452698,0.19054703414440155,1.3534988164901733,0.010490577667951584,0.499542236328125,-0.19016556441783905,-0.5968185067176819,-0.09098191559314728,0.15468832850456238,0.6815060377120972,-0.2959335446357727,0.039192333817481995,-0.698291003704071,-0.016975661739706993,0.13141833245754242,0.6994354128837585,-0.187445729970932,0.014003155753016472,0.08477838337421417,0.169878289103508,0.6093703508377075,-0.49764761328697205,-0.0162659864872694,0.0030816688667982817,0.4324053227901459,-0.2024208903312683,-0.047933027148246765,-0.012194851413369179,0.5923682451248169,-0.017482461407780647,-0.3806287944316864,1.3007121086120605,0.5907625555992126,-1.477486252784729,-0.7629423141479492,0.7028794288635254,-1.6332061290740967,-0.37761297821998596,-0.6951127648353577,1.2881293296813965,1.226049542427063,1741522760.9150887,1741522759833,-5.5343056640625,0.8507631225585938,2.5204948532085907,-5.266044921875,-0.4256471252441406
1741522761.4097672,4.362014412879944,0.017214001193108085,-0.09550389128238693,-0.9952802042203218,0.9588783383369446,-0.14136852324008942,0.5460713505744934,-5.36771821975708,5.8051629066467285,10.229022979736328,0.7761116027832031,0.4549093246459961,0.19550621509552002,-1.3885945081710815,0.005531395319849253,-0.4987792670726776,0.19321736693382263,1.3462507724761963,0.010490577667951584,0.4987792670726776,-0.18825818598270416,-0.6109330654144287,-0.07953765243291855,0.19092851877212524,0.7360570430755615,-0.32716095447540283,0.005267724394798279,-0.6876096725463867,-0.04444190114736557,0.13027389347553253,0.692568838596344,-0.15916895866394043,0.02448812685906887,-0.02471764199435711,-0.34438228607177734,0.5353173613548279,-0.3830539286136627,-0.005555558018386364,0.17134414613246918,0.10983014851808548,-0.6220318675041199,0.0018411473138257861,-0.04174000397324562,-0.018739571794867516,-0.7947091460227966,0.7107861638069153,2.0016608238220215,3.1319994926452637,-1.5444492101669312,-1.820534110069275,0.3385857045650482,-1.6346908807754517,-0.001684798626229167,-0.3576975464820862,1.3936330080032349,0.033436376601457596,1741522760.9150887,1741522759833,-5.5343056640625,0.8507631225585938,2.5204948532085907,-5.266044921875,-0.4256471252441406
1741522761.4297845,4.375697016716003,0.015245435590403606,-0.10750254188399797,-0.9940879137089125,0.5694765448570251,-0.028597548604011536,0.7248722314834595,2.56373929977417,0.016798950731754303,9.871370315551758,0.7551307678222656,0.4327840805053711,0.20275425910949707,-1.3847798109054565,0.005149920005351305,-0.4987792670726776,0.18749523162841797,1.3363324403762817,0.010490577667951584,0.501068115234375,-0.17414358258247375,-0.655947208404541,-0.059319447726011276,0.23327229917049408,0.8295185565948486,-0.34902432560920715,-0.009024480357766151,-0.6841763854026794,-0.06618601083755493,0.11310750246047974,0.693331778049469,-0.1345859318971634,0.011797899380326271,-0.6362608671188354,-0.6471503973007202,0.284260630607605,0.29640620946884155,-0.012091625481843948,0.003153047990053892,-0.4483262896537781,-0.6005914211273193,0.012512298300862312,0.16661576926708221,0.8579840064048767,-2.507615804672241,1.100660800933838,2.0299856662750244,4.867124080657959,-0.938215970993042,-0.38567477464675903,0.18339301645755768,-0.8294890522956848,-1.02754807472229,0.07390923798084259,1.1178653240203857,-0.6176361441612244,1741522760.9150887,1741522759833,-5.5343056640625,0.8507631225585938,2.5204948532085907,-5.266044921875,-0.4256471252441406
1741522761.449832,4.392905592918396,0.01569898567450091,-0.11136395634242024,-0.9936556803423183,0.0938970223069191,0.15786518156528473,0.8594895005226135,-1.4396222829818726,1.09329092502594,10.320751190185547,0.7490272521972656,0.4045543670654297,0.20504310727119446,-1.382872462272644,0.005531395319849253,-0.5006866455078125,0.17910276353359222,1.3328990936279297,0.010490577667951584,0.5045014023780823,-0.16918440163135529,-0.7089722752571106,-0.03833829239010811,0.25577935576438904,0.9390020370483398,-0.3509790599346161,0.002699360717087984,-0.6807430982589722,-0.08106355369091034,0.0883115902543068,0.6914244294166565,-0.12944263219833374,0.007973937317728996,-0.2381214201450348,-0.8553856015205383,0.09160485863685608,0.12039266526699066,-0.00427469564601779,-0.09513089805841446,-0.6013113260269165,-0.13427729904651642,0.0017639221623539925,0.17826583981513977,0.09187761694192886,-2.584796190261841,0.9861413836479187,0.8830029368400574,5.286306381225586,0.07704667001962662,0.45299914479255676,0.19464918971061707,-0.7650090456008911,-1.2163066864013672,-0.09083854407072067,0.07459928095340729,-0.08726475387811661,1741522760.9150887,1741522759833,-5.5343056640625,0.8507631225585938,2.5204948532085907,-5.266044921875,-0.4256471252441406
1741522761.4698212,-1.8699158430099487,0.016244160783716235,-0.10542414051042479,-0.9942946634866703,-0.346081018447876,0.12835639715194702,0.980111837387085,-2.1940767765045166,3.2150092124938965,10.798089981079102,0.7360572814941406,0.3774700164794922,0.20466163754463196,-1.377913236618042,0.005531395319849253,-0.4999237060546875,0.17223620414733887,1.3363324403762817,0.010490577667951584,0.5033569931983948,-0.16231784224510193,-0.7429236173629761,-0.02079041674733162,0.25120165944099426,1.0111008882522583,-0.33479973673820496,-0.006192734930664301,-0.6757839322090149,-0.09861142933368683,0.06885633617639542,0.6834134459495544,-0.14193984866142273,0.012716647237539291,-0.3819924592971802,-0.7995889186859131,-0.047481756657361984,0.3284599184989929,-0.011189530603587627,0.05228492617607117,-0.3581397831439972,0.25301477313041687,-0.0037132350262254477,-0.10940532386302948,0.39101096987724304,-1.3439429998397827,0.9846265316009521,-0.37607425451278687,3.007061004638672,0.9027470350265503,-0.4777314066886902,0.3621715009212494,-0.9159899353981018,-0.9989829659461975,-0.45144104957580566,-0.684127151966095,0.3249794542789459,1741522760.9150887,1741522759833,-5.5343056640625,0.8507631225585938,2.5204948532085907,-5.266044921875,-0.4256471252441406
1741522761.4899178,-1.8508137464523315,0.014745333425186212,-0.09745101490273549,-0.9951310842480035,-0.38479137420654297,-0.056241415441036224,0.9598100781440735,2.975399971008301,2.2047626972198486,8.642537117004395,0.7318611145019531,0.3637371063232422,0.20351719856262207,-1.377150297164917,0.005531395319849253,-0.4983977973461151,0.1668955534696579,1.3393841981887817,0.010490577667951584,0.5022125840187073,-0.16384375095367432,-0.7433050870895386,-0.012397955171763897,0.23746852576732635,1.0240710973739624,-0.31174951791763306,-0.0037324607837945223,-0.656710147857666,-0.1184481605887413,0.056267641484737396,0.6784542798995972,-0.16014304757118225,0.022620292380452156,-0.14434592425823212,-0.4043269157409668,-0.05705653503537178,0.02097450941801071,-0.0024731720332056284,0.07382380962371826,-0.3488805890083313,0.15571808815002441,0.002098995493724942,-0.058311253786087036,-0.15565869212150574,0.16866345703601837,0.336154580116272,-0.6536798477172852,0.20197920501232147,1.0975078344345093,0.2430526465177536,0.9793941974639893,-0.9747112989425659,-0.5265984535217285,-0.22695592045783997,-0.9293361306190491,0.4920223355293274,1741522760.9150887,1741522759833,-5.5343056640625,0.8507631225585938,2.5204948532085907,-5.266044921875,-0.4256471252441406
1741522761.509866,-1.8339422941207886,0.005535090949463427,-0.09361907842303245,-0.9955927033297318,-0.17723174393177032,-0.4098462760448456,0.7932146191596985,-0.2203693985939026,5.299858093261719,8.447525978088379,0.7169828414916992,0.3709850311279297,0.20313572883605957,-1.380202054977417,0.005531395319849253,-0.499542236328125,0.1653696447610855,1.3386212587356567,0.010490577667951584,0.5022125840187073,-0.16155488789081573,-0.7154573798179626,0.001716639962978661,0.22793163359165192,0.9889753460884094,-0.2929861545562744,0.005108056589961052,-0.6414511203765869,-0.13790340721607208,0.050164032727479935,0.6765468716621399,-0.1798318326473236,0.030189987272024155,-0.4453313648700714,0.23350612819194794,0.0006494209519587457,-0.26044097542762756,-0.014152800664305687,-0.07669349014759064,-0.033149175345897675,-0.037426695227622986,-0.0010765474289655685,0.000513484759721905,0.09962011873722076,1.5660252571105957,0.7508711218833923,-0.3219470977783203,-2.0268189907073975,0.8792233467102051,0.3576328754425049,0.7318882942199707,-0.8689001798629761,-0.22903314232826233,-0.02599242702126503,-0.973990797996521,0.41380825638771057,1741522760.9150887,1741522759833,-5.5343056640625,0.8507631225585938,2.5204948532085907,-5.266044921875,-0.4256471252441406
1741522761.5298998,-1.8228751420974731,-0.0063666955709728,-0.0944944616025397,-0.9955050285729111,0.05546210706233978,-0.5664572715759277,0.5451177358627319,-0.30558499693870544,6.00684118270874,4.370948791503906,0.7120237350463867,0.3717479705810547,0.20351719856262207,-1.383635401725769,0.005531395319849253,-0.5006866455078125,0.1653696447610855,1.3374768495559692,0.010490577667951584,0.5037384629249573,-0.1684214472770691,-0.6731135845184326,0.009346150793135166,0.22602425515651703,0.9275577664375305,-0.2808852791786194,0.0014986826572567225,-0.6277180314064026,-0.1520180106163025,0.05092698708176613,0.6857023239135742,-0.19891580939292908,0.03335291147232056,-0.17659349739551544,0.0370001420378685,0.008492043241858482,-0.17040739953517914,-0.0032946448773145676,-0.04520602524280548,-0.011536099947988987,-0.073636993765831,0.008985323831439018,0.09383350610733032,-0.4403591752052307,2.104616403579712,0.3322569727897644,0.17666684091091156,-3.262824296951294,0.5622904300689697,-0.25460702180862427,0.676034152507782,-0.6450865268707275,0.021375255659222603,0.5513108372688293,-0.9632173776626587,0.19471576809883118,1741522760.9150887,1741522759833,-5.5343056640625,0.8507631225585938,2.5204948532085907,-5.266044921875,-0.4256471252441406
1741522761.5499504,-1.8112841844558716,-0.019449994912708872,-0.09825370454248324,-0.9949713097580121,0.19544409215450287,-0.6157609820365906,0.6077627539634705,-5.738862037658691,2.2070488929748535,7.178238391876221,0.7032499313354492,0.3622112274169922,0.20351719856262207,-1.3855427503585815,0.005531395319849253,-0.5006866455078125,0.1661325991153717,1.3367139101028442,0.010490577667951584,0.5045014023780823,-0.17681391537189484,-0.6254291534423828,0.012779430486261845,0.23937590420246124,0.848210871219635,-0.2758792042732239,-0.002293564844876528,-0.622377336025238,-0.16079194843769073,0.051689937710762024,0.7001983523368835,-0.22088809311389923,0.041674066334962845,-0.27220287919044495,-0.2550828456878662,0.0016819513402879238,-0.1049644723534584,0.00023747130762785673,-0.011595758609473705,0.0565105564892292,-0.070560023188591,0.012496905401349068,0.026540303602814674,-0.46783483028411865,2.457958221435547,0.1742442548274994,0.6149086356163025,-3.9537389278411865,0.2108924388885498,-0.1382618099451065,0.0719325989484787,-0.39942726492881775,0.10467501729726791,0.8401904702186584,-1.093289852142334,0.5493096709251404,1741522760.9150887,1741522759833,-5.5343056640625,0.8507631225585938,2.5204948532085907,-5.266044921875,-0.4256471252441406
1741522761.569961,-1.7987545728683472,-0.029500674115748995,-0.10071363352277392,-0.9944779908320529,0.10759193450212479,-0.4052507281303406,0.6578137278556824,0.2570970356464386,-0.7095972299575806,6.776033401489258,0.6914243698120117,0.3564891815185547,0.20351719856262207,-1.384398341178894,0.005531395319849253,-0.5025940537452698,0.1665140837430954,1.3344250917434692,0.010490577667951584,0.5045014023780823,-0.20199130475521088,-0.5701152086257935,0.011635004542768002,0.25501641631126404,0.7581826448440552,-0.27455633878707886,-0.002815672429278493,-0.6334401369094849,-0.1665140837430954,0.05092698708176613,0.727664589881897,-0.2425203025341034,0.05887811258435249,-0.35390880703926086,-0.19726435840129852,-0.003112365258857608,0.12956157326698303,0.0029481565579771996,-0.10761429369449615,0.03948093205690384,-0.15641751885414124,0.011575882323086262,-0.0009529385715723038,-1.3518612384796143,2.6393003463745117,-0.10519487410783768,0.8650158643722534,-4.480398654937744,0.03820803761482239,0.003970343619585037,-0.5634845495223999,-0.3194754719734192,0.029463764280080795,1.484769344329834,-1.039615511894226,0.7889291048049927,1741522760.9150887,1741522759833,-5.5343056640625,0.8507631225585938,2.5204948532085907,-5.266044921875,-0.4256471252441406
1741522761.591328,-1.78058922290802,-0.03425497844742216,-0.09819376152884325,-0.9945775895566838,-0.12228552997112274,-0.08391479402780533,0.914017915725708,-1.1712682247161865,-1.7033840417861938,8.843038558959961,0.6761655807495117,0.3316926956176758,0.20313572883605957,-1.380202054977417,0.005531395319849253,-0.5041199326515198,0.1680399775505066,1.3344250917434692,0.010490577667951584,0.5045014023780823,-0.21953918039798737,-0.5254825949668884,0.002861066721379757,0.272945761680603,0.6685358881950378,-0.27505260705947876,-0.004047933500260115,-0.6525139212608337,-0.16384375095367432,0.049782559275627136,0.7639048099517822,-0.2649036645889282,0.07054921984672546,-0.46064648032188416,-0.6765163540840149,-0.032411880791187286,0.26360398530960083,-0.0037841082084923983,-0.06417680531740189,0.11287890374660492,0.024684995412826538,0.0058645932003855705,-0.011435553431510925,-0.823406457901001,2.119198799133301,-0.363882839679718,0.9714943766593933,-4.338168144226074,-0.0034157978370785713,-0.06089254841208458,-0.9670976400375366,0.23349148035049438,-0.10101507604122162,1.881338357925415,-1.0459095239639282,0.5407274961471558,1741522760.9150887,1741522759833,-5.5343056640625,0.8507631225585938,2.5204948532085907,-5.266044921875,-0.4256471252441406
1741522761.6099806,-1.7603386640548706,-0.03276135055581389,-0.09288653513842557,-0.9951375711426722,-0.21266867220401764,0.15452328324317932,1.0671614408493042,-0.6131370663642883,4.0816192626953125,20.846677780151367,0.6666288375854492,0.3221559524536133,0.1985580176115036,-1.377150297164917,0.005531395319849253,-0.5037384629249573,0.16994735598564148,1.3348065614700317,0.010490577667951584,0.5033569931983948,-0.24166475236415863,-0.5029755234718323,0.004005493130534887,0.2817196846008301,0.6292439103126526,-0.25882452726364136,0.013912850059568882,-0.6727321147918701,-0.17338064312934875,0.05893797054886818,0.813115119934082,-0.28452983498573303,0.07619696110486984,-0.29269400238990784,-0.22081507742404938,-0.34572094678878784,0.19547440111637115,0.0030556817073374987,0.03736960515379906,0.12604853510856628,-0.0006383543368428946,-0.0006349010509438813,-0.09546533226966858,-1.0030776262283325,0.8462716341018677,-0.12376613169908524,0.4914003610610962,-0.991078794002533,1.0302059650421143,1.3167920112609863,-1.0059354305267334,-0.9685216546058655,0.7256492376327515,2.4253082275390625,-1.0240466594696045,0.18924272060394287,1741522760.9150887,1741522759833,-5.5343056640625,0.8507631225585938,2.5204948532085907,-5.266044921875,-0.4256471252441406
1741522761.629996,-1.7340179681777954,-0.035693881195938436,-0.09863810504676745,-0.9944830169882003,0.36296072602272034,-0.1184990406036377,1.2430092096328735,-2.2768940925598145,-0.4435477554798126,11.365281105041504,0.6628141403198242,0.3389406204223633,0.182154580950737,-1.380202054977417,0.005531395319849253,-0.501068115234375,0.17185473442077637,1.3359509706497192,0.010872052982449532,0.5033569931983948,-0.2454795092344284,-0.5079346895217896,-0.01201647985726595,0.26874953508377075,0.6307697892189026,-0.24087978899478912,0.03312511742115021,-0.6952391862869263,-0.164988175034523,0.09403372555971146,0.8432517051696777,-0.31427642703056335,0.050482653081417084,-0.08381717652082443,0.5923511981964111,-0.7894831299781799,-0.2692907154560089,-0.01573881320655346,0.0858117863535881,0.1550254076719284,0.06369518488645554,0.030365167185664177,0.007148703094571829,-0.2812485098838806,-0.3237658739089966,-0.5806668996810913,-0.7370583415031433,-0.30766788125038147,0.7914318442344666,0.37184780836105347,-1.0275682210922241,0.7986454367637634,1.7782962322235107,1.3757158517837524,-1.5575065612792969,-1.5154023170471191,1741522760.9150887,1741522759833,-5.5343056640625,0.8507631225585938,2.5204948532085907,-5.266044921875,-0.4256471252441406
1741522761.6500523,-1.7133840322494507,-0.03570596950298544,-0.10352217727609887,-0.99398603740388,0.23563680052757263,0.19991867244243622,0.9305015802383423,-0.8478814959526062,-4.088518142700195,15.874218940734863,0.6517505645751953,0.3377962112426758,0.17452506721019745,-1.3805835247039795,0.005149920005351305,-0.5022125840187073,0.17490653693675995,1.3370953798294067,0.010490577667951584,0.5029755234718323,-0.2725642919540405,-0.4987792670726776,-0.02193484455347061,0.25310903787612915,0.6174181699752808,-0.22939088940620422,0.017883535474538803,-0.7089722752571106,-0.12836651504039764,0.14667734503746033,0.8886472582817078,-0.35035234689712524,0.009365181438624859,-0.3574747145175934,0.038460198789834976,-0.2717553675174713,0.041041143238544464,-0.010652324184775352,-0.1115022599697113,0.21230795979499817,0.040123190730810165,-0.012371284887194633,-0.016375532373785973,-1.297582983970642,0.6850181818008423,-0.6400356888771057,-0.6273829936981201,-0.52906733751297,0.5335308909416199,-0.6215548515319824,-0.9337946176528931,1.8928641080856323,2.6804513931274414,2.548992872238159,-1.90744948387146,-2.113614320755005,1741522760.9150887,1741522759833,-5.5343056640625,0.8507631225585938,2.5204948532085907,-5.266044921875,-0.4256471252441406
1741522761.6700861,-1.6959329843521118,-0.03104282379645798,-0.10189705900021657,-0.9943104809152161,-0.0628921166062355,0.3388834297657013,0.8237994909286499,-2.6672897338867188,5.772809028625488,11.091980934143066,0.6403064727783203,0.3351259231567383,0.17338064312934875,-1.3752429485321045,0.005531395319849253,-0.506027340888977,0.17338064312934875,1.3420546054840088,0.010872052982449532,0.506027340888977,-0.2615014910697937,-0.49496451020240784,-0.030708782374858856,0.25234606862068176,0.6013962030410767,-0.22682441771030426,0.02286987006664276,-0.7455939650535583,-0.08907453715801239,0.200083926320076,0.954261064529419,-0.38682523369789124,-0.009150302037596703,-0.3466567397117615,-0.06767616420984268,-0.13866937160491943,0.38442906737327576,-0.0030862975399941206,-0.17575189471244812,-0.1651538461446762,0.5292629599571228,0.05242502689361572,0.2332993894815445,0.7806891798973083,-0.0488947257399559,-0.41490644216537476,-0.19529443979263306,-0.9009211659431458,0.06322863698005676,0.42175769805908203,-1.9290053844451904,2.073810338973999,2.3914859294891357,3.4036786556243896,-1.7333483695983887,-0.7176138758659363,1741522760.9150887,1741522759833,-5.5343056640625,0.8507631225585938,2.5204948532085907,-5.266044921875,-0.4256471252441406
1741522761.6900957,-1.6896435022354126,-0.02230105802217243,-0.10459308326312099,-0.9942650299314593,0.17282459139823914,0.5253303647041321,0.3585070073604584,4.835733890533447,-2.993046283721924,6.93384313583374,0.6334400177001953,0.3400850296020508,0.17071031033992767,-1.3664690256118774,0.005531395319849253,-0.5106050372123718,0.16422522068023682,1.3599839210510254,0.011635004542768002,0.5117494463920593,-0.25616082549095154,-0.4968718886375427,-0.04444190114736557,0.22335393726825714,0.5937666893005371,-0.21866649389266968,0.028494423255324364,-0.7799267768859863,-0.048638131469488144,0.21114671230316162,1.050011396408081,-0.4069157540798187,0.012905250303447247,-0.24275904893875122,0.11967220157384872,-0.07353726029396057,0.6242632269859314,-0.013123850338160992,-0.28877153992652893,-0.6356093883514404,1.1444932222366333,-0.02349332720041275,0.4005480110645294,0.2469254583120346,-0.1412939727306366,-0.8232190012931824,-1.5120432376861572,-0.33641159534454346,0.4760994613170624,0.007868723012506962,-1.733093500137329,1.9498933553695679,0.3801307678222656,4.910572052001953,-0.8796705603599548,1.1106841564178467,1741522760.9150887,1741522759833,-5.5343056640625,0.8507631225585938,2.5204948532085907,-5.266044921875,-0.4256471252441406
1741522761.7101142,-1.6821542978286743,-0.01782943268036417,-0.10394340970116459,-0.9944233901663778,-0.09675685316324234,0.2346629500389099,0.3617214560508728,0.22747063636779785,2.8377559185028076,9.371622085571289,0.6246662139892578,0.3454265594482422,0.17185473442077637,-1.358076572418213,0.005531395319849253,-0.5178530812263489,0.16193637251853943,1.3695207834243774,0.01125352829694748,0.5193789601325989,-0.21725031733512878,-0.5029755234718323,-0.05283436179161072,0.2138170450925827,0.5846112966537476,-0.21226997673511505,0.024360083043575287,-0.8363851308822632,-0.010109102353453636,0.20504310727119446,1.1545357704162598,-0.40766194462776184,0.010361479595303535,-0.3040701746940613,0.13310547173023224,0.05175076052546501,0.5357354879379272,-0.0020294501446187496,-0.35271233320236206,-0.04572172090411186,0.5624877214431763,-4.949391586706042e-05,0.4944230020046234,2.1757640838623047,-0.2146611511707306,-0.3511546552181244,-0.29734838008880615,-0.45674145221710205,0.3224632740020752,-0.07815302163362503,-2.9051525592803955,1.8970104455947876,-0.3790612816810608,5.182149410247803,0.08961254358291626,-0.35956642031669617,1741522760.9150887,1741522759833,-5.5343056640625,0.8507631225585938,2.5204948532085907,-5.266044921875,-0.4256471252441406
1741522761.7301095,-1.6808148622512817,-0.01118798402377673,-0.10265825031505764,-0.9946537652146775,-0.00698045315220952,0.35811954736709595,0.09887644648551941,2.8474249839782715,-3.5986297130584717,6.476753234863281,0.6036853790283203,0.3492412567138672,0.17223620414733887,-1.3508285284042358,0.005149920005351305,-0.5262455344200134,0.16193637251853943,1.3782947063446045,0.011635004542768002,0.5273899435997009,-0.2145799994468689,-0.506027340888977,-0.05664911866188049,0.19436179101467133,0.5880445837974548,-0.2038649469614029,0.024810604751110077,-0.8798733353614807,0.013542382046580315,0.19207294285297394,1.2453268766403198,-0.3970756232738495,-0.0016742205480113626,-0.6108192205429077,0.07242146879434586,0.037471119314432144,0.4247550070285797,0.0011931204935535789,-0.49003809690475464,0.02523399516940117,0.47217637300491333,0.021691272035241127,0.5321999192237854,-0.06419002264738083,-0.20179615914821625,-0.23704411089420319,-1.1301230192184448,0.20945172011852264,0.39169302582740784,-0.03713530674576759,-2.019235134124756,1.079012155532837,-0.8043500185012817,4.321106910705566,0.5666967630386353,-0.3492136001586914,1741522760.9150887,1741522759833,-5.5343056640625,0.8507631225585938,2.5204948532085907,-5.266044921875,-0.4256471252441406
1741522761.7501974,-1.6711705923080444,-0.013379591834497159,-0.10222962226702959,-0.9946708454828073,-0.036502011120319366,-0.10461197793483734,0.38959965109825134,-4.564453601837158,-0.0880095511674881,8.367594718933105,0.5918588638305664,0.3618297576904297,0.17376211285591125,-1.3470137119293213,0.005531395319849253,-0.5285343527793884,0.1668955534696579,1.379439115524292,0.01125352829694748,0.535400927066803,-0.18749523162841797,-0.5186160206794739,-0.05970092490315437,0.19321736693382263,0.5903334021568298,-0.20094048976898193,0.022232284769415855,-0.9130617380142212,0.050164032727479935,0.1813916265964508,1.2876707315444946,-0.37897396087646484,0.007071041502058506,-0.3785642385482788,0.3755747377872467,0.060215938836336136,0.26705363392829895,-0.017321746796369553,-0.08317448198795319,0.3400793671607971,0.049113642424345016,0.0021047533955425024,0.42787671089172363,1.469640851020813,-0.5569494962692261,-0.0497983954846859,0.014529094099998474,0.15035730600357056,0.08341825008392334,-0.057463981211185455,-1.4294015169143677,1.754992127418518,-0.3992729187011719,1.5964908599853516,0.9441386461257935,0.46515586972236633,1741522760.9150887,1741522759833,-5.5343056640625,0.8507631225585938,2.5204948532085907,-5.266044921875,-0.4256471252441406
1741522761.7705436,-1.6652971506118774,-0.012344586967631422,-0.10144240892114402,-0.9947648208721868,-0.0034556041937321424,0.08126475661993027,0.37204504013061523,1.2577791213989258,-5.437058925628662,3.226238250732422,0.5724039077758789,0.3618297576904297,0.17605096101760864,-1.3458693027496338,0.005149920005351305,-0.5273899435997009,0.17109178006649017,1.378676176071167,0.011635004542768002,0.536926805973053,-0.20847637951374054,-0.5239566564559937,-0.06008239835500717,0.17643244564533234,0.6025406122207642,-0.2023279219865799,0.02078872174024582,-0.8985656499862671,0.0722896158695221,0.17833982408046722,1.269741415977478,-0.3632497787475586,0.0030067276675254107,-0.5378943681716919,0.09053272753953934,0.11105358600616455,0.07965632528066635,0.00013643695274367929,0.06912849843502045,0.2841408848762512,-0.07038850337266922,0.0023553811479359865,0.09669023752212524,-1.0821163654327393,-0.32335925102233887,-0.08064955472946167,-0.8946021199226379,0.6261473894119263,-0.11057501286268234,-0.10229583829641342,1.0973098278045654,1.0201913118362427,-0.024784032255411148,-1.4211578369140625,0.7096226811408997,-0.36509186029434204,1741522760.9150887,1741522759833,-5.5343056640625,0.8507631225585938,2.5204948532085907,-5.266044921875,-0.4256471252441406
1741522761.790496,-1.6405843496322632,-0.017236325407907243,-0.09852954930393405,-0.9949848425983163,-0.1579897105693817,-0.20052756369113922,1.0921117067337036,-16.209924697875977,9.885885238647461,8.0249605178833,0.5586709976196289,0.3652629852294922,0.17071031033992767,-1.3458693027496338,0.005149920005351305,-0.5277714133262634,0.17833982408046722,1.376387357711792,0.010872052982449532,0.5407415628433228,-0.200083926320076,-0.54417484998703,-0.06084534898400307,0.18787670135498047,0.6166552305221558,-0.21979878842830658,0.023439548909664154,-0.8665217161178589,0.09021896868944168,0.18863965570926666,1.1804760694503784,-0.3592130243778229,-0.005442584864795208,-0.3814377188682556,0.13139429688453674,-0.3999447226524353,0.024529296904802322,-0.0569494254887104,-0.0648823156952858,0.5583446025848389,-0.22787681221961975,0.015907777473330498,0.26087936758995056,0.39893046021461487,-0.8444688320159912,-0.023415355011820793,0.6069532632827759,0.8805071115493774,-0.9756783843040466,0.36226513981819153,1.546798825263977,0.6452069878578186,0.549024224281311,-5.057417392730713,0.054929669946432114,-0.25127333402633667,1741522760.9150887,1741522759833,-5.5343056640625,0.8507631225585938,2.5204948532085907,-5.266044921875,-0.4256471252441406
1741522761.8104882,-1.625207543373108,-0.012526083045879037,-0.09476701000773345,-0.9954206703990639,-0.11761386692523956,0.3277595043182373,1.0089737176895142,-0.31182000041007996,17.75193977355957,3.1909027099609375,0.5384531021118164,0.3542003631591797,0.16346226632595062,-1.3435804843902588,0.005531395319849253,-0.5327305793762207,0.18940261006355286,1.3710466623306274,0.011635004542768002,0.5430304408073425,-0.22068360447883606,-0.5613412857055664,-0.06237125024199486,0.1810101419687271,0.6525139212608337,-0.24733512103557587,0.028078749775886536,-0.7940413355827332,0.08487831056118011,0.20122835040092468,1.0393301248550415,-0.3772943913936615,-0.0018034405075013638,-0.6178950667381287,-0.3162953555583954,-0.29013335704803467,0.15790078043937683,0.04037746414542198,-0.30517709255218506,0.7885358929634094,-0.32958030700683594,-0.011973573826253414,0.1969120353460312,-0.7572104930877686,-0.9065575003623962,0.009884807281196117,-0.5293554067611694,1.7559069395065308,-1.4718873500823975,-0.04304579645395279,3.658128261566162,-0.329669326543808,0.5667704939842224,-7.185501575469971,-1.098386287689209,0.10789504647254944,1741522760.9150887,1741522759833,-5.5343056640625,0.8507631225585938,2.5204948532085907,-5.266044921875,-0.4256471252441406
1741522761.830529,-1.5931655168533325,-0.013711025647384181,-0.09794809817112468,-0.9950970695567124,0.23033156991004944,0.09772025048732758,1.4699989557266235,-12.142478942871094,12.504158973693848,12.261184692382812,0.5369272232055664,0.3519115447998047,0.15659570693969727,-1.3435804843902588,0.005149920005351305,-0.5445563197135925,0.20237277448177338,1.367613434791565,0.010872052982449532,0.5498970150947571,-0.20847637951374054,-0.5876630544662476,-0.071908138692379,0.20084688067436218,0.6879911422729492,-0.27923092246055603,0.027726560831069946,-0.7391088604927063,0.06275273114442825,0.22411687672138214,0.8695735335350037,-0.40527158975601196,0.003733441000804305,-0.15879450738430023,-0.08965447545051575,-0.3553900718688965,-0.022335095331072807,-0.021996647119522095,-0.6260924935340881,0.856557309627533,-0.27299028635025024,0.03145850822329521,0.4039722681045532,0.4746367931365967,-1.1769461631774902,-0.5802498459815979,1.3020141124725342,1.87112557888031,-1.541243076324463,0.28449952602386475,2.3988959789276123,-1.2910393476486206,1.1465905904769897,-7.9503631591796875,-0.7077701687812805,0.7298087477684021,1741522760.9150887,1741522759833,-5.5343056640625,0.8507631225585938,2.5204948532085907,-5.266044921875,-0.4256471252441406
1741522761.8505485,-1.579206109046936,-0.006954048124488716,-0.10595433935123112,-0.9943466795777649,0.2853940725326538,0.4342621862888336,0.7191104292869568,-12.381742477416992,11.599870681762695,11.755241394042969,0.5266265869140625,0.3519115447998047,0.15468832850456238,-1.3542617559432983,0.005912871100008488,-0.5628671646118164,0.21152819693088531,1.3557876348495483,0.01125352829694748,0.5544747114181519,-0.22411687672138214,-0.5941481590270996,-0.06427863240242004,0.2145799994468689,0.7173647880554199,-0.30480116605758667,0.040801040828228,-0.7387273907661438,0.06237125024199486,0.19092851877212524,0.9039062857627869,-0.36769571900367737,0.028450781479477882,-0.2824254035949707,-0.0750623419880867,-0.021715329959988594,-0.8579292297363281,0.046571243554353714,-0.9202542901039124,0.551472008228302,-0.8144058585166931,-0.030403433367609978,0.22754448652267456,-0.8810437321662903,-0.18702483177185059,0.559806764125824,0.8366119265556335,0.9713605642318726,-1.3548002243041992,0.15053808689117432,-0.6052832007408142,-0.49794214963912964,-1.3856669664382935,1.8137598037719727,1.7056831121444702,1.267980694770813,1741522760.9150887,1741522759833,-5.5343056640625,0.8507631225585938,2.5204948532085907,-5.266044921875,-0.4256471252441406
1741522761.8706105,-1.570625901222229,-0.0077811187957822275,-0.10642936104780319,-0.9942898195683402,0.12730181217193604,-0.06821349263191223,0.458061546087265,-5.822112083435059,10.82508373260498,5.964588165283203,0.491912841796875,0.3561077117919922,0.15926603972911835,-1.3573135137557983,0.005149920005351305,-0.5827038884162903,0.21686884760856628,1.3435804843902588,0.01125352829694748,0.5636301040649414,-0.200083926320076,-0.5907148718833923,-0.05130846053361893,0.2508201599121094,0.7059205174446106,-0.33670589327812195,0.00533655472099781,-0.7555122971534729,0.006294346414506435,0.20771344006061554,0.8722438216209412,-0.3450019657611847,0.027280226349830627,-0.9764789938926697,0.039925891906023026,0.2575550377368927,-0.09401796013116837,-0.00029964972054585814,-1.0253064632415771,0.2973836362361908,-0.7985181212425232,0.02792486920952797,0.709341287612915,1.5278418064117432,0.3782174587249756,0.5147822499275208,1.7769790887832642,-0.704498827457428,-1.5773249864578247,-1.8181451559066772,-0.42147934436798096,-2.3116748332977295,0.5118870139122009,-2.166747808456421,0.9729816317558289,0.13872814178466797,1741522760.9150887,1741522759833,-5.5343056640625,0.8507631225585938,2.5204948532085907,-5.266044921875,-0.4256471252441406
1741522761.890574,-1.5672434568405151,-0.00631896811177642,-0.11904101579862746,-0.9928692296569741,0.7582990527153015,0.1661718338727951,0.24973143637180328,-2.5835299491882324,-25.931962966918945,11.369384765625,0.5048828125,0.3549633026123047,0.17605096101760864,-1.364943027496338,0.005531395319849253,-0.6036850810050964,0.21686884760856628,1.3290843963623047,0.01125352829694748,0.5842298269271851,-0.22259098291397095,-0.577744722366333,-0.04787518084049225,0.28591591119766235,0.7108796834945679,-0.35834747552871704,0.007676960434764624,-0.7001983523368835,-0.012397955171763897,0.1825360506772995,0.848210871219635,-0.328808069229126,0.014375975355505943,0.331443190574646,-0.04938993230462074,0.9452034831047058,-0.6659120917320251,0.0010848498204723,-0.9494415521621704,-0.04525061696767807,-1.0365502834320068,-0.01614205352962017,1.392402172088623,-1.3939433097839355,0.8262844085693359,0.26560673117637634,1.5280025005340576,0.6176173090934753,-1.020683765411377,0.4881725013256073,2.434739112854004,-0.7645124793052673,-0.9733211994171143,-0.8003012537956238,0.7760729789733887,-1.0063265562057495,1741522761.940442,1741522760833,-5.5142763671875,0.6859344482421875,2.765810587104206,-4.62908349609375,-1.4435760498046875
1741522761.910589,-1.5465360879898071,-0.01285470168996439,-0.12731231771975418,-0.9917793758701007,0.3617366850376129,-0.24013009667396545,0.9806069731712341,-1.8547453880310059,3.8540024757385254,11.830339431762695,0.4625387191772461,0.3538188934326172,0.19169145822525024,-1.3710466623306274,0.004386968910694122,-0.6235218048095703,0.2145799994468689,1.313443899154663,0.010490577667951584,0.6055924296379089,-0.21915769577026367,-0.5766003131866455,-0.023460745811462402,0.31795987486839294,0.7486457824707031,-0.3710353672504425,0.009618453681468964,-0.7089722752571106,-0.02841992862522602,0.1981765478849411,0.8230335116386414,-0.3191206753253937,0.007545613683760166,-1.2361589670181274,0.13777059316635132,0.628339409828186,-0.1116010993719101,-0.10870589315891266,-1.0352941751480103,-0.1855987310409546,-0.9933960437774658,0.03920017182826996,1.5011789798736572,0.07102368026971817,-0.4577763080596924,1.3289180994033813,1.589179277420044,1.926457166671753,-0.580254077911377,-0.332032173871994,-0.03913184627890587,-0.7024643421173096,0.5929656624794006,-1.0006299018859863,0.5181747674942017,0.21686053276062012,1741522761.940442,1741522760833,-5.5142763671875,0.6859344482421875,2.765810587104206,-4.62908349609375,-1.4435760498046875
1741522761.9308493,-1.521748661994934,-0.013183135491041022,-0.13291549915142803,-0.9910396939698992,0.3191052973270416,0.2937191128730774,1.3859448432922363,27.69134521484375,15.916345596313477,2.2193093299865723,0.4533834457397461,0.3377962112426758,0.1958876997232437,-1.362654209136963,0.005912871100008488,-0.648699164390564,0.21229113638401031,1.3000922203063965,0.01201647985726595,0.6303883194923401,-0.25196459889411926,-0.6055924296379089,0.000572213320992887,0.343137264251709,0.812352180480957,-0.3679046332836151,-0.010062283836305141,-0.6582360863685608,-0.029182879254221916,0.1825360506772995,0.8146410584449768,-0.31312787532806396,0.01643887534737587,-0.3234611749649048,-0.4058149755001068,0.1611609160900116,0.4196487069129944,0.1175871416926384,-1.2764546871185303,-0.018384700641036034,-0.8991198539733887,0.03679478541016579,1.6806710958480835,-1.2685250043869019,-1.1324529647827148,1.0337170362472534,1.1233347654342651,3.414299964904785,0.28784608840942383,-0.7491590976715088,2.0108251571655273,0.016021843999624252,-0.6757103800773621,-0.7554222941398621,0.17131948471069336,0.06921923160552979,1741522761.940442,1741522760833,-5.5142763671875,0.6859344482421875,2.765810587104206,-4.62908349609375,-1.4435760498046875
1741522761.950855,-1.4828399419784546,-0.025787551149916817,-0.1289189248047351,-0.9913197834366473,-0.18042632937431335,-0.43169695138931274,1.8230055570602417,-2.343627691268921,1.5725204944610596,10.365945816040039,0.4259176254272461,0.3313112258911133,0.19245441257953644,-1.3550246953964233,0.004005493130534887,-0.6742580533027649,0.22030213475227356,1.291699767112732,0.010490577667951584,0.647173285484314,-0.2500572204589844,-0.6322957277297974,0.01888304017484188,0.3557259440422058,0.8924620151519775,-0.35186442732810974,-0.002754625165835023,-0.6597619652748108,-0.03452353551983833,0.19169145822525024,0.7799267768859863,-0.3138648271560669,0.010189373977482319,-0.9629819989204407,-0.21256394684314728,-0.13386408984661102,0.5725740790367126,-0.16762882471084595,-1.3265715837478638,0.5682666301727295,-0.4715783894062042,0.009388739243149757,1.0868624448776245,0.20446494221687317,-1.3200401067733765,0.921001672744751,0.5319279432296753,3.7114524841308594,0.872259259223938,0.4556300640106201,0.16606947779655457,-0.3102726638317108,0.3547283411026001,-1.2467913627624512,0.04380766674876213,0.08232351392507553,1741522761.940442,1741522760833,-5.5142763671875,0.6859344482421875,2.765810587104206,-4.62908349609375,-1.4435760498046875
1741522761.9708931,-1.4615212678909302,-0.029558124692684835,-0.11956389670238174,-0.9923864125782829,-0.3838310241699219,0.02266399934887886,1.1043835878372192,9.82283878326416,-3.7903547286987305,7.534242630004883,0.4217214584350586,0.3114748001098633,0.20160982012748718,-1.3451063632965088,0.005149920005351305,-0.699053943157196,0.2161058932542801,1.287885069847107,0.011635004542768002,0.6605249047279358,-0.2645532786846161,-0.6513695120811462,0.0398641936480999,0.36297398805618286,0.9451056718826294,-0.3260170519351959,0.001114577054977417,-0.6063553690910339,-0.040245670825242996,0.1825360506772995,0.7738231420516968,-0.3185935318470001,0.010259129106998444,-0.19125154614448547,-0.5836510062217712,0.5808604955673218,0.7509966492652893,0.09864763170480728,-1.1963263750076294,-0.4671832025051117,-0.2771444320678711,0.04070408642292023,0.9986939430236816,-0.6438382863998413,-0.9598209857940674,1.0687875747680664,0.2690460979938507,2.3309762477874756,1.276434302330017,0.05432915315032005,2.7287635803222656,-0.36980170011520386,-0.4815758168697357,-0.5039114356040955,-0.33904334902763367,-0.1925266832113266,1741522761.940442,1741522760833,-5.5142763671875,0.6859344482421875,2.765810587104206,-4.62908349609375,-1.4435760498046875
1741522761.9908805,-1.4421902894973755,-0.040480085306429624,-0.10932485016292126,-0.9931814737652123,-0.46658259630203247,-0.5327644348144531,0.8570771217346191,-5.5462164878845215,16.98287010192871,8.117868423461914,0.4148550033569336,0.3130006790161133,0.22297245264053345,-1.3328990936279297,0.005531395319849253,-0.7127870321273804,0.1970321238040924,1.2844517230987549,0.010872052982449532,0.6765468716621399,-0.24052032828330994,-0.6532768607139587,0.06313420087099075,0.3583962619304657,0.9733348488807678,-0.30514776706695557,9.491493983659893e-05,-0.6021591424942017,-0.05359731614589691,0.17452506721019745,0.7433050870895386,-0.32841697335243225,0.011256069876253605,-0.23465803265571594,0.024917004629969597,1.1556488275527954,0.7591935992240906,-0.04709333926439285,-0.5707118511199951,-1.356784701347351,-0.1841406375169754,-0.005838902201503515,0.973105788230896,1.1322152614593506,0.02785051427781582,1.122365117073059,-0.17280279099941254,1.1805967092514038,0.9396501183509827,-0.009224338456988335,0.22814267873764038,-0.5942862629890442,-0.49787846207618713,-1.230629801750183,-0.38732752203941345,0.34499531984329224,1741522761.940442,1741522760833,-5.5142763671875,0.6859344482421875,2.765810587104206,-4.62908349609375,-1.4435760498046875
1741522762.0108874,-1.4417730569839478,-0.042122727425369946,-0.10417255609878888,-0.9936668226272288,-0.21058516204357147,-0.055227603763341904,0.17712999880313873,-12.513757705688477,11.078531265258789,9.785982131958008,0.4030284881591797,0.2958345413208008,0.25196459889411926,-1.3306102752685547,0.005912871100008488,-0.7257572412490845,0.16956588625907898,1.2836887836456299,0.011635004542768002,0.6940947771072388,-0.25196459889411926,-0.656710147857666,0.08258945494890213,0.3580147922039032,0.9752422571182251,-0.2956310212612152,0.00144603056833148,-0.5563820600509644,-0.07915617525577545,0.15697719156742096,0.7471198439598083,-0.3419722318649292,0.01788286305963993,-0.4225647747516632,-0.5312092304229736,1.5819324254989624,0.18384867906570435,0.17262275516986847,-0.6889061331748962,-1.8307573795318604,-0.06874752789735794,0.00787477195262909,1.2277452945709229,-0.6464468240737915,-0.17440122365951538,0.7636979818344116,0.01285406481474638,-0.02167893387377262,0.390155553817749,0.041887316852808,2.0974984169006348,-1.3463910818099976,-0.856253445148468,-0.11447189748287201,-0.8542881608009338,0.19134321808815002,1741522762.042366,1741522760933,-5.520224609375,0.6822798461914062,2.7717270342170433,-4.5737470703125,-1.5262193603515626
1741522762.030962,-1.436350703239441,-0.04726747991359533,-0.10337869069381533,-0.9935183096717696,-0.03478808328509331,-0.31635212898254395,0.3189024329185486,-18.124279022216797,21.300992965698242,14.203398704528809,0.3953990936279297,0.2927827835083008,0.2801937758922577,-1.3252695798873901,0.004386968910694122,-0.7379644513130188,0.13981078565120697,1.2783480882644653,0.009727626107633114,0.7162203192710876,-0.2298390120267868,-0.6422140598297119,0.09250781685113907,0.3561074137687683,0.9714275002479553,-0.2974238991737366,0.0037719944957643747,-0.5674448609352112,-0.09060044586658478,0.14095520973205566,0.7295719981193542,-0.35899618268013,0.04354677349328995,-0.24585233628749847,-0.2068396359682083,1.303199291229248,0.3637910485267639,-0.13517673313617706,-0.5082449316978455,-2.0493757724761963,-0.46885472536087036,-0.08598089218139648,1.4389830827713013,0.9712190628051758,0.7245799899101257,0.4640911817550659,-0.12176260352134705,-0.1641746461391449,-0.15558812022209167,0.10319803655147552,-0.4743765592575073,-0.5056867003440857,-0.770320475101471,-0.5388774275779724,-0.6886292099952698,1.4080860614776611,1741522762.042366,1741522760933,-5.520224609375,0.6822798461914062,2.7717270342170433,-4.5737470703125,-1.5262193603515626
1741522762.0509233,-1.4415746927261353,-0.04130434589958229,-0.10271471883792589,-0.993852925509531,-0.018109841272234917,0.29359138011932373,-0.029949471354484558,0.160468190908432,12.397602081298828,10.299102783203125,0.3721294403076172,0.2698936462402344,0.30270084738731384,-1.3248881101608276,0.00667582219466567,-0.7528420090675354,0.11158160120248795,1.2680482864379883,0.012397955171763897,0.7387273907661438,-0.2618829607963562,-0.6387808322906494,0.10051880776882172,0.3545815348625183,0.9569314122200012,-0.3049795627593994,0.0005181707674637437,-0.541886031627655,-0.11120012402534485,0.13103684782981873,0.7406347990036011,-0.3739289939403534,0.05266924947500229,-0.7100145816802979,-0.7580258846282959,1.0851672887802124,0.023041801527142525,0.19584263861179352,-0.8111069798469543,-1.8156930208206177,-0.657616913318634,0.1798640787601471,1.5272074937820435,-1.4295203685760498,-0.016014741733670235,0.5093310475349426,-0.05318818986415863,-0.9995742440223694,-0.431339830160141,-0.2462102770805359,1.1374330520629883,-0.9342870712280273,-0.5184264183044434,0.3293321132659912,-0.8799711465835571,0.25355100631713867,1741522762.042366,1741522760933,-5.520224609375,0.6822798461914062,2.7717270342170433,-4.5737470703125,-1.5262193603515626
1741522762.0709658,-1.427707552909851,-0.043684706344255,-0.10208128579965751,-0.9938164103701975,-0.018195318058133125,-0.14800485968589783,0.6352968215942383,12.67444896697998,7.417551040649414,3.962547779083252,0.3580150604248047,0.2668418884277344,0.31834134459495544,-1.318021535873413,0.0036240178160369396,-0.7681010365486145,0.09174486994743347,1.2600373029708862,0.010109102353453636,0.7642862796783447,-0.26684215664863586,-0.6212329268455505,0.10891126841306686,0.35152971744537354,0.9157320261001587,-0.3235552906990051,0.0013289146590977907,-0.5613412857055664,-0.11730372905731201,0.12722209095954895,0.7352941036224365,-0.38928893208503723,0.06590982526540756,-0.46416863799095154,-0.1866258978843689,0.676334023475647,0.519869327545166,-0.27106642723083496,-0.678772509098053,-1.2491956949234009,-0.5646992325782776,-0.1041736900806427,1.6493710279464722,-0.423829585313797,1.1866413354873657,0.37644562125205994,-0.24201230704784393,-2.1444852352142334,-0.9808235764503479,0.10358183085918427,-1.07423734664917,-0.27054211497306824,-0.17152372002601624,-0.0980728268623352,-0.7033748030662537,0.9476146697998047,1741522762.042366,1741522760933,-5.520224609375,0.6822798461914062,2.7717270342170433,-4.5737470703125,-1.5262193603515626
1741522762.0909905,-1.4216526746749878,-0.042398588096581036,-0.10059825194352658,-0.9940233153368805,-0.03506077080965042,0.13008148968219757,0.5571417808532715,1.4445271492004395,26.652339935302734,11.175644874572754,0.3374147415161133,0.2599754333496094,0.3244449496269226,-1.312680959701538,0.005912871100008488,-0.7864118218421936,0.08182650804519653,1.2558410167694092,0.01201647985726595,0.7856488823890686,-0.31795987486839294,-0.5888075232505798,0.11120012402534485,0.36373692750930786,0.848210871219635,-0.35050728917121887,0.004958869889378548,-0.536163866519928,-0.1325627565383911,0.11959258466959,0.7513160705566406,-0.40186402201652527,0.07178497314453125,-0.6400366425514221,-0.17264440655708313,0.25577184557914734,0.315427303314209,0.23830373585224152,-0.9870195984840393,-0.5484926700592041,-0.19929611682891846,0.14162300527095795,1.4516873359680176,-2.2281384468078613,1.6643424034118652,0.11105284094810486,0.8738049268722534,-3.623593330383301,-1.4184458255767822,0.011695547960698605,1.3154535293579102,-0.6746234893798828,-0.34801578521728516,0.7455287575721741,-0.6884161233901978,-0.02512146160006523,1741522762.042366,1741522760933,-5.520224609375,0.6822798461914062,2.7717270342170433,-4.5737470703125,-1.5262193603515626
1741522762.1110039,-1.3935967683792114,-0.04715496019318739,-0.09544897078556407,-0.9943168024855837,-0.27135464549064636,-0.13488063216209412,1.3386414051055908,2.616421699523926,-2.0848705768585205,10.086798667907715,0.3278779983520508,0.2592124938964844,0.31910428404808044,-1.302762508392334,0.005149920005351305,-0.8062485456466675,0.08220797777175903,1.2554595470428467,0.009727626107633114,0.8100633025169373,-0.33474478125572205,-0.5334935784339905,0.11463340371847153,0.38090333342552185,0.7558938264846802,-0.38958215713500977,0.005146766547113657,-0.5518043637275696,-0.13752193748950958,0.11692225188016891,0.7467383742332458,-0.414436399936676,0.0762941837310791,-0.3101870119571686,-0.026141082867980003,-0.33504292368888855,0.7684080004692078,-0.2562854290008545,-0.9479475021362305,0.13649487495422363,-0.02866526134312153,-0.05845480039715767,1.6069934368133545,-0.7630828619003296,2.704643964767456,0.1849604696035385,0.9964107275009155,-4.756773471832275,-2.07279634475708,0.03583840653300285,-0.8990957736968994,-0.2820416986942291,-0.16941484808921814,-0.12079949676990509,-0.5607815980911255,0.5545075535774231,1741522762.042366,1741522760933,-5.520224609375,0.6822798461914062,2.7717270342170433,-4.5737470703125,-1.5262193603515626
1741522762.1310515,-1.3704835176467896,-0.042965369497616174,-0.08437573650915509,-0.9955072637165794,-0.5361050963401794,0.4760132431983948,1.2198227643966675,-3.126005172729492,-21.569807052612305,13.042518615722656,0.3011751174926758,0.24547958374023438,0.308804452419281,-1.2905553579330444,0.004005493130534887,-0.8291370868682861,0.09021896868944168,1.2543151378631592,0.01201647985726595,0.8299000263214111,-0.37823301553726196,-0.4953460097312927,0.11310750246047974,0.4018844962120056,0.6525139212608337,-0.4305841326713562,-0.0022035520523786545,-0.5163271427154541,-0.1333257108926773,0.10585946589708328,0.770008385181427,-0.4221148192882538,0.08054669201374054,-0.7662397623062134,-0.39922255277633667,-0.527044415473938,0.8259028792381287,0.041941579431295395,-1.1433343887329102,0.6274128556251526,-0.1140817254781723,0.1325409710407257,1.3697257041931152,-1.7661157846450806,1.9695128202438354,-0.12820033729076385,0.8942363858222961,-4.790262222290039,-1.777404546737671,-0.6342331171035767,1.8159748315811157,0.39002618193626404,-0.5357235670089722,1.1576600074768066,-0.4208100736141205,-0.14715446531772614,1741522762.042366,1741522760933,-5.520224609375,0.6822798461914062,2.7717270342170433,-4.5737470703125,-1.5262193603515626
1741522762.151067,-1.3276880979537964,-0.040999707795069534,-0.07057777205940033,-0.9966633343571188,-0.5270634293556213,0.11425777524709702,1.956533432006836,7.745248794555664,-11.274970054626465,15.212512016296387,0.2973604202270508,0.24967575073242188,0.2904936373233795,-1.2752963304519653,0.005912871100008488,-0.8436331748962402,0.10738536715507507,1.2524077892303467,0.008964675478637218,0.8497368097305298,-0.3751811981201172,-0.4671168029308319,0.10929274559020996,0.40989547967910767,0.6506065726280212,-0.428175151348114,-0.006036721635609865,-0.5254825949668884,-0.12836651504039764,0.12607766687870026,0.7681010365486145,-0.4279739260673523,0.06466203182935715,-0.1598939299583435,0.17804467678070068,-1.07187819480896,1.026653528213501,0.015509757213294506,-0.593641459941864,1.2137078046798706,-0.11207335442304611,-0.15992987155914307,1.154258131980896,0.14889079332351685,0.8616222143173218,-0.2825113832950592,0.1160726472735405,0.12298113107681274,-0.1979227513074875,0.36167100071907043,-0.2879888117313385,0.08750651776790619,1.3705729246139526,-0.20961816608905792,-0.3258987069129944,-0.8919051885604858,1741522762.042366,1741522760933,-5.520224609375,0.6822798461914062,2.7717270342170433,-4.5737470703125,-1.5262193603515626
1741522762.171093,-1.294984221458435,-0.04661732218108061,-0.06698028759183229,-0.9966646709634995,-0.10859543085098267,-0.18151350319385529,1.7293357849121094,-3.0479655265808105,-4.222989082336426,7.68701171875,0.2927827835083008,0.2737083435058594,0.2626459002494812,-1.2726260423660278,0.005912871100008488,-0.8615625500679016,0.13141833245754242,1.2505004405975342,0.013160906732082367,0.8661402463912964,-0.3919661343097687,-0.4682612419128418,0.09746700525283813,0.36411839723587036,0.6483176946640015,-0.43821850419044495,0.010510588064789772,-0.4724574685096741,-0.09212634712457657,0.1676585078239441,0.7883192300796509,-0.44051945209503174,0.013747689314186573,-0.13402877748012543,0.7551885843276978,-1.3463704586029053,0.08197012543678284,0.028849072754383087,-0.916874885559082,1.6539804935455322,-0.15730100870132446,0.26498526334762573,1.1181714534759521,-0.9214642643928528,0.36347800493240356,-0.6685410141944885,-2.4940104484558105,-0.12085572630167007,-0.5505483150482178,0.28410112857818604,2.738565683364868,1.9051696062088013,2.132735013961792,1.2722141742706299,-0.5405886173248291,-2.542712450027466,1741522762.042366,1741522760933,-5.520224609375,0.6822798461914062,2.7717270342170433,-4.5737470703125,-1.5262193603515626
1741522762.1910682,-1.2604411840438843,-0.04805603877133623,-0.062243143590292246,-0.9969034096709702,-0.26449909806251526,0.046402569860219955,1.602736234664917,-21.796342849731445,-17.675888061523438,9.641670227050781,0.2866792678833008,0.2679862976074219,0.22678720951080322,-1.2691926956176758,0.005149920005351305,-0.8802548050880432,0.15430685877799988,1.2543151378631592,0.01201647985726595,0.8867399096488953,-0.36449989676475525,-0.4377431869506836,0.06961929053068161,0.31414511799812317,0.6403067111968994,-0.4470718801021576,0.0024949582293629646,-0.4892423748970032,-0.037193864583969116,0.23632410168647766,0.8329518437385559,-0.4446530044078827,0.0014337789034470916,-0.18662749230861664,-0.06599767506122589,-1.7630363702774048,0.3042369782924652,-0.026276633143424988,-1.0608558654785156,1.4817763566970825,0.28646862506866455,-0.09789782762527466,1.3500540256500244,1.2731561660766602,1.4419053792953491,-1.6660230159759521,-2.260195255279541,-0.3331958055496216,-0.3358928859233856,-0.2940363585948944,-1.5826250314712524,2.735109806060791,3.4325051307678223,2.519538640975952,-0.12620174884796143,-0.0004725341859739274,1741522762.042366,1741522760933,-5.520224609375,0.6822798461914062,2.7717270342170433,-4.5737470703125,-1.5262193603515626
1741522762.2111096,-1.246367335319519,-0.043364839680724916,-0.05795556119292508,-0.9973768814276166,-0.02753884345293045,0.2743200957775116,0.9227759838104248,3.621859312057495,-7.123935699462891,7.095071792602539,0.2679862976074219,0.2637901306152344,0.1993209719657898,-1.2638521194458008,0.005531395319849253,-0.8989471197128296,0.1646067053079605,1.2608002424240112,0.013160906732082367,0.9092469811439514,-0.3564889132976532,-0.4331654906272888,0.04406042397022247,0.2744716703891754,0.6353475451469421,-0.44811156392097473,0.003152495715767145,-0.5140383243560791,0.015449759550392628,0.2725642919540405,0.9538795948028564,-0.44262316823005676,0.008885611779987812,-0.5366445779800415,-0.194324791431427,-1.279610514640808,0.448954701423645,0.05839979648590088,-0.7710133790969849,0.8153990507125854,0.2680710554122925,0.012605728581547737,1.5249276161193848,0.5509366393089294,0.24891021847724915,-1.243144154548645,-1.8758668899536133,-0.20081497728824615,-0.030343230813741684,0.08794097602367401,-1.4800630807876587,2.858400344848633,1.2326594591140747,6.525113105773926,0.11334926635026932,0.14090363681316376,1741522762.042366,1741522760933,-5.520224609375,0.6822798461914062,2.7717270342170433,-4.5737470703125,-1.5262193603515626
1741522762.231161,-1.2403196096420288,-0.042488688657892015,-0.05741221080624053,-0.9974460132691255,0.006912319455295801,0.05173024535179138,-0.13029418885707855,-8.51077938079834,9.92420482635498,8.272869110107422,0.2729454040527344,0.2725639343261719,0.16346226632595062,-1.2535521984100342,0.0036240178160369396,-0.9164950251579285,0.18635080754756927,1.2604187726974487,0.010109102353453636,0.9309910535812378,-0.31452658772468567,-0.4331654906272888,0.025749599561095238,0.2611200213432312,0.6330586671829224,-0.44909313321113586,0.011046787723898888,-0.5952925682067871,0.07000076025724411,0.2603570520877838,1.1053253412246704,-0.4426715075969696,-0.0029309282545000315,0.05041629076004028,0.19014766812324524,-1.8222215175628662,0.6205945611000061,-0.16314907371997833,-0.9380375742912292,1.3881754875183105,-0.020952381193637848,-0.09429288655519485,1.3485257625579834,2.039076566696167,0.038776643574237823,-0.7618419528007507,-0.6539722681045532,-0.0999760851264,-0.04355502873659134,0.5909661054611206,-4.180013179779053,2.444798231124878,-0.7828828692436218,7.5651044845581055,-0.03429587185382843,-0.5091552138328552,1741522762.042366,1741522760933,-5.520224609375,0.6822798461914062,2.7717270342170433,-4.5737470703125,-1.5262193603515626
1741522762.2555945,-1.250778079032898,-0.034109702567075906,-0.06448854676737371,-0.9973353275236058,0.316206157207489,0.365218847990036,-0.3449866771697998,2.6099367141723633,0.04363403096795082,5.857123374938965,0.2603569030761719,0.2683677673339844,0.1333257108926773,-1.2493560314178467,0.005531395319849253,-0.9298466444015503,0.1981765478849411,1.2569855451583862,0.011635004542768002,0.9489204287528992,-0.28744181990623474,-0.42935073375701904,0.018501564860343933,0.2462424635887146,0.6380178332328796,-0.449203222990036,0.004852821119129658,-0.6860837936401367,0.10166323184967041,0.22373540699481964,1.268596887588501,-0.45207032561302185,0.002013552701100707,-0.3351178765296936,-0.13462026417255402,-1.4837926626205444,0.30357807874679565,0.03638244792819023,-0.5250163078308105,0.9097076058387756,-0.24211008846759796,0.02768826112151146,1.1856118440628052,1.3158046007156372,0.10108190029859543,-0.5439280867576599,-0.48568856716156006,0.21841271221637726,-0.08127778768539429,-0.45619210600852966,-4.551150798797607,1.5392193794250488,-1.8168190717697144,7.686880111694336,-0.5853884816169739,0.4555152356624603,1741522762.042366,1741522760933,-5.520224609375,0.6822798461914062,2.7717270342170433,-4.5737470703125,-1.5262193603515626
1741522762.2712312,-1.2587965726852417,-0.03300704578507575,-0.07096313890197976,-0.9969326796959362,0.3237004578113556,0.026967475190758705,-0.4472191035747528,-1.3529956340789795,-1.7316133975982666,12.77247428894043,0.23517990112304688,0.2832460403442383,0.09594109654426575,-1.2436338663101196,0.005149920005351305,-0.9374761581420898,0.22678720951080322,1.2531707286834717,0.010490577667951584,0.9611276388168335,-0.2653162479400635,-0.4354543387889862,0.007438773289322853,0.23937590420246124,0.6391623020172119,-0.4569900333881378,0.011692732572555542,-0.776493489742279,0.1337071806192398,0.18902114033699036,1.3735027313232422,-0.4671492874622345,0.0036695559974759817,-0.7844135761260986,0.5003449320793152,-1.90606689453125,0.2974601984024048,-0.04862045496702194,-0.3510003983974457,2.0964903831481934,-0.2519821524620056,-0.04417405277490616,0.6325379610061646,1.1040972471237183,-0.2085656225681305,-0.6197813749313354,-0.268157422542572,0.056827884167432785,-0.4583219885826111,0.3813548684120178,-4.426222801208496,1.5529202222824097,-1.4468400478363037,4.6472015380859375,-0.7551596164703369,-0.03261885792016983,1741522762.042366,1741522760933,-5.520224609375,0.6822798461914062,2.7717270342170433,-4.5737470703125,-1.5262193603515626
1741522762.291464,-1.2622815370559692,-0.02742032637812668,-0.07760309821826575,-0.9966071868335303,0.30595412850379944,0.2502070963382721,-0.11737748980522156,3.0949060916900635,-5.962726593017578,8.739914894104004,0.21686840057373047,0.2725639343261719,0.05283436179161072,-1.2440153360366821,0.005531395319849253,-0.9405279755592346,0.2630273997783661,1.2489745616912842,0.010872052982449532,0.9641794562339783,-0.2588311731815338,-0.4247730076313019,0.00019073777366429567,0.2298390120267868,0.6460288166999817,-0.4711592495441437,0.006958700716495514,-0.8310444951057434,0.1527809500694275,0.17071031033992767,1.3952468633651733,-0.48062485456466675,-0.0008738728356547654,-0.5501774549484253,-0.200595423579216,-2.106569766998291,0.005810751114040613,0.001724702538922429,-0.09867246448993683,2.38434100151062,-0.28754258155822754,0.01616504415869713,0.1574057936668396,0.22685521841049194,0.6112374663352966,-0.35460054874420166,-0.49720969796180725,0.3548680245876312,-0.8182057738304138,-0.17858323454856873,-2.469106912612915,0.8784355521202087,-0.7297693490982056,0.3210824429988861,-0.6199406981468201,-0.003616560949012637,1741522762.042366,1741522760933,-5.520224609375,0.6822798461914062,2.7717270342170433,-4.5737470703125,-1.5262193603515626
1741522762.311468,-1.2526551485061646,-0.025848746576808315,-0.07865157992331218,-0.9965669928690066,0.026502031832933426,0.07676928490400314,0.48015815019607544,-10.57042121887207,-3.15411639213562,12.78685474395752,0.19512462615966797,0.2718009948730469,0.01583123579621315,-1.2440153360366821,0.005531395319849253,-0.9382390975952148,0.30155640840530396,1.2474485635757446,0.010872052982449532,0.9618905782699585,-0.25310903787612915,-0.4350728690624237,-0.00667582219466567,0.22526131570339203,0.6521324515342712,-0.49335047602653503,0.001664219074882567,-0.8455405235290527,0.15697719156742096,0.1672770231962204,1.3288700580596924,-0.4882652163505554,0.00504670012742281,-0.6135334968566895,-0.04707366228103638,-1.8180713653564453,-0.004119496326893568,-0.023434223607182503,0.09260882437229156,2.591654062271118,-0.0554535910487175,-0.0005202820175327361,-0.1736445277929306,0.23001696169376373,-0.6856498122215271,-0.38509267568588257,-0.21343731880187988,0.3756256401538849,-1.1188956499099731,-0.19030585885047913,-0.2958633005619049,0.020093979313969612,-0.12305507063865662,-4.0977630615234375,-0.34695276618003845,0.3125945031642914,1741522762.3590329,1741522761233,-5.43337646484375,0.615619384765625,2.961758298853443,-4.4289599609375,-1.761494384765625
1741522762.3314893,-1.2352162599563599,-0.017936484127137223,-0.07726995082337812,-0.9968488537571328,-0.038034092634916306,0.5130648612976074,0.9585963487625122,5.835719108581543,2.5691826343536377,5.419615745544434,0.17147350311279297,0.2592124938964844,-0.01125352829694748,-1.2451597452163696,0.005531395319849253,-0.9378576278686523,0.33665215969085693,1.2505004405975342,0.010872052982449532,0.9584572911262512,-0.2504386901855469,-0.4343098998069763,-0.010872052982449532,0.21763180196285248,0.6784542798995972,-0.518882691860199,0.005091885104775429,-0.8165484070777893,0.14171816408634186,0.1676585078239441,1.183146357536316,-0.49849528074264526,-0.0018929069628939033,-0.6921188831329346,-0.37850841879844666,-1.2835299968719482,-0.12512269616127014,0.018007511273026466,0.007813642732799053,2.2629029750823975,0.22459769248962402,0.020301295444369316,-0.19892221689224243,0.10979301482439041,-0.12093912065029144,-0.11138566583395004,-0.4138731360435486,1.3172725439071655,-1.3648827075958252,0.18899618089199066,1.6190078258514404,-0.9442734122276306,0.059275783598423004,-7.689474105834961,-0.5681681632995605,-0.4781850278377533,1741522762.3590329,1741522761233,-5.43337646484375,0.615619384765625,2.961758298853443,-4.4289599609375,-1.761494384765625
1741522762.3515823,-1.2167741060256958,-0.012628065045447797,-0.07568693629399832,-0.9970516634796996,-0.0658283680677414,0.3497890830039978,0.8851776719093323,-3.7883737087249756,2.823458671569824,5.898954391479492,0.15964794158935547,0.2523460388183594,-0.037193864583969116,-1.2459226846694946,0.005149920005351305,-0.9386205673217773,0.36411839723587036,1.2508819103240967,0.011635004542768002,0.9508277773857117,-0.24090181291103363,-0.44766154885292053,-0.016594186425209045,0.22220951318740845,0.7055390477180481,-0.5469672679901123,0.008700371719896793,-0.7734416723251343,0.10852979123592377,0.1657511293888092,0.9782940149307251,-0.5234689712524414,-0.009790533222258091,-0.3868621587753296,-0.2063869684934616,-1.154233694076538,0.005194277968257666,-0.01872798427939415,-0.0951068326830864,1.697192668914795,-0.00919108185917139,0.07316412031650543,-0.5742005109786987,0.46526116132736206,-0.5877700448036194,-0.3989964723587036,0.3345097601413727,1.4589970111846924,-1.3352031707763672,0.24657942354679108,2.3206279277801514,-1.8415486812591553,-0.07603994011878967,-10.337301254272461,-1.3955398797988892,-0.27932479977607727,1741522762.3590329,1741522761233,-5.43337646484375,0.615619384765625,2.961758298853443,-4.4289599609375,-1.761494384765625
1741522762.3716795,-1.2049344778060913,-0.0015895546239371684,-0.08095300673585232,-0.9967166518206277,0.36411669850349426,0.5056058168411255,0.47272107005119324,-17.094953536987305,11.100388526916504,25.859121322631836,0.15621376037597656,0.23861312866210938,-0.04558632895350456,-1.2436338663101196,0.005149920005351305,-0.9470130205154419,0.3881513774394989,1.2497375011444092,0.011635004542768002,0.9428167939186096,-0.2294575423002243,-0.44728007912635803,-0.03223468363285065,0.23975738883018494,0.7463569045066833,-0.5662756562232971,0.012798018753528595,-0.7303349375724792,0.07000076025724411,0.14248111844062805,0.8558403849601746,-0.5085732340812683,0.0020964816212654114,-0.09164457768201828,-0.3855282962322235,-0.2006949633359909,0.17819106578826904,0.02903009206056595,-0.4141892194747925,1.6888346672058105,-0.18435555696487427,-0.04039819911122322,-0.6788601279258728,0.723530650138855,0.22402095794677734,-0.5288864374160767,0.5547080039978027,2.128753662109375,-0.9010838866233826,0.2727733254432678,1.429303526878357,-1.2631999254226685,-2.050493001937866,-2.9748778343200684,1.8971405029296875,0.4651840329170227,1741522762.3590329,1741522761233,-5.43337646484375,0.615619384765625,2.961758298853443,-4.4289599609375,-1.761494384765625
1741522762.3915524,-1.207391619682312,0.005031126281007268,-0.08322752734835498,-0.996517870617393,0.04447847977280617,0.622308611869812,-0.19159185886383057,43.25720977783203,4.1742353439331055,2.971773386001587,0.12760353088378906,0.23746871948242188,-0.02841992862522602,-1.2497375011444092,0.004386968910694122,-0.9515907764434814,0.39768826961517334,1.2436338663101196,0.011635004542768002,0.924124538898468,-0.22678720951080322,-0.4354543387889862,-0.013542382046580315,0.2588311731815338,0.7558938264846802,-0.567839503288269,-0.001766624511219561,-0.7215610146522522,0.05283436179161072,0.12798504531383514,0.9008545279502869,-0.4587504267692566,-0.010386762209236622,-0.8370322585105896,-0.2913745939731598,1.12968111038208,-0.269209086894989,-0.07542683184146881,-0.17386744916439056,0.2622527778148651,-0.3960525095462799,-0.0002492082421667874,-1.0928637981414795,-0.1552659571170807,0.420772910118103,0.4709835350513458,1.1782889366149902,0.2508818209171295,-0.028159089386463165,-1.1831791400909424,0.2082170993089676,-1.6118665933609009,0.34367793798446655,1.3245582580566406,1.9986131191253662,-0.8588993549346924,1741522762.3590329,1741522761233,-5.43337646484375,0.615619384765625,2.961758298853443,-4.4289599609375,-1.761494384765625
1741522762.411616,-1.2143322229385376,0.00858224450904661,-0.08547053993849003,-0.9963037347525151,0.18544256687164307,0.07262229174375534,-0.3339698016643524,-1.3200843334197998,15.422223091125488,18.709205627441406,0.11959266662597656,0.2531089782714844,0.018501564860343933,-1.2455412149429321,0.005531395319849253,-0.9500648379325867,0.3763256371021271,1.2379117012023926,0.011635004542768002,0.9203097820281982,-0.23785001039505005,-0.4232471287250519,-0.02384222112596035,0.2950713336467743,0.7719157934188843,-0.5431574583053589,-0.013902543112635612,-0.7024872303009033,0.018120087683200836,0.1527809500694275,0.8714808821678162,-0.4416866600513458,-0.003311517648398876,-0.24074164032936096,0.29811251163482666,2.543303966522217,0.33697423338890076,0.028065575286746025,0.10981188714504242,-1.710082769393921,-0.449443519115448,0.009060950018465519,-0.1759081482887268,-0.47328945994377136,0.5168866515159607,-0.5532912611961365,1.9427378177642822,1.1159387826919556,1.3649754524230957,-0.14803242683410645,1.5938301086425781,-1.1819051504135132,0.441809743642807,-1.3664076328277588,0.8250258564949036,0.8970435261726379,1741522762.4538825,1741522761333,-5.419162109375,0.5621578979492188,3.1271606355485098,-4.3833686523437505,-1.8299031982421876
1741522762.4316192,-1.215431809425354,0.0075401312505320416,-0.09816821367310154,-0.9951412704962833,0.5585765242576599,-0.16810762882232666,-0.036541469395160675,0.49782535433769226,-8.775821685791016,11.048728942871094,0.11806678771972656,0.2573051452636719,0.06618601083755493,-1.2554595470428467,0.005912871100008488,-0.9458686113357544,0.3572518527507782,1.2299007177352905,0.010490577667951584,0.9138246774673462,-0.24891279637813568,-0.42935073375701904,-0.0009536888683214784,0.32940414547920227,0.8310444951057434,-0.5012173652648926,-0.011432655155658722,-0.6723506450653076,0.021553369238972664,0.16002899408340454,0.8772030472755432,-0.4331899881362915,-0.005740719381719828,-0.11642584204673767,0.0790812075138092,2.4428112506866455,-0.9423547387123108,0.009653497487306595,0.170853391289711,-0.9877567887306213,-0.5196395516395569,-0.08150281757116318,-0.5681524872779846,-0.6637250781059265,-0.5820856690406799,1.4247187376022339,1.5041379928588867,3.3502304553985596,2.0797770023345947,0.1372917890548706,0.9828601479530334,0.048956498503685,0.7830556631088257,0.34372779726982117,0.22144010663032532,-0.5041885375976562,1741522762.4538825,1741522761333,-5.419162109375,0.5621578979492188,3.1271606355485098,-4.3833686523437505,-1.8299031982421876
1741522762.4516032,-1.2002323865890503,-0.001481542753094843,-0.10258219469210732,-0.994723428075976,0.24064761400222778,-0.2898823022842407,0.9109801650047302,3.7955691814422607,-0.9184337258338928,12.658639907836914,0.07572269439697266,0.2569236755371094,0.1199740618467331,-1.2615631818771362,0.005149920005351305,-0.9489204287528992,0.33321890234947205,1.2234156131744385,0.010490577667951584,0.9107728600502014,-0.2725642919540405,-0.4732204079627991,0.02384222112596035,0.3564889132976532,0.9363317489624023,-0.457936555147171,-0.00541339349001646,-0.6456473469734192,0.023079270496964455,0.182154580950737,0.8783474564552307,-0.43603435158729553,-0.002558651380240917,-1.21063232421875,-0.1288953274488449,2.531421661376953,-0.271027147769928,-0.0012340506073087454,-0.16958028078079224,-1.8281545639038086,-0.4746167063713074,-0.014863498508930206,-0.16664478182792664,-1.2146453857421875,-2.37945556640625,0.8895860314369202,1.2558269500732422,5.526150703430176,2.130707025527954,0.3542260229587555,1.591581106185913,0.22182491421699524,0.7808098793029785,-0.010254212655127048,-0.16213515400886536,0.30111607909202576,1741522762.4538825,1741522761333,-5.419162109375,0.5621578979492188,3.1271606355485098,-4.3833686523437505,-1.8299031982421876
1741522762.4717312,-1.1751478910446167,-0.009431902167087225,-0.1040796030893873,-0.9945242457789886,0.05572010576725006,-0.30156874656677246,1.3082976341247559,-0.9082656502723694,1.2845381498336792,10.340339660644531,0.07572269439697266,0.2550163269042969,0.17223620414733887,-1.2619446516036987,0.005531395319849253,-0.951209306716919,0.30155640840530396,1.2196009159088135,0.010490577667951584,0.9088655114173889,-0.290112167596817,-0.534637987613678,0.04139009863138199,0.36564430594444275,1.0603113174438477,-0.4273342788219452,0.0044562239199876785,-0.6158922910690308,0.012397955171763897,0.17757686972618103,0.8707179427146912,-0.4424361288547516,-0.010599542409181595,-0.12403729557991028,-0.07239505648612976,2.658889055252075,-0.10806331783533096,0.009057128801941872,-0.10175938904285431,-2.1963627338409424,-0.17189471423625946,0.009915802627801895,-0.11081782728433609,-0.825397253036499,-3.147899866104126,0.8382353186607361,0.19971732795238495,5.985760688781738,1.3117396831512451,0.5559922456741333,1.5642359256744385,-0.569453775882721,-0.35531049966812134,-0.381350576877594,-0.3613424599170685,-0.3996051251888275,1741522762.4538825,1741522761333,-5.419162109375,0.5621578979492188,3.1271606355485098,-4.3833686523437505,-1.8299031982421876
