Freshhhhh-LC/Legged_odom/data/5/segments/booster_seg_9.86s.csv
time,yaw,projected_gravity_x,projected_gravity_y,projected_gravity_z,ang_vel_x,ang_vel_y,ang_vel_z,lin_acc_x,lin_acc_y,lin_acc_z,q_0,q_1,q_2,q_3,q_4,q_5,q_6,q_7,q_8,q_9,q_10,q_11,q_12,q_13,q_14,q_15,q_16,q_17,q_18,q_19,q_20,q_21,q_22,dq_0,dq_1,dq_2,dq_3,dq_4,dq_5,dq_6,dq_7,dq_8,dq_9,dq_10,dq_11,dq_12,dq_13,dq_14,dq_15,dq_16,dq_17,dq_18,dq_19,dq_20,dq_21,dq_22,mocap_time,mocap_timestamp,robot_x,robot_y,robot_yaw,ball_x,ball_y
1741523152.631641,1.4778116941452026,0.0283318187477049,-0.08574218885452886,-0.995914446675457,0.6065880656242371,0.5970206260681152,0.1943223774433136,2.793764114379883,1.2686620950698853,7.787704944610596,-0.14362525939941406,0.2870607376098633,0.45948728919029236,-1.2714815139770508,0.005531395319849253,-0.9302281141281128,-0.10204470902681351,1.2299007177352905,0.010109102353453636,0.9508277773857117,0.20733195543289185,-0.7703898549079895,-0.18711376190185547,-0.12951095402240753,1.0782406330108643,-0.47498491406440735,-0.005263971164822578,-0.5331120491027832,-0.17452506721019745,-0.3412298858165741,0.80510413646698,-0.38202592730522156,-0.11853556334972382,-0.030247211456298828,-0.21539363265037537,0.7400360703468323,-0.04572244733572006,-0.011934326030313969,0.3663763701915741,-1.489241361618042,-0.5752140283584595,-0.08219330757856369,0.9153709411621094,-0.8534939289093018,-0.3410937786102295,-0.15588773787021637,1.7496598958969116,-7.023780345916748,-0.06133699789643288,0.5432620644569397,-0.20811551809310913,-0.39320307970046997,0.290483295917511,1.2929052114486694,-0.7419480085372925,-0.05341043695807457,1741523152.608886,1741523151533,0.5317762451171875,0.4610045166015625,-1.2550251116678686,2.81234765625,2.882952880859375
1741523152.6339984,1.4901718199253082,0.04709839497370953,-0.08602461701552214,-0.9951791328490731,-0.36127954721450806,0.3597069978713989,0.22737820446491241,4.067122936248779,0.08195112645626068,8.773136138916016,-0.14095497131347656,0.2977418899536133,0.45834288001060486,-1.2577484846115112,0.005149920005351305,-0.9203097820281982,-0.09174486994743347,1.2154046297073364,0.010490577667951584,0.9657053351402283,0.200083926320076,-0.7742046117782593,-0.17948424816131592,-0.08144503086805344,0.7658121585845947,-0.4381849467754364,-0.0022648160811513662,-0.5212863087654114,-0.1512550562620163,-0.3385595381259918,0.8352407217025757,-0.39143693447113037,-0.10627714544534683,-0.05883476883172989,0.30766600370407104,-0.46487104892730713,0.6746605038642883,-0.0005001811077818274,0.08859795331954956,1.2073935270309448,-0.2658325731754303,0.008219070732593536,0.1351214051246643,0.1691194623708725,0.039902061223983765,0.37429651618003845,0.874875009059906,-6.42433500289917,0.8505449295043945,0.13413482904434204,0.6206207871437073,1.0989195108413696,-0.08818530291318893,0.38229304552078247,-0.06903702020645142,0.09474238753318787,1741523152.608886,1741523151533,0.5317762451171875,0.4610045166015625,-1.2550251116678686,2.81234765625,2.882952880859375
1741523152.6453128,1.4091835170984268,0.07914526443328605,0.019970172298563443,-0.996663042023808,-0.6606184244155884,0.065335713326931,-1.1619631052017212,-2.608703851699829,-6.551024436950684,5.062124252319336,-0.7204170227050781,0.19855785369873047,0.20084688067436218,-1.3569320440292358,0.005531395319849253,-0.4957274794578552,0.08220797777175903,1.3565505743026733,0.011635004542768002,0.5193789601325989,0.13828489184379578,-0.6891355514526367,0.030708782374858856,0.039101243019104004,0.6914244294166565,-0.1880520135164261,0.013182602822780609,-0.5460822582244873,0.12417028844356537,0.06580453366041183,0.9012359976768494,-0.23149944841861725,-0.021684806793928146,0.24347271025180817,-0.20950837433338165,-1.2549641132354736,-0.10347555577754974,-0.0067079197615385056,0.3457911014556885,1.7390986680984497,0.43514347076416016,0.016393613070249557,-1.0827399492263794,0.0640791803598404,0.3456000089645386,1.8724569082260132,-0.9922617673873901,0.11397414654493332,0.7602414488792419,-0.6327241063117981,-0.42844104766845703,0.58457350730896,-2.1962192058563232,0.3108507990837097,1.6687103509902954,0.757228434085846,1741523152.608886,1741523151533,0.5317762451171875,0.4610045166015625,-1.2550251116678686,2.81234765625,2.882952880859375
1741523152.667626,1.3870028853416443,0.0785006256225521,0.0478684980549656,-0.995764158157357,-1.3474756479263306,-0.06571362912654877,-1.2598423957824707,-2.664719820022583,-1.7706899642944336,7.169118404388428,-0.7352943420410156,0.20618724822998047,0.182154580950737,-1.3561691045761108,0.005149920005351305,-0.5014495849609375,0.10585946589708328,1.3622727394104004,0.01125352829694748,0.5098420977592468,0.13065537810325623,-0.6750209927558899,0.06427863240242004,0.048638131469488144,0.6738765835762024,-0.15822677314281464,-0.004906459245830774,-0.5659189820289612,0.12607766687870026,0.01430533267557621,0.9321355223655701,-0.205486461520195,-0.003476679092273116,-0.45635101199150085,0.2451055347919464,-0.912885308265686,0.10725674778223038,-0.00017840041255112737,-0.3196835517883301,1.597454309463501,0.522679328918457,0.006830955855548382,-0.5093127489089966,-0.4862074851989746,0.7836595177650452,1.6384190320968628,0.5707618594169617,-0.718253493309021,1.6574177742004395,-0.6061456799507141,-1.227622628211975,-0.16953445971012115,-2.7072746753692627,1.7880604267120361,1.043312430381775,0.7713519930839539,1741523152.7090921,1741523151633,0.4937106628417969,0.5118748779296876,-1.7258584432571713,2.981615234375,2.9473193359375
1741523152.68536,1.3553915843367577,0.07578747100137542,0.07473096943347968,-0.9943196374641045,-1.119155764579773,0.005201227497309446,-1.698973536491394,2.681990146636963,-1.015379786491394,8.832138061523438,-0.7261390686035156,0.19512462615966797,0.16384375095367432,-1.3527358770370483,0.005531395319849253,-0.5128938555717468,0.12912946939468384,1.37142813205719,0.011635004542768002,0.509079098701477,0.11501488089561462,-0.6654840707778931,0.09365224838256836,0.05130846053361893,0.6757839322090149,-0.10977552086114883,0.008016158826649189,-0.5998703241348267,0.11539635062217712,-0.04558632895350456,0.9874494671821594,-0.22645235061645508,-0.006436280906200409,0.18867652118206024,-0.2849217355251312,-0.8773232102394104,0.2675611078739166,0.0002483187709003687,-0.6120542287826538,1.5422132015228271,0.5250650644302368,-0.00696466164663434,0.01695295423269272,-0.7295111417770386,0.28663772344589233,1.4711270332336426,0.13529063761234283,0.13668088614940643,2.4347145557403564,0.6774960160255432,-1.6909010410308838,-0.4143323302268982,-3.2410826683044434,2.921769857406616,-1.3939114809036255,-0.21528014540672302,1741523152.7090921,1741523151633,0.4937106628417969,0.5118748779296876,-1.7258584432571713,2.981615234375,2.9473193359375
1741523152.7053664,1.3244858980178833,0.07402359079078281,0.09463748159483658,-0.9927558889696024,-0.8613714575767517,0.05895683914422989,-1.575013518333435,-4.533817291259766,-6.939203262329102,16.253276824951172,-0.7227058410644531,0.18177318572998047,0.1493476778268814,-1.3443434238433838,0.005531395319849253,-0.5251010656356812,0.15316243469715118,1.3718096017837524,0.010872052982449532,0.5121309161186218,0.09632257372140884,-0.6639581918716431,0.12073700875043869,0.0707637146115303,0.6887540817260742,-0.06498294323682785,0.022570447996258736,-0.6437399983406067,0.10662241280078888,-0.1028076633810997,1.0603113174438477,-0.2841345965862274,-0.007751984987407923,0.05985577404499054,-0.37073907256126404,-0.69559246301651,0.6178295612335205,8.53245728649199e-05,-0.6234259009361267,1.5883855819702148,-0.0015257990453392267,-0.04047538340091705,0.22354060411453247,-0.9616485238075256,-0.00047768207150511444,1.156679391860962,1.097862720489502,0.8059697151184082,2.028930902481079,0.7027374505996704,-2.210688352584839,-0.4665621817111969,-2.523970127105713,3.6317195892333984,-2.9620144367218018,0.13422442972660065,1741523152.7090921,1741523151633,0.4937106628417969,0.5118748779296876,-1.7258584432571713,2.981615234375,2.9473193359375
1741523152.7253788,1.3076758161187172,0.07679354753983401,0.10103736130473608,-0.9919144129796802,-0.10937758535146713,0.24274402856826782,-0.7269592881202698,-2.5924692153930664,-5.269382476806641,13.51557731628418,-0.7253761291503906,0.14705848693847656,0.12569619715213776,-1.3378583192825317,0.005531395319849253,-0.536926805973053,0.17376211285591125,1.37142813205719,0.010872052982449532,0.5186160206794739,0.06771191209554672,-0.6662470698356628,0.14057374000549316,0.086785688996315,0.7104982137680054,-0.05710341036319733,0.02422177419066429,-0.6845578551292419,0.09250781685113907,-0.12493324279785156,1.11295485496521,-0.35011550784111023,-0.0007643134449608624,-0.060447949916124344,-1.0057642459869385,-1.3217761516571045,0.3175571858882904,-0.007728322874754667,-0.6053621172904968,1.3584853410720825,-0.04865332320332527,-0.0010763248428702354,0.4516600966453552,-1.5608891248703003,-0.06604897975921631,1.1536500453948975,0.5611786842346191,1.0471645593643188,0.08076158165931702,-0.08468367159366608,-2.040783405303955,-0.7203665971755981,-0.7872639298439026,2.343334197998047,-3.171720266342163,0.3936856687068939,1741523152.7090921,1741523151633,0.4937106628417969,0.5118748779296876,-1.7258584432571713,2.981615234375,2.9473193359375
1741523152.7455335,1.3072193786501884,0.08047416646327468,0.09599558368888969,-0.9921233574733892,0.24011431634426117,0.15867939591407776,0.07141150534152985,-0.7373084425926208,-0.4788852334022522,7.172710418701172,-0.7188911437988281,0.13408851623535156,0.1028076633810997,-1.3363324403762817,0.005531395319849253,-0.5460822582244873,0.19169145822525024,1.369139313697815,0.010872052982449532,0.5220493078231812,0.02689402550458908,-0.6521324515342712,0.15774014592170715,0.09746700525283813,0.7135500311851501,-0.06979088485240936,0.009111437946557999,-0.7131685614585876,0.09098191559314728,-0.11539635062217712,1.1240177154541016,-0.4089726209640503,0.008244427852332592,0.1640550196170807,-0.38789233565330505,-1.0766032934188843,0.10097543150186539,-0.002290806733071804,-0.41117823123931885,1.214962124824524,-0.15820486843585968,0.011582324281334877,0.21258927881717682,-2.058014154434204,0.8792569041252136,0.8825664520263672,0.5072876811027527,-0.04750847443938255,-0.6443737149238586,-0.8059923648834229,-1.2271958589553833,0.02070358395576477,0.6849411129951477,0.20949064195156097,-2.869536876678467,0.34873056411743164,1741523152.7090921,1741523151633,0.4937106628417969,0.5118748779296876,-1.7258584432571713,2.981615234375,2.9473193359375
1741523152.7655044,1.306501753628254,0.07947348334956526,0.092044009320485,-0.992578392769305,0.17111580073833466,-0.08635200560092926,-0.11327630281448364,0.5804232954978943,-2.6041109561920166,7.515665054321289,-0.7173643112182617,0.12874794006347656,0.09479667246341705,-1.3363324403762817,0.005531395319849253,-0.5533303022384644,0.21190966665744781,1.3695207834243774,0.01125352829694748,0.5212863087654114,-0.0009536888683214784,-0.6212329268455505,0.17719538509845734,0.11768520623445511,0.7043945789337158,-0.09182510524988174,0.00021443412697408348,-0.7204165458679199,0.09555962681770325,-0.09670405089855194,1.101892113685608,-0.44430822134017944,0.0040507931262254715,0.06457991898059845,-0.14484639465808868,-0.21457314491271973,-0.03241584077477455,0.002835584804415703,-0.3216116726398468,1.3891197443008423,0.05583653971552849,0.00836399756371975,-0.18254943192005157,-1.0477498769760132,1.4446392059326172,1.050560712814331,1.0357366800308228,-0.46557796001434326,-1.2637165784835815,-0.2648700773715973,-0.2263617068529129,0.16864219307899475,0.8677598834037781,-1.330916404724121,-1.5333688259124756,-0.23146404325962067,1741523152.7090921,1741523151633,0.4937106628417969,0.5118748779296876,-1.7258584432571713,2.981615234375,2.9473193359375
1741523152.7855182,1.2963287457823753,0.07329204395140865,0.09422830173395026,-0.9928490839225066,-0.10789819061756134,-0.2724957764148712,-0.5895999670028687,-1.9665303230285645,-0.9654353260993958,6.4056830406188965,-0.7055387496948242,0.14019203186035156,0.1035706102848053,-1.3359509706497192,0.005531395319849253,-0.5537117719650269,0.22755016386508942,1.374098539352417,0.01125352829694748,0.5170900821685791,0.00476844422519207,-0.6036850810050964,0.19054703414440155,0.134470134973526,0.6994354128837585,-0.12180130928754807,0.006722151767462492,-0.7093538045883179,0.09365224838256836,-0.09403372555971146,1.0442893505096436,-0.44586190581321716,0.008491450920701027,0.32379740476608276,0.366644024848938,0.4854097366333008,0.040837470442056656,-0.0016649095341563225,0.010952918790280819,0.8917129635810852,0.33453452587127686,0.004346045199781656,-0.2618671953678131,0.4933735430240631,0.7954515814781189,0.6219207048416138,0.6568945050239563,-0.14811569452285767,-1.5188859701156616,0.22722071409225464,0.7126525044441223,-0.08445309847593307,-0.08955850452184677,-3.0913381576538086,0.14669430255889893,0.3047167956829071,1741523152.7090921,1741523151633,0.4937106628417969,0.5118748779296876,-1.7258584432571713,2.981615234375,2.9473193359375
1741523152.805541,1.2780645824968815,0.06704352983844337,0.10178704860730986,-0.9925444885961612,-0.35564321279525757,-0.24801206588745117,-0.9930180907249451,-2.1421546936035156,-1.799104928970337,6.442786693572998,-0.7024869918823242,0.14553260803222656,0.12264438718557358,-1.3351880311965942,0.005531395319849253,-0.5498970150947571,0.2286945879459381,1.375624418258667,0.01125352829694748,0.5155642032623291,0.03223468363285065,-0.5983443856239319,0.1977950781583786,0.134470134973526,0.7078278660774231,-0.15188655257225037,0.006237610708922148,-0.6788357496261597,0.0883115902543068,-0.10814831405878067,0.9580758213996887,-0.4196361005306244,0.009039035066962242,0.09730806201696396,0.19030322134494781,1.0304434299468994,0.05251599848270416,-0.0050252689979970455,0.18295203149318695,-0.02170942910015583,0.059227682650089264,0.004387169610708952,-0.08400608599185944,1.3713911771774292,0.08451659232378006,0.2757388651371002,-0.01975894160568714,0.49197688698768616,-1.5795785188674927,-0.10962230712175369,1.6507949829101562,-0.2992398738861084,-0.7831201553344727,-4.423117637634277,1.5148485898971558,-0.022448280826210976,1741523152.7090921,1741523151633,0.4937106628417969,0.5118748779296876,-1.7258584432571713,2.981615234375,2.9473193359375
1741523152.8255556,1.2518592006526887,0.057293201373984026,0.11421245153422803,-0.9918029063230566,-0.5603835582733154,-0.3858414590358734,-1.3745187520980835,-4.004189968109131,0.5418975949287415,6.112430572509766,-0.6925687789916992,0.14743995666503906,0.14858472347259521,-1.3328990936279297,0.005149920005351305,-0.543411910533905,0.22335393726825714,1.3767688274383545,0.01125352829694748,0.5151827335357666,0.0555046908557415,-0.6055924296379089,0.20351719856262207,0.1325627565383911,0.7303349375724792,-0.18942216038703918,0.0067608542740345,-0.6376363635063171,0.08335240930318832,-0.12951095402240753,0.8447775840759277,-0.37442609667778015,0.004685159772634506,0.2691236138343811,0.08413674682378769,1.3725900650024414,0.16964179277420044,-0.0002568842610344291,0.31999266147613525,-0.35204026103019714,0.07112453132867813,0.009807456284761429,-0.039688240736722946,1.1336413621902466,-0.3800522983074188,0.2811286747455597,-0.041220009326934814,1.2242017984390259,-1.9105316400527954,0.06813409924507141,2.0634729862213135,-0.15556523203849792,-1.10024094581604,-5.793795108795166,2.3395323753356934,-0.23252442479133606,1741523152.7090921,1741523151633,0.4937106628417969,0.5118748779296876,-1.7258584432571713,2.981615234375,2.9473193359375
1741523152.8455956,1.2227370701730251,0.047482705045849165,0.12400863701797585,-0.9911444146371772,-0.3606022298336029,-0.32188960909843445,-1.4385511875152588,-0.1632051020860672,0.6901707053184509,9.784751892089844,-0.6799802780151367,0.14896583557128906,0.17528800666332245,-1.3298473358154297,0.005149920005351305,-0.5323491096496582,0.21801327168941498,1.3752429485321045,0.01125352829694748,0.5151827335357666,0.071908138692379,-0.6147478222846985,0.21152819693088531,0.1337071806192398,0.7669565677642822,-0.23233374953269958,0.013704865239560604,-0.5880445837974548,0.08983749151229858,-0.1493476778268814,0.7177462577819824,-0.3231305778026581,-0.00039425419527105987,0.34027495980262756,0.03671904280781746,1.2785121202468872,0.1847110539674759,0.005032185930758715,0.5889209508895874,-0.386025607585907,-0.15049812197685242,-0.00702774990350008,-0.005800521466881037,0.7263111472129822,-0.47097262740135193,0.40268033742904663,0.05932481214404106,1.8391923904418945,-2.097949981689453,0.3112495541572571,2.447019338607788,0.40543797612190247,-1.0138187408447266,-6.368283748626709,2.5206732749938965,-0.10999871045351028,1741523152.7090921,1741523151633,0.4937106628417969,0.5118748779296876,-1.7258584432571713,2.981615234375,2.9473193359375
1741523152.8656344,1.2007210366427898,0.04139880917442848,0.12449610095317971,-0.991356070968648,0.08289474248886108,-0.12405635416507721,-1.0438822507858276,0.10944405943155289,17.719804763793945,18.862712860107422,-0.6692991256713867,0.13485145568847656,0.19321736693382263,-1.3302288055419922,0.005531395319849253,-0.5189974904060364,0.21076524257659912,1.370665192604065,0.010872052982449532,0.5163271427154541,0.06542305648326874,-0.6261920928955078,0.21229113638401031,0.13752193748950958,0.8047226667404175,-0.2669307291507721,0.013811246491968632,-0.5464637279510498,0.08983749151229858,-0.15812161564826965,0.613603413105011,-0.2638101279735565,-0.009350932203233242,0.3105131983757019,-0.4157507121562958,0.8139785528182983,-0.15225185453891754,0.012875440530478954,0.7132484912872314,-0.4835832715034485,-0.31917041540145874,-0.002538676606491208,0.07214231044054031,-0.45520177483558655,-0.6077660918235779,0.0021598078310489655,0.2062913328409195,1.8628449440002441,-1.6516344547271729,-0.08287221193313599,1.8410918712615967,-0.19403599202632904,-0.36866989731788635,-4.4491353034973145,3.092513084411621,-0.7798890471458435,1741523152.9145434,1741523151833,0.4749194641113281,0.555517578125,-1.9231906865467696,3.32414111328125,3.08129443359375
1741523152.8856206,1.1856701895594597,0.0326789763639919,0.12081491750307906,-0.9921370067750349,0.162217378616333,-0.35970109701156616,-0.7388454675674438,0.4187014400959015,-0.9986164569854736,14.519726753234863,-0.6658658981323242,0.13828468322753906,0.20275425910949707,-1.3340435028076172,0.005149920005351305,-0.5094605684280396,0.20733195543289185,1.364943027496338,0.010872052982449532,0.5155642032623291,0.05283436179161072,-0.6311513185501099,0.21076524257659912,0.1371404528617859,0.8287556171417236,-0.29508286714553833,0.010492785833775997,-0.5304417610168457,0.09822995215654373,-0.16155488789081573,0.5922408103942871,-0.20226386189460754,-0.025063352659344673,0.13888895511627197,0.0830756202340126,0.42122626304626465,-0.246204674243927,-0.00976493675261736,0.4035610556602478,-0.22143219411373138,-0.3151146173477173,0.017711181193590164,-0.06001187488436699,-0.6659486293792725,0.032482363283634186,-0.09819218516349792,0.030978374183177948,0.8887128233909607,-1.492740273475647,-0.2845655679702759,0.6136589646339417,0.3369881212711334,-0.05710785463452339,-0.8243024945259094,2.908125877380371,-0.7321867942810059,1741523152.9145434,1741523151833,0.4749194641113281,0.555517578125,-1.9231906865467696,3.32414111328125,3.08129443359375
1741523152.9056702,1.1742079481482506,0.02681958173694753,0.12143043324445757,-0.992237552160529,0.0035563253331929445,-0.2491377294063568,-0.5333791971206665,-0.7942849397659302,3.48508358001709,11.452661514282227,-0.6586179733276367,0.13714027404785156,0.20733195543289185,-1.3367139101028442,0.005531395319849253,-0.5132753252983093,0.20313572883605957,1.3637986183166504,0.01125352829694748,0.5193789601325989,0.05054550990462303,-0.6162737607955933,0.18940261006355286,0.12951095402240753,0.8318074345588684,-0.32303759455680847,0.006646386347711086,-0.5273899435997009,0.0871671661734581,-0.1520180106163025,0.5823224186897278,-0.16657309234142303,-0.018921421840786934,0.20977167785167694,-0.021052638068795204,0.17764580249786377,-0.2065829634666443,0.018522685393691063,-0.26532748341560364,-0.2849073112010956,0.004793490283191204,0.018831266090273857,0.26069018244743347,0.12448041886091232,0.6409956812858582,-1.3232595920562744,-0.4873610734939575,0.18975047767162323,-1.336423397064209,-0.10906218737363815,0.25322020053863525,-0.5683507919311523,0.6288160681724548,-0.6673150658607483,1.541922688484192,0.42365872859954834,1741523152.9145434,1741523151833,0.4749194641113281,0.555517578125,-1.9231906865467696,3.32414111328125,3.08129443359375
1741523152.9256837,1.163983590900898,0.02285510955291752,0.1142938291656845,-0.9931840537292015,0.4417557120323181,-0.1348794400691986,-0.45237210392951965,-2.4261295795440674,0.3579123318195343,14.505236625671387,-0.6498432159423828,0.13675880432128906,0.20923933386802673,-1.3493025302886963,0.005531395319849253,-0.5163271427154541,0.1985580176115036,1.3653244972229004,0.01125352829694748,0.5231937170028687,0.06923781335353851,-0.6170367002487183,0.1520180106163025,0.09861142933368683,0.8421072959899902,-0.34872013330459595,0.01259908638894558,-0.508316159248352,0.06656748056411743,-0.13179980218410492,0.5579079985618591,-0.15730535984039307,-0.01240895502269268,0.2404291033744812,-0.0094204843044281,0.1043815016746521,-0.8937295079231262,-0.011645377613604069,-0.10238814353942871,-0.22887879610061646,0.005633869674056768,-0.00053475855384022,0.233575701713562,1.0295946598052979,-0.07236626744270325,-1.9206287860870361,-1.64010488986969,0.561236560344696,-1.3559857606887817,0.3985917568206787,0.9101043939590454,-1.0660936832427979,0.9385014772415161,-1.240695834159851,0.3636736571788788,0.26817581057548523,1741523152.9145434,1741523151833,0.4749194641113281,0.555517578125,-1.9231906865467696,3.32414111328125,3.08129443359375
1741523152.9456787,1.1580821871757507,0.023191823768973295,0.10300965745253227,-0.994409950564545,0.5875245332717896,0.07483061403036118,-0.26774486899375916,-0.5988204479217529,2.1576178073883057,10.389752388000488,-0.6326770782470703,0.13675880432128906,0.21000228822231293,-1.3584580421447754,0.005531395319849253,-0.5140383243560791,0.1977950781583786,1.3615097999572754,0.01125352829694748,0.5247195959091187,0.0879301130771637,-0.6189440488815308,0.10891126841306686,0.05664911866188049,0.8566033244132996,-0.38696861267089844,0.017353463917970657,-0.501068115234375,0.058175019919872284,-0.11730372905731201,0.5483710765838623,-0.15241853892803192,-0.01763983629643917,0.48625126481056213,0.012143395841121674,-0.005960856098681688,-0.5491266250610352,-0.011011769063770771,0.11325162649154663,-0.0367463044822216,-0.27453258633613586,0.002858046442270279,0.04981957748532295,0.8845655918121338,-0.21614398062229156,-2.1953890323638916,-2.0963196754455566,0.876939058303833,-2.0050480365753174,0.1383611261844635,0.24396681785583496,-0.5526585578918457,0.7855645418167114,-0.27393782138824463,0.24626706540584564,-0.3000671863555908,1741523152.9145434,1741523151833,0.4749194641113281,0.555517578125,-1.9231906865467696,3.32414111328125,3.08129443359375
1741523152.9657779,1.1511076763272285,0.02693044729543066,0.09101079624062991,-0.9954857035518464,0.5884330868721008,0.2566327750682831,-0.3402789831161499,6.266703128814697,3.2688534259796143,5.387533664703369,-0.6288623809814453,0.13103675842285156,0.20962081849575043,-1.3672319650650024,0.005531395319849253,-0.5106050372123718,0.1977950781583786,1.358839511871338,0.01125352829694748,0.5231937170028687,0.10166323184967041,-0.6452658772468567,0.06389715522527695,0.005149920005351305,0.918402373790741,-0.4291902184486389,0.001667435048148036,-0.5029755234718323,0.04291599988937378,-0.09555962681770325,0.5510414242744446,-0.14710399508476257,-0.013671995140612125,0.1606614738702774,-0.14512905478477478,-0.018605133518576622,-0.607500433921814,-0.009423857554793358,0.12555667757987976,0.004501160234212875,-0.13342662155628204,0.008602277375757694,-0.07771936058998108,0.7685046195983887,-1.5847060680389404,-2.249229907989502,-2.4863574504852295,3.4146230220794678,-2.0914342403411865,-0.9724118113517761,-0.10992112755775452,-0.5914449095726013,1.0253404378890991,0.17068558931350708,0.29514631628990173,0.4307643175125122,1741523152.9145434,1741523151833,0.4749194641113281,0.555517578125,-1.9231906865467696,3.32414111328125,3.08129443359375
1741523152.9857595,1.1396142691373825,0.03832042506474316,0.08128300567599582,-0.9959541244510881,0.47712329030036926,0.6521965265274048,-0.6457158327102661,2.642716407775879,0.31312936544418335,5.638458251953125,-0.6162738800048828,0.13370704650878906,0.20771344006061554,-1.37142813205719,0.005531395319849253,-0.5140383243560791,0.1962691694498062,1.3576951026916504,0.01125352829694748,0.5239566564559937,0.12073700875043869,-0.7185091972351074,0.024986648932099342,-0.037193864583969116,1.037422776222229,-0.4643402397632599,-0.006678929086774588,-0.5102235674858093,0.03681239113211632,-0.07495994865894318,0.568970799446106,-0.13849399983882904,-0.0038220491260290146,0.3643631637096405,0.09444497525691986,-0.11736022680997849,-0.19594049453735352,-0.004376573953777552,-0.20315133035182953,-0.17804162204265594,-0.08132249116897583,0.0039115045219659805,0.02400972507894039,0.883512020111084,-3.664405345916748,-2.0264978408813477,-1.8886032104492188,6.342925071716309,-1.6252747774124146,-0.019454350695014,-0.642731785774231,-0.22218415141105652,1.020302653312683,1.0490105152130127,0.4316488802433014,0.3481261432170868,1741523153.016215,1741523151933,0.4853475341796875,0.5606044311523437,-1.7360384654064387,3.480157958984375,3.138556884765625
1741523153.0057547,1.1222200393676758,0.04763149223802058,0.07914679461269836,-0.9957243724292957,0.09236647188663483,0.5244591236114502,-0.8798102736473083,1.2717156410217285,1.7540056705474854,6.078843593597412,-0.6044483184814453,0.14782142639160156,0.20618753135204315,-1.3702837228775024,0.005531395319849253,-0.5212863087654114,0.18520638346672058,1.3565505743026733,0.01125352829694748,0.5266270041465759,0.1329442262649536,-0.7963302135467529,-0.005912871100008488,-0.04749370738863945,1.1758984327316284,-0.4816820025444031,0.0015644910745322704,-0.541886031627655,0.037193864583969116,-0.058175019919872284,0.5968185067176819,-0.13549363613128662,-0.006576921790838242,0.3683563768863678,0.4091101288795471,-0.037257857620716095,0.08429022878408432,0.0022945397067815065,-0.3407958745956421,-0.9319480657577515,-0.07551676034927368,-0.014783460646867752,0.24302247166633606,0.545634388923645,-3.9773199558258057,-1.3566724061965942,-0.48807644844055176,6.662754058837891,-0.6549967527389526,0.24398045241832733,-1.5034624338150024,0.055301737040281296,0.6985758543014526,1.5130244493484497,0.09576494991779327,-0.1507272720336914,1741523153.016215,1741523151933,0.4853475341796875,0.5606044311523437,-1.7360384654064387,3.480157958984375,3.138556884765625
1741523153.025817,1.1013984978199005,0.05180829426889056,0.08053502414116125,-0.9954044457061314,-0.030838491395115852,0.22392874956130981,-1.0807167291641235,-0.8215247392654419,1.7417829036712646,10.649208068847656,-0.5926218032836914,0.17452526092529297,0.20733195543289185,-1.36837637424469,0.005531395319849253,-0.5315861701965332,0.1661325991153717,1.3557876348495483,0.01125352829694748,0.5350194573402405,0.1363775134086609,-0.8485923409461975,-0.020027466118335724,-0.04940108209848404,1.266308069229126,-0.47859880328178406,-0.00958905927836895,-0.5651560425758362,0.0394827201962471,-0.04634927958250046,0.6280995011329651,-0.13659889996051788,-0.008787705563008785,0.351434588432312,0.8377156853675842,0.05553998425602913,0.11141056567430496,-0.004048129078000784,-0.5134219527244568,-1.2319567203521729,-0.08835096657276154,-0.009531419724225998,0.5405977964401245,0.13481973111629486,-2.1307127475738525,-0.6777421236038208,-0.09372923523187637,4.030175685882568,0.29604479670524597,-0.4920256435871124,-1.163070797920227,-0.011144556105136871,0.6226375102996826,1.420467495918274,-0.08188434690237045,-0.10492361336946487,1741523153.016215,1741523151933,0.4853475341796875,0.5606044311523437,-1.7360384654064387,3.480157958984375,3.138556884765625
1741523153.045851,1.0774403512477875,0.04841819175452995,0.08130493584291339,-0.9955125243384944,0.044543564319610596,-0.14959372580051422,-1.2057527303695679,0.7212632894515991,1.2581313848495483,11.276594161987305,-0.5746927261352539,0.18825817108154297,0.20885786414146423,-1.367613434791565,0.005531395319849253,-0.5422675013542175,0.1520180106163025,1.3538802862167358,0.01125352829694748,0.5422675013542175,0.1340886503458023,-0.84592205286026,-0.028038453310728073,-0.06275273114442825,1.259822964668274,-0.46281710267066956,-0.008453753776848316,-0.5853742361068726,0.0394827201962471,-0.03299763426184654,0.655184268951416,-0.14444302022457123,-0.00625366996973753,0.5057767629623413,0.4571720361709595,0.07281975448131561,0.02749616838991642,-0.00666058249771595,-0.5633559823036194,-0.8186222314834595,-0.10803375393152237,0.0029875002801418304,0.5131207704544067,-0.1425618976354599,0.5687145590782166,-0.45937907695770264,-0.7202945351600647,-1.285298466682434,0.8527855277061462,0.27837398648262024,-0.8818079829216003,0.13995760679244995,0.5810133218765259,1.4893704652786255,-0.4614734649658203,0.20035940408706665,1741523153.016215,1741523151933,0.4853475341796875,0.5606044311523437,-1.7360384654064387,3.480157958984375,3.138556884765625
1741523153.065844,1.0529420673847198,0.0394485129750009,0.07853683544456008,-0.9961304032617493,0.2218119502067566,-0.3669288754463196,-1.193396806716919,1.09795081615448,-0.7606332898139954,6.6236724853515625,-0.5670633316040039,0.19512462615966797,0.2134355753660202,-1.3679949045181274,0.005531395319849253,-0.5506599545478821,0.14744029939174652,1.3538802862167358,0.01125352829694748,0.5495155453681946,0.12455176562070847,-0.7871748208999634,-0.03604944050312042,-0.09098191559314728,1.1388952732086182,-0.4442896842956543,0.0031489210668951273,-0.6013962030410767,0.04558632895350456,-0.03032730519771576,0.691805899143219,-0.16269437968730927,-0.006777278147637844,0.2478483021259308,0.2055312842130661,0.25394728779792786,-0.03767116367816925,-0.005844867788255215,-0.42901355028152466,-0.2011871635913849,-0.026038475334644318,-0.004095946904271841,0.4424276649951935,-0.4848051369190216,3.490597724914551,-0.4157765805721283,-1.5493419170379639,-6.724028587341309,0.8529204726219177,0.5131279826164246,-0.8811497092247009,0.29615139961242676,-0.009132767096161842,1.8646332025527954,-1.0128532648086548,-0.05159638822078705,1741523153.016215,1741523151933,0.4853475341796875,0.5606044311523437,-1.7360384654064387,3.480157958984375,3.138556884765625
1741523153.085833,1.0309272408485413,0.02784343596490859,0.07344397821142216,-0.99691059034306,0.31378838419914246,-0.4866645932197571,-1.0815941095352173,-6.663060188293457,-7.185060977935791,2.113896608352661,-0.5590524673461914,0.19626903533935547,0.21877622604370117,-1.367613434791565,0.005531395319849253,-0.5598153471946716,0.14705882966518402,1.3527358770370483,0.010872052982449532,0.5601968169212341,0.11196307092905045,-0.6929503083229065,-0.03795681521296501,-0.1203555315732956,0.9306095838546753,-0.4376479685306549,0.0027721915394067764,-0.6376363635063171,0.06198977679014206,-0.05359731614589691,0.734149694442749,-0.1910071074962616,-0.01146260742098093,0.23000755906105042,0.051188867539167404,0.23527666926383972,-0.009040716104209423,-0.004408566746860743,-0.4861283302307129,0.0003129824763163924,-0.09866707026958466,0.003327401587739587,0.7205596566200256,-0.6195912957191467,4.824168682098389,0.04743282124400139,-1.433652400970459,-10.670777320861816,0.19774025678634644,-0.06796831637620926,-1.8960987329483032,0.7742432951927185,-1.2289384603500366,2.082249879837036,-1.4329428672790527,-0.31385496258735657,1741523153.118768,1741523152033,0.4831419372558594,0.5700658569335938,-1.7470090382767487,3.6321689453125,3.2000527343750003
1741523153.105888,1.0108241140842438,0.01726799869933319,0.07594895347693195,-0.9969621721442989,-0.06398226320743561,-0.5587723255157471,-0.9663470983505249,18.090375900268555,12.741944313049316,18.42807960510254,-0.5586709976196289,0.20885753631591797,0.22068360447883606,-1.3645615577697754,0.005531395319849253,-0.5701152086257935,0.14515145123004913,1.3512099981307983,0.010872052982449532,0.568970799446106,0.09746700525283813,-0.6414511203765869,-0.03490501269698143,-0.10547798871994019,0.9012359976768494,-0.3622399568557739,-0.023232437670230865,-0.6490806341171265,0.02193484455347061,-0.061226826161146164,0.7810711860656738,-0.22196781635284424,-0.023632243275642395,-0.08185674995183945,0.44983822107315063,0.059125274419784546,0.2499835193157196,0.012203110381960869,-0.38433563709259033,-0.21962587535381317,0.09983892738819122,-0.02803283929824829,0.5137491226196289,-0.5848525166511536,1.563788652420044,-0.1766051948070526,1.163782000541687,0.7469160556793213,3.8140792846679688,-0.8994588255882263,0.003990224562585354,-2.684612274169922,-0.15342977643013,1.9931840896606445,-1.5009875297546387,-0.6508311033248901,1741523153.118768,1741523152033,0.4831419372558594,0.5700658569335938,-1.7470090382767487,3.6321689453125,3.2000527343750003
1741523153.1258757,0.9996960461139679,0.009126542093843554,0.0654293414949951,-0.9978154676596974,0.4605455994606018,-0.5084560513496399,-0.44556719064712524,-29.160358428955078,-11.036133766174316,10.433218002319336,-0.5289154052734375,0.20008373260498047,0.21915769577026367,-1.3554061651229858,0.005531395319849253,-0.5811780095100403,0.14476996660232544,1.3534988164901733,0.011635004542768002,0.5838482975959778,0.10700388997793198,-0.6647211313247681,-0.011635004542768002,-0.1192111074924469,0.882543683052063,-0.31548190116882324,-0.008288553915917873,-0.6536583304405212,0.013923857361078262,-0.11234454810619354,0.7845044732093811,-0.2666777968406677,-0.017140569165349007,0.8911069631576538,-0.05620066821575165,-0.10696335136890411,0.6415697932243347,-0.019723545759916306,-0.6403980851173401,0.1300956755876541,-0.018693743273615837,0.059564244002103806,1.1176207065582275,0.3721681833267212,-0.52424556016922,0.9366709589958191,-0.6452258825302124,-1.6406044960021973,1.8870015144348145,0.6876413226127625,-0.46202853322029114,-0.03617554530501366,-2.9469377994537354,0.0322856642305851,-2.207390308380127,0.4694325923919678,1741523153.118768,1741523152033,0.4831419372558594,0.5700658569335938,-1.7470090382767487,3.6321689453125,3.2000527343750003
1741523153.1458905,0.988718181848526,0.01102424246897969,0.0719962609426607,-0.9973439750097562,-0.394326388835907,0.126104474067688,-0.5167542099952698,2.4327614307403564,-2.735074758529663,15.962737083435059,-0.5506601333618164,0.18253612518310547,0.2134355753660202,-1.3470137119293213,0.005149920005351305,-0.6029220819473267,0.1516365259885788,1.3531173467636108,0.010872052982449532,0.6017776727676392,0.10662241280078888,-0.6185625791549683,-0.008201723918318748,-0.1203555315732956,0.8516441583633423,-0.2987809479236603,-0.010457472875714302,-0.6540398001670837,-0.01506828423589468,-0.1504921019077301,0.811589241027832,-0.3034988045692444,-0.005197884049266577,-0.709958016872406,-0.41365230083465576,-0.2734137177467346,0.6154369711875916,-0.006356122903525829,-1.19904625415802,0.5393838286399841,0.05488353967666626,-0.05340365692973137,1.1511164903640747,0.2720191180706024,1.8882426023483276,0.2483251690864563,-0.08998142182826996,-1.109838604927063,0.6917368173599243,0.010926639661192894,-0.04776846244931221,-1.8516969680786133,-1.4694764614105225,1.567250370979309,-1.8907058238983154,0.3544388711452484,1741523153.118768,1741523152033,0.4831419372558594,0.5700658569335938,-1.7470090382767487,3.6321689453125,3.2000527343750003
1741523153.1659234,0.9790827035903931,0.006949731548666563,0.0830435764423423,-0.9965216834786217,-0.48775485157966614,-0.21928705275058746,-0.5537465214729309,0.7228630781173706,7.565114974975586,6.565600395202637,-0.5052642822265625,0.18711376190185547,0.20618753135204315,-1.3290843963623047,0.005149920005351305,-0.6235218048095703,0.16384375095367432,1.3645615577697754,0.012397955171763897,0.614366352558136,0.14133669435977936,-0.6422140598297119,0.004005493130534887,-0.12722209095954895,0.848210871219635,-0.30203112959861755,-0.0058499411679804325,-0.6643396615982056,-0.03299763426184654,-0.1813916265964508,0.8360036611557007,-0.3514285683631897,-0.012913762591779232,1.2209423780441284,0.11022531241178513,-0.3812657594680786,1.2956839799880981,-0.03496633842587471,-0.9098622798919678,0.8551673889160156,0.7398085594177246,0.09417907148599625,0.7576791644096375,1.7587440013885498,-1.1530789136886597,0.8407741189002991,-0.5851722359657288,0.026914561167359352,-0.2477474808692932,0.09639403969049454,-0.4637605547904968,-0.6020551919937134,-1.899237871170044,1.1546425819396973,-2.3934426307678223,-0.3161606192588806,1741523153.118768,1741523152033,0.4831419372558594,0.5700658569335938,-1.7470090382767487,3.6321689453125,3.2000527343750003
1741523153.1859384,0.9568754136562347,0.010690174402819134,0.09504309269083672,-0.9954157577128253,-0.6444376707077026,0.31479620933532715,-1.058337688446045,14.805026054382324,6.425172328948975,3.1723873615264893,-0.507171630859375,0.17338085174560547,0.1962691694498062,-1.311155080795288,0.00476844422519207,-0.6399252414703369,0.17757686972618103,1.3672319650650024,0.01125352829694748,0.6280995011329651,0.1653696447610855,-0.620088517665863,0.010109102353453636,-0.14667734503746033,0.8478294014930725,-0.3104279637336731,-0.007370833307504654,-0.6719691753387451,-0.0398641936480999,-0.22716869413852692,0.8783474564552307,-0.3838479220867157,0.003688341472297907,0.017029065638780594,-0.33038994669914246,-0.5333729982376099,1.1073017120361328,0.005134406965225935,-0.9081118106842041,0.9256463050842285,0.03872844576835632,-0.0780121237039566,0.9200506210327148,1.345902442932129,1.0274245738983154,0.1728033721446991,-0.6945169568061829,-0.3284839987754822,-0.5056560635566711,-0.18071363866329193,-0.4016795754432678,-0.6595871448516846,-2.0709474086761475,2.2706680297851562,-1.4174543619155884,0.9747601747512817,1741523153.2218742,1741523152133,0.48081640625,0.5745624389648437,-1.9038218514781409,3.7795078125,3.260748779296875
1741523153.2060153,0.9301484227180481,0.0021717657026744577,0.10393018225953458,-0.9945822241771831,-0.4227834939956665,-0.353070467710495,-1.5613696575164795,-1.128343939781189,3.808110475540161,14.17018985748291,-0.4846649169921875,0.17605113983154297,0.18711376190185547,-1.2978034019470215,0.005149920005351305,-0.6597619652748108,0.18940261006355286,1.364943027496338,0.011635004542768002,0.6429770588874817,0.19398032128810883,-0.6239032745361328,0.013923857361078262,-0.1501106321811676,0.8348592519760132,-0.32051733136177063,-0.016348842531442642,-0.6967650651931763,-0.06504157930612564,-0.2607385218143463,0.9317540526390076,-0.38824957609176636,0.012371571734547615,0.66536945104599,0.06958658993244171,-0.43530628085136414,0.8494907021522522,0.0018560315947979689,-0.9311388731002808,0.7061304450035095,-0.16207300126552582,0.056672994047403336,0.9642125964164734,1.0685545206069946,0.10881971567869186,0.2931516468524933,-0.32223427295684814,-0.3454650938510895,-0.4074326753616333,-0.46050673723220825,-1.2348612546920776,-1.1417601108551025,-1.696068286895752,2.6331474781036377,-0.03409016504883766,0.09843190759420395,1741523153.2218742,1741523152133,0.48081640625,0.5745624389648437,-1.9038218514781409,3.7795078125,3.260748779296875
1741523153.2259977,0.9005417823791504,0.00011763877382842826,0.10366348409458809,-0.9946124211100975,0.03631504997611046,0.0945168286561966,-1.3523731231689453,10.104161262512207,-2.72937273979187,5.4988908767700195,-0.47283935546875,0.15545082092285156,0.1817730963230133,-1.2897924184799194,0.005531395319849253,-0.6719691753387451,0.1970321238040924,1.358839511871338,0.010872052982449532,0.6620507836341858,0.1966506391763687,-0.6017776727676392,0.02536812424659729,-0.15545128285884857,0.8287556171417236,-0.3302858769893646,-0.015161995775997639,-0.7146944403648376,-0.07610437273979187,-0.28973066806793213,0.9882124066352844,-0.37100547552108765,0.003146803006529808,0.3833552896976471,-0.5811324715614319,-0.18144020438194275,0.4621795415878296,0.022653739899396896,-0.598646879196167,0.5686937570571899,-0.4704706370830536,-0.0924767479300499,1.3747938871383667,0.09768866747617722,0.7403475046157837,0.3216336965560913,0.10157454758882523,-0.6000468730926514,-0.5474874973297119,0.009730974212288857,-0.8739128708839417,-0.37779486179351807,-1.2544045448303223,2.7674307823181152,1.011391520500183,-0.3016510307788849,1741523153.2218742,1741523152133,0.48081640625,0.5745624389648437,-1.9038218514781409,3.7795078125,3.260748779296875
1741523153.2460248,0.8842310905456543,-0.010615476326634052,0.10017503124916043,-0.9949131996192373,0.17638282477855682,-0.46844610571861267,-0.775897204875946,-15.510964393615723,-4.423659801483154,15.885918617248535,-0.4648275375366211,0.15430641174316406,0.17566949129104614,-1.2867405414581299,0.005531395319849253,-0.6826505064964294,0.21190966665744781,1.3454878330230713,0.010490577667951584,0.6845578551292419,0.1844434291124344,-0.5941481590270996,0.029182879254221916,-0.14286258816719055,0.8112077713012695,-0.3427911698818207,-0.020106889307498932,-0.734912633895874,-0.08030059933662415,-0.2904936373233795,1.0305562019348145,-0.34006261825561523,0.004347550682723522,0.25893834233283997,-0.08325877040624619,-0.41059452295303345,0.19595612585544586,-0.017543599009513855,-0.5606405138969421,1.0984539985656738,-0.9436700940132141,-0.0005218884907662868,1.4571810960769653,-0.8156408667564392,0.7801378965377808,0.4524853527545929,0.33348190784454346,-0.6508567333221436,-0.6832043528556824,-0.02581769973039627,-0.8621558547019958,-0.3064621686935425,0.09347229450941086,1.8966944217681885,1.4943997859954834,0.15062737464904785,1741523153.2218742,1741523152133,0.48081640625,0.5745624389648437,-1.9038218514781409,3.7795078125,3.260748779296875
1741523153.266051,0.8768784701824188,-0.0135329518747916,0.09154980158470236,-0.9957085381994855,0.43961289525032043,-0.11872749030590057,-0.26112622022628784,1.7474045753479004,-4.641391277313232,7.729684352874756,-0.4541463851928711,0.13904762268066406,0.15735866129398346,-1.2829258441925049,0.005531395319849253,-0.699053943157196,0.23441672325134277,1.3298473358154297,0.010490577667951584,0.7074463963508606,0.16346226632595062,-0.5613412857055664,0.04749370738863945,-0.13981078565120697,0.8085374236106873,-0.35783714056015015,-0.02543729729950428,-0.732623815536499,-0.08525978773832321,-0.290875107049942,1.0488669872283936,-0.31572309136390686,-0.00015678397903684527,0.2809225916862488,-0.40253525972366333,-0.9883542060852051,0.2413959801197052,-0.004995753988623619,-0.8434076905250549,1.573723316192627,-1.0564297437667847,0.007136122789233923,1.5623334646224976,-0.8733275532722473,1.4500341415405273,0.7079126834869385,0.5280827879905701,-0.2768018841743469,-0.8653860092163086,-0.5291306376457214,0.18906550109386444,-0.08847036957740784,-0.11829028278589249,0.7413821220397949,1.1285701990127563,-0.25665712356567383,1741523153.2218742,1741523152133,0.48081640625,0.5745624389648437,-1.9038218514781409,3.7795078125,3.260748779296875
1741523153.2860138,0.8739435374736786,-0.021912342632168486,0.08779492493681146,-0.9958975350886807,0.1508805751800537,-0.4855130612850189,-0.20460088551044464,-10.143343925476074,-4.4856038093566895,9.200922012329102,-0.4407949447631836,0.13714027404785156,0.1337071806192398,-1.2798740863800049,0.005531395319849253,-0.7192721366882324,0.2615014910697937,1.3184030055999756,0.011635004542768002,0.7272831201553345,0.16117341816425323,-0.5567635893821716,0.05359731614589691,-0.12951095402240753,0.7982375621795654,-0.3754449188709259,-0.041652027517557144,-0.7238498330116272,-0.0883115902543068,-0.2946898639202118,1.0503928661346436,-0.30413663387298584,-0.0026320726610720158,0.3847551643848419,-0.08614920824766159,-1.1913055181503296,0.15688146650791168,-0.0002668013039510697,-1.0249847173690796,1.8113452196121216,-0.6556203961372375,0.10466717928647995,1.2619138956069946,-0.027399711310863495,0.48048990964889526,0.4518864154815674,0.2947405278682709,-0.3069378733634949,-0.8382975459098816,-0.625005841255188,0.5431381464004517,-0.3732585310935974,-0.16109241545200348,-0.05679381266236305,0.43578824400901794,-0.02555266208946705,1741523153.3245156,1741523152233,0.49770755004882816,0.5743106079101563,-1.9920599471018279,3.9237116699218753,3.3234462890625003
1741523153.3060806,0.8687944412231445,-0.022956766534922044,0.08567296936593337,-0.9960587980587717,0.13919009268283844,-0.0771685466170311,-0.23525084555149078,-1.739071011543274,-5.666070938110352,7.053116321563721,-0.4293508529663086,0.13027381896972656,0.11005569249391556,-1.2798740863800049,0.005149920005351305,-0.7444495558738708,0.28667888045310974,1.314206838607788,0.01125352829694748,0.7463569045066833,0.16956588625907898,-0.5437933802604675,0.06771191209554672,-0.134470134973526,0.8012893795967102,-0.3912888765335083,-0.050801485776901245,-0.698291003704071,-0.09021896868944168,-0.30079346895217896,1.0362783670425415,-0.3076207637786865,-0.004705788102000952,0.32008227705955505,-0.16583894193172455,-1.1420730352401733,-0.01696142368018627,-0.0010051274439319968,-1.2719732522964478,1.6281119585037231,-0.30564084649086,-0.018825065344572067,1.2932521104812622,0.6160541772842407,0.34537339210510254,0.5570957660675049,-0.028983354568481445,-0.027192454785108566,-0.8143672943115234,-0.5809959173202515,1.3730040788650513,0.032310131937265396,-0.31224411725997925,-0.8580839037895203,-0.29433175921440125,-0.15348419547080994,1741523153.3245156,1741523152233,0.49770755004882816,0.5743106079101563,-1.9920599471018279,3.9237116699218753,3.3234462890625003
1741523153.3260818,0.8647231161594391,-0.027771429744748128,0.08476353268987229,-0.9960140015159753,0.039349351078271866,-0.24113787710666656,-0.23403671383857727,0.38370439410209656,-3.821755886077881,7.951028347015381,-0.4140920639038086,0.12912940979003906,0.09594109654426575,-1.2791110277175903,0.005149920005351305,-0.7681010365486145,0.3068970739841461,1.305432915687561,0.01125352829694748,0.7631418108940125,0.2004653960466385,-0.5529488325119019,0.07839322835206985,-0.1337071806192398,0.805867075920105,-0.40320634841918945,-0.06435870379209518,-0.6712062358856201,-0.09174486994743347,-0.30041199922561646,1.0011825561523438,-0.3257613480091095,-0.0037818870041519403,0.449287086725235,-0.06131118908524513,-0.6308953166007996,0.06606774032115936,-0.0016780806472525,-1.182419776916504,1.2712810039520264,-0.5585461258888245,0.023252809420228004,1.1239019632339478,1.59792959690094,-0.1483994722366333,0.6678577065467834,-0.2616843581199646,0.41086748242378235,-0.522659420967102,-0.5362215638160706,1.3800138235092163,-0.07665141671895981,0.006122673861682415,-1.9056429862976074,-1.011582612991333,0.03185773268342018,1741523153.3245156,1741523152233,0.49770755004882816,0.5743106079101563,-1.9920599471018279,3.9237116699218753,3.3234462890625003
1741523153.346131,0.8563887476921082,-0.02827559312420319,0.08336567579736322,-0.996117791695502,0.08479728549718857,-0.034030016511678696,-0.42191118001937866,1.9076284170150757,-2.782351493835449,9.26732349395752,-0.3961620330810547,0.12569618225097656,0.08907453715801239,-1.2760592699050903,0.005149920005351305,-0.7925154566764832,0.32063019275665283,1.2993292808532715,0.01125352829694748,0.7814526557922363,0.22716869413852692,-0.5529488325119019,0.09212634712457657,-0.1371404528617859,0.8176928162574768,-0.4160568416118622,-0.07224283367395401,-0.6311513185501099,-0.08907453715801239,-0.30231937766075134,0.9397650361061096,-0.35873711109161377,-0.003526883665472269,0.5217742919921875,-0.09147612005472183,-0.2811354398727417,0.25056520104408264,0.0014133803779259324,-1.2605184316635132,0.8104349970817566,-0.46080976724624634,0.002660053316503763,1.2021207809448242,1.3674691915512085,-0.1220242828130722,0.5469350218772888,0.012690638191998005,0.5255662798881531,-0.6392332315444946,-0.39137327671051025,2.030407667160034,0.12732864916324615,-0.16251222789287567,-3.200399160385132,-1.7592846155166626,0.040503937751054764,1741523153.3245156,1741523152233,0.49770755004882816,0.5743106079101563,-1.9920599471018279,3.9237116699218753,3.3234462890625003
1741523153.3661447,0.844216376543045,-0.03250589079892945,0.08122952393536732,-0.9961652129564663,0.13219641149044037,-0.1234239935874939,-0.6909537315368652,-4.006662368774414,-0.27501773834228516,10.702434539794922,-0.3789958953857422,0.12493324279785156,0.09136339277029037,-1.2676668167114258,0.005149920005351305,-0.8146410584449768,0.3240634799003601,1.293225646018982,0.01125352829694748,0.7990005612373352,0.2660791873931885,-0.5659189820289612,0.09937438368797302,-0.12455176562070847,0.8268482685089111,-0.4265923798084259,-0.07787170261144638,-0.5838482975959778,-0.08258945494890213,-0.3118562698364258,0.8558403849601746,-0.40594932436943054,-0.005694579798728228,0.510360062122345,-0.0034028422087430954,0.15786156058311462,0.5650004148483276,0.006212304811924696,-1.1081589460372925,0.1721779853105545,-0.3033292293548584,0.013030213303864002,1.1685699224472046,1.794039011001587,-0.6026716232299805,0.31625616550445557,0.6389558911323547,0.5614429712295532,-0.5227221846580505,-0.20218659937381744,2.5124175548553467,0.2657630145549774,-0.32078850269317627,-4.5910773277282715,-2.494359254837036,-0.0567966029047966,1741523153.3245156,1741523152233,0.49770755004882816,0.5743106079101563,-1.9920599471018279,3.9237116699218753,3.3234462890625003
1741523153.386236,0.8217872679233551,-0.02896952211956466,0.07149509092234292,-0.9970201696867371,0.4910115897655487,0.2985454499721527,-1.137673020362854,7.594903945922852,5.5163655281066895,18.490612030029297,-0.3645000457763672,0.10738563537597656,0.10166323184967041,-1.2604187726974487,0.005149920005351305,-0.8367666006088257,0.32024872303009033,1.2836887836456299,0.010872052982449532,0.8199816942214966,0.2920195460319519,-0.5617227554321289,0.09250781685113907,-0.11615930497646332,0.8455405235290527,-0.4334115982055664,-0.07201134413480759,-0.5407415628433228,-0.08297093212604523,-0.3271152675151825,0.7631418108940125,-0.44426602125167847,-0.006746809929609299,0.42216071486473083,-0.46128711104393005,0.5746124982833862,0.3931516706943512,-0.015347184613347054,-1.1033835411071777,-0.3460591435432434,-0.7274283766746521,-0.018000528216362,1.3972631692886353,1.200446605682373,0.33905860781669617,-0.5388943552970886,0.3724868893623352,0.8794232606887817,-0.3523171842098236,0.47388970851898193,1.933505654335022,-0.09497246891260147,-0.8878016471862793,-4.1669745445251465,-1.3235788345336914,-0.3019731044769287,1741523153.42665,1741523152333,0.5322979736328125,0.5657825317382813,-2.1978930689013056,4.061292236328125,3.38094287109375
1741523153.406244,0.7906864881515503,-0.02811053154524979,0.06313289224074681,-0.9976091599086095,0.25253355503082275,0.06729389727115631,-1.7919886112213135,3.444687843322754,-4.174306392669678,12.4871187210083,-0.3469524383544922,0.11539649963378906,0.1192111074924469,-1.2642335891723633,0.005531395319849253,-0.8539330363273621,0.3076600432395935,1.2695741653442383,0.010872052982449532,0.8325703740119934,0.3091859221458435,-0.5521858334541321,0.09899290651082993,-0.1199740618467331,0.8520256280899048,-0.44180092215538025,-0.05620065703988075,-0.5315861701965332,-0.06427863240242004,-0.34733349084854126,0.7696269154548645,-0.43783605098724365,-0.040596380829811096,0.5279659032821655,0.18285392224788666,0.9669690132141113,-0.2477537989616394,-0.018891289830207825,-0.8814560770988464,-0.9332104921340942,-0.902381956577301,0.06300622224807739,0.7006588578224182,0.6547560095787048,0.6086763143539429,0.2095777839422226,-0.2952403724193573,0.019536461681127548,-0.5988406538963318,1.0920573472976685,0.02887807972729206,0.9932757616043091,-0.5648197531700134,0.40335848927497864,0.10638366639614105,-1.5738822221755981,1741523153.42665,1741523152333,0.5322979736328125,0.5657825317382813,-2.1978930689013056,4.061292236328125,3.38094287109375
1741523153.4262676,0.7554934620857239,-0.037201107420090286,0.06263279634429723,-0.9973430755907481,-0.03586749732494354,-0.3176354467868805,-1.7641419172286987,-1.455285668373108,-0.6800265312194824,9.851808547973633,-0.3465709686279297,0.13866615295410156,0.14782176911830902,-1.2619446516036987,0.005149920005351305,-0.8714808821678162,0.28286412358283997,1.2649965286254883,0.01201647985726595,0.848210871219635,0.3091859221458435,-0.5277714133262634,0.08068207651376724,-0.14171816408634186,0.8424887657165527,-0.4619417190551758,-0.024843644350767136,-0.5189974904060364,-0.06504157930612564,-0.3107118308544159,0.7558938264846802,-0.4417930245399475,-0.038218848407268524,0.06605365872383118,0.6032654643058777,1.436546802520752,0.19280464947223663,-0.009271321818232536,-0.881609320640564,-1.832062005996704,-0.19547292590141296,-1.706088187347632e-05,1.1438533067703247,0.04684995114803314,1.1441148519515991,-1.1334604024887085,-1.30154287815094,-0.38179126381874084,-1.080445408821106,1.4704903364181519,1.1910803318023682,0.03872653841972351,2.245410680770874,-0.8861700296401978,-0.11996582895517349,0.17673110961914062,1741523153.42665,1741523152333,0.5322979736328125,0.5657825317382813,-2.1978930689013056,4.061292236328125,3.38094287109375
1741523153.446349,0.731192946434021,-0.039697629011545686,0.053592422135203543,-0.9977734966116026,0.5036216974258423,0.014227988198399544,-1.2507622241973877,-5.763350009918213,-2.410529851913452,10.821107864379883,-0.3274965286254883,0.14553260803222656,0.17490653693675995,-1.2646150588989258,0.005912871100008488,-0.890554666519165,0.25387197732925415,1.2634705305099487,0.010490577667951584,0.8703364729881287,0.30308231711387634,-0.5254825949668884,0.04901960864663124,-0.18863965570926666,0.8680475950241089,-0.49121904373168945,-0.0035428625997155905,-0.4812313914299011,-0.04482337832450867,-0.2771419882774353,0.7299534678459167,-0.4372203052043915,-0.039976924657821655,0.5456206202507019,0.30506646633148193,1.2594558000564575,-0.3756864070892334,-0.0028427785728126764,-0.9867053031921387,-1.8659782409667969,-0.2519077658653259,-0.07875305414199829,1.519418478012085,-0.4536908268928528,0.22376777231693268,-1.5334070920944214,-2.3966002464294434,1.7491587400436401,-1.4874132871627808,0.9891524910926819,1.267823576927185,1.2676734924316406,0.9585736989974976,-1.2335059642791748,0.3151821196079254,-0.2456146776676178,1741523153.42665,1741523152333,0.5322979736328125,0.5657825317382813,-2.1978930689013056,4.061292236328125,3.38094287109375
1741523153.4678128,0.7231118083000183,-0.03739425589523339,0.04163258685858999,-0.9984329708786183,0.5383196473121643,0.12178826332092285,-0.3201533555984497,-2.087311267852783,-5.745091438293457,9.221575736999512,-0.3217744827270508,0.14324378967285156,0.1993209719657898,-1.2711000442504883,0.005149920005351305,-0.9119172692298889,0.23746852576732635,1.2527892589569092,0.010490577667951584,0.8867399096488953,0.2794308364391327,-0.5521858334541321,0.0024795911740511656,-0.21801327168941498,0.9367132186889648,-0.5213915109634399,0.0015612909337505698,-0.47932401299476624,-0.029182879254221916,-0.25654229521751404,0.7162203192710876,-0.4339788556098938,-0.04806201905012131,0.1840439736843109,0.02392275258898735,1.2180414199829102,-0.3042455017566681,-0.040492527186870575,-1.071000337600708,-1.0178961753845215,-0.7716194987297058,-0.025443576276302338,1.0985249280929565,-1.2993282079696655,-1.6658625602722168,-2.501685857772827,-1.2093205451965332,3.6702606678009033,-1.430228352546692,0.1750182807445526,0.2146173119544983,0.6162276268005371,1.2724601030349731,-0.5330421328544617,0.12458046525716782,-0.13731911778450012,1741523153.42665,1741523152333,0.5322979736328125,0.5657825317382813,-2.1978930689013056,4.061292236328125,3.38094287109375
1741523153.4864686,0.7273253798484802,-0.03148149131385417,0.036109143411059044,-0.9988518636248197,0.3400840163230896,0.2907465696334839,0.22637514770030975,4.268723487854004,1.7312753200531006,8.226826667785645,-0.3202486038208008,0.14476966857910156,0.2138170450925827,-1.2665224075317383,0.005531395319849253,-0.9344243407249451,0.2134355753660202,1.2402005195617676,0.010490577667951584,0.9035248160362244,0.24967575073242188,-0.6139848828315735,-0.04482337832450867,-0.21076524257659912,1.0545891523361206,-0.5377678871154785,-0.006663580425083637,-0.4812313914299011,-0.021171892061829567,-0.24052032828330994,0.7108796834945679,-0.43340185284614563,-0.04948120936751366,0.043541327118873596,0.08433816581964493,0.7165051102638245,0.3358510732650757,0.004652395378798246,-1.0937435626983643,-1.6846200227737427,-0.8450766205787659,0.009489510208368301,1.109761118888855,-1.4398876428604126,-3.484794855117798,-2.232814311981201,0.5674177408218384,6.181748867034912,-0.6704075932502747,-0.3605383634567261,-0.2505217492580414,0.5675234794616699,0.6218019723892212,-0.2831163704395294,-0.018136732280254364,-0.20470482110977173,1741523153.5290072,1741523152433,0.5818687744140625,0.5606871337890625,-2.0860679137315166,4.19691357421875,3.439267822265625
1741523153.5063586,0.7351601123809814,-0.024616010436642757,0.03143440849905712,-0.9992026471104335,0.15936696529388428,0.39257654547691345,0.3567658066749573,1.135366678237915,2.2424352169036865,8.343033790588379,-0.2988862991333008,0.14896583557128906,0.23441672325134277,-1.2646150588989258,0.005149920005351305,-0.9565499424934387,0.182154580950737,1.2314265966415405,0.010490577667951584,0.9164950251579285,0.2290760725736618,-0.7078278660774231,-0.07343403995037079,-0.1989395022392273,1.1934462785720825,-0.5384747982025146,0.0020574266090989113,-0.49496451020240784,-0.014686808921396732,-0.2313649207353592,0.7089722752571106,-0.43712320923805237,-0.058353688567876816,0.5923559665679932,0.12271010875701904,1.0749415159225464,0.16943788528442383,-0.02863621897995472,-1.0832096338272095,-2.1620442867279053,-0.454782098531723,0.00122933741658926,0.780454695224762,-0.9374175667762756,-4.766231536865234,-1.3086793422698975,0.5151497721672058,6.83787727355957,0.08338458091020584,0.4794125556945801,-0.6557513475418091,0.14596524834632874,0.5670667886734009,0.019634762778878212,-0.18170824646949768,-0.44278740882873535,1741523153.5290072,1741523152433,0.5818687744140625,0.5606871337890625,-2.0860679137315166,4.19691357421875,3.439267822265625
1741523153.5265028,0.7388066649436951,-0.015293274847111257,0.03197137239001852,-0.9993717762134117,-0.0031189555302262306,0.4609769880771637,0.17159514129161835,2.628936767578125,-2.7273306846618652,9.615377426147461,-0.2935457229614258,0.15392494201660156,0.264934778213501,-1.2569855451583862,0.005149920005351305,-0.9699015617370605,0.14095520973205566,1.231045126914978,0.010490577667951584,0.9260318875312805,0.22373540699481964,-0.8012893795967102,-0.10051880776882172,-0.182154580950737,1.3029297590255737,-0.5246397256851196,-0.0069573731161653996,-0.5086976289749146,-0.010109102353453636,-0.230601966381073,0.7127870321273804,-0.44118767976760864,-0.06532613188028336,0.18897569179534912,0.1621905118227005,1.660069465637207,0.4957793056964874,0.006837098393589258,-0.5373549461364746,-2.851356029510498,-0.035273388028144836,0.0014930384932085872,0.5885892510414124,-0.07825759053230286,-4.4549078941345215,-1.6474823951721191,0.9190257787704468,4.864985466003418,0.7729981541633606,-0.6222965717315674,-0.7723590731620789,0.4254140853881836,-0.05283299833536148,0.1725948452949524,-0.2019265741109848,-0.30567458271980286,1741523153.5290072,1741523152433,0.5818687744140625,0.5606871337890625,-2.0860679137315166,4.19691357421875,3.439267822265625
1741523153.5474062,0.7357940673828125,-0.0098584159553536,0.0330647094405866,-0.9994045910563253,-0.055052969604730606,0.2741110324859619,-0.2985944151878357,-1.4854300022125244,-0.5556016564369202,11.98795223236084,-0.2790489196777344,0.16498851776123047,0.30193790793418884,-1.2546966075897217,0.005149920005351305,-0.9733348488807678,0.09327077120542526,1.2314265966415405,0.010872052982449532,0.9306095838546753,0.22793163359165192,-0.8585107326507568,-0.12417028844356537,-0.1653696447610855,1.346799373626709,-0.5030160546302795,-0.008982369676232338,-0.5228122472763062,-0.005149920005351305,-0.2294575423002243,0.7131685614585876,-0.4478386640548706,-0.07448194175958633,0.44273751974105835,0.39941224455833435,1.8672124147415161,0.06399089843034744,-0.039806071668863297,-0.1113615483045578,-3.103713035583496,0.03781301528215408,0.02817465178668499,0.24897806346416473,0.003595267655327916,-2.4363739490509033,-0.9928863644599915,0.505953311920166,1.5120710134506226,1.076447606086731,0.2848771810531616,-0.3787064254283905,0.21596385538578033,0.08915112167596817,0.10635104030370712,-0.32669562101364136,-0.5401224493980408,1741523153.5290072,1741523152433,0.5818687744140625,0.5606871337890625,-2.0860679137315166,4.19691357421875,3.439267822265625
1741523153.566574,0.7223889231681824,-0.0015256758681221126,0.032802782360637606,-0.9994606794579495,0.03918685391545296,0.3989923596382141,-0.6060209274291992,0.40181657671928406,4.472529411315918,9.06887435913086,-0.2702751159667969,0.16651439666748047,0.3423742949962616,-1.2531707286834717,0.005531395319849253,-0.969520092010498,0.04940108209848404,1.2340970039367676,0.010872052982449532,0.9336614012718201,0.2302204966545105,-0.8695735335350037,-0.13065537810325623,-0.15621423721313477,1.3139925003051758,-0.48014959692955017,0.00348680024035275,-0.5266270041465759,-0.00019073777366429567,-0.2283131182193756,0.7135500311851501,-0.4548313021659851,-0.08596401661634445,0.23991088569164276,0.10366267710924149,1.9927009344100952,0.13959775865077972,0.07574073225259781,0.2797476649284363,-2.847612142562866,0.21055005490779877,-0.026035023853182793,0.18278157711029053,0.10460004210472107,-0.3528721034526825,-0.23065784573554993,0.4059678912162781,-2.2746434211730957,1.0864040851593018,0.37334954738616943,-0.16182437539100647,0.1723114401102066,0.10738997906446457,0.009705698117613792,-0.3312171399593353,-0.5161883234977722,1741523153.5290072,1741523152433,0.5818687744140625,0.5606871337890625,-2.0860679137315166,4.19691357421875,3.439267822265625
1741523153.5865903,0.7016918659210205,0.003833895237264779,0.02963262211605476,-0.9995535047979356,0.17961956560611725,0.2827785313129425,-1.0347310304641724,-2.405627727508545,-0.9293125867843628,10.197566986083984,-0.2515830993652344,0.17338085174560547,0.3778515160083771,-1.2558410167694092,0.005531395319849253,-0.9584572911262512,0.014686808921396732,1.2386746406555176,0.01125352829694748,0.9336614012718201,0.2283131182193756,-0.8524070978164673,-0.12455176562070847,-0.15583276748657227,1.206416368484497,-0.46826082468032837,-0.001932669896632433,-0.5308232307434082,0.000572213320992887,-0.22602425515651703,0.7146944403648376,-0.45679667592048645,-0.09061954915523529,0.5414095520973206,0.1521073877811432,1.7418509721755981,-0.33030781149864197,0.0026397795882076025,0.5834411978721619,-2.1904988288879395,0.27543553709983826,0.06455632299184799,0.027444975450634956,-0.14782296121120453,1.1190996170043945,0.351800799369812,0.031137829646468163,-5.763277053833008,0.4342036247253418,-0.2879581153392792,-0.10653106123209,0.07125741988420486,0.0050253537483513355,0.09969285130500793,-0.06985249370336533,-0.03190711885690689,1741523153.6349807,1741523152533,0.6133681030273438,0.5639253540039063,-2.0083501562272073,4.32894580078125,3.49520654296875
1741523153.6066253,0.6851722598075867,0.010848551522604983,0.024075456204730842,-0.999651279866332,0.309613436460495,0.3538428246974945,-0.7517977952957153,1.713484525680542,-0.2350831925868988,6.260645389556885,-0.24395370483398438,0.17147350311279297,0.4022659659385681,-1.2585114240646362,0.005531395319849253,-0.9447242021560669,-0.00858320016413927,1.2436338663101196,0.01125352829694748,0.9367132186889648,0.2149614691734314,-0.804341197013855,-0.10700388997793198,-0.15354390442371368,1.0576409101486206,-0.4779718220233917,0.00477191898971796,-0.5308232307434082,0.0020981156267225742,-0.2317463904619217,0.7166017889976501,-0.45681068301200867,-0.0895744040608406,0.23243102431297302,-0.0376778207719326,1.0275992155075073,-0.07331390678882599,-0.005139532499015331,0.6841137409210205,-1.4826982021331787,0.3489875793457031,0.0048789167776703835,0.2685002386569977,-0.7697538733482361,2.4854936599731445,0.9028478860855103,0.21663334965705872,-7.400636672973633,-0.6406028866767883,0.48728156089782715,-0.04593025892972946,0.12973076105117798,-0.3642388880252838,0.07260259985923767,0.004395922180265188,0.018222874030470848,1741523153.6349807,1741523152533,0.6133681030273438,0.5639253540039063,-2.0083501562272073,4.32894580078125,3.49520654296875
1741523153.6266556,0.6795496344566345,0.01616761053437049,0.018106018955521337,-0.9997053468133454,0.24142873287200928,0.27354514598846436,-0.19113624095916748,-6.561832904815674,-9.912040710449219,3.692399263381958,-0.23479843139648438,0.17528820037841797,0.4091325104236603,-1.2585114240646362,0.005531395319849253,-0.9325169920921326,-0.02040894143283367,1.2436338663101196,0.01125352829694748,0.9447242021560669,0.18940261006355286,-0.7558938264846802,-0.0879301130771637,-0.12989242374897003,0.8955138325691223,-0.5073112845420837,0.009339172393083572,-0.5315861701965332,0.008964675478637218,-0.2500572204589844,0.7181277275085449,-0.4557814300060272,-0.09089773893356323,0.2901113033294678,0.09530112147331238,0.21866898238658905,-0.00046101363841444254,-0.013876378536224365,0.6156954169273376,-0.5701146125793457,-0.07619206607341766,0.011794567108154297,0.4910631477832794,-1.2661935091018677,2.3756604194641113,0.9062740802764893,1.1270172595977783,-8.320182800292969,-1.5262479782104492,0.05540662258863449,-0.0025455220602452755,0.35810965299606323,-0.8238112926483154,0.10604312270879745,0.08158072829246521,-0.02694348432123661,1741523153.6349807,1741523152533,0.6133681030273438,0.5639253540039063,-2.0083501562272073,4.32894580078125,3.49520654296875
1741523153.6466424,0.6863080859184265,0.021937517678903166,0.023365581175922755,-0.9994862655056341,-0.3547162413597107,0.2915823757648468,0.4001193046569824,4.929750442504883,-1.0740962028503418,6.329309463500977,-0.23327255249023438,0.17528820037841797,0.4026474356651306,-1.2550780773162842,0.005149920005351305,-0.9260318875312805,-0.01430533267557621,1.23905611038208,0.010872052982449532,0.9508277773857117,0.17605096101760864,-0.7177462577819824,-0.053215838968753815,-0.10852979123592377,0.7768749594688416,-0.5312435626983643,-0.011078148148953915,-0.5258640646934509,0.01735713705420494,-0.26722362637519836,0.7211795449256897,-0.45161670446395874,-0.08416713774204254,0.07060620933771133,0.03238609805703163,-0.35740116238594055,0.3125244677066803,-0.017173578962683678,0.29992783069610596,0.5901376605033875,-0.3374740183353424,-0.011137780733406544,0.39864036440849304,-0.46461984515190125,1.6522908210754395,2.0030112266540527,0.7147296667098999,-4.979018688201904,-0.5881029963493347,-1.4072318077087402,0.4345095753669739,0.3846345841884613,-0.8021515607833862,0.1287345290184021,0.2347516566514969,0.4496029019355774,1741523153.6349807,1741523152533,0.6133681030273438,0.5639253540039063,-2.0083501562272073,4.32894580078125,3.49520654296875
1741523153.6666877,0.6984080672264099,0.021584823678588286,0.036246301186339897,-0.9991097542497889,-0.5451148152351379,-0.0311809703707695,0.6112901568412781,0.31223881244659424,-11.769695281982422,13.571561813354492,-0.21763134002685547,0.18902111053466797,0.3912031650543213,-1.2436338663101196,0.005912871100008488,-0.9149690866470337,0.008201723918318748,1.2409635782241821,0.01125352829694748,0.9523537158966064,0.17452506721019745,-0.7104982137680054,-0.01735713705420494,-0.1329442262649536,0.8039597272872925,-0.5127661824226379,-0.05327632650732994,-0.5098420977592468,0.02536812424659729,-0.2752346098423004,0.7127870321273804,-0.4444024860858917,-0.07837681472301483,0.39668935537338257,0.3463630676269531,-0.7136460542678833,0.8108400106430054,0.07647856324911118,0.5495845079421997,1.579827904701233,0.36633095145225525,0.07940051704645157,0.036912865936756134,0.34566807746887207,0.2731771767139435,1.7833664417266846,-1.5137759447097778,1.3247411251068115,1.0841500759124756,-2.323835611343384,0.813884973526001,0.7439146637916565,-0.6380447149276733,-0.7238172292709351,0.27014002203941345,0.535289466381073,1741523153.6349807,1741523152533,0.6133681030273438,0.5639253540039063,-2.0083501562272073,4.32894580078125,3.49520654296875
1741523153.6867151,0.7099350690841675,0.02035477246766766,0.046357911174703066,-0.9987174912402945,-0.5653392672538757,-0.22625717520713806,0.3832961320877075,1.7967582941055298,-5.7527546882629395,7.521627902984619,-0.19779491424560547,0.18444347381591797,0.3526741564273834,-1.231045126914978,0.00476844422519207,-0.9111543297767639,0.04749370738863945,1.2493560314178467,0.012397955171763897,0.951209306716919,0.200083926320076,-0.6967650651931763,0.024986648932099342,-0.16117341816425323,0.7902265787124634,-0.49484729766845703,-0.05759034305810928,-0.49458304047584534,0.06618601083755493,-0.308804452419281,0.689517080783844,-0.4453914761543274,-0.046587731689214706,0.5989667177200317,-0.15277095139026642,-2.2004096508026123,0.7957085371017456,-0.05268589407205582,0.12797266244888306,2.6632750034332275,0.5469418168067932,0.04451769217848778,-0.112326979637146,1.0188817977905273,0.7242196202278137,1.9792171716690063,-1.244231939315796,-1.3037265539169312,0.9153157472610474,0.1559363603591919,0.7439225316047668,1.8598555326461792,-1.6599841117858887,-0.9966545701026917,-0.11817611008882523,1.5631924867630005,1741523153.7337525,1741523152633,0.6454435424804688,0.5720077514648437,-2.034152826939557,4.45751611328125,3.55027197265625
1741523153.7104142,0.7166491746902466,0.010131655142442532,0.06249942463463036,-0.997993572867288,-0.816356897354126,-0.46613264083862305,0.4269658625125885,0.45729881525039673,-0.2171134054660797,8.684205055236816,-0.20084667205810547,0.18368053436279297,0.3110933005809784,-1.2268489599227905,0.005149920005351305,-0.9096284508705139,0.09212634712457657,1.2569855451583862,0.011635004542768002,0.9508277773857117,0.22068360447883606,-0.6631952524185181,0.04787518084049225,-0.17376211285591125,0.7497901916503906,-0.4722996652126312,-0.06251458823680878,-0.4827573001384735,0.07572289556264877,-0.3274967670440674,0.7116426229476929,-0.4618181586265564,-0.02082124724984169,-0.053790654987096786,-0.09756015986204147,-1.9562469720840454,0.2154407948255539,0.004558016546070576,0.1214502677321434,3.0182576179504395,0.5203047394752502,-0.11449330300092697,0.061269767582416534,0.9898222088813782,1.596813440322876,0.810606837272644,-0.64458829164505,-1.783155083656311,1.3087992668151855,-0.7940816879272461,0.32178816199302673,0.01357294898480177,-0.6796452403068542,1.7330135107040405,-0.9396403431892395,1.440589189529419,1741523153.7337525,1741523152633,0.6454435424804688,0.5720077514648437,-2.034152826939557,4.45751611328125,3.55027197265625
1741523153.7267485,0.7167220711708069,0.003001571083950784,0.07007777749317862,-0.9975370146879987,-0.18630839884281158,-0.179169699549675,-0.193186953663826,4.822810173034668,2.4000625610351562,6.310532569885254,-0.16956615447998047,0.17566967010498047,0.2626459002494812,-1.2241785526275635,0.005531395319849253,-0.9115357995033264,0.14171816408634186,1.2627075910568237,0.011635004542768002,0.951972246170044,0.2508201599121094,-0.6517509818077087,0.0555046908557415,-0.1989395022392273,0.724612832069397,-0.4261033236980438,-0.11433380097150803,-0.5148012638092041,0.06275273114442825,-0.3278782367706299,0.813878059387207,-0.48897865414619446,0.003319874871522188,0.8701854348182678,-0.1792972832918167,-2.5270891189575195,0.16634121537208557,0.030421040952205658,-0.17424722015857697,3.247596502304077,0.21981662511825562,0.048436716198921204,0.0700438916683197,1.5289891958236694,0.6934743523597717,0.4790525734424591,-1.2025229930877686,-1.3140592575073242,2.4058637619018555,-2.285715103149414,-2.07920503616333,-0.5075294971466064,-0.22820404171943665,5.645040512084961,-1.3840464353561401,1.1012859344482422,1741523153.7337525,1741523152633,0.6454435424804688,0.5720077514648437,-2.034152826939557,4.45751611328125,3.55027197265625
1741523153.7467794,0.7049347758293152,0.001705992721442483,0.06879128399020405,-0.9976296150555143,0.07889250665903091,-0.033245667815208435,-0.6167523860931396,-0.42978188395500183,-3.363563299179077,9.259921073913574,-0.16231822967529297,0.15201759338378906,0.20199130475521088,-1.230282187461853,0.005531395319849253,-0.916876494884491,0.1840619444847107,1.2558410167694092,0.01125352829694748,0.9531166553497314,0.273708701133728,-0.6383993029594421,0.06961929053068161,-0.19169145822525024,0.6860837936401367,-0.37790465354919434,-0.10606178641319275,-0.5937666893005371,0.03299763426184654,-0.325970858335495,0.9668498039245605,-0.5133990049362183,-0.003095148131251335,0.23510988056659698,-0.6085609197616577,-2.89994478225708,-0.5206331610679626,-0.02493959479033947,-0.1914854496717453,2.8306498527526855,-0.47509709000587463,-0.032423123717308044,0.07151754945516586,1.1012219190597534,0.5685096979141235,0.8705480694770813,0.5610650777816772,-1.9917232990264893,2.202732563018799,0.8134673833847046,-4.073629856109619,-1.8792238235473633,0.21568192541599274,7.958515644073486,-1.1794500350952148,-0.5599400997161865,1741523153.7337525,1741523152633,0.6454435424804688,0.5720077514648437,-2.034152826939557,4.45751611328125,3.55027197265625
1741523153.7668273,0.6871433854103088,0.002513037677680639,0.06042296048729141,-0.9981697002451947,0.4987505376338959,0.10259994864463806,-0.9322143197059631,2.999089241027832,-0.7858917117118835,8.314647674560547,-0.15430641174316406,0.12874794006347656,0.14133669435977936,-1.235241413116455,0.005531395319849253,-0.917639434337616,0.22640573978424072,1.2482116222381592,0.010872052982449532,0.952735185623169,0.29926756024360657,-0.6330586671829224,0.09136339277029037,-0.15926603972911835,0.6666285395622253,-0.33606985211372375,-0.08797403424978256,-0.6681544184684753,-0.01773861236870289,-0.31872281432151794,1.125925064086914,-0.5249795913696289,-0.002700106706470251,0.23193323612213135,-0.6380584836006165,-3.2389419078826904,-0.24407343566417694,-0.00954747386276722,-0.05070403590798378,2.8366029262542725,-0.5218362808227539,-0.0045894538052380085,-0.056498073041439056,1.3045567274093628,0.26386135816574097,1.2235263586044312,1.66860032081604,-0.7667022943496704,1.9717999696731567,0.5597013235092163,-3.6176860332489014,-2.5659220218658447,0.2904578745365143,7.7297587394714355,-0.4833829998970032,0.4258008897304535,1741523153.7337525,1741523152633,0.6454435424804688,0.5720077514648437,-2.034152826939557,4.45751611328125,3.55027197265625
1741523153.7868035,0.666731595993042,0.0003669953357003063,0.0481065664634822,-0.9988421414705719,0.5965376496315002,-0.09162092953920364,-1.0238152742385864,-2.8791847229003906,-0.4156760275363922,10.962891578674316,-0.13866615295410156,0.12378883361816406,0.08030059933662415,-1.2356228828430176,0.005531395319849253,-0.9199283123016357,0.26951247453689575,1.2413450479507446,0.010872052982449532,0.9504463076591492,0.3244449496269226,-0.6353475451469421,0.12569619715213776,-0.12073700875043869,0.6498435735702515,-0.31314700841903687,-0.09582585841417313,-0.7066834568977356,-0.07343403995037079,-0.30155640840530396,1.2361714839935303,-0.5255832076072693,0.00851193442940712,0.4684290885925293,-0.16410061717033386,-3.076930284500122,-0.02878708951175213,-0.0016535777831450105,-0.11687465012073517,2.890610933303833,-0.41025254130363464,0.006094302050769329,-0.15537618100643158,1.1780204772949219,-0.11251915246248245,1.7884470224380493,1.9300005435943604,-0.8501119017601013,1.0170375108718872,-0.6149250268936157,-1.4874162673950195,-2.7882437705993652,0.9628630876541138,5.099841594696045,-0.008253944106400013,0.2509334981441498,1741523153.7337525,1741523152633,0.6454435424804688,0.5720077514648437,-2.034152826939557,4.45751611328125,3.55027197265625
1741523153.8068166,0.6483398079872131,-0.005569348656661837,0.03657209078027688,-0.999315497994252,0.5795369148254395,-0.30243340134620667,-0.8631741404533386,4.86470890045166,-0.22318322956562042,6.101375102996826,-0.14095497131347656,0.11501502990722656,0.026512550190091133,-1.23447847366333,0.005531395319849253,-0.925650417804718,0.3122377395629883,1.2386746406555176,0.010872052982449532,0.9496833682060242,0.3408484160900116,-0.619325578212738,0.16269932687282562,-0.0871671661734581,0.647936224937439,-0.3058250844478607,-0.11115694791078568,-0.7097352743148804,-0.1203555315732956,-0.2756160795688629,1.2602044343948364,-0.5261754989624023,-0.0017617434496060014,0.001321205636486411,-0.21907392144203186,-2.5554511547088623,0.09994093328714371,0.002534455619752407,-0.25091496109962463,2.855701208114624,-0.20743785798549652,-0.004514180589467287,-0.068140909075737,0.9480959177017212,0.6702080965042114,1.973471999168396,1.6475636959075928,-0.036944955587387085,0.2262178361415863,-0.5765778422355652,0.19415558874607086,-2.1818132400512695,1.545836091041565,0.4927713871002197,-0.06124898046255112,-0.5691623687744141,1741523153.8464653,1741523152733,0.6817982788085938,0.5680530395507812,-2.2071318343440582,4.57878857421875,3.601541259765625
1741523153.8268735,0.6442031264305115,-0.016222283174284913,0.023977340382076544,-0.9995808745053175,0.6000198125839233,-0.5092899799346924,-0.17646975815296173,1.3877687454223633,-3.5277087688446045,6.243380546569824,-0.13866615295410156,0.11997413635253906,-0.012779430486261845,-1.235241413116455,0.005149920005351305,-0.9275577664375305,0.35229265689849854,1.236767292022705,0.010490577667951584,0.9485389590263367,0.35229265689849854,-0.6105515956878662,0.1981765478849411,-0.05703059583902359,0.6589990258216858,-0.30950838327407837,-0.11619523167610168,-0.6757839322090149,-0.14629587531089783,-0.23899443447589874,1.19306480884552,-0.5328274965286255,-0.0017026022542268038,0.06566347926855087,0.0689249336719513,-1.8000469207763672,-0.08492062985897064,-0.05826748162508011,-0.09686929732561111,2.638625383377075,-0.14512577652931213,-0.004953016526997089,-0.08219732344150543,0.5078548789024353,0.454573392868042,1.599839687347412,1.4846057891845703,0.7456125617027283,-0.20695248246192932,-0.23484066128730774,1.9541319608688354,-1.1216185092926025,1.8208708763122559,-4.116354465484619,-0.44591087102890015,0.19146233797073364,1741523153.8464653,1741523152733,0.6817982788085938,0.5680530395507812,-2.2071318343440582,4.57878857421875,3.601541259765625
1741523153.846877,0.6469863057136536,-0.026541116732200904,0.015906909367798663,-0.9995211550322345,0.37694093585014343,-0.5360682606697083,0.046112556010484695,1.4209965467453003,2.9981870651245117,5.856955051422119,-0.13675880432128906,0.11615943908691406,-0.048256658017635345,-1.23600435256958,0.005531395319849253,-0.9294651746749878,0.39463645219802856,1.2402005195617676,0.01201647985726595,0.9443427324295044,0.36640727519989014,-0.6097886562347412,0.21190966665744781,-0.04711223021149635,0.6887540817260742,-0.32172709703445435,-0.11084529757499695,-0.6177996397018433,-0.16155488789081573,-0.21114671230316162,1.031700611114502,-0.5568854212760925,-0.005780291743576527,0.0485382154583931,-0.08365108072757721,-1.8911324739456177,-0.03459003195166588,0.032606691122055054,-0.12778708338737488,3.029975414276123,0.2860865890979767,0.16598808765411377,-0.4162483215332031,0.9446911811828613,-0.06930295377969742,0.326285719871521,0.27024051547050476,1.6317110061645508,-0.6986443996429443,0.37733733654022217,2.9345693588256836,-0.7839599847793579,1.2261779308319092,-8.904706001281738,-1.4086931943893433,-0.37419018149375916,1741523153.8464653,1741523152733,0.6817982788085938,0.5680530395507812,-2.2071318343440582,4.57878857421875,3.601541259765625
1741523153.8720145,0.6345226764678955,-0.024752416930995,0.009407277314845697,-0.999649349016742,0.33624598383903503,0.32188257575035095,-0.6719186902046204,13.075276374816895,-24.211305618286133,41.56694793701172,-0.13485145568847656,0.08716678619384766,-0.07686731964349747,-1.2356228828430176,0.004005493130534887,-0.9439612627029419,0.43163958191871643,1.2409635782241821,0.01125352829694748,0.9370946884155273,0.41256579756736755,-0.6261920928955078,0.18863965570926666,-0.06427863240242004,0.7417792081832886,-0.33989229798316956,-0.08798530697822571,-0.54417484998703,-0.1810101419687271,-0.212672621011734,0.8581292629241943,-0.5412693023681641,0.055078648030757904,0.0424639917910099,-0.874578058719635,-1.2892390489578247,0.055031970143318176,-0.13706395030021667,-0.7796856164932251,2.0020222663879395,-0.04517127573490143,-0.11026837676763535,-0.40451136231422424,2.460367202758789,-0.9182278513908386,-0.553322970867157,-1.3366615772247314,3.013943672180176,-0.9141370058059692,1.2418651580810547,3.3897249698638916,-1.4330077171325684,-1.007401943206787,-6.011689186096191,2.843895196914673,4.949389457702637,1741523153.8464653,1741523152733,0.6817982788085938,0.5680530395507812,-2.2071318343440582,4.57878857421875,3.601541259765625
1741523153.8869636,0.6018513441085815,-0.03087744248388422,0.014782749920814986,-0.9994138551423195,-0.32238808274269104,-0.2820267975330353,-1.6693568229675293,-6.266032695770264,-11.031451225280762,14.837636947631836,-0.13141822814941406,0.09327030181884766,-0.07381551712751389,-1.2314265966415405,0.004386968910694122,-0.9538795948028564,0.4343098998069763,1.2424894571304321,0.013542382046580315,0.9203097820281982,0.4514763057231903,-0.6376363635063171,0.1661325991153717,-0.1371404528617859,0.7925154566764832,-0.36665186285972595,-0.05584006756544113,-0.543411910533905,-0.14744029939174652,-0.25120165944099426,0.8691920638084412,-0.46636688709259033,0.08883468061685562,0.026504717767238617,0.09614023566246033,0.4280758798122406,0.32818886637687683,-0.01507575437426567,-0.31879162788391113,-0.07203691452741623,0.19101078808307648,0.2602880895137787,-0.930701494216919,1.8439538478851318,-0.3531646132469177,-2.1112828254699707,-3.1536152362823486,2.4767391681671143,-1.5443990230560303,1.895024299621582,-0.5792081356048584,1.4718811511993408,-0.7098322510719299,-1.098344087600708,3.110304355621338,0.5120348334312439,1741523153.8464653,1741523152733,0.6817982788085938,0.5680530395507812,-2.2071318343440582,4.57878857421875,3.601541259765625
1741523153.9070427,0.566872239112854,-0.03342638996962324,0.022549199478399697,-0.9991867743602705,-0.36484888195991516,0.11365188658237457,-1.8095059394836426,3.2067158222198486,16.63773536682129,12.811474800109863,-0.12531471252441406,0.08869266510009766,-0.039101243019104004,-1.225704550743103,0.00476844422519207,-0.953498125076294,0.41294726729393005,1.2424894571304321,0.013542382046580315,0.9164950251579285,0.45834288001060486,-0.6296253800392151,0.11425192654132843,-0.19283588230609894,0.8318074345588684,-0.4086576998233795,-0.016672074794769287,-0.5331120491027832,-0.1337071806192398,-0.2138170450925827,0.8302815556526184,-0.42866605520248413,0.05753980204463005,0.1686585247516632,-0.0800013393163681,1.962603211402893,0.3891924321651459,-0.050980065017938614,-0.006208639591932297,-1.5970555543899536,-0.0022902050986886024,-0.07371901720762253,-0.1650722771883011,-0.08507204055786133,0.5138921737670898,-2.377013683319092,-2.942124843597412,1.666008710861206,-2.229257822036743,1.6454763412475586,0.738054096698761,1.1831344366073608,1.6921005249023438,-1.5488409996032715,1.9707880020141602,-2.108192205429077,1741523153.9384847,1741523152833,0.7396742553710938,0.5463467407226562,-2.1013676745060503,4.69331005859375,3.65349755859375
1741523153.9269996,0.5405851006507874,-0.022656249184795734,0.016848121393602256,-0.9996013381235455,0.3146882951259613,0.6023313999176025,-1.2773184776306152,-5.546665191650391,-10.977261543273926,8.889556884765625,-0.11768531799316406,0.06542301177978516,-0.0024795911740511656,-1.224560022354126,0.00667582219466567,-0.9538795948028564,0.3774700462818146,1.2386746406555176,0.00858320016413927,0.9210727214813232,0.4179064631462097,-0.6246662139892578,0.06847485899925232,-0.23441672325134277,0.8588922023773193,-0.4589739739894867,-0.008418159559369087,-0.5277714133262634,-0.0875486359000206,-0.19169145822525024,0.7959487438201904,-0.40436768531799316,0.005801775958389044,0.26837122440338135,-0.648013710975647,1.5277342796325684,-0.14718665182590485,0.1372484564781189,-0.04341651871800423,-2.2323646545410156,-0.34082522988319397,-0.2700003385543823,0.30898749828338623,-2.283478021621704,0.32095563411712646,-2.153162956237793,-1.861749291419983,1.2366892099380493,-2.5212392807006836,0.11890736222267151,-0.10407983511686325,2.3670756816864014,1.194443941116333,-1.680195927619934,1.1469472646713257,-2.1059200763702393,1741523153.9384847,1741523152833,0.7396742553710938,0.5463467407226562,-2.1013676745060503,4.69331005859375,3.65349755859375
1741523153.946995,0.5217010974884033,-0.011980345714326863,0.013016344170438992,-0.9998435108060671,0.11894959211349487,0.47619393467903137,-0.9336480498313904,-1.8797059059143066,-10.683084487915039,3.575312614440918,-0.12150001525878906,0.062371253967285156,0.031090257689356804,-1.2463041543960571,0.005149920005351305,-0.9546425342559814,0.35152971744537354,1.231045126914978,0.009346150793135166,0.9153505563735962,0.3442816734313965,-0.5880445837974548,0.032616160809993744,-0.23327229917049408,0.8585107326507568,-0.5069645047187805,-0.011743726208806038,-0.5460822582244873,-0.05893797054886818,-0.16079194843769073,0.7974746227264404,-0.40061649680137634,-0.009921557269990444,-0.08353107422590256,-0.08872652053833008,1.9317982196807861,-1.341976523399353,-0.07431946694850922,-0.006195522379130125,-1.7445616722106934,-0.48116636276245117,0.05930071324110031,-0.3660835921764374,-4.225886821746826,1.7994877099990845,-1.834705114364624,0.38269567489624023,-0.09706781804561615,-2.3544304370880127,-0.22203496098518372,-0.7888006567955017,0.9745035171508789,1.6512634754180908,0.09663700312376022,-0.08067642897367477,-0.691156268119812,1741523153.9384847,1741523152833,0.7396742553710938,0.5463467407226562,-2.1013676745060503,4.69331005859375,3.65349755859375
1741523153.9670002,0.5163676142692566,-0.0024043254206817756,0.011281738991850167,-0.9999334685790806,0.047747910022735596,0.5156018137931824,-0.24608279764652252,3.375760316848755,0.3700248897075653,6.9037933349609375,-0.11310768127441406,0.061989784240722656,0.07572289556264877,-1.2562226057052612,0.005531395319849253,-0.953498125076294,0.31834134459495544,1.224560022354126,0.009727626107633114,0.9149690866470337,0.26874953508377075,-0.5663004517555237,0.0036240178160369396,-0.2138170450925827,0.8680475950241089,-0.5509408116340637,-0.013316017575562,-0.5373083353042603,-0.0558861680328846,-0.12531471252441406,0.7948042750358582,-0.409411758184433,-0.028371701017022133,0.274119108915329,-0.05690142139792442,2.1366610527038574,-0.5890227556228638,0.03262530267238617,0.05547920987010002,-2.120164155960083,-0.42210984230041504,0.03243423253297806,-0.07558022439479828,-3.6215555667877197,0.8186652660369873,-1.339245080947876,1.0049915313720703,0.8853488564491272,-2.151973247528076,0.1437223255634308,0.37415191531181335,0.05873946473002434,1.3904635906219482,-0.16718149185180664,-0.36907675862312317,-0.8011413812637329,1741523153.9384847,1741523152833,0.7396742553710938,0.5463467407226562,-2.1013676745060503,4.69331005859375,3.65349755859375
1741523153.9870167,0.5154985189437866,0.0021622997622523536,0.013923511794637824,-0.9999007252117796,-0.1502382755279541,0.2095281183719635,0.024447783827781677,-2.5128016471862793,-5.607336044311523,6.748857021331787,-0.10967445373535156,0.07991886138916016,0.12912946939468384,-1.2638521194458008,0.005531395319849253,-0.9504463076591492,0.2805752754211426,1.219982385635376,0.01125352829694748,0.9149690866470337,0.2134355753660202,-0.5838482975959778,-0.02536812424659729,-0.1985580176115036,0.9340428709983826,-0.5837214589118958,0.006469241809099913,-0.5376898050308228,-0.05245288833975792,-0.134470134973526,0.7883192300796509,-0.41236984729766846,-0.03478015586733818,0.09183595329523087,0.5414095520973206,2.865067958831787,-0.5106772780418396,-0.0005174900870770216,0.16538991034030914,-2.716710090637207,-0.2616203725337982,0.08697470277547836,0.061360813677310944,-2.446019172668457,-1.3014158010482788,-1.504663109779358,0.6982533931732178,3.5757932662963867,-1.5521467924118042,1.0362061262130737,0.1119849681854248,0.1588527113199234,-0.3597264587879181,-0.2998320758342743,-0.14584428071975708,-0.2540462911128998,1741523153.9384847,1741523152833,0.7396742553710938,0.5463467407226562,-2.1013676745060503,4.69331005859375,3.65349755859375
1741523154.0071201,0.5176666378974915,0.0041540960514276845,0.021303279388326674,-0.9997644291398341,-0.38867831230163574,0.08472815901041031,0.04239515960216522,2.828260898590088,0.5117921233177185,8.054939270019531,-0.10547828674316406,0.09136295318603516,0.19092851877212524,-1.2669038772583008,0.005531395319849253,-0.9473945498466492,0.2313649207353592,1.2218897342681885,0.01125352829694748,0.9157320261001587,0.18978407979011536,-0.648699164390564,-0.0558861680328846,-0.17795833945274353,1.047722578048706,-0.5929322838783264,-0.007096145302057266,-0.5296788215637207,-0.04634927958250046,-0.1497291475534439,0.7810711860656738,-0.4143620729446411,-0.035103242844343185,0.11384734511375427,0.32875415682792664,2.8532867431640625,-0.10897675156593323,-0.014113498851656914,0.14187577366828918,-3.371516704559326,0.21441328525543213,0.011957732029259205,0.04589040204882622,-1.0923718214035034,-3.7459192276000977,-1.4786769151687622,1.0290839672088623,5.996088981628418,-0.25309324264526367,-0.9754752516746521,0.3849545121192932,0.4007716774940491,-0.9089009761810303,-0.37521979212760925,-0.11925830692052841,-0.15107285976409912,1741523153.9384847,1741523152833,0.7396742553710938,0.5463467407226562,-2.1013676745060503,4.69331005859375,3.65349755859375
1741523154.0284936,0.5230187773704529,0.005124056174779959,0.028715182317754058,-0.9995745006515402,-0.3986680805683136,0.08058622479438782,0.32929474115371704,0.5367500185966492,-2.403324842453003,6.795231342315674,-0.09365177154541016,0.09365177154541016,0.25616082549095154,-1.2680482864379883,0.005531395319849253,-0.9485389590263367,0.1802472025156021,1.2299007177352905,0.01125352829694748,0.9164950251579285,0.17757686972618103,-0.7394903302192688,-0.08487831056118011,-0.15735866129398346,1.1846723556518555,-0.5809203386306763,-0.009139307774603367,-0.5235751867294312,-0.034142062067985535,-0.16956588625907898,0.776493489742279,-0.4202232360839844,-0.04908748343586922,0.33031657338142395,0.083358533680439,3.381394863128662,-0.07231056690216064,-0.021348390728235245,-0.0804925337433815,-3.3870954513549805,0.5124428272247314,-0.009412180632352829,-0.002218065317720175,-0.5769248604774475,-4.603777885437012,-1.4711990356445312,1.1753416061401367,6.77756404876709,0.7274720668792725,0.2828854024410248,0.3461483120918274,0.6030932664871216,-0.8142789006233215,-0.15382233262062073,-0.34391316771507263,-0.7581902742385864,1741523153.9384847,1741523152833,0.7396742553710938,0.5463467407226562,-2.1013676745060503,4.69331005859375,3.65349755859375
1741523154.0471325,0.534876823425293,0.0071018444355080215,0.04100851870484532,-0.9991335572380943,-0.6446948051452637,0.06607218831777573,0.5888540148735046,-0.9295232892036438,-1.562165379524231,10.678452491760254,-0.08525943756103516,0.09899330139160156,0.31528952717781067,-1.2653779983520508,0.005531395319849253,-0.9470130205154419,0.13027389347553253,1.236767292022705,0.01125352829694748,0.916113555431366,0.16384375095367432,-0.8306630253791809,-0.11501488089561462,-0.13218127191066742,1.2972075939178467,-0.5521612763404846,-0.0072970157489180565,-0.5231937170028687,-0.01735713705420494,-0.18520638346672058,0.778019368648529,-0.43371543288230896,-0.0581941083073616,0.2750658094882965,0.18280905485153198,2.8915646076202393,0.2409089207649231,-0.009242030791938305,0.11968491226434708,-3.3366875648498535,0.4604116976261139,0.021684585139155388,-0.020033283159136772,-0.7435991168022156,-4.411633491516113,-1.3822619915008545,1.1370326280593872,5.255571365356445,1.511920690536499,-0.14912423491477966,-0.02195383980870247,0.8475218415260315,-0.7470422387123108,0.12247965484857559,-0.7395269274711609,-0.364963173866272,1741523153.9384847,1741523152833,0.7396742553710938,0.5463467407226562,-2.1013676745060503,4.69331005859375,3.65349755859375
1741523154.0671587,0.5487462878227234,0.007184380327260096,0.053967022968459025,-0.9985168727223567,-0.6523920893669128,-0.05089722201228142,0.7045308947563171,-2.386920213699341,2.831737995147705,10.33823299407959,-0.07038211822509766,0.10090065002441406,0.369840532541275,-1.2596558332443237,0.005531395319849253,-0.9454871416091919,0.08182650804519653,1.2413450479507446,0.01125352829694748,0.9164950251579285,0.15964750945568085,-0.8928435444831848,-0.12912946939468384,-0.12073700875043869,1.3563363552093506,-0.5110833048820496,-0.015060621313750744,-0.5312047004699707,0.0013351644156500697,-0.1970321238040924,0.7806897163391113,-0.4494517147541046,-0.06964628398418427,0.4414424002170563,0.066273994743824,2.6019136905670166,0.3689393997192383,0.004906400106847286,0.017811404541134834,-3.243739604949951,0.27429184317588806,0.006546023767441511,0.02136508747935295,-0.07397398352622986,-2.768094301223755,-0.5692609548568726,0.4316689670085907,2.377819299697876,2.016245126724243,-0.1380627602338791,-0.26149651408195496,0.968504786491394,-0.529701828956604,0.13799825310707092,-0.845605194568634,-0.47741004824638367,1741523153.9384847,1741523152833,0.7396742553710938,0.5463467407226562,-2.1013676745060503,4.69331005859375,3.65349755859375
1741523154.0871801,0.5560991168022156,0.011796267915958851,0.06743057248743536,-0.997654231664093,-0.6950780749320984,0.24021971225738525,0.2161291539669037,3.6311964988708496,3.9476349353790283,8.345827102661133,-0.052071571350097656,0.10166358947753906,0.41180285811424255,-1.2577484846115112,0.005149920005351305,-0.9470130205154419,0.0398641936480999,1.2451597452163696,0.011635004542768002,0.916876494884491,0.15354390442371368,-0.9107728600502014,-0.13065537810325623,-0.12760357558727264,1.343747615814209,-0.4752262532711029,-0.0009654295863583684,-0.5273899435997009,0.021171892061829567,-0.20389868319034576,0.7875562906265259,-0.46867942810058594,-0.07547091692686081,0.5601238012313843,0.013415409252047539,2.007985830307007,0.09934668242931366,-0.04380721226334572,-0.08017861098051071,-2.6515698432922363,0.24855779111385345,0.04955306649208069,-0.013177182525396347,-0.2913045287132263,-0.6696374416351318,0.004786619916558266,-0.42315414547920227,-1.217097282409668,1.6607937812805176,0.8648487329483032,0.14236389100551605,0.9742394089698792,-0.31418031454086304,0.2865430414676666,-0.9983342289924622,-0.17838111519813538,1741523153.9384847,1741523152833,0.7396742553710938,0.5463467407226562,-2.1013676745060503,4.69331005859375,3.65349755859375
1741523154.1072345,0.5495585799217224,0.014377861329051759,0.07782333707336175,-0.9968634837882108,-0.46694710850715637,0.15910284221172333,-0.3995567858219147,-0.22904732823371887,-0.45996546745300293,10.451833724975586,-0.034905433654785156,0.09975624084472656,0.4510948359966278,-1.2585114240646362,0.005531395319849253,-0.9431982636451721,0.00858320016413927,1.2497375011444092,0.011635004542768002,0.9180209040641785,0.15621423721313477,-0.9065766334533691,-0.12226291000843048,-0.1489662081003189,1.2586785554885864,-0.4583219587802887,0.005617304239422083,-0.5235751867294312,0.0394827201962471,-0.212672621011734,0.7909895181655884,-0.4857833981513977,-0.081621453166008,0.48991698026657104,-0.04040348157286644,2.1329264640808105,-0.19952663779258728,-0.03205891326069832,0.3138352632522583,-2.010103940963745,0.3006110191345215,-0.001546709449030459,0.07035329192876816,0.15761412680149078,0.5024614930152893,0.5482953190803528,-1.168735384941101,-4.668508052825928,0.6242494583129883,0.17623676359653473,0.298700749874115,0.8783020377159119,-0.47375360131263733,0.21624501049518585,-0.7831279039382935,-0.31540241837501526,1741523153.9384847,1741523152833,0.7396742553710938,0.5463467407226562,-2.1013676745060503,4.69331005859375,3.65349755859375
1741523154.1272411,0.5447418093681335,0.01883424463580677,0.08286212821060092,-0.9963830282262984,-0.2295311987400055,0.19969682395458221,-0.2272118330001831,3.3948047161102295,-0.7995612025260925,9.104039192199707,-0.02574920654296875,0.09708595275878906,0.4877164959907532,-1.2592743635177612,0.005531395319849253,-0.9336614012718201,-0.02040894143283367,1.2535521984100342,0.01125352829694748,0.9245060086250305,0.15621423721313477,-0.8688105344772339,-0.1028076633810997,-0.1657511293888092,1.1289769411087036,-0.46971654891967773,0.0025062263011932373,-0.5163271427154541,0.05130846053361893,-0.2302204966545105,0.7955672740936279,-0.4980872571468353,-0.08243309706449509,0.2951241731643677,-0.05188218131661415,1.5240414142608643,0.07167903333902359,0.0014028290752321482,0.4653082489967346,-1.9765746593475342,0.17141027748584747,0.0007438924512825906,0.5202503800392151,-0.02068321965634823,2.0301620960235596,1.08678138256073,-0.5852381587028503,-6.739773750305176,-0.7966241240501404,-0.02679569460451603,0.3114736080169678,0.5068346261978149,-0.9246983528137207,0.20609277486801147,-0.526522696018219,-0.038439616560935974,1741523153.9384847,1741523152833,0.7396742553710938,0.5463467407226562,-2.1013676745060503,4.69331005859375,3.65349755859375
1741523154.1472366,0.5492838621139526,0.022559503914908883,0.08723723577514707,-0.9959320928042356,-0.23846854269504547,0.19168758392333984,0.3091720938682556,0.22008632123470306,-5.170638561248779,7.438826560974121,-0.01697540283203125,0.09403419494628906,0.48962387442588806,-1.2562226057052612,0.005531395319849253,-0.927176296710968,-0.0398641936480999,1.2470670938491821,0.01125352829694748,0.9359502792358398,0.1527809500694275,-0.8237964510917664,-0.06733043491840363,-0.15926603972911835,0.9763866662979126,-0.5082699656486511,0.007833235897123814,-0.5056458115577698,0.06198977679014206,-0.2580682039260864,0.7974746227264404,-0.5014002323150635,-0.0788382813334465,0.27650773525238037,-0.09270453453063965,-0.10513307899236679,0.13664130866527557,0.001708063529804349,0.30174553394317627,-0.9953728914260864,-0.5429976582527161,0.008347908034920692,0.6960420608520508,-0.05318547412753105,2.1971893310546875,1.8686493635177612,0.5005876421928406,-7.637017726898193,-2.063524007797241,0.22531257569789886,0.726530909538269,0.7086634635925293,-1.415885329246521,0.06777702271938324,-0.09132388979196548,0.08522406965494156,1741523153.9384847,1741523152833,0.7396742553710938,0.5463467407226562,-2.1013676745060503,4.69331005859375,3.65349755859375
1741523154.1672332,0.5577903389930725,0.022820303932611502,0.09865000612785582,-0.9948604977681028,-0.6862046718597412,-0.18333573639392853,0.2728012502193451,-22.65247917175293,16.081727981567383,26.860193252563477,-0.01392364501953125,0.09746742248535156,0.47627222537994385,-1.2543151378631592,0.00476844422519207,-0.9187838435173035,-0.035667963325977325,1.2386746406555176,0.009727626107633114,0.9462500810623169,0.1501106321811676,-0.7867932915687561,-0.038719769567251205,-0.152399480342865,0.9393835067749023,-0.4936826527118683,-0.030975516885519028,-0.4854276478290558,0.071908138692379,-0.2775234580039978,0.7928969264030457,-0.49709251523017883,-0.07176476716995239,0.09045672416687012,0.1458227038383484,-0.6531967520713806,0.2013208270072937,-0.03747997432947159,0.5740498900413513,0.42786669731140137,-0.45053380727767944,-0.08896080404520035,0.540493369102478,-0.18529832363128662,1.7132112979888916,1.0596532821655273,0.3600686192512512,0.41356703639030457,1.1766252517700195,-2.236147880554199,1.112790822982788,0.16775843501091003,-0.6113525032997131,-0.410491943359375,0.28861159086227417,0.43725183606147766,1741523153.9384847,1741523152833,0.7396742553710938,0.5463467407226562,-2.1013676745060503,4.69331005859375,3.65349755859375
