Freshhhhh-LC/Legged_odom/data/5/segments/booster_seg_10.01s.csv
time,yaw,projected_gravity_x,projected_gravity_y,projected_gravity_z,ang_vel_x,ang_vel_y,ang_vel_z,lin_acc_x,lin_acc_y,lin_acc_z,q_0,q_1,q_2,q_3,q_4,q_5,q_6,q_7,q_8,q_9,q_10,q_11,q_12,q_13,q_14,q_15,q_16,q_17,q_18,q_19,q_20,q_21,q_22,dq_0,dq_1,dq_2,dq_3,dq_4,dq_5,dq_6,dq_7,dq_8,dq_9,dq_10,dq_11,dq_12,dq_13,dq_14,dq_15,dq_16,dq_17,dq_18,dq_19,dq_20,dq_21,dq_22,mocap_time,mocap_timestamp,robot_x,robot_y,robot_yaw,ball_x,ball_y
1741522677.9894116,2.422052264213562,0.009918733837904124,-0.030628488671284856,-0.9994816228429444,-0.03992919623851776,0.2621553838253021,-1.1312904357910156,4.645253658294678,-0.367118775844574,11.285679817199707,-0.049019813537597656,0.2744712829589844,0.09479667246341705,-1.2497375011444092,0.005531395319849253,-0.9130617380142212,0.23289081454277039,1.2501189708709717,0.011635004542768002,0.9554055333137512,-0.13828489184379578,-0.5380712747573853,0.0009536888683214784,0.1363775134086609,0.7825970649719238,-0.3377601206302643,0.045948054641485214,-0.6513695120811462,0.037193864583969116,0.1024261862039566,1.3792248964309692,-0.3667859137058258,-0.0058235409669578075,-0.47795233130455017,0.08175773173570633,-3.5719738006591797,0.4629313349723816,-0.002539972309023142,-0.027585472911596298,3.1984407901763916,0.3947265148162842,-0.0034505294170230627,-0.17186862230300903,-0.15017928183078766,1.17647123336792,-0.004619750194251537,-0.3980538249015808,0.1864912062883377,-0.5057907104492188,-0.3972506523132324,-5.526615142822266,1.3781185150146484,-0.6020927429199219,6.991184234619141,-0.6024760603904724,0.007552057038992643,1741522677.9722402,1741522676793,-3.10306884765625,0.3014964904785156,-1.2878273803467675,-1.013377197265625,0.8777640991210938
1741522677.991365,2.4047640562057495,0.02444604493883508,-0.013796178885215206,-0.9996059505300154,-0.3924650251865387,0.1872185915708542,0.21907471120357513,2.3827476501464844,0.6690170764923096,6.720580577850342,-0.11768531799316406,0.3034639358520508,-0.1035706102848053,-1.2417265176773071,0.005149920005351305,-0.9332799315452576,0.39768826961517334,1.2672853469848633,0.01201647985726595,0.9328984618186951,-0.13179980218410492,-0.41447317600250244,0.0032425422687083483,0.08983749151229858,0.761997401714325,-0.44009652733802795,0.016921989619731903,-0.8745326995849609,0.0715266615152359,-0.013923857361078262,1.3418402671813965,-0.4540887475013733,0.009032048285007477,-0.6084213256835938,0.19758160412311554,-2.4204788208007812,0.034099943935871124,-0.018919216468930244,-0.8227282762527466,3.2439491748809814,0.5188982486724854,-0.02906833589076996,-0.5360321998596191,0.3208552598953247,2.048999071121216,-0.0028788915369659662,-0.9046851992607117,-0.6510412693023682,-1.8068158626556396,-0.03260578215122223,-1.7875657081604004,-0.02307739295065403,-1.7231690883636475,-4.516560077667236,-0.04880703240633011,0.02882787585258484,1741522677.9722402,1741522676793,-3.10306884765625,0.3014964904785156,-1.2878273803467675,-1.013377197265625,0.8777640991210938
1741522677.9937232,2.4031574726104736,0.030967028244785987,0.004906590024526037,-0.9995083634147429,-0.16807296872138977,0.17410217225551605,-0.13065165281295776,3.0674543380737305,3.3377685546875,6.704812526702881,-0.16536998748779297,0.3278779983520508,-0.12684062123298645,-1.235241413116455,0.005149920005351305,-0.969520092010498,0.4728389382362366,1.2630890607833862,0.011635004542768002,0.9164950251579285,-0.061226826161146164,-0.32978561520576477,-0.010109102353453636,0.04291599988937378,0.7295719981193542,-0.49159157276153564,0.011729137040674686,-0.8733882904052734,0.028038453310728073,-0.08373387902975082,1.0137712955474854,-0.3609837293624878,0.0055731977336108685,-0.5360344052314758,0.16752851009368896,0.665180504322052,0.13055400550365448,0.009970554150640965,-0.4761591851711273,0.7624905109405518,-0.31695157289505005,-0.008156616240739822,-0.24018049240112305,1.5456162691116333,1.789370059967041,-0.5711624622344971,-0.9765285849571228,-0.4578346610069275,-0.38247424364089966,0.0721840113401413,1.0982260704040527,-1.309306025505066,-1.4462131261825562,-6.9241156578063965,2.2010104656219482,-0.32852739095687866,1741522677.9722402,1741522676793,-3.10306884765625,0.3014964904785156,-1.2878273803467675,-1.013377197265625,0.8777640991210938
1741522678.00496,1.4492211639881134,-0.044169799430460885,-0.008320228267345955,-0.998989390644291,-0.005405225325375795,-0.5221717357635498,-0.14295116066932678,0.9611608982086182,-0.49900031089782715,5.871507167816162,-0.9939346313476562,0.3244447708129883,0.20885786414146423,-1.3363324403762817,0.005149920005351305,-0.5495155453681946,0.19321736693382263,1.3710466623306274,0.01125352829694748,0.5388342142105103,0.1672770231962204,-0.6025406122207642,0.1180666834115982,-0.015449759550392628,0.6651026010513306,-0.19834856688976288,-0.039179928600788116,-0.6589990258216858,-0.05283436179161072,-0.16422522068023682,1.0687037706375122,-0.3961588144302368,-0.0030257294420152903,-0.1267661601305008,-0.23254403471946716,-0.05200407654047012,0.04833687096834183,0.0029420689679682255,0.006299356464296579,0.22887179255485535,0.2126186639070511,0.007813427597284317,-0.030489986762404442,0.1604469269514084,-0.016281364485621452,0.6956562995910645,0.3421168029308319,0.8338686227798462,-0.8065060377120972,-0.7165930867195129,3.092644453048706,-0.36793437600135803,1.2249319553375244,-2.7069804668426514,-0.5171210169792175,0.22259008884429932,1741522677.9722402,1741522676793,-3.10306884765625,0.3014964904785156,-1.2878273803467675,-1.013377197265625,0.8777640991210938
1741522678.0249805,1.4420650899410248,-0.05014859955577186,-0.008897259816088056,-0.9987021361398802,0.03834490105509758,-0.2924194931983948,-0.35908472537994385,0.24644117057323456,-0.8100179433822632,5.617785930633545,-0.9916458129882812,0.3099489212036133,0.20962081849575043,-1.3344250917434692,0.005149920005351305,-0.5495155453681946,0.1974135935306549,1.3725725412368774,0.01125352829694748,0.5399786233901978,0.1840619444847107,-0.6204699873924255,0.12722209095954895,-0.01735713705420494,0.700579822063446,-0.2180335968732834,-0.053229231387376785,-0.5987258553504944,-0.0551232174038887,-0.14362554252147675,0.9863049983978271,-0.4138629734516144,0.00223502516746521,0.039759308099746704,-0.41919147968292236,0.04511617496609688,0.1308351755142212,-0.002885641995817423,-0.008834545500576496,0.22512118518352509,0.045954931527376175,0.006267539691179991,0.08210404962301254,0.8777440190315247,-1.063157320022583,0.3863482177257538,-0.20864461362361908,1.9250022172927856,-1.0673317909240723,-0.6923694610595703,2.9207353591918945,-0.1089688092470169,0.9430981278419495,-4.357733249664307,-0.9322457909584045,0.1465822458267212,1741522678.0722442,1741522676873,-3.0991533203125,0.2805898132324219,-1.3588163905922077,-0.8965004882812501,0.8543650512695312
1741522678.0450714,1.4315618574619293,-0.05389911092063607,-0.011534171523844939,-0.9984797688131811,0.11932589113712311,-0.14604496955871582,-0.5717259645462036,-15.630267143249512,0.31164872646331787,9.590272903442383,-0.9897384643554688,0.3004121780395508,0.21152819693088531,-1.3328990936279297,0.005149920005351305,-0.5495155453681946,0.1966506391763687,1.370665192604065,0.01125352829694748,0.5403600931167603,0.2134355753660202,-0.6521324515342712,0.11501488089561462,-0.019645990803837776,0.7539864182472229,-0.2431013137102127,-0.05846859887242317,-0.5449378490447998,-0.05397878959774971,-0.14095520973205566,0.8733882904052734,-0.4345974028110504,-0.001861001132056117,0.041043709963560104,-0.24104395508766174,0.07899413257837296,0.07348234206438065,-0.004717335104942322,0.0029323245398700237,-0.07774258404970169,-0.1463976800441742,0.0076879882253706455,0.023738564923405647,1.542885184288025,-1.5950347185134888,-0.9495245218276978,0.012123526073992252,2.7784528732299805,-1.273061990737915,-0.12038225680589676,3.032426595687866,-0.0014628294156864285,0.08633381128311157,-5.706841945648193,-0.9101012945175171,-0.10129110515117645,1741522678.0722442,1741522676873,-3.0991533203125,0.2805898132324219,-1.3588163905922077,-0.8965004882812501,0.8543650512695312
1741522678.0650399,1.4065443575382233,-0.047843052148409025,-0.011417289427610314,-0.9987896114113577,-0.17760759592056274,0.059886373579502106,-1.414473295211792,11.023202896118164,0.5560142993927002,10.152709007263184,-0.9943161010742188,0.2904939651489258,0.21229113638401031,-1.3328990936279297,0.00476844422519207,-0.5491340756416321,0.19359883666038513,1.3653244972229004,0.01125352829694748,0.5365453362464905,0.23861294984817505,-0.6883726119995117,0.1203555315732956,-0.04406042397022247,0.8180742859840393,-0.26699885725975037,-0.05541065335273743,-0.5308232307434082,-0.05436026677489281,-0.16880293190479279,0.8588922023773193,-0.4002457857131958,-0.0020515143405646086,-0.1387028843164444,-0.222395122051239,0.03442469239234924,-0.004218467976897955,0.009982887655496597,0.030563559383153915,-0.23355457186698914,-0.3471549451351166,0.030013373121619225,-0.4502779245376587,1.2415032386779785,-1.7966723442077637,0.5501583218574524,-1.8219295740127563,3.03584361076355,-1.2440060377120972,0.3723834753036499,-0.4369462728500366,0.4204854965209961,-1.42213773727417,0.5271492004394531,1.8618217706680298,-0.7962275743484497,1741522678.0722442,1741522676873,-3.0991533203125,0.2805898132324219,-1.3588163905922077,-0.8965004882812501,0.8543650512695312
1741522678.085058,1.372091419994831,-0.05968146823701531,-0.00036843774849549654,-0.9982174044779522,-0.6903240084648132,-0.41388532519340515,-1.7247141599655151,-10.261686325073242,1.071112036705017,8.329550743103027,-0.9813461303710938,0.3152894973754883,0.2130540907382965,-1.3340435028076172,0.005531395319849253,-0.5449378490447998,0.18787670135498047,1.3672319650650024,0.011635004542768002,0.5315861701965332,0.2794308364391327,-0.7063019871711731,0.09479667246341705,-0.07648584991693497,0.8566033244132996,-0.30462297797203064,-0.013524038717150688,-0.5518043637275696,-0.04787518084049225,-0.15735866129398346,0.8508812189102173,-0.37141555547714233,-0.01912243664264679,0.37494438886642456,0.7491006255149841,0.04187537357211113,-0.08283241093158722,-0.009040559642016888,0.10179892182350159,-0.4296676218509674,0.19754120707511902,-0.021731507033109665,-0.17278577387332916,2.0194854736328125,-0.7395461201667786,-1.3392144441604614,-1.5140010118484497,1.6844619512557983,-1.9606884717941284,2.3969855308532715,-0.1387900710105896,0.27632346749305725,0.8862364888191223,-0.7382093071937561,1.456052541732788,-0.08469409495592117,1741522678.0723226,1741522677013,-3.2446738281250003,0.26564697265625,-1.1750206674351649,-0.6949539184570312,0.8103074340820313
1741522678.105109,1.3470641747117043,-0.05945828081948106,-0.00542819188626854,-0.9982160325174294,0.35813188552856445,-0.03896284103393555,-1.1847341060638428,0.8532963991165161,4.730337619781494,12.359657287597656,-1.0030899047851562,0.2973604202270508,0.2161058932542801,-1.3454878330230713,0.005912871100008488,-0.5449378490447998,0.17986571788787842,1.370665192604065,0.01125352829694748,0.536926805973053,0.28362706303596497,-0.7303349375724792,0.06466010212898254,-0.10852979123592377,0.8794918656349182,-0.3468582332134247,0.01928051747381687,-0.5395971536636353,-0.03032730519771576,-0.14324407279491425,0.8199816942214966,-0.3405512869358063,-0.014864416792988777,-0.5458921790122986,-0.467984676361084,0.13378313183784485,-1.05108642578125,0.03569917753338814,0.08573804795742035,-0.4861201345920563,0.05765874311327934,-0.0013840212486684322,0.31507426500320435,-0.40183278918266296,-1.3700950145721436,-1.4579861164093018,-1.5896114110946655,1.0614793300628662,-2.0318117141723633,1.1208304166793823,0.33811840415000916,0.8519155979156494,0.5266699194908142,-1.5238592624664307,1.5664225816726685,-0.07605496793985367,1741522678.0723226,1741522677013,-3.2446738281250003,0.26564697265625,-1.1750206674351649,-0.6949539184570312,0.8103074340820313
1741522678.1251402,1.3401083946228027,-0.05585072478546632,-0.018585287490018455,-0.9982661386773827,0.5919651389122009,0.2285761535167694,-0.2632637321949005,5.0219407081604,1.7468335628509521,9.073006629943848,-0.9958419799804688,0.2756156921386719,0.2141985148191452,-1.3657060861587524,0.005149920005351305,-0.543411910533905,0.17643244564533234,1.364943027496338,0.010490577667951584,0.54264897108078,0.2641718089580536,-0.734149694442749,0.045204851776361465,-0.12378881871700287,0.9004730582237244,-0.38165903091430664,-0.00440190127119422,-0.5457007884979248,-0.02536812424659729,-0.12188144028186798,0.8077744841575623,-0.3091278374195099,-0.03169769421219826,0.14717385172843933,-0.6039782762527466,-0.1467507779598236,-1.1385935544967651,-0.030146487057209015,0.015030767768621445,-0.11634080857038498,-0.46858441829681396,-0.07180692255496979,0.3554609715938568,-1.0802141427993774,0.12124692648649216,-0.9911010265350342,-0.33905598521232605,1.2072947025299072,-1.7418148517608643,-1.3402396440505981,-0.22842970490455627,0.029072025790810585,1.4693275690078735,-0.6225569844245911,1.5091578960418701,-0.5615102052688599,1741522678.0723226,1741522677013,-3.2446738281250003,0.26564697265625,-1.1750206674351649,-0.6949539184570312,0.8103074340820313
1741522678.145115,1.3396421074867249,-0.05317086785013166,-0.02962703509567327,-0.9981458298282389,0.5812037587165833,0.12948288023471832,0.0034310054033994675,-5.529002666473389,-6.304356575012207,13.797894477844238,-0.9985122680664062,0.2740898132324219,0.20237277448177338,-1.373335599899292,0.005531395319849253,-0.54417484998703,0.17986571788787842,1.3500655889511108,0.010872052982449532,0.5430304408073425,0.2157244235277176,-0.7467383742332458,0.02079041674733162,-0.10509651154279709,0.9405279755592346,-0.39688411355018616,-0.012472006492316723,-0.5521858334541321,-0.01506828423589468,-0.10433356463909149,0.7864118218421936,-0.2890331745147705,-0.024968959391117096,-0.06328842788934708,-0.09101207554340363,-0.6665154099464417,-0.548279345035553,0.026266831904649734,-0.056193526834249496,0.24279353022575378,-1.051063060760498,0.016191337257623672,0.0003182129585184157,-2.6770999431610107,-1.057024598121643,-1.1763157844543457,1.0340418815612793,2.241786003112793,-0.4597400426864624,-0.10250185430049896,-0.24767793715000153,0.6144943237304688,0.5912701487541199,-1.1210130453109741,0.8687227368354797,0.23334935307502747,1741522678.0723226,1741522677013,-3.2446738281250003,0.26564697265625,-1.1750206674351649,-0.6949539184570312,0.8103074340820313
1741522678.165166,1.3458960428833961,-0.04764894401155702,-0.034264872481228545,-0.9982762626890558,0.16615818440914154,0.25982534885406494,0.2645750343799591,-1.724498987197876,8.408638000488281,10.03542709350586,-1.0049972534179688,0.2874422073364258,0.182154580950737,-1.381346583366394,0.005149920005351305,-0.5479896068572998,0.18520638346672058,1.3306102752685547,0.010109102353453636,0.5407415628433228,0.20771344006061554,-0.7761120200157166,0.005912871100008488,-0.08907453715801239,1.0091935396194458,-0.3790118992328644,-0.0027737109921872616,-0.5540932416915894,-0.007438773289322853,-0.08258945494890213,0.767719566822052,-0.27896636724472046,-0.031948674470186234,-0.24782387912273407,0.5063145756721497,-1.0339665412902832,-0.4028496742248535,-0.025317076593637466,-0.2512587308883667,0.337967187166214,-1.2061258554458618,-0.035422876477241516,-0.14928223192691803,0.14308924973011017,-1.434791088104248,-0.8393917679786682,0.794492244720459,3.5796868801116943,1.1117937564849854,0.44890713691711426,-0.13715007901191711,0.38090184330940247,1.245346188545227,-0.8841397166252136,0.42907068133354187,-0.3369752764701843,1741522678.0723226,1741522677013,-3.2446738281250003,0.26564697265625,-1.1750206674351649,-0.6949539184570312,0.8103074340820313
1741522678.185157,1.3355125114321709,-0.04567298096077293,-0.033212871784062924,-0.9984041686401416,-0.07248455286026001,0.07048121094703674,-0.46770721673965454,1.2648125886917114,0.7911641001701355,11.310811996459961,-0.9958419799804688,0.2969789505004883,0.1684214472770691,-1.381346583366394,0.005531395319849253,-0.5521858334541321,0.18940261006355286,1.3210734128952026,0.01201647985726595,0.5376898050308228,0.20542457699775696,-0.8184558153152466,-0.016212711110711098,-0.0864042118191719,1.0809109210968018,-0.33815982937812805,-0.007709983736276627,-0.5521858334541321,0.007057297509163618,-0.08144503086805344,0.7440680265426636,-0.2768853008747101,-0.030435780063271523,0.1861807405948639,0.30291667580604553,-0.5908414721488953,0.08349324017763138,0.016591494902968407,-0.1681676208972931,0.24489469826221466,-0.5176243185997009,0.12238769978284836,-0.1842951774597168,-0.13627652823925018,-2.2230496406555176,-1.1134579181671143,-0.09262844175100327,3.4920220375061035,2.1282641887664795,-0.20465601980686188,0.1309482902288437,0.6968364715576172,-0.05904247611761093,-1.2806259393692017,0.038700759410858154,-0.02889801561832428,1741522678.2769547,1741522677213,-3.1971403808593752,0.24469506835937502,-1.3098005026984394,-0.418155517578125,0.7481295166015625
1741522678.2052233,1.327396720647812,-0.040845747690909304,-0.028969448179612,-0.998745410987074,-0.24938161671161652,0.23326626420021057,-0.43890467286109924,0.9465650320053101,8.011345863342285,9.110926628112793,-0.9973678588867188,0.2954530715942383,0.1653696447610855,-1.3805835247039795,0.005149920005351305,-0.5510414242744446,0.18978407979011536,1.3214548826217651,0.010490577667951584,0.5403600931167603,0.23212787508964539,-0.848210871219635,-0.035667963325977325,-0.09365224838256836,1.1385138034820557,-0.2931678593158722,-0.0030846723821014166,-0.5487525463104248,0.010872052982449532,-0.07381551712751389,0.7238498330116272,-0.2755271792411804,-0.028163796290755272,-0.02191564068198204,-0.0144087765365839,-0.07907962799072266,0.013777763582766056,-0.034435972571372986,0.08821143954992294,0.0386299230158329,0.043579649180173874,-0.08051281422376633,0.16876932978630066,1.7953882217407227,-1.209603190422058,-0.9755743145942688,-0.12069378793239594,2.6949477195739746,2.1719555854797363,0.4722349941730499,0.08504936844110489,0.21123909950256348,0.524450421333313,-0.8937861919403076,0.08750344812870026,0.1914740800857544,1741522678.2769547,1741522677213,-3.1971403808593752,0.24469506835937502,-1.3098005026984394,-0.418155517578125,0.7481295166015625
1741522678.2252047,1.3077873662114143,-0.03817382302797279,-0.02323122880746188,-0.9990010356568828,-0.3227323889732361,0.09313033521175385,-0.958960771560669,-0.22996723651885986,6.177177429199219,9.308411598205566,-0.9981307983398438,0.2920198440551758,0.1680399775505066,-1.379439115524292,0.005531395319849253,-0.5483710765838623,0.18825818598270416,1.3252695798873901,0.011635004542768002,0.5395971536636353,0.24090181291103363,-0.8508812189102173,-0.06427863240242004,-0.0879301130771637,1.1629282236099243,-0.2591707706451416,0.003973917569965124,-0.5506599545478821,0.023460745811462402,-0.07305257022380829,0.7032501697540283,-0.27684178948402405,-0.0287331510335207,-0.0630994513630867,-0.08548615127801895,0.16439490020275116,0.18929685652256012,0.007569842506200075,0.1229650154709816,-0.1457318812608719,0.24939310550689697,0.07891533523797989,-0.06578857451677322,0.3340441882610321,-0.08291363716125488,-1.224686861038208,0.26751524209976196,0.903017520904541,1.6101126670837402,0.1920785754919052,-0.08867627382278442,0.5064706802368164,0.04980749636888504,-1.010226845741272,-0.08233512192964554,-0.18668821454048157,1741522678.2769547,1741522677213,-3.1971403808593752,0.24469506835937502,-1.3098005026984394,-0.418155517578125,0.7481295166015625
1741522678.2452707,1.285697977989912,-0.03421635121761306,-0.02062385589428998,-0.9992016302415666,-0.1443612426519394,0.1696363389492035,-1.1591405868530273,0.7605065107345581,4.423255920410156,8.678406715393066,-0.9943161010742188,0.2866792678833008,0.17032882571220398,-1.3775317668914795,0.005149920005351305,-0.5468451976776123,0.18825818598270416,1.3264141082763672,0.010872052982449532,0.5430304408073425,0.25654229521751404,-0.8371480703353882,-0.07763027399778366,-0.0883115902543068,1.1533913612365723,-0.2452695667743683,0.004565283190459013,-0.5498970150947571,0.028038453310728073,-0.05397878959774971,0.6883726119995117,-0.27697089314460754,-0.026626499369740486,0.06849851459264755,-0.1480998545885086,0.11917421221733093,0.10095342248678207,-0.01280148234218359,-0.014539666473865509,0.05218133330345154,0.01696314476430416,-0.016809670254588127,0.18602299690246582,0.9822261333465576,0.9891559481620789,-0.608252763748169,0.12596583366394043,-0.6593284010887146,0.4623005986213684,0.009178198873996735,-0.06399582326412201,0.2714124321937561,1.018121361732483,-0.6376746892929077,0.02535541169345379,0.3090406358242035,1741522678.2769547,1741522677213,-3.1971403808593752,0.24469506835937502,-1.3098005026984394,-0.418155517578125,0.7481295166015625
1741522678.265234,1.2555999687174335,-0.03100765909127679,-0.022439823463143552,-0.9992672212179393,0.08140408992767334,0.11335163563489914,-1.499592900276184,1.3860175609588623,2.840088129043579,5.918872356414795,-0.9916458129882812,0.2809562683105469,0.17299915850162506,-1.3782947063446045,0.005531395319849253,-0.5498970150947571,0.18673227727413177,1.3252695798873901,0.010872052982449532,0.5430304408073425,0.23899443447589874,-0.7982375621795654,-0.08564125746488571,-0.09288929402828217,1.116388201713562,-0.2561851143836975,0.002915342338383198,-0.5571450591087341,0.03528648987412453,-0.04634927958250046,0.6795986890792847,-0.2783326208591461,-0.02890140190720558,0.03910115361213684,-0.18208864331245422,0.18601416051387787,-0.03322542458772659,0.014159005135297775,-0.12176866829395294,-0.1691897064447403,-0.09103788435459137,-0.00258710072375834,-0.004003599286079407,-1.1281015872955322,1.9686825275421143,-0.269112229347229,-0.22815826535224915,-2.127626657485962,-0.6931337118148804,-0.018047276884317398,-0.3976304233074188,0.22659119963645935,0.43122395873069763,-0.3671970069408417,-0.08767841011285782,-0.17768077552318573,1741522678.2769547,1741522677213,-3.1971403808593752,0.24469506835937502,-1.3098005026984394,-0.418155517578125,0.7481295166015625
1741522678.2869027,1.2312863823026419,-0.025936296926416975,-0.028571029107135132,-0.9992552250538917,0.28810152411460876,0.23262275755405426,-1.19496488571167,1.4842917919158936,0.06361105293035507,6.672548770904541,-0.9927902221679688,0.2714195251464844,0.17872129380702972,-1.3790576457977295,0.005531395319849253,-0.5487525463104248,0.18863965570926666,1.3248881101608276,0.010872052982449532,0.5449378490447998,0.22030213475227356,-0.7410162687301636,-0.0871671661734581,-0.10166323184967041,1.044670820236206,-0.2898135185241699,0.005256356671452522,-0.572022557258606,0.03833829239010811,-0.03223468363285065,0.6803616285324097,-0.2793824076652527,-0.026467256247997284,-0.04612797871232033,-0.28215956687927246,0.22685427963733673,-0.019533388316631317,-0.010817181318998337,0.04816506803035736,0.17680925130844116,-0.001748507609590888,-0.01703614741563797,0.09937252849340439,-0.7009772062301636,3.0112524032592773,-0.058590471744537354,-0.3572375774383545,-3.8656630516052246,-1.8399416208267212,0.16132161021232605,-0.8226353526115417,0.14728747308254242,0.7493383288383484,0.08542686700820923,-0.025912608951330185,0.16927966475486755,1741522678.2769547,1741522677213,-3.1971403808593752,0.24469506835937502,-1.3098005026984394,-0.418155517578125,0.7481295166015625
1741522678.30529,1.2091865874826908,-0.021849353744065533,-0.036453177794198884,-0.9990964776084796,0.3837001621723175,0.1662202626466751,-1.1277785301208496,0.9719093441963196,0.2535768151283264,8.856021881103516,-0.9924087524414062,0.2599754333496094,0.1817730963230133,-1.378676176071167,0.005531395319849253,-0.5487525463104248,0.19398032128810883,1.3248881101608276,0.010872052982449532,0.5437933802604675,0.18673227727413177,-0.6765468716621399,-0.09327077120542526,-0.10204470902681351,0.9397650361061096,-0.339611291885376,0.006094677373766899,-0.5876630544662476,0.04749370738863945,-0.030708782374858856,0.6845578551292419,-0.28054848313331604,-0.02829994261264801,0.006040350534021854,-0.2965182960033417,0.13071468472480774,0.02422194741666317,-0.0074431453831493855,-0.016588877886533737,0.34555020928382874,-0.008948291651904583,0.012384493835270405,-0.07935833930969238,-2.113297700881958,3.0607218742370605,-0.3782457113265991,0.08730417490005493,-5.411929607391357,-2.5953879356384277,-0.013396686874330044,-0.7198526263237,0.4090830683708191,-0.06470680981874466,0.19427764415740967,-0.0547274649143219,-0.10597918927669525,1741522678.2769547,1741522677213,-3.1971403808593752,0.24469506835937502,-1.3098005026984394,-0.418155517578125,0.7481295166015625
1741522678.3254528,1.1879334524273872,-0.016667924080373375,-0.039485067611133795,-0.9990811327127517,0.04328093305230141,0.30164000391960144,-1.063188076019287,-3.3552207946777344,-1.2290000915527344,7.9609694480896,-0.9973678588867188,0.2637901306152344,0.182917520403862,-1.377150297164917,0.005149920005351305,-0.5491340756416321,0.1977950781583786,1.3248881101608276,0.010872052982449532,0.541886031627655,0.16079194843769073,-0.6017776727676392,-0.09250781685113907,-0.09479667246341705,0.8241779208183289,-0.3941808044910431,0.0027901562862098217,-0.6055924296379089,0.06237125024199486,-0.026512550190091133,0.6883726119995117,-0.2809875011444092,-0.03090611658990383,-0.1365072876214981,0.10722390562295914,0.036995407193899155,0.12858271598815918,-0.024965768679976463,-0.037949338555336,0.2172214686870575,-0.0029405506793409586,-0.010998710989952087,-0.16149042546749115,-0.7240679264068604,3.5436205863952637,0.45152774453163147,0.6052404642105103,-5.649837493896484,-2.7055468559265137,0.009390185587108135,-0.9906417727470398,0.7032477855682373,0.3172915577888489,0.2492520958185196,-4.125496343476698e-05,-0.09116223454475403,1741522678.2769547,1741522677213,-3.1971403808593752,0.24469506835937502,-1.3098005026984394,-0.418155517578125,0.7481295166015625
1741522678.3454173,1.165767215192318,-0.009401206204725445,-0.029927447818317538,-0.9995078614943347,-0.616962194442749,0.32498830556869507,-1.1450406312942505,-17.260496139526367,-14.61480712890625,36.61432647705078,-0.9992752075195312,0.2752342224121094,0.182917520403862,-1.3695207834243774,0.005149920005351305,-0.5491340756416321,0.2004653960466385,1.3248881101608276,0.010872052982449532,0.5380712747573853,0.14209964871406555,-0.5640115737915039,-0.06046387553215027,-0.10700388997793198,0.7421606779098511,-0.4081699550151825,-0.0117868697270751,-0.622377336025238,0.071908138692379,-0.02880140393972397,0.6960021257400513,-0.2822612524032593,-0.03788606822490692,-0.030003026127815247,0.3624327778816223,-0.0026257848367094994,0.5966724157333374,-0.01749618910253048,0.01820453442633152,0.2025008201599121,-0.014549368992447853,0.010030359961092472,-0.2667006254196167,-1.3060762882232666,1.2474550008773804,1.528347134590149,-0.822428286075592,-2.854900598526001,0.22853900492191315,-0.9544757604598999,-0.7619483470916748,0.42100998759269714,-0.25417959690093994,0.4461398720741272,-0.10426180064678192,-0.4065302014350891,1741522678.2769547,1741522677213,-3.1971403808593752,0.24469506835937502,-1.3098005026984394,-0.418155517578125,0.7481295166015625
1741522678.365469,1.152197577059269,-0.004893939964179147,-0.023666127508211413,-0.9997079392304494,-0.1847722977399826,0.21115916967391968,-0.5952807068824768,3.870032548904419,-2.9762234687805176,4.655243396759033,-0.9893569946289062,0.2595939636230469,0.182917520403862,-1.358839511871338,0.005531395319849253,-0.54264897108078,0.2004653960466385,1.3313732147216797,0.010872052982449532,0.5357823967933655,0.14324407279491425,-0.5724040865898132,-0.03681239113211632,-0.09136339277029037,0.7551308274269104,-0.3835813105106354,-0.011870034970343113,-0.6284809708595276,0.08411535620689392,-0.04100862145423889,0.6803616285324097,-0.293991357088089,-0.046301234513521194,0.34749868512153625,-0.4958823621273041,-0.010093559511005878,0.6609629392623901,-0.01983889751136303,0.2636147141456604,0.023220326751470566,0.4804494082927704,0.009230773895978928,-0.0019352110102772713,0.5322208404541016,-0.3908730149269104,1.846470594406128,0.9187944531440735,0.28982675075531006,1.0765228271484375,0.34959909319877625,-0.17712998390197754,0.9774186611175537,-0.8550360798835754,-1.0812855958938599,-0.8425696492195129,-0.13122868537902832,1741522678.2769547,1741522677213,-3.1971403808593752,0.24469506835937502,-1.3098005026984394,-0.418155517578125,0.7481295166015625
1741522678.385503,1.141440063714981,-0.004301673504459299,-0.018946515781904066,-0.9998112447581229,-0.31517642736434937,-0.04102929309010506,-0.5104367733001709,-5.374436855316162,-6.019770622253418,7.096205711364746,-0.9912643432617188,0.2561607360839844,0.1813916265964508,-1.3538802862167358,0.005149920005351305,-0.54112309217453,0.20275425910949707,1.3401471376419067,0.01125352829694748,0.5399786233901978,0.11768520623445511,-0.570496678352356,0.006294346414506435,-0.08220797777175903,0.7127870321273804,-0.3585074245929718,-0.001156794955022633,-0.6288624405860901,0.09632257372140884,-0.07763027399778366,0.6734950542449951,-0.3175884485244751,-0.029661765322089195,-0.06868402659893036,-0.14749126136302948,-0.05322198197245598,0.22824735939502716,0.007837768644094467,0.030123703181743622,0.10743632912635803,0.6199193000793457,0.01726597361266613,0.2864670753479004,-1.878071904182434,0.49201592803001404,1.7941205501556396,0.343557208776474,-2.3874166011810303,1.3906911611557007,0.03689155355095863,-0.01578924059867859,0.2720090448856354,-1.9330637454986572,0.10727657377719879,-1.188534140586853,0.8648775815963745,1741522678.4817472,1741522677393,-3.179770751953125,0.24014930725097658,-1.557686928774709,-0.1816419677734375,0.6963173828125
1741522678.4055095,1.1386430487036705,-0.00044999994797869606,-0.005433725377837415,-0.9999851359538126,-0.6670408248901367,0.16650080680847168,-0.15901994705200195,-5.24986457824707,8.491998672485352,3.3514561653137207,-1.0046157836914062,0.2542533874511719,0.17719538509845734,-1.3538802862167358,0.005149920005351305,-0.541886031627655,0.20351719856262207,1.3546432256698608,0.01125352829694748,0.5399786233901978,0.12378881871700287,-0.5483710765838623,0.042153049260377884,-0.057793546468019485,0.6692988276481628,-0.3167335093021393,-0.033504921942949295,-0.648699164390564,0.08106355369091034,-0.10814831405878067,0.726901650428772,-0.35167765617370605,-0.014329689554870129,-0.4087197780609131,-0.050319407135248184,-0.35654520988464355,0.005613415967673063,-0.010802200995385647,-0.01090125273913145,0.04659481719136238,1.097642421722412,0.01707041822373867,-0.08309147506952286,0.932220458984375,0.8422741293907166,1.6190626621246338,1.362256646156311,-2.005026340484619,2.112914800643921,-1.2789572477340698,-1.315088152885437,-0.7717363834381104,-1.4933874607086182,3.0404815673828125,-1.8304458856582642,0.7402526140213013,1741522678.4817472,1741522677393,-3.179770751953125,0.24014930725097658,-1.557686928774709,-0.1816419677734375,0.6963173828125
1741522678.4255142,1.1134184896945953,0.002777623399120955,0.006293481981043091,-0.9999763381664623,-0.49566569924354553,0.15604974329471588,-1.1278676986694336,-9.954540252685547,-0.989844560623169,12.711122512817383,-0.9882125854492188,0.24357223510742188,0.17414358258247375,-1.3527358770370483,0.00476844422519207,-0.543411910533905,0.20199130475521088,1.3702837228775024,0.01201647985726595,0.536926805973053,0.11692225188016891,-0.5525673031806946,0.06885633617639542,-0.04634927958250046,0.648699164390564,-0.2753344178199768,-0.028161875903606415,-0.6872282028198242,0.0551232174038887,-0.14019227027893066,0.8257037997245789,-0.38593485951423645,0.004904848523437977,0.3344108760356903,-0.3004227876663208,-0.012292644940316677,0.10794679075479507,0.0008614669204689562,-0.0653717964887619,-0.10252278298139572,0.8667758107185364,0.029202552512288094,-0.09803704172372818,-0.5249516367912292,-0.27218496799468994,1.353135347366333,0.34703657031059265,-0.9433689713478088,1.977339506149292,0.5378361344337463,-1.8330198526382446,-1.3997951745986938,-1.6618037223815918,5.3785810470581055,-1.608575701713562,0.9531435370445251,1741522678.4817472,1741522677393,-3.179770751953125,0.24014930725097658,-1.557686928774709,-0.1816419677734375,0.6963173828125
1741522678.4455688,1.101956084370613,0.006498725974840319,0.009408312496921383,-0.9999346229712542,-0.1384316086769104,0.13459660112857819,-0.58722323179245,-1.259042501449585,3.4094440937042236,8.221982955932617,-0.9874496459960938,0.23250961303710938,0.1806286722421646,-1.3462507724761963,0.005531395319849253,-0.5399786233901978,0.20199130475521088,1.373335599899292,0.009346150793135166,0.541886031627655,0.13942931592464447,-0.5457007884979248,0.07534141838550568,-0.021171892061829567,0.6372548937797546,-0.24352793395519257,-0.02249555103480816,-0.7429236173629761,0.035667963325977325,-0.1646067053079605,0.9485389590263367,-0.4025525450706482,0.006494471803307533,0.04197729751467705,-0.2873440682888031,0.35084769129753113,0.46976107358932495,0.005162667483091354,0.255045622587204,0.05838960036635399,0.09701311588287354,-0.1255670189857483,0.2857760190963745,1.2820736169815063,0.34360963106155396,0.1934901922941208,1.5128753185272217,-0.5985046029090881,1.430483341217041,0.11192744225263596,-2.819343090057373,-1.060863971710205,-1.019729733467102,6.029502868652344,-0.639223039150238,-0.050382863730192184,1741522678.4817472,1741522677393,-3.179770751953125,0.24014930725097658,-1.557686928774709,-0.1816419677734375,0.6963173828125
1741522678.4655833,1.0802160948514938,0.007034646533818938,0.006284043778136292,-0.9999555112813463,0.2504558563232422,-0.0022221647668629885,-1.0401707887649536,2.700029134750366,-3.8990588188171387,7.488038539886475,-0.9908828735351562,0.20542430877685547,0.18978407979011536,-1.3397656679153442,0.00476844422519207,-0.536926805973053,0.20160982012748718,1.36990225315094,0.010872052982449532,0.5407415628433228,0.12607766687870026,-0.5453193187713623,0.086785688996315,-0.01201647985726595,0.6254291534423828,-0.22365731000900269,-0.027260661125183105,-0.7681010365486145,0.005531395319849253,-0.16269932687282562,1.049248456954956,-0.4046485126018524,0.004295995458960533,-0.11876688152551651,-0.6775581240653992,0.5031539797782898,0.3566999137401581,-0.00588219054043293,0.13010838627815247,-0.04524470120668411,-0.2547629177570343,0.1087355837225914,-0.08277333527803421,-0.9964151382446289,-0.15164366364479065,0.6688790917396545,0.05708632990717888,-0.540493905544281,0.9203397631645203,-0.32320156693458557,-0.7719656229019165,-1.5207538604736328,0.2760795056819916,4.596551895141602,-0.02929394133388996,0.04710047319531441,1741522678.4817472,1741522677393,-3.179770751953125,0.24014930725097658,-1.557686928774709,-0.1816419677734375,0.6963173828125
1741522678.4855943,1.0669264495372772,0.002231916189491724,-0.004919150417556101,-0.9999854101482143,0.5712106227874756,-0.274842232465744,-0.6718272566795349,1.7031350135803223,-3.727494955062866,9.415977478027344,-0.9843978881835938,0.18902111053466797,0.200083926320076,-1.3435804843902588,0.005531395319849253,-0.535400927066803,0.20199130475521088,1.3664690256118774,0.010490577667951584,0.5399786233901978,0.13866636157035828,-0.535400927066803,0.10433356463909149,0.007057297509163618,0.6261920928955078,-0.21516656875610352,-0.033440519124269485,-0.7646677494049072,-0.015449759550392628,-0.1501106321811676,1.0881589651107788,-0.400682657957077,0.00816772785037756,0.19190290570259094,-0.4577721953392029,0.4458939731121063,-0.3919506072998047,0.003994886297732592,0.09554316848516464,0.04559394344687462,-0.20101574063301086,-0.01931283064186573,-0.08756893128156662,1.1533374786376953,0.5253463983535767,0.8765596747398376,1.4875308275222778,0.07145483791828156,0.2597757577896118,-0.19789378345012665,0.3936123847961426,-1.0389137268066406,0.6473892331123352,1.4106680154800415,0.2161533087491989,0.10238154232501984,1741522678.4817472,1741522677393,-3.179770751953125,0.24014930725097658,-1.557686928774709,-0.1816419677734375,0.6963173828125
1741522678.5057707,1.048169419169426,-0.0062620365579114596,-0.01296987054102613,-0.9998962792991563,0.37692490220069885,-0.45234501361846924,-0.9597653150558472,-4.4107584953308105,-17.272029876708984,3.660247802734375,-0.9889755249023438,0.18139171600341797,0.20656901597976685,-1.3508285284042358,0.005149920005351305,-0.5384527444839478,0.20160982012748718,1.364943027496338,0.01125352829694748,0.5376898050308228,0.12264438718557358,-0.5323491096496582,0.12531471252441406,0.01888304017484188,0.6326771974563599,-0.21880070865154266,-0.03812626004219055,-0.7188906669616699,-0.04253452271223068,-0.13065537810325623,1.0828183889389038,-0.401061087846756,0.001276133581995964,-0.12243606895208359,-0.2717478275299072,0.35795119404792786,-0.3896733522415161,-0.006043250672519207,-0.16966086626052856,-0.03676312789320946,-0.05256009101867676,0.04549917206168175,-0.10718362033367157,-1.3567711114883423,0.13637658953666687,0.9733069539070129,0.20485597848892212,0.46243906021118164,-0.20829997956752777,-0.34092962741851807,2.6404387950897217,-1.4333006143569946,1.035474419593811,-0.46810922026634216,-0.10273071378469467,-0.41550925374031067,1741522678.4817472,1741522677393,-3.179770751953125,0.24014930725097658,-1.557686928774709,-0.1816419677734375,0.6963173828125
1741522678.5256326,1.0483827590942383,-0.012256077972585908,-0.020099808552095432,-0.9997228547196964,0.3671869933605194,-0.282847136259079,0.002413999056443572,1.6336055994033813,8.206278800964355,3.6284120082855225,-0.9950790405273438,0.18177318572998047,0.212672621011734,-1.3523544073104858,0.005531395319849253,-0.5399786233901978,0.20428015291690826,1.3695207834243774,0.010490577667951584,0.54112309217453,0.14438849687576294,-0.5357823967933655,0.1348516047000885,0.03185320645570755,0.6605249047279358,-0.2346179038286209,-0.051173582673072815,-0.6620507836341858,-0.0555046908557415,-0.1039520874619484,1.0297932624816895,-0.4085405468940735,-0.0020732483826577663,-0.14435695111751556,0.017353693023324013,0.28664544224739075,-0.0804864838719368,-0.033219948410987854,-0.04062981531023979,0.22417987883090973,0.2787657380104065,-0.020932894200086594,0.1919061541557312,1.4074931144714355,-0.5048008561134338,0.43651336431503296,0.7025415301322937,1.477996587753296,-0.9504509568214417,-0.5304104685783386,2.874077320098877,-0.6964013576507568,1.3501348495483398,-3.0322258472442627,-0.42978236079216003,0.022823268547654152,1741522678.4817472,1741522677393,-3.179770751953125,0.24014930725097658,-1.557686928774709,-0.1816419677734375,0.6963173828125
1741522678.5456553,1.0367009043693542,-0.016533023833196426,-0.024891814633213834,-0.9995534286306045,0.2217056006193161,-0.19641874730587006,-0.5338932871818542,0.4333380460739136,-15.029693603515625,3.0495638847351074,-0.9916458129882812,0.18101024627685547,0.2157244235277176,-1.3534988164901733,0.00476844422519207,-0.5388342142105103,0.20389868319034576,1.36837637424469,0.011635004542768002,0.5392156839370728,0.14476996660232544,-0.5678263306617737,0.13065537810325623,0.014686808921396732,0.7135500311851501,-0.26013708114624023,-0.0538163036108017,-0.5895704627037048,-0.059319447726011276,-0.08487831056118011,0.925650417804718,-0.4239842891693115,0.0025129865389317274,0.04754350706934929,0.017833100631833076,0.10764959454536438,-0.09686754643917084,0.027168510481715202,0.03431123495101929,-0.10424436628818512,-0.12137361615896225,0.05288463458418846,-0.08789823204278946,-0.08621901273727417,-1.7356914281845093,-0.32046982645988464,-1.2386704683303833,2.904271125793457,-1.308310866355896,0.010332303121685982,3.7533464431762695,-0.07122999429702759,0.7706244587898254,-5.432893753051758,-0.8499099612236023,0.11378218978643417,1741522678.5864332,1741522677513,-3.15350732421875,0.22437771606445314,-1.5778120157985442,-0.028951196670532225,0.6642184448242188
1741522678.5708406,1.0374607145786285,-0.01469389925837979,-0.027917514470801808,-0.999502226966182,0.1308792382478714,0.1971684843301773,-0.081735759973526,5.696742057800293,5.62607479095459,37.84304428100586,-0.9912643432617188,0.17452526092529297,0.2149614691734314,-1.3531173467636108,0.00476844422519207,-0.5384527444839478,0.20199130475521088,1.36837637424469,0.010109102353453636,0.5415045619010925,0.18940261006355286,-0.6044480204582214,0.11196307092905045,-0.0020981156267225742,0.7928969264030457,-0.29129958152770996,-0.05113346129655838,-0.5392156839370728,-0.06466010212898254,-0.08602273464202881,0.8234149813652039,-0.4123077392578125,0.015309581533074379,0.017430918291211128,-0.14875459671020508,-0.09182415902614594,0.03217326104640961,-0.07530397176742554,0.001578593160957098,-0.09218372404575348,-0.051199767738580704,-0.04956045374274254,0.07325273007154465,2.250032901763916,-1.8659090995788574,-0.36164259910583496,-0.7402421832084656,4.25213098526001,-1.6134798526763916,0.12749502062797546,1.9536575078964233,-0.3212164640426636,-0.7776293754577637,-3.4199793338775635,1.650104284286499,1.1107878684997559,1741522678.5864332,1741522677513,-3.15350732421875,0.22437771606445314,-1.5778120157985442,-0.028951196670532225,0.6642184448242188
1741522678.5857074,1.0052641034126282,-0.023130374830065026,-0.012414117481590126,-0.9996553783416433,-0.8498853445053101,-0.6026883721351624,-1.5090291500091553,-22.519405364990234,-17.15019989013672,13.264963150024414,-0.9878311157226562,0.22831344604492188,0.21229113638401031,-1.3531173467636108,0.004386968910694122,-0.5376898050308228,0.1997024416923523,1.3695207834243774,0.012779430486261845,0.5285343527793884,0.22526131570339203,-0.647173285484314,0.09098191559314728,-0.040245670825242996,0.8550774455070496,-0.32678529620170593,-0.019475406035780907,-0.5598153471946716,-0.04901960864663124,-0.09708552807569504,0.841725766658783,-0.35493677854537964,0.006624759640544653,0.02766839973628521,1.2945716381072998,-0.09148669987916946,0.012486361898481846,0.03685735911130905,0.05434957891702652,-0.14296077191829681,0.10369091480970383,0.12432990223169327,-0.7173016667366028,2.0834460258483887,-2.2847275733947754,-1.693454384803772,-1.6168729066848755,3.001337766647339,-1.8443173170089722,2.057429075241089,-1.1207683086395264,0.31737181544303894,0.25006547570228577,-0.18984833359718323,2.492138147354126,-0.5531125664710999,1741522678.5864332,1741522677513,-3.15350732421875,0.22437771606445314,-1.5778120157985442,-0.028951196670532225,0.6642184448242188
1741522678.6057258,0.9794451296329498,-0.02222963956470771,-0.0016324218422022034,-0.9997515583002371,-0.38102486729621887,0.2622973918914795,-1.2622655630111694,1.5490663051605225,1.8233174085617065,16.39259147644043,-0.9931716918945312,0.20809459686279297,0.2157244235277176,-1.3531173467636108,0.005149920005351305,-0.534637987613678,0.19245441257953644,1.373335599899292,0.010490577667951584,0.5323491096496582,0.2733272314071655,-0.6750209927558899,0.04787518084049225,-0.07457847148180008,0.9100099205970764,-0.36014384031295776,0.018617141991853714,-0.5395971536636353,-0.03452353551983833,-0.07000076025724411,0.80510413646698,-0.31895843148231506,-0.008909974247217178,-0.1584605723619461,-0.49896830320358276,0.17911303043365479,-0.004622904118150473,-0.06626848131418228,0.17292973399162292,-0.7058867812156677,0.2915520668029785,-0.14637193083763123,0.3787521719932556,2.2392730712890625,-1.0541177988052368,-2.0228195190429688,-1.7523757219314575,2.728012800216675,-1.490402102470398,1.3787575960159302,1.0549063682556152,1.201634407043457,1.0340512990951538,-1.8131110668182373,1.8829923868179321,-0.5317304730415344,1741522678.5864332,1741522677513,-3.15350732421875,0.22437771606445314,-1.5778120157985442,-0.028951196670532225,0.6642184448242188
1741522678.6257935,0.9606623351573944,-0.01627524794635022,-0.010545841428507067,-0.9998119330818419,0.41474175453186035,0.3021238446235657,-0.9794714450836182,0.6305844187736511,0.9722470045089722,12.58270263671875,-0.9859237670898438,0.18558788299560547,0.21686884760856628,-1.3710466623306274,0.005912871100008488,-0.5350194573402405,0.17490653693675995,1.36837637424469,0.010872052982449532,0.5384527444839478,0.2576867341995239,-0.6754024624824524,0.01735713705420494,-0.07877469807863235,0.9115357995033264,-0.39489471912384033,-0.002469572238624096,-0.5552376508712769,-0.007438773289322853,-0.06160829961299896,0.7814526557922363,-0.29361143708229065,-0.028077764436602592,0.23297250270843506,-0.809394121170044,0.006288096774369478,-1.6124513149261475,0.03968749940395355,-0.0939699187874794,-1.22786283493042,-0.4337422847747803,0.04145537316799164,0.356565922498703,-1.4121116399765015,0.11446242034435272,-1.3276375532150269,0.06492871791124344,-0.7504855394363403,-1.8941650390625,-1.0749768018722534,-1.0525116920471191,0.9201342463493347,0.6295681595802307,-0.7816574573516846,1.1690672636032104,-0.9429721832275391,1741522678.5864332,1741522677513,-3.15350732421875,0.22437771606445314,-1.5778120157985442,-0.028951196670532225,0.6642184448242188
1741522678.6457777,0.9445765018463135,-0.0025296424079142327,-0.015102458750049647,-0.9998827514508843,0.22164972126483917,0.6920214891433716,-0.8110769987106323,3.104672908782959,3.2577011585235596,8.995518684387207,-0.9870681762695312,0.17757701873779297,0.2134355753660202,-1.3863056898117065,0.00476844422519207,-0.5395971536636353,0.16117341816425323,1.3561691045761108,0.010490577667951584,0.5437933802604675,0.21648737788200378,-0.6445029377937317,0.004386968910694122,-0.0551232174038887,0.8657587766647339,-0.4399741291999817,-0.006131831090897322,-0.5624856948852539,-0.00667582219466567,-0.012779430486261845,0.7745860815048218,-0.2804109752178192,-0.017638174816966057,-0.05504273623228073,-0.4118511378765106,-0.2333664894104004,-0.7468553185462952,-0.024310540407896042,-0.1975724846124649,-0.747418224811554,-0.8233245611190796,0.010995868593454361,0.2965783476829529,-1.8108595609664917,1.8421357870101929,-0.5543186664581299,1.2728794813156128,-2.1871416568756104,-2.272765636444092,0.14579984545707703,-0.2837054431438446,0.31026938557624817,2.6145453453063965,-0.5539320111274719,0.5938546061515808,0.8846595287322998,1741522678.6864865,1741522677613,-3.130822998046875,0.21519264221191406,-1.6375454471152455,0.09423299407958985,0.6417384033203125
1741522678.665857,0.9237711429595947,0.008272609376641111,-0.02298185472651917,-0.9997016546387381,0.4110240042209625,0.5000552535057068,-1.0645945072174072,0.8589617013931274,1.8187991380691528,9.728007316589355,-0.9821090698242188,0.17719554901123047,0.20542457699775696,-1.3912649154663086,0.005531395319849253,-0.5399786233901978,0.15812161564826965,1.3401471376419067,0.010490577667951584,0.54417484998703,0.1646067053079605,-0.6280995011329651,-0.025749599561095238,-0.05245288833975792,0.8615625500679016,-0.46507665514945984,0.0071189794689416885,-0.5609598159790039,0.015449759550392628,0.018501564860343933,0.7513160705566406,-0.2740620970726013,-0.01151642482727766,0.12353866547346115,-0.10233057290315628,-0.40677395462989807,-0.5369910597801208,0.0046184128150343895,0.024872036650776863,-0.276329904794693,-1.1626337766647339,0.005952090956270695,0.025454290211200714,-2.6725242137908936,0.17035406827926636,-1.5989829301834106,-0.38927707076072693,0.3720077872276306,-1.0223463773727417,0.5545850992202759,0.07228738814592361,0.9990509152412415,1.3990294933319092,-1.2029194831848145,0.29151007533073425,-0.13674183189868927,1741522678.6864865,1741522677613,-3.130822998046875,0.21519264221191406,-1.6375454471152455,0.09423299407958985,0.6417384033203125
1741522678.6858168,0.9083857238292694,0.01483211015973133,-0.0269323683065183,-0.9995272162605737,0.11471426486968994,0.33255964517593384,-0.7442110180854797,1.7002811431884766,2.69283127784729,9.349139213562012,-0.9721908569335938,0.19665050506591797,0.19550621509552002,-1.3950796127319336,0.005531395319849253,-0.5373083353042603,0.15316243469715118,1.3241251707077026,0.010490577667951584,0.54417484998703,0.14591439068317413,-0.6601434350013733,-0.03528648987412453,-0.06313420087099075,0.918402373790741,-0.46883776783943176,-0.006087777204811573,-0.5575265288352966,0.019645990803837776,0.03795681521296501,0.7299534678459167,-0.25833478569984436,-0.021340232342481613,0.28024813532829285,0.4705269932746887,-0.4950712025165558,-0.06847360730171204,-0.008497893810272217,0.10408191382884979,-0.25173208117485046,-1.020049810409546,0.004299656953662634,-0.024575890973210335,-0.3312774896621704,-1.5676161050796509,-0.2726576626300812,-0.2823183536529541,3.153770685195923,-0.010949940420687199,-0.8127824068069458,0.09763578325510025,0.22264446318149567,0.8704540729522705,-0.966550886631012,0.9025914072990417,-0.18185800313949585,1741522678.6864865,1741522677613,-3.130822998046875,0.21519264221191406,-1.6375454471152455,0.09423299407958985,0.6417384033203125
1741522678.7058632,0.8919267952442169,0.01770100866655626,-0.02626676931057702,-0.999498239679376,-0.004963986109942198,0.0807419866323471,-0.8545295596122742,-1.2538580894470215,-4.526266098022461,8.497529983520508,-0.9733352661132812,0.20199108123779297,0.18711376190185547,-1.3885945081710815,0.005531395319849253,-0.5376898050308228,0.15583276748657227,1.3187845945358276,0.010490577667951584,0.5422675013542175,0.1348516047000885,-0.7177462577819824,-0.046730753034353256,-0.0551232174038887,1.0149157047271729,-0.4505404829978943,-0.0110235083848238,-0.5556191205978394,0.022697795182466507,0.02841992862522602,0.7066834568977356,-0.23762978613376617,-0.014544110745191574,-0.0017992763314396143,0.16206204891204834,-0.3779723346233368,0.3920162320137024,0.0025765844620764256,-0.011774471029639244,0.2415214627981186,-0.22202296555042267,0.008705022744834423,-0.16767220199108124,-0.8292171955108643,-3.0178513526916504,-0.667736291885376,0.3533262312412262,4.855870723724365,1.0969518423080444,0.08982662856578827,0.15007488429546356,0.1018807515501976,-0.6754881143569946,-1.2588574886322021,0.9833908081054688,0.3043767213821411,1741522678.6864865,1741522677613,-3.130822998046875,0.21519264221191406,-1.6375454471152455,0.09423299407958985,0.6417384033203125
1741522678.7309508,0.8885107934474945,0.020943254003160612,-0.023187909907042278,-0.9995117312697747,-0.1497359722852707,0.1880699098110199,-0.16588163375854492,-0.13958673179149628,-4.092868804931641,8.53150749206543,-0.9668493270874023,0.20199108123779297,0.17872129380702972,-1.381346583366394,0.005149920005351305,-0.5373083353042603,0.16422522068023682,1.3225992918014526,0.010490577667951584,0.5415045619010925,0.15926603972911835,-0.777256429195404,-0.050164032727479935,-0.040245670825242996,1.11295485496521,-0.41391614079475403,-0.0012353743659332395,-0.5540932416915894,0.024223696440458298,0.024223696440458298,0.6853207945823669,-0.21860142052173615,-0.01936967484652996,0.2094786912202835,-0.005933540873229504,-0.45119842886924744,0.5475441813468933,-0.054330237209796906,-0.014294458553195,0.6392949819564819,0.26865386962890625,-0.007774109020829201,-0.03350511193275452,1.488871693611145,-2.997497320175171,-0.1388423591852188,0.8048858046531677,4.695525169372559,1.900413155555725,0.41362619400024414,0.09106609225273132,0.25475504994392395,0.024060415104031563,-0.9578551054000854,0.9444293975830078,-0.2402317374944687,1741522678.6864865,1741522677613,-3.130822998046875,0.21519264221191406,-1.6375454471152455,0.09423299407958985,0.6417384033203125
1741522678.7459064,0.8804773986339569,0.02149159756822822,-0.01751150777138821,-0.9996156553043465,-0.26529592275619507,-0.013683787547051907,-0.4367966651916504,4.624344825744629,1.3076242208480835,9.377832412719727,-0.9569311141967773,0.20542430877685547,0.17223620414733887,-1.374098539352417,0.005149920005351305,-0.5388342142105103,0.17681391537189484,1.3260325193405151,0.010872052982449532,0.5380712747573853,0.16193637251853943,-0.8218890428543091,-0.05970092490315437,-0.03299763426184654,1.1758984327316284,-0.36866074800491333,-0.0033904530573636293,-0.5617227554321289,0.028038453310728073,0.01773861236870289,0.6670100092887878,-0.20958371460437775,-0.024518590420484543,0.29261767864227295,0.057745225727558136,-0.29063931107521057,0.4999583065509796,0.01915675587952137,-0.06335855275392532,0.8540138602256775,0.1279303878545761,0.036297429352998734,-0.28870272636413574,-0.25641903281211853,-1.9571181535720825,-0.5682631731033325,0.2903395891189575,2.7308363914489746,2.2632579803466797,-0.05152938887476921,-0.5425688028335571,0.08972162753343582,-0.4718224108219147,-0.8963327407836914,0.29804331064224243,-0.30207741260528564,1741522678.7888796,1741522677693,-3.113980712890625,0.21862020874023438,-1.3412378837887442,0.1905221405029297,0.6221431884765625
1741522678.7658916,0.8765610158443451,0.02513477906637689,-0.013132882134592296,-0.9995978042633564,-0.22980815172195435,0.28159457445144653,-0.2460869997739792,2.8415729999542236,13.869292259216309,8.951557159423828,-0.9470129013061523,0.20389842987060547,0.164988175034523,-1.367613434791565,0.005149920005351305,-0.5380712747573853,0.18749523162841797,1.3248881101608276,0.010490577667951584,0.5399786233901978,0.18673227727413177,-0.8230335116386414,-0.07038223743438721,-0.03528648987412453,1.185053825378418,-0.3274593949317932,-0.0005456369835883379,-0.5643930435180664,0.029564354568719864,0.024986648932099342,0.6624323129653931,-0.21083110570907593,-0.024233926087617874,0.2865743935108185,-0.05172468349337578,-0.4919531047344208,0.3991203010082245,-0.02756192907691002,0.0306138526648283,0.7049444317817688,-0.06399253010749817,-0.033666227012872696,0.14760014414787292,1.7512561082839966,0.209280863404274,-0.5120338797569275,-0.21788671612739563,0.040022894740104675,1.9412705898284912,0.19240128993988037,-0.08336838334798813,0.1427525281906128,0.6377648115158081,-0.14706052839756012,-0.11352456361055374,0.13744133710861206,1741522678.7888796,1741522677693,-3.113980712890625,0.21862020874023438,-1.3412378837887442,0.1905221405029297,0.6221431884765625
1741522678.7859628,0.853571206331253,0.02882243087503801,-0.010607118224071987,-0.999528266994703,-0.03345810994505882,0.09462498873472214,-1.085036039352417,-2.291145086288452,6.344709396362305,9.50146770477295,-0.9370946884155273,0.20313549041748047,0.15888457000255585,-1.3664690256118774,0.005149920005351305,-0.5388342142105103,0.19245441257953644,1.3248881101608276,0.01201647985726595,0.5380712747573853,0.18825818598270416,-0.8077744841575623,-0.08335240930318832,-0.05245288833975792,1.1392767429351807,-0.30446287989616394,0.005725358612835407,-0.572022557258606,0.03452353551983833,0.03337911143898964,0.6597619652748108,-0.22260092198848724,-0.020502593368291855,0.20507067441940308,-0.02524050883948803,-0.18432193994522095,0.04777755215764046,0.012541625648736954,-0.04921326786279678,0.22212457656860352,-0.010461516678333282,0.11630154401063919,-0.08983318507671356,-0.05735810846090317,0.9613945484161377,-0.5564475059509277,-0.877095103263855,-2.697772741317749,0.9754723906517029,0.2679286301136017,-0.5443810224533081,0.19115881621837616,0.3329830765724182,-0.09791146963834763,-0.6904650926589966,0.04169398546218872,1741522678.7888796,1741522677693,-3.113980712890625,0.21862020874023438,-1.3412378837887442,0.1905221405029297,0.6221431884765625
1741522678.805947,0.8295511901378632,0.03455630630992467,-0.012879343366215061,-0.9993197607416106,0.15691843628883362,0.3172772526741028,-1.2937296628952026,3.5823137760162354,-0.7348999977111816,7.717970371246338,-0.9264135360717773,0.19893932342529297,0.16231784224510193,-1.3672319650650024,0.005149920005351305,-0.5384527444839478,0.19283588230609894,1.3248881101608276,0.010109102353453636,0.54264897108078,0.1997024416923523,-0.7513160705566406,-0.08945601433515549,-0.07000076025724411,1.0465781688690186,-0.308285117149353,0.006966335698962212,-0.576981782913208,0.04139009863138199,0.04749370738863945,0.6727321147918701,-0.2388094812631607,-0.023164594545960426,0.30780649185180664,-0.11376212537288666,0.21081097424030304,-0.0963057354092598,-0.028925947844982147,0.02239435538649559,0.024763766676187515,-0.012800619937479496,-0.05777829512953758,0.2187943011522293,0.9243289828300476,3.062260866165161,-0.2069692760705948,-0.7716576457023621,-4.898279666900635,-0.42537567019462585,0.10139010846614838,-0.2826712131500244,0.3062196373939514,0.8854207992553711,0.7151084542274475,-0.8098737001419067,0.04101349785923958,1741522678.7888796,1741522677693,-3.113980712890625,0.21862020874023438,-1.3412378837887442,0.1905221405029297,0.6221431884765625
1741522678.8261847,0.7984670400619507,0.0355364125571142,-0.016638130934598767,-0.9992298714417888,0.24896478652954102,-0.03614366054534912,-1.654335379600525,-3.754066228866577,-5.800374984741211,9.201602935791016,-0.9111547470092773,0.19016551971435547,0.16880293190479279,-1.3687578439712524,0.005531395319849253,-0.536163866519928,0.19207294285297394,1.3248881101608276,0.01125352829694748,0.541886031627655,0.18520638346672058,-0.6803616285324097,-0.10013733059167862,-0.07572289556264877,0.9122987985610962,-0.33772826194763184,0.006807033903896809,-0.5937666893005371,0.05703059583902359,0.05397878959774971,0.6826505064964294,-0.2542026937007904,-0.018461599946022034,0.45614826679229736,-0.24672287702560425,0.33451950550079346,-0.11446348577737808,0.01089803408831358,0.06392060965299606,-0.08441953361034393,-0.007098909933120012,0.09014606475830078,-0.11537938565015793,-1.000505805015564,3.555901527404785,-0.680716335773468,-0.23010335862636566,-6.801516056060791,-1.6315587759017944,0.06786166876554489,-0.8849313259124756,0.8547464609146118,0.07419439405202866,0.4803602993488312,-0.7272883653640747,0.15358410775661469,1741522678.7888796,1741522677693,-3.113980712890625,0.21862020874023438,-1.3412378837887442,0.1905221405029297,0.6221431884765625
1741522678.8461578,0.7735842764377594,0.03814815213827258,-0.017318188091706998,-0.9991220139951154,0.05887748673558235,0.1272040158510208,-1.1877521276474,-3.4247076511383057,-6.1450605392456055,3.4210309982299805,-0.9046688079833984,0.19474315643310547,0.17643244564533234,-1.3687578439712524,0.005531395319849253,-0.536926805973053,0.18863965570926666,1.3248881101608276,0.010490577667951584,0.54112309217453,0.17986571788787842,-0.6048294901847839,-0.09136339277029037,-0.07419699430465698,0.7726787328720093,-0.3813590109348297,0.005132878199219704,-0.6013962030410767,0.07534141838550568,0.05664911866188049,0.698291003704071,-0.259122759103775,-0.023079393431544304,0.20035727322101593,0.15559549629688263,0.39893147349357605,-0.010454322211444378,0.00681868614628911,-0.03583010286092758,-0.14662249386310577,-0.006785901263356209,-0.0563584566116333,-0.056701719760894775,0.03554132208228111,4.1498799324035645,0.7762510180473328,0.07803776860237122,-6.9729084968566895,-2.270264148712158,-0.10670600086450577,-0.40394872426986694,0.7770799398422241,0.256273478269577,0.8059777021408081,-0.17369244992733002,-0.1811550110578537,1741522678.7888796,1741522677693,-3.113980712890625,0.21862020874023438,-1.3412378837887442,0.1905221405029297,0.6221431884765625
1741522678.8661876,0.7532110810279846,0.03956502353075463,-0.007849993402606748,-0.9991861620922249,-0.5285036563873291,-0.0578986220061779,-0.9213964343070984,-13.897071838378906,3.9156508445739746,22.44358253479004,-0.9031429290771484,0.20580577850341797,0.1832990050315857,-1.3664690256118774,0.005149920005351305,-0.536163866519928,0.19016556441783905,1.3252695798873901,0.010872052982449532,0.5373083353042603,0.16384375095367432,-0.5682078003883362,-0.06275273114442825,-0.08602273464202881,0.7143129706382751,-0.38210374116897583,-0.0033970752265304327,-0.6116960644721985,0.06466010212898254,0.06427863240242004,0.7055390477180481,-0.2571057975292206,-0.02329232543706894,0.09228438138961792,0.42191654443740845,0.30410999059677124,0.18933001160621643,0.009229707531630993,0.13726447522640228,0.05663653090596199,0.08479664474725723,0.01900552399456501,-0.3145337700843811,-0.9391695857048035,1.0150086879730225,0.8945088982582092,-0.5728486180305481,-1.150523066520691,0.5789599418640137,-0.2888001799583435,-0.4983343780040741,-0.8868407011032104,0.36322060227394104,0.2789161503314972,0.1871967315673828,-0.07022459805011749,1741522678.7888796,1741522677693,-3.113980712890625,0.21862020874023438,-1.3412378837887442,0.1905221405029297,0.6221431884765625
1741522678.8862274,0.7550471425056458,0.04150555494674584,-0.006991701545091825,-0.999113809842536,-0.024729307740926743,0.058598075062036514,0.037026647478342056,0.18533314764499664,-7.93973970413208,7.163443088531494,-0.8772029876708984,0.19207286834716797,0.17795833945274353,-1.3630356788635254,0.005149920005351305,-0.5323491096496582,0.19054703414440155,1.3344250917434692,0.010872052982449532,0.5384527444839478,0.17147326469421387,-0.5842298269271851,-0.045204851776361465,-0.06313420087099075,0.7436865568161011,-0.36702680587768555,-0.0012063796166330576,-0.6067368388175964,0.08068207651376724,0.04482337832450867,0.6754024624824524,-0.2625695765018463,-0.021340470761060715,0.8021144270896912,-0.2706025540828705,-0.3736168444156647,0.22337190806865692,-0.03956408426165581,0.02819734625518322,0.08532823622226715,0.5050716400146484,0.06667951494455338,0.15985950827598572,0.5743396878242493,-0.6534422636032104,1.213850975036621,1.2059675455093384,0.9598652124404907,0.5652571320533752,0.3351473808288574,0.47473326325416565,1.0949442386627197,-1.3596926927566528,-1.8276422023773193,-0.4383300542831421,0.27420327067375183,1741522678.7888796,1741522677693,-3.113980712890625,0.21862020874023438,-1.3412378837887442,0.1905221405029297,0.6221431884765625
1741522678.9071245,0.7494093179702759,0.042765434566418424,0.003953846541076127,-0.9990773166796827,-0.6661661267280579,0.05303794890642166,-0.5564500093460083,-2.8610169887542725,-1.260571002960205,4.402065277099609,-0.8779659271240234,0.19283580780029297,0.17109178006649017,-1.3615097999572754,0.00476844422519207,-0.5430304408073425,0.19169145822525024,1.3431990146636963,0.011635004542768002,0.5380712747573853,0.16269932687282562,-0.572022557258606,-0.013542382046580315,-0.04444190114736557,0.7173647880554199,-0.3556743860244751,0.0041261534206569195,-0.5964370369911194,0.09060044586658478,0.004386968910694122,0.656710147857666,-0.2773928642272949,-0.02200538106262684,0.003855764400213957,0.10288279503583908,-0.29271984100341797,0.1519988626241684,-0.04525252431631088,-0.5130623579025269,0.06164705380797386,0.6008657217025757,0.018575599417090416,-0.15325038135051727,-0.6995453834533691,0.7235574126243591,1.5611190795898438,0.687446117401123,-1.759387731552124,0.6121549010276794,0.070748470723629,0.39018672704696655,0.4345797598361969,-1.7115777730941772,-0.5894500613212585,-0.8364819884300232,-0.5095700621604919,1741522678.9938564,1741522677913,-3.1111904296875,0.235850341796875,-1.8063322531438717,0.44390612792968753,0.5669778442382812
1741522678.9263058,0.7350183129310608,0.04280623008133633,0.02352932749357669,-0.9988062862306804,-0.973854660987854,0.002945168875157833,-0.8542430996894836,-5.502049446105957,4.593355655670166,13.161497116088867,-0.8607997894287109,0.19016551971435547,0.17299915850162506,-1.3554061651229858,0.005149920005351305,-0.5506599545478821,0.19207294285297394,1.358076572418213,0.011635004542768002,0.5380712747573853,0.17757686972618103,-0.5460822582244873,0.040245670825242996,-0.03833829239010811,0.6795986890792847,-0.3283654451370239,-0.012160327285528183,-0.6052109599113464,0.08983749151229858,-0.02231631986796856,0.6563286781311035,-0.3095378279685974,-0.041884344071149826,0.5356848835945129,-0.00798746943473816,0.1609508991241455,0.4150095283985138,0.00011373008601367474,-0.3522971570491791,0.0037465651985257864,0.956092894077301,-0.01572299934923649,-0.008545322343707085,1.1918631792068481,1.1730153560638428,2.4753074645996094,0.577584981918335,-1.5669398307800293,1.5467960834503174,-0.9922711849212646,-0.39456087350845337,-0.06982684135437012,-1.4378042221069336,0.01816677302122116,-1.756700038909912,-0.7721672058105469,1741522678.9938564,1741522677913,-3.1111904296875,0.235850341796875,-1.8063322531438717,0.44390612792968753,0.5669778442382812
1741522678.9462926,0.704399824142456,0.043725757033555836,0.04812595222164879,-0.9978837361609828,-1.1456254720687866,0.04970977082848549,-1.5664536952972412,-3.830287456512451,4.956638813018799,6.121452808380127,-0.843632698059082,0.18520641326904297,0.182154580950737,-1.3496840000152588,0.005149920005351305,-0.5521858334541321,0.19092851877212524,1.3710466623306274,0.011635004542768002,0.536926805973053,0.17605096101760864,-0.5498970150947571,0.07839322835206985,-0.01125352829694748,0.6643396615982056,-0.29151076078414917,-0.022627007216215134,-0.6097886562347412,0.08411535620689392,-0.06923781335353851,0.697528064250946,-0.3457643687725067,-0.020983297377824783,0.44081592559814453,-0.1106637716293335,0.5174461603164673,0.3635712265968323,0.016491323709487915,-0.016679100692272186,-0.0859670490026474,0.879564642906189,-0.004482973832637072,-0.04417430981993675,-0.4057219624519348,-0.09606001526117325,1.8523551225662231,1.113324522972107,-0.8672593832015991,1.7260650396347046,-0.19417999684810638,-0.4750465452671051,-0.398572713136673,-2.382032871246338,2.6369454860687256,-1.7440721988677979,1.4418002367019653,1741522678.9938564,1741522677913,-3.1111904296875,0.235850341796875,-1.8063322531438717,0.44390612792968753,0.5669778442382812
1741522678.9664502,0.6808894276618958,0.04562059843285629,0.06442065461704857,-0.9968795013728284,-0.6707428693771362,0.23594625294208527,-1.1745442152023315,-3.1676270961761475,-0.983523964881897,11.20138931274414,-0.827610969543457,0.16804027557373047,0.19550621509552002,-1.3435804843902588,0.005531395319849253,-0.5449378490447998,0.18902114033699036,1.3790576457977295,0.010490577667951584,0.5422675013542175,0.1657511293888092,-0.5373083353042603,0.10891126841306686,0.024223696440458298,0.6464102864265442,-0.2575072646141052,-0.018132997676730156,-0.6540398001670837,0.06923781335353851,-0.11768520623445511,0.7955672740936279,-0.37135472893714905,0.017296915873885155,0.47802111506462097,-0.46994566917419434,0.6583365797996521,0.392463743686676,-0.0044839996844530106,0.4252437353134155,-0.09153629094362259,0.3587014675140381,-0.04070451110601425,0.3820963501930237,-0.5147027969360352,0.706049919128418,1.293137550354004,2.042041778564453,-0.8439261317253113,1.7535481452941895,0.15046106278896332,-2.621842622756958,-0.7851362228393555,-2.3172671794891357,5.226596355438232,-1.0633398294448853,1.4470587968826294,1741522678.9938564,1741522677913,-3.1111904296875,0.235850341796875,-1.8063322531438717,0.44390612792968753,0.5669778442382812
1741522678.986335,0.6598771214485168,0.04887645900556442,0.06769979541588546,-0.9965078170570085,-0.011884814128279686,0.22627660632133484,-0.9860880374908447,0.763386070728302,-2.4343271255493164,10.531217575073242,-0.8134965896606445,0.12684059143066406,0.20504310727119446,-1.3416730165481567,0.005149920005351305,-0.5399786233901978,0.18902114033699036,1.37295401096344,0.010872052982449532,0.5445563197135925,0.12645913660526276,-0.5292973518371582,0.1184481605887413,0.049782559275627136,0.6395437717437744,-0.22435563802719116,-0.015260310843586922,-0.7169833183288574,0.05054550990462303,-0.14515145123004913,0.9157320261001587,-0.3808542788028717,0.0011409579310566187,0.4303973317146301,-1.1513339281082153,0.40767547488212585,0.0738164633512497,0.0009200021158903837,0.25949934124946594,0.0033160513266921043,-0.48213669657707214,0.015898821875452995,0.0798337459564209,-2.393069267272949,0.3424379825592041,0.3496958017349243,1.1096422672271729,-0.22603844106197357,1.573960304260254,0.09311260282993317,-2.8133153915405273,-0.9708774089813232,-1.1559196710586548,6.014185428619385,-0.3557559549808502,-0.9694145917892456,1741522678.9938564,1741522677913,-3.1111904296875,0.235850341796875,-1.8063322531438717,0.44390612792968753,0.5669778442382812
1741522679.0063522,0.6486024856567383,0.053647701451871185,0.0597594450453196,-0.9967701504643918,0.45716938376426697,0.25329267978668213,-0.5467012524604797,-0.6864807605743408,-3.831145763397217,12.010169982910156,-0.792515754699707,0.10662269592285156,0.20542457699775696,-1.3439619541168213,0.005149920005351305,-0.534637987613678,0.18902114033699036,1.3645615577697754,0.010109102353453636,0.543411910533905,0.09365224838256836,-0.5231937170028687,0.12531471252441406,0.08068207651376724,0.6403067111968994,-0.2083529531955719,-0.008490101434290409,-0.7475013136863708,0.03185320645570755,-0.14744029939174652,1.0072861909866333,-0.3766345977783203,-0.0003023467434104532,0.6152542233467102,-0.6920316815376282,-0.08012448996305466,-0.1566312611103058,-0.026103908196091652,0.2113773375749588,0.005566504318267107,-0.5313233733177185,-0.0028072588611394167,-0.10088135302066803,-1.408544898033142,0.35794195532798767,0.46111631393432617,1.749720573425293,0.041902679949998856,0.5621973872184753,0.38395628333091736,-1.213797926902771,-0.9068219661712646,0.06710202991962433,4.149977684020996,0.3062942624092102,0.2592628002166748,1741522678.9938564,1741522677913,-3.1111904296875,0.235850341796875,-1.8063322531438717,0.44390612792968753,0.5669778442382812
1741522679.026427,0.642016589641571,0.05286454025604833,0.04819521893906645,-0.9974379987021409,0.5868995189666748,-0.08041980117559433,-0.21366482973098755,1.3503109216690063,0.8242673277854919,6.26479434967041,-0.782597541809082,0.10166358947753906,0.20237277448177338,-1.3504470586776733,0.005531395319849253,-0.5357823967933655,0.18902114033699036,1.3584580421447754,0.01125352829694748,0.5384527444839478,0.0722896158695221,-0.5117494463920593,0.14476996660232544,0.09670405089855194,0.6410696506500244,-0.2153022140264511,-0.009333210997283459,-0.7433050870895386,0.010872052982449532,-0.13828489184379578,1.030174732208252,-0.36699792742729187,0.0054437206126749516,0.33110734820365906,-0.18260672688484192,-0.08989861607551575,-0.44768017530441284,0.012470332905650139,-0.056949373334646225,0.004822432994842529,-0.29607826471328735,0.05034618079662323,-0.4072414040565491,-0.9281238913536072,0.6520925164222717,0.7274683713912964,0.4492725133895874,0.0017129877815023065,-0.4417039155960083,-0.2061467170715332,0.5520068407058716,-0.9732584953308105,0.3931778073310852,0.6249900460243225,0.4506044089794159,0.034735843539237976,1741522678.9938564,1741522677913,-3.1111904296875,0.235850341796875,-1.8063322531438717,0.44390612792968753,0.5669778442382812
1741522679.046411,0.6462426781654358,0.048313920118969705,0.03926466511389834,-0.9980601440776158,0.35922425985336304,-0.2579285502433777,0.20832622051239014,1.4224094152450562,-4.509172439575195,8.221626281738281,-0.7658119201660156,0.10395240783691406,0.1985580176115036,-1.3527358770370483,0.005149920005351305,-0.5384527444839478,0.18978407979011536,1.361891269683838,0.010872052982449532,0.536163866519928,0.07534141838550568,-0.49382010102272034,0.1504921019077301,0.09441519528627396,0.6483176946640015,-0.23367254436016083,-0.020071815699338913,-0.7082093358039856,-0.0013351644156500697,-0.12836651504039764,0.994316041469574,-0.36158671975135803,-0.0024346814025193453,0.491760790348053,0.06610393524169922,-0.22555097937583923,-0.08006233721971512,0.0014105899026617408,-0.1395362764596939,0.06495433300733566,0.2390976995229721,0.03532658517360687,-0.20508481562137604,0.3788531422615051,1.016408920288086,0.37951424717903137,-0.13774952292442322,0.4809052348136902,-0.9963891506195068,-0.30519646406173706,1.8013094663619995,-0.6464362740516663,0.47814828157424927,-2.1086411476135254,0.22636717557907104,-0.2939828634262085,1741522679.0961912,1741522677973,-3.107054931640625,0.24906097412109376,2.9646496551051955,0.5104434814453125,0.5512693481445312
1741522679.0664332,0.649864912033081,0.04120034244546284,0.039741526534201675,-0.9983602269978046,-0.06441915035247803,-0.3854968547821045,0.10945398360490799,2.358964204788208,3.32745099067688,4.952836990356445,-0.7528419494628906,0.11234474182128906,0.1981765478849411,-1.3515914678573608,0.005149920005351305,-0.5384527444839478,0.19016556441783905,1.36685049533844,0.01125352829694748,0.5350194573402405,0.10891126841306686,-0.49229419231414795,0.15774014592170715,0.0883115902543068,0.6723506450653076,-0.2610345482826233,-0.017531471326947212,-0.6536583304405212,-0.016594186425209045,-0.12111848592758179,0.9157320261001587,-0.3595961332321167,-0.001287850202061236,0.36410340666770935,0.20793437957763672,0.01671786978840828,0.07196950912475586,-0.00017203035531565547,0.006191280670464039,0.017936453223228455,0.3672031760215759,0.0013099645730108023,-0.07042554020881653,1.780280351638794,-0.35786446928977966,0.29355835914611816,-0.3520717918872833,1.3230948448181152,-1.442113995552063,0.08451423048973083,2.957881212234497,-0.6951913237571716,0.23835508525371552,-4.345406532287598,0.05888250097632408,0.11337335407733917,1741522679.0961912,1741522677973,-3.107054931640625,0.24906097412109376,2.9646496551051955,0.5104434814453125,0.5512693481445312
1741522679.0864894,0.636299192905426,0.032961096992890404,0.045233865588011235,-0.9984325032214201,-0.2662811577320099,-0.3351505398750305,-0.7710683941841125,-8.732234001159668,4.645948886871338,6.651207447052002,-0.7299537658691406,0.11081886291503906,0.20084688067436218,-1.3496840000152588,0.005149920005351305,-0.5384527444839478,0.18978407979011536,1.3725725412368774,0.01125352829694748,0.5331120491027832,0.15621423721313477,-0.5113679766654968,0.1512550562620163,0.07000076025724411,0.7204165458679199,-0.2961235046386719,-0.017588434740900993,-0.5857557058334351,-0.01888304017484188,-0.13828489184379578,0.8005264401435852,-0.35942453145980835,-0.0017348871333524585,0.6326572299003601,-0.007531860377639532,0.10334482043981552,0.13926319777965546,-0.012514972127974033,0.01092069037258625,-0.033241741359233856,0.35562509298324585,-0.006293319631367922,-0.1084320992231369,2.5500733852386475,-0.9709681272506714,-0.34592655301094055,-1.0711647272109985,2.5194528102874756,-1.8250352144241333,-0.1255454272031784,3.524056911468506,-0.12325046211481094,-1.0750913619995117,-6.040684700012207,0.04508151113986969,-0.07757879048585892,1741522679.0961912,1741522677973,-3.107054931640625,0.24906097412109376,2.9646496551051955,0.5104434814453125,0.5512693481445312
1741522679.1064682,0.6049456000328064,0.031865714867708894,0.046920542927562536,-0.998390223743879,-0.004775827284902334,0.037504859268665314,-1.6794817447662354,18.720117568969727,5.14060115814209,32.64602279663086,-0.7112607955932617,0.09823036193847656,0.20313572883605957,-1.3447248935699463,0.00476844422519207,-0.536926805973053,0.18902114033699036,1.3718096017837524,0.01125352829694748,0.5319676399230957,0.2145799994468689,-0.5476081371307373,0.12874799966812134,0.057793546468019485,0.777256429195404,-0.33344629406929016,-0.02261107601225376,-0.5266270041465759,-0.024605173617601395,-0.1661325991153717,0.6834134459495544,-0.34127989411354065,-0.0007902717916294932,0.5472787022590637,-0.3676624894142151,0.1362159252166748,0.4134095311164856,-0.05418562889099121,0.08881846070289612,-0.09796794503927231,-0.18214350938796997,0.0018100113375112414,-0.10486768931150436,2.78318452835083,-1.8873518705368042,-1.254760980606079,-0.48815590143203735,2.895526170730591,-1.8228479623794556,-0.3495217561721802,2.5888514518737793,-0.32349348068237305,-1.587551474571228,-4.827336311340332,1.5336947441101074,0.24991928040981293,1741522679.0961912,1741522677973,-3.107054931640625,0.24906097412109376,2.9646496551051955,0.5104434814453125,0.5512693481445312
1741522679.1265357,0.5677360892295837,0.027997152273712175,0.05372515877495678,-0.9981631964659727,-0.4157499372959137,-0.12453332543373108,-1.9754414558410645,13.488801956176758,-6.037461757659912,9.590510368347168,-0.6994352340698242,0.10547828674316406,0.212672621011734,-1.3397656679153442,0.005531395319849253,-0.5277714133262634,0.17414358258247375,1.3702837228775024,0.011635004542768002,0.5254825949668884,0.24166475236415863,-0.5617227554321289,0.134470134973526,0.030708782374858856,0.8211261034011841,-0.36383265256881714,-0.01654224470257759,-0.5258640646934509,-0.004386968910694122,-0.19245441257953644,0.6906614899635315,-0.2920602560043335,-0.026171177625656128,0.4174342453479767,0.17311082780361176,0.4997119605541229,0.19585031270980835,0.01778002828359604,0.5639283657073975,-1.2682536840438843,0.024877510964870453,0.02826858125627041,-0.41734933853149414,1.1225662231445312,-0.3829179108142853,-0.3587172329425812,-1.1976186037063599,1.853510856628418,-1.5920015573501587,0.9220603108406067,-0.5750338435173035,0.8310400247573853,-0.6320244669914246,0.17139381170272827,2.120330810546875,-1.3204355239868164,1741522679.0961912,1741522677973,-3.107054931640625,0.24906097412109376,2.9646496551051955,0.5104434814453125,0.5512693481445312
1741522679.146533,0.5378509163856506,0.018548384142257096,0.06657576487340088,-0.997608953937981,-0.5213987827301025,-0.2130701243877411,-1.4999600648880005,-1.5122374296188354,4.569472312927246,13.394575119018555,-0.6895170211791992,0.11577796936035156,0.22144655883312225,-1.3420546054840088,0.00476844422519207,-0.5148012638092041,0.15697719156742096,1.373335599899292,0.010872052982449532,0.5258640646934509,0.24052032828330994,-0.5556191205978394,0.11501488089561462,-0.001716639962978661,0.8310444951057434,-0.38708746433258057,0.006293637212365866,-0.5148012638092041,-0.00476844422519207,-0.14476996660232544,0.6742580533027649,-0.26683956384658813,-0.02218611352145672,0.34133368730545044,0.1649499237537384,0.3463439643383026,-0.19229790568351746,-0.041485294699668884,0.5895875692367554,-1.0117746591567993,0.2347574084997177,-0.08184982091188431,0.07467000186443329,-0.24966871738433838,0.4428271949291229,-1.1399056911468506,-1.669413685798645,0.38988006114959717,-1.0152686834335327,0.760717511177063,0.8910043835639954,0.2138134092092514,2.546114683151245,-1.0165425539016724,1.1358689069747925,0.6473996639251709,1741522679.0961912,1741522677973,-3.107054931640625,0.24906097412109376,2.9646496551051955,0.5104434814453125,0.5512693481445312
1741522679.1665413,0.5149323344230652,0.0218413667654749,0.06415955736022416,-0.9977006093498971,0.22097308933734894,0.28218626976013184,-1.1282352209091187,0.6020451188087463,1.325458288192749,11.31889533996582,-0.6742582321166992,0.10662269592285156,0.22030213475227356,-1.3546432256698608,0.005531395319849253,-0.5048828721046448,0.1527809500694275,1.3710466623306274,0.010490577667951584,0.5262455344200134,0.20923933386802673,-0.5437933802604675,0.09136339277029037,-0.03223468363285065,0.8226520419120789,-0.39372384548187256,-0.009394459426403046,-0.5151827335357666,0.02994582988321781,-0.11425192654132843,0.6570916175842285,-0.2588830590248108,-0.015579265542328358,0.43640223145484924,-0.18232566118240356,-0.1373341679573059,-1.1322193145751953,0.012233824469149113,0.47472426295280457,-0.1818825900554657,-0.19441717863082886,0.0057954443618655205,-0.035385288298130035,-1.8621445894241333,0.6520847082138062,-1.0911774635314941,-1.4823861122131348,-0.6662991642951965,-0.2326582670211792,-0.8740259408950806,-0.34672701358795166,1.726798176765442,1.4541022777557373,-0.7635838985443115,0.308935284614563,-0.12688855826854706,1741522679.201235,1741522678113,-3.077532470703125,0.24320127868652344,-2.500578081746993,0.6596001586914063,0.5140669555664062
1741522679.191705,0.4974645972251892,0.03067961344340797,0.05931894672155372,-0.9977675199558305,0.20468835532665253,0.5048285126686096,-0.8231849074363708,0.7201995849609375,-0.10317506641149521,6.315031051635742,-0.6639585494995117,0.09632301330566406,0.20923933386802673,-1.3725725412368774,0.005531395319849253,-0.4999237060546875,0.1527809500694275,1.3664690256118774,0.010490577667951584,0.5247195959091187,0.16193637251853943,-0.5292973518371582,0.06961929053068161,-0.04749370738863945,0.7967116832733154,-0.38774386048316956,-0.007601659744977951,-0.5243381261825562,0.04749370738863945,-0.0711451917886734,0.656710147857666,-0.25353771448135376,-0.027069421485066414,0.2868337631225586,-0.2978772222995758,-0.5963813662528992,-1.0083098411560059,-0.00504820654168725,0.20706844329833984,-0.0030951991211622953,-0.3143848776817322,0.005814487114548683,-0.08215702325105667,-2.2906334400177,0.8763387799263,-1.172552466392517,-0.4120820164680481,-1.1946078538894653,0.4010764956474304,0.35877400636672974,-0.37340497970581055,0.7008386850357056,2.3170056343078613,0.11178560554981232,0.3499649167060852,-0.2651480436325073,1741522679.201235,1741522678113,-3.077532470703125,0.24320127868652344,-2.500578081746993,0.6596001586914063,0.5140669555664062
1741522679.2066035,0.48298972845077515,0.03725422674003692,0.056721038632173974,-0.9976947661316508,0.18433669209480286,0.3456130623817444,-0.7241780161857605,-2.668201208114624,1.3548614978790283,11.1349515914917,-0.6567106246948242,0.10128211975097656,0.19512474536895752,-1.3760058879852295,0.005531395319849253,-0.4991607666015625,0.15354390442371368,1.3592209815979004,0.010490577667951584,0.5231937170028687,0.1199740618467331,-0.5315861701965332,0.04596780240535736,-0.05436026677489281,0.8077744841575623,-0.3779580295085907,0.0075955139473080635,-0.5182345509529114,0.051689937710762024,-0.02040894143283367,0.6521324515342712,-0.239142045378685,-0.011017674580216408,0.2187812328338623,0.14362391829490662,-0.7503420114517212,-0.19457033276557922,0.0018832354107871652,-0.03418735787272453,0.08798390626907349,-0.5560442209243774,0.0031446220818907022,-0.08241315931081772,-2.0250191688537598,-0.4494633674621582,-1.0859932899475098,-0.564073383808136,1.1571884155273438,0.4422950744628906,0.6598266363143921,0.4615594744682312,0.2724034786224365,2.2811169624328613,-0.289916455745697,0.7982928156852722,0.8493203520774841,1741522679.201235,1741522678113,-3.077532470703125,0.24320127868652344,-2.500578081746993,0.6596001586914063,0.5140669555664062
1741522679.226618,0.4735181927680969,0.04808458243724424,0.0507992097193395,-0.9975506569712268,0.31903502345085144,0.5828572511672974,-0.3090442717075348,1.154958724975586,-1.9976378679275513,7.829550266265869,-0.6441211700439453,0.10128211975097656,0.17757686972618103,-1.3847798109054565,0.005531395319849253,-0.5033569931983948,0.15430685877799988,1.3496840000152588,0.010490577667951584,0.5243381261825562,0.11158160120248795,-0.5731670260429382,0.03185320645570755,-0.06771191209554672,0.8855955004692078,-0.3793495297431946,0.003943703602999449,-0.5186160206794739,0.06389715522527695,-0.0020981156267225742,0.6414511203765869,-0.21401530504226685,-0.011106264777481556,0.3379025459289551,0.045161712914705276,-0.875649094581604,-0.5926555395126343,-0.009142634458839893,-0.21456336975097656,0.08925504982471466,-0.6811172962188721,-0.01127373892813921,0.09307549148797989,-0.07416680455207825,-2.696030616760254,-0.7546688914299011,-0.579098641872406,4.367294788360596,-0.1996554732322693,-0.33851706981658936,-0.05415050685405731,0.5055591464042664,0.7882623672485352,-0.4864054322242737,1.3100818395614624,-0.11031252890825272,1741522679.201235,1741522678113,-3.077532470703125,0.24320127868652344,-2.500578081746993,0.6596001586914063,0.5140669555664062
1741522679.246658,0.46975815296173096,0.05662310173933399,0.05147955231271571,-0.9970675403617848,-0.09152613580226898,0.45245057344436646,-0.1463775485754013,-3.7035140991210938,0.7150235772132874,11.022370338439941,-0.6315326690673828,0.12455177307128906,0.16308079659938812,-1.3832539319992065,0.005149920005351305,-0.507553219795227,0.15964750945568085,1.3420546054840088,0.010872052982449532,0.5243381261825562,0.11387044936418533,-0.6589990258216858,0.011635004542768002,-0.0715266615152359,1.0164415836334229,-0.3966302275657654,0.000647913315333426,-0.5258640646934509,0.06542305648326874,0.004005493130534887,0.6391623020172119,-0.18613246083259583,-0.019926007837057114,0.3695375621318817,0.6962337493896484,-0.7306821942329407,0.23058992624282837,-2.1017598555772565e-05,-0.2118803858757019,0.3739892542362213,-0.42322924733161926,0.008840279653668404,0.0013309461064636707,0.013342630118131638,-4.58341646194458,-0.9208849668502808,0.01254090666770935,6.982148170471191,-0.9917420744895935,0.0486539751291275,-0.46153879165649414,0.03266117721796036,0.1585647314786911,-0.0262690968811512,1.350354552268982,-0.5213901400566101,1741522679.201235,1741522678113,-3.077532470703125,0.24320127868652344,-2.500578081746993,0.6596001586914063,0.5140669555664062
1741522679.2666543,0.46663910150527954,0.06553665638643223,0.05795915292649308,-0.9961654898970002,-0.3270917534828186,0.4538000524044037,-0.20856702327728271,-1.8296886682510376,7.21415901184082,9.953088760375977,-0.6204700469970703,0.13714027404785156,0.14629587531089783,-1.3798205852508545,0.005149920005351305,-0.5159456729888916,0.1653696447610855,1.3397656679153442,0.010872052982449532,0.5231937170028687,0.1340886503458023,-0.7524605393409729,-0.002861066721379757,-0.06504157930612564,1.1629282236099243,-0.42056724429130554,0.004580085165798664,-0.5415045619010925,0.06885633617639542,0.005149920005351305,0.6391623020172119,-0.1671495884656906,-0.02082732506096363,0.342282772064209,0.4067380428314209,-0.7979511618614197,0.15555503964424133,-0.014945946633815765,-0.4404349625110626,0.3594232201576233,-0.11479557305574417,-0.009915381669998169,-0.06286575645208359,1.2562286853790283,-4.544217109680176,-0.7019686698913574,0.28323742747306824,7.143386363983154,-1.1856426000595093,0.09685057401657104,-0.7343418598175049,0.22877943515777588,0.17373569309711456,0.007193363271653652,0.8902071118354797,0.134938046336174,1741522679.201235,1741522678113,-3.077532470703125,0.24320127868652344,-2.500578081746993,0.6596001586914063,0.5140669555664062
1741522679.2867272,0.44896119832992554,0.07149702668611592,0.0660419326800275,-0.9952520476255909,-0.3378734588623047,0.32530295848846436,-0.9000532627105713,0.09990063309669495,3.3647615909576416,15.373564720153809,-0.5960559844970703,0.14667701721191406,0.14057374000549316,-1.377913236618042,0.005149920005351305,-0.5251010656356812,0.16346226632595062,1.3374768495559692,0.010872052982449532,0.5235751867294312,0.1508735716342926,-0.8279926776885986,-0.012397955171763897,-0.06313420087099075,1.258297085762024,-0.43668776750564575,-0.003984104376286268,-0.5540932416915894,0.06809338182210922,0.016212711110711098,0.6395437717437744,-0.1603294163942337,-0.014433966018259525,0.6694812178611755,0.3018225133419037,-0.13739454746246338,0.135471910238266,-0.013664363883435726,-0.5025697350502014,-0.19091610610485077,-0.17922590672969818,0.0007911724387668073,0.0569089837372303,0.8571774959564209,-3.392820358276367,-0.34726765751838684,0.10570257902145386,4.211394309997559,-0.6594887375831604,-0.5502594709396362,-0.6686425805091858,-0.11372881382703781,0.5751819610595703,0.07945037633180618,0.2440255731344223,0.29732441902160645,1741522679.201235,1741522678113,-3.077532470703125,0.24320127868652344,-2.500578081746993,0.6596001586914063,0.5140669555664062
1741522679.3067248,0.4252316355705261,0.07442470832237602,0.07292697410415763,-0.9945564937393656,-0.21606282889842987,0.24049367010593414,-1.3686437606811523,-0.7842658758163452,2.1487090587615967,10.14010238647461,-0.5781259536743164,0.14743995666503906,0.14248111844062805,-1.3760058879852295,0.005149920005351305,-0.5292973518371582,0.16193637251853943,1.3370953798294067,0.010872052982449532,0.5251010656356812,0.16422522068023682,-0.8424887657165527,-0.03604944050312042,-0.06542305648326874,1.2724117040634155,-0.4418225586414337,-0.005390439182519913,-0.5640115737915039,0.06771191209554672,0.03299763426184654,0.6414511203765869,-0.16002574563026428,-0.010342491790652275,0.5404493808746338,0.026300255209207535,0.07910871505737305,0.10807174444198608,-0.00953370425850153,-0.11861290037631989,-0.12047895044088364,0.020016441121697426,0.00039644306525588036,0.015230285003781319,0.687890350818634,-0.24684014916419983,-1.1571801900863647,-0.11098768562078476,-0.041606709361076355,-0.21501685678958893,0.17716899514198303,-0.4352746307849884,-0.017325613647699356,0.8468150496482849,0.09374216943979263,0.027373814955353737,0.2522633671760559,1741522679.408975,1741522678173,-3.0635605468750002,0.24792189025878908,-3.048726818084432,0.7215059814453125,0.49859857177734374
1741522679.3268056,0.39248645305633545,0.07192071308317027,0.07173441189522596,-0.9948274147708508,0.26930442452430725,-0.09501858800649643,-1.6563910245895386,-1.6659517288208008,1.2320408821105957,7.278982639312744,-0.5556192398071289,0.14934730529785156,0.1504921019077301,-1.3782947063446045,0.005531395319849253,-0.5228122472763062,0.16041046380996704,1.3370953798294067,0.010872052982449532,0.5239566564559937,0.1668955534696579,-0.811589241027832,-0.056267641484737396,-0.08449683338403702,1.1743724346160889,-0.4426712393760681,0.0029300113674253225,-0.5815594792366028,0.07343403995037079,0.040245670825242996,0.6475547552108765,-0.16462785005569458,-0.002408792730420828,0.6969671249389648,0.07892120629549026,0.4918645918369293,-0.19699150323867798,-0.0035051286686211824,0.418896347284317,-0.03878912329673767,-0.040834248065948486,0.004926164168864489,-0.07499554753303528,-0.03922601044178009,1.9973868131637573,-0.9123934507369995,-1.0270686149597168,-5.648338794708252,0.005338255316019058,0.20601795613765717,-0.97933429479599,0.2888200283050537,0.155099019408226,0.38387787342071533,-0.29109469056129456,0.40761879086494446,1741522679.408975,1741522678173,-3.0635605468750002,0.24792189025878908,-3.048726818084432,0.7215059814453125,0.49859857177734374
1741522679.346759,0.3581637740135193,0.06936563345796234,0.06478116746484042,-0.995485715234964,0.47581931948661804,0.04625687003135681,-1.7044543027877808,-0.17081119120121002,2.674595594406128,-0.8012252449989319,-0.5407419204711914,0.14553260803222656,0.16384375095367432,-1.3798205852508545,0.005531395319849253,-0.5189974904060364,0.16155488789081573,1.3367139101028442,0.010872052982449532,0.5254825949668884,0.14438849687576294,-0.726901650428772,-0.05893797054886818,-0.10967422276735306,0.9760051965713501,-0.4418765902519226,-0.0007667773752473295,-0.6055924296379089,0.08373387902975082,0.014686808921396732,0.6845578551292419,-0.1734417974948883,0.0005429394659586251,0.44080737233161926,-0.0870291069149971,0.6550784111022949,-0.030883535742759705,-0.0036993350367993116,0.09404773265123367,0.07629010826349258,-0.026283349841833115,0.009400676935911179,0.10462091118097305,-1.3601771593093872,4.472211837768555,0.1251588761806488,-1.235700011253357,-10.428162574768066,0.022345641627907753,-0.08244632184505463,-1.2777029275894165,0.5302761793136597,-1.504883050918579,2.1856911182403564,-0.4504409432411194,0.07996673882007599,1741522679.408975,1741522678173,-3.0635605468750002,0.24792189025878908,-3.048726818084432,0.7215059814453125,0.49859857177734374
1741522679.366758,0.32357102632522583,0.0702989262992707,0.057599618535998785,-0.995861609314104,0.424986869096756,0.1634046584367752,-1.6628023386001587,31.200252532958984,-50.785919189453125,30.259681701660156,-0.5342569351196289,0.13485145568847656,0.17795833945274353,-1.378676176071167,0.005149920005351305,-0.5231937170028687,0.1661325991153717,1.3359509706497192,0.010872052982449532,0.5292973518371582,0.09899290651082993,-0.6521324515342712,-0.03376058489084244,-0.11425192654132843,0.775730550289154,-0.4192858636379242,-0.011577539145946503,-0.6475547552108765,0.08258945494890213,-0.03223468363285065,0.7307164072990417,-0.19116978347301483,-0.006098167039453983,0.2026953101158142,-0.28942087292671204,0.7195336222648621,0.06537064909934998,-0.012290757149457932,-0.31115686893463135,0.30879876017570496,-0.058015357702970505,0.017354724928736687,0.28868308663368225,-2.271655559539795,3.0608325004577637,1.3086068630218506,0.3839520812034607,-8.239985466003418,2.2254083156585693,-0.9548543691635132,-2.2134439945220947,-0.2889346480369568,-2.305314302444458,2.153308153152466,-1.027732253074646,-0.41861492395401,1741522679.408975,1741522678173,-3.0635605468750002,0.24792189025878908,-3.048726818084432,0.7215059814453125,0.49859857177734374
1741522679.3868313,0.30101722478866577,0.07595903873068306,0.04951059728723857,-0.9958809794304595,0.7486390471458435,0.6516750454902649,-0.9601152539253235,8.784194946289062,-2.0396087169647217,-7.326015472412109,-0.5167083740234375,0.10662269592285156,0.1848248988389969,-1.3725725412368774,0.005149920005351305,-0.5281528830528259,0.16346226632595062,1.3428175449371338,0.010109102353453636,0.533875048160553,0.07457847148180008,-0.6498435735702515,-0.05054550990462303,-0.059319447726011276,0.8100633025169373,-0.3448947072029114,-0.013982434757053852,-0.6418325901031494,0.03795681521296501,-0.07419699430465698,0.7364385724067688,-0.22566735744476318,-0.020368022844195366,0.4891321063041687,-1.0868488550186157,0.15989473462104797,0.4956880807876587,-0.035921722650527954,-0.22983679175376892,-0.1815098524093628,0.5901350378990173,-0.01279423013329506,0.44457218050956726,-1.1731512546539307,-0.7388611435890198,0.0646476149559021,1.8670295476913452,1.3758443593978882,3.316352605819702,0.40058663487434387,0.8816975951194763,-1.8344590663909912,-2.116239070892334,-0.3330351412296295,-1.8776112794876099,-0.7751676440238953,1741522679.408975,1741522678173,-3.0635605468750002,0.24792189025878908,-3.048726818084432,0.7215059814453125,0.49859857177734374
1741522679.4067984,0.29064637422561646,0.07995862134397835,0.03262772129250096,-0.9962640466643515,0.8427028656005859,-0.031748589128255844,-0.3001856803894043,-0.594996988773346,-16.586551666259766,5.800178527832031,-0.49725341796875,0.11081886291503906,0.18520638346672058,-1.364180088043213,0.005531395319849253,-0.5380712747573853,0.1672770231962204,1.3462507724761963,0.01201647985726595,0.5445563197135925,0.048256658017635345,-0.6715877056121826,-0.02841992862522602,-0.06885633617639542,0.7913710474967957,-0.3177507221698761,-0.0009915040573105216,-0.6380178332328796,0.04291599988937378,-0.10738536715507507,0.7177462577819824,-0.26595818996429443,-0.030473759397864342,0.5053910613059998,-0.037524010986089706,-0.018688401207327843,0.39412376284599304,-0.0046140956692397594,-0.5760881304740906,0.2736150026321411,0.1789965033531189,0.08411134034395218,0.6814769506454468,-1.3173260688781738,-0.03900943696498871,0.5654712915420532,-0.20578448474407196,-1.4430930614471436,1.179107666015625,0.37731796503067017,-0.013403686694800854,0.38832393288612366,-1.4729621410369873,-0.7537349462509155,-1.909060001373291,-0.2840490937232971,1741522679.408975,1741522678173,-3.0635605468750002,0.24792189025878908,-3.048726818084432,0.7215059814453125,0.49859857177734374
1741522679.4268687,0.2848672866821289,0.0822648712961987,0.039550442285367506,-0.9958254131451214,-0.354474276304245,0.016163721680641174,-0.29782360792160034,3.929995536804199,-6.7677226066589355,12.436287879943848,-0.4999237060546875,0.12150001525878906,0.1844434291124344,-1.3592209815979004,0.004386968910694122,-0.5525673031806946,0.17643244564533234,1.3481581211090088,0.010490577667951584,0.5468451976776123,0.03643091395497322,-0.6342030763626099,-0.015449759550392628,-0.06733043491840363,0.7703898549079895,-0.30006712675094604,-0.0038286265917122364,-0.6254291534423828,0.03833829239010811,-0.11959258466959,0.734149694442749,-0.29085230827331543,-0.029913995414972305,-0.1318235695362091,0.3331086337566376,0.008022674359381199,0.4985365569591522,-0.04345766082406044,-0.6887033581733704,0.6701964139938354,0.17035390436649323,0.013340119272470474,0.06190136820077896,-0.3225734829902649,1.6667219400405884,0.6516806483268738,-0.026975754648447037,-0.6927610635757446,0.889617919921875,0.03302079439163208,0.7490352392196655,-0.34671247005462646,-0.6467385292053223,0.977814793586731,-1.1744346618652344,0.03588256239891052,1741522679.439179,1741522678373,-3.0363520507812503,0.27464532470703124,-2.2129430714954763,0.9181232910156251,0.44892761230468753
1741522679.4468474,0.27888745069503784,0.07308481197308984,0.059715557251374576,-0.9955363692407304,-1.0176022052764893,-0.4645560681819916,-0.5395104885101318,2.3610613346099854,-1.3414102792739868,7.43499231338501,-0.4613943099975586,0.14209938049316406,0.18520638346672058,-1.3447248935699463,0.005149920005351305,-0.5590524077415466,0.19245441257953644,1.36990225315094,0.012397955171763897,0.54264897108078,0.071908138692379,-0.6139848828315735,-0.000572213320992887,-0.09441519528627396,0.7646677494049072,-0.28535404801368713,0.005721056368201971,-0.6204699873924255,0.03452353551983833,-0.1493476778268814,0.7455939650535583,-0.32069727778434753,-0.014440223574638367,1.0809152126312256,0.47145533561706543,0.02589268982410431,1.0814131498336792,-0.031043535098433495,-0.2484360635280609,1.0794953107833862,1.751717448234558,0.11234648525714874,-0.20931267738342285,2.181755542755127,0.7498646378517151,0.7390662431716919,-1.258662223815918,-0.2969039976596832,0.7035885453224182,0.1688040941953659,0.20783394575119019,-0.1126992404460907,-1.6539278030395508,0.3875523507595062,-1.6184427738189697,0.9225667119026184,1741522679.439179,1741522678373,-3.0363520507812503,0.27464532470703124,-2.2129430714954763,0.9181232910156251,0.44892761230468753
1741522679.4718013,0.2624867558479309,0.060697327674510734,0.08315653530799488,-0.9946862947928574,-1.150747299194336,-0.5611441135406494,-0.9847164154052734,-0.9133840799331665,0.4311862289905548,9.928680419921875,-0.4571981430053711,0.13332557678222656,0.1848248988389969,-1.3260325193405151,0.00476844422519207,-0.5666819214820862,0.20542457699775696,1.3885945081710815,0.01125352829694748,0.5430304408073425,0.11959258466959,-0.5918593406677246,0.002861066721379757,-0.12684062123298645,0.7551308274269104,-0.27542465925216675,-0.004020716063678265,-0.6219958662986755,0.03147173300385475,-0.18902114033699036,0.7654306888580322,-0.3591884672641754,0.00295171863399446,0.2398216277360916,-0.20126301050186157,-0.015783539041876793,1.2691174745559692,-0.05871596187353134,-0.4033192992210388,0.8012113571166992,1.00931978225708,-0.07262050360441208,0.05248324200510979,2.0142784118652344,1.1903539896011353,0.059409864246845245,-1.6057465076446533,-0.6249601244926453,0.4392818808555603,-0.4409478008747101,-0.03222828358411789,-0.27053412795066833,-2.006918430328369,1.4396405220031738,-1.9741637706756592,0.7365217804908752,1741522679.439179,1741522678373,-3.0363520507812503,0.27464532470703124,-2.2129430714954763,0.9181232910156251,0.44892761230468753
1741522679.486881,0.2376251220703125,0.04509116169807329,0.09960464982239915,-0.9940048797015412,-0.57049560546875,-0.5710006356239319,-1.164336919784546,-3.6644694805145264,1.3869493007659912,11.499403953552246,-0.4289693832397461,0.12455177307128906,0.1848248988389969,-1.3058143854141235,0.005149920005351305,-0.5727855563163757,0.2138170450925827,1.3897390365600586,0.01125352829694748,0.5502784848213196,0.1520180106163025,-0.5781261920928955,0.007057297509163618,-0.1348516047000885,0.734912633895874,-0.27935341000556946,0.0005236730794422328,-0.6372548937797546,0.016212711110711098,-0.21915769577026367,0.8321889042854309,-0.3864328861236572,0.0029268767684698105,0.7928444147109985,-0.25642088055610657,0.03931446373462677,1.337539792060852,0.02562175877392292,-0.31926241517066956,0.5140126347541809,-0.034519292414188385,-0.00043143032235093415,0.5259425640106201,1.6094245910644531,0.7082465887069702,0.2997468411922455,-0.12759307026863098,-0.8644115328788757,-0.29898518323898315,0.34111493825912476,-1.0984903573989868,-0.8497840762138367,-1.372578740119934,3.4263594150543213,-1.1574475765228271,-0.07220381498336792,1741522679.439179,1741522678373,-3.0363520507812503,0.27464532470703124,-2.2129430714954763,0.9181232910156251,0.44892761230468753
