Freshhhhh-LC/Legged_odom/data/5/segments/booster_seg_9.56s.csv
time,yaw,projected_gravity_x,projected_gravity_y,projected_gravity_z,ang_vel_x,ang_vel_y,ang_vel_z,lin_acc_x,lin_acc_y,lin_acc_z,q_0,q_1,q_2,q_3,q_4,q_5,q_6,q_7,q_8,q_9,q_10,q_11,q_12,q_13,q_14,q_15,q_16,q_17,q_18,q_19,q_20,q_21,q_22,dq_0,dq_1,dq_2,dq_3,dq_4,dq_5,dq_6,dq_7,dq_8,dq_9,dq_10,dq_11,dq_12,dq_13,dq_14,dq_15,dq_16,dq_17,dq_18,dq_19,dq_20,dq_21,dq_22,mocap_time,mocap_timestamp,robot_x,robot_y,robot_yaw,ball_x,ball_y
1741522749.667013,2.494473099708557,0.023920694283466954,-0.024737634918990493,-0.9994077495214913,-0.16775628924369812,-0.35321277379989624,-0.18852782249450684,1.6319749355316162,4.554718494415283,11.721323013305664,-0.10471534729003906,0.09746742248535156,0.2935454249382019,-1.2501189708709717,0.00476844422519207,-0.9119172692298889,0.09136339277029037,1.2459226846694946,0.01201647985726595,0.9531166553497314,0.19054703414440155,-0.7639048099517822,-0.09555962681770325,-0.0715266615152359,0.8100633025169373,-0.311990886926651,0.02587384544312954,-0.3999771177768707,-0.03528648987412453,-0.22220951318740845,1.0690852403640747,-0.4480419158935547,-0.038806840777397156,-0.17599405348300934,-0.2979324758052826,-4.092807292938232,-0.1683724969625473,-0.07223761081695557,-0.00711117684841156,3.611074209213257,0.7020419836044312,0.05707352235913277,-0.2541707754135132,-0.09701253473758698,2.323072671890259,-0.27696430683135986,-0.820026159286499,0.29924482107162476,-0.016545526683330536,-0.005242557730525732,-2.0953493118286133,-0.48986193537712097,1.3529773950576782,6.377899169921875,2.0857324600219727,0.009170204401016235,1741522749.6508222,1741522748533,4.01422705078125,1.1862354736328125,-0.27386813413198596,1.1324272460937501,3.788585205078125
1741522749.6693244,2.4801429510116577,0.016779190389512942,-0.02949642047046306,-0.9994240441120587,0.24460192024707794,-0.32377830147743225,-0.8230345845222473,2.6906445026397705,-5.526123046875,13.879769325256348,-0.08869266510009766,0.10204505920410156,0.22068360447883606,-1.2505004405975342,0.005531395319849253,-0.9107728600502014,0.14515145123004913,1.2539336681365967,0.011635004542768002,0.9500648379325867,0.19398032128810883,-0.7337682247161865,-0.09479667246341705,-0.08373387902975082,0.8203631639480591,-0.31444573402404785,0.02572614699602127,-0.4808499217033386,-0.03681239113211632,-0.20313572883605957,1.2067978382110596,-0.4213680922985077,-0.004683729261159897,0.45808589458465576,0.14200663566589355,-3.6849794387817383,-0.0513056255877018,-0.005040382035076618,-0.04587646573781967,3.550632953643799,0.4102049469947815,-0.011145195923745632,-0.2040950208902359,0.27258771657943726,1.6827542781829834,0.04185030236840248,-0.4077095091342926,0.5940565466880798,-0.21838229894638062,-0.007909400388598442,-4.048547744750977,0.011522948741912842,0.8097102642059326,6.827136039733887,1.084025502204895,1.797216534614563,1741522749.6508222,1741522748533,4.01422705078125,1.1862354736328125,-0.27386813413198596,1.1324272460937501,3.788585205078125
1741522749.6715412,2.4581351280212402,0.016263905938799325,-0.029945490131261,-0.9994192078324353,0.026421982795000076,-0.09665076434612274,-1.1617679595947266,2.481428623199463,-0.1926516592502594,8.535151481628418,-0.09403419494628906,0.09403419494628906,0.14248111844062805,-1.2463041543960571,0.005531395319849253,-0.9138246774673462,0.19398032128810883,1.2588928937911987,0.01201647985726595,0.9489204287528992,0.1981765478849411,-0.6906614899635315,-0.08373387902975082,-0.08373387902975082,0.8211261034011841,-0.32623156905174255,0.026273733004927635,-0.5624856948852539,-0.037193864583969116,-0.19550621509552002,1.3292515277862549,-0.4351038336753845,-0.003963148687034845,-0.11836159229278564,-0.17391061782836914,-3.947160482406616,0.3519924581050873,-0.009105983190238476,-0.1508154422044754,3.2931957244873047,0.3762294352054596,0.025218822062015533,-0.06634838879108429,0.17023462057113647,2.050626516342163,0.5697217583656311,0.015584293752908707,-0.09903980791568756,-0.6901394724845886,0.11650516092777252,-4.370501518249512,-0.10440689325332642,0.36035698652267456,5.69707727432251,-0.958457350730896,-0.37887296080589294,1741522749.6508222,1741522748533,4.01422705078125,1.1862354736328125,-0.27386813413198596,1.1324272460937501,3.788585205078125
1741522749.6835158,2.384835958480835,0.01169619210280533,-0.033348400871499866,-0.9993753465288245,-0.056162942200899124,0.27262091636657715,-0.4937378466129303,6.517172813415527,1.4470103979110718,6.007022857666016,-0.09479713439941406,0.059700965881347656,-0.12569619715213776,-1.232571005821228,0.005149920005351305,-0.959220290184021,0.4510948359966278,1.2577484846115112,0.01125352829694748,0.9294651746749878,0.14438849687576294,-0.4671168029308319,0.00019073777366429567,-0.030708782374858856,0.7784008383750916,-0.4525255858898163,-0.008185888640582561,-0.811589241027832,-0.11463340371847153,-0.20237277448177338,1.1713206768035889,-0.47756025195121765,0.019349999725818634,0.020288504660129547,-0.4264109134674072,-0.8594881892204285,0.2582162618637085,0.007515366654843092,-0.6903327703475952,2.455770254135132,-0.08973861485719681,0.0036887985188513994,-0.5578169226646423,-0.011321240104734898,2.5802667140960693,0.3900810480117798,0.1636206954717636,-0.26800042390823364,-1.2788151502609253,-0.2609461545944214,-0.3998453915119171,-1.4672266244888306,-0.5380411148071289,-4.936705589294434,2.127000331878662,0.20272397994995117,1741522749.6508222,1741522748533,4.01422705078125,1.1862354736328125,-0.27386813413198596,1.1324272460937501,3.788585205078125
1741522749.703541,2.374754309654236,0.01299474134912999,-0.03427469833655018,-0.9993279650601237,0.07341983169317245,-0.032514963299036026,-0.509998619556427,3.2269599437713623,-1.660984754562378,9.30887222290039,-0.09403419494628906,0.06313419342041016,-0.12531471252441406,-1.228756308555603,0.005149920005351305,-0.9691386222839355,0.4724574685096741,1.2577484846115112,0.011635004542768002,0.9225986003875732,0.1504921019077301,-0.4175249934196472,-0.000572213320992887,-0.037193864583969116,0.76276034116745,-0.480042040348053,-0.012615914456546307,-0.8062485456466675,-0.14400701224803925,-0.21953918039798737,1.054970622062683,-0.43312573432922363,0.016612788662314415,0.016625186428427696,0.036331646144390106,0.2313675880432129,0.21319863200187683,-0.011630121618509293,-0.4030429720878601,1.4482766389846802,-0.020844360813498497,-0.0045189568772912025,-0.4940386712551117,0.33513161540031433,2.3767364025115967,-0.19216151535511017,-0.26953840255737305,-0.9102414846420288,-1.3073384761810303,-0.14317625761032104,0.3704380393028259,-1.4871695041656494,-1.0141594409942627,-5.895443916320801,2.232699155807495,-0.1856818050146103,1741522749.7532265,1741522748633,3.944439453125,1.2501319580078125,-0.17791798649972954,1.083819091796875,3.80567236328125
1741522749.7235782,2.364592432975769,0.008670578099688454,-0.037057145317219056,-0.9992755321013097,0.16899563372135162,-0.1845013052225113,-0.49352356791496277,3.45861554145813,0.06333038210868835,5.388477802276611,-0.08945560455322266,0.06847476959228516,-0.10090028494596481,-1.228756308555603,0.005149920005351305,-0.9733348488807678,0.4800869822502136,1.2562226057052612,0.01125352829694748,0.916113555431366,0.15430685877799988,-0.3568703830242157,-0.010490577667951584,-0.048256658017635345,0.7463569045066833,-0.4952405095100403,-0.0013251099735498428,-0.7864118218421936,-0.164988175034523,-0.2473868876695633,0.9374761581420898,-0.39128538966178894,0.0038414907176047564,0.1283818930387497,0.1988745927810669,1.3617467880249023,-0.001550853718072176,-0.006183165591210127,-0.2137143313884735,0.24646002054214478,-0.08429599553346634,-0.018559398129582405,-0.3809269964694977,0.14858677983283997,3.2870678901672363,-0.5615714192390442,-0.6612341403961182,-0.8845844864845276,-0.5590481162071228,0.5554488897323608,1.1441301107406616,-0.9692916870117188,-1.5663814544677734,-5.797719955444336,2.03848934173584,-0.6786378026008606,1741522749.7532265,1741522748633,3.944439453125,1.2501319580078125,-0.17791798649972954,1.083819091796875,3.80567236328125
1741522749.7435935,2.3548063039779663,0.0029016913639016177,-0.043255951396176835,-0.999059809448884,0.3152199387550354,-0.37057387828826904,-0.46547073125839233,0.6404194831848145,-3.240884304046631,6.490390300750732,-0.08449649810791016,0.07419681549072266,-0.059319447726011276,-1.229519248008728,0.005149920005351305,-0.9733348488807678,0.4728389382362366,1.2527892589569092,0.01125352829694748,0.9134432077407837,0.1504921019077301,-0.2924010157585144,-0.029564354568719864,-0.06542305648326874,0.726901650428772,-0.4828857183456421,-0.009558183141052723,-0.7600900530815125,-0.1806286722421646,-0.2744716703891754,0.8344777822494507,-0.366523414850235,-0.008615143597126007,0.13657866418361664,0.20575563609600067,2.2280373573303223,-0.07289645075798035,6.603605288546532e-05,0.06574380397796631,-0.5936625599861145,-0.2616596221923828,-0.014236527495086193,-0.13910441100597382,-0.22194838523864746,3.183201551437378,-1.2489523887634277,-0.7719959020614624,-0.8978548645973206,0.9834666848182678,-0.5960090160369873,1.2319788932800293,-0.8127355575561523,-1.2300471067428589,-4.9961419105529785,0.9845116138458252,-0.4689626395702362,1741522749.7532265,1741522748633,3.944439453125,1.2501319580078125,-0.17791798649972954,1.083819091796875,3.80567236328125
1741522749.7635899,2.345325469970703,-0.003733972258164078,-0.04851870511223115,-0.9988152945892488,0.2976453900337219,-0.28343552350997925,-0.4759972095489502,4.442115783691406,0.15206563472747803,10.494487762451172,-0.07839298248291016,0.07801151275634766,-0.0020981156267225742,-1.230282187461853,0.005149920005351305,-0.9718089699745178,0.4491874575614929,1.2512633800506592,0.01125352829694748,0.9149690866470337,0.14248111844062805,-0.23937590420246124,-0.051689937710762024,-0.071908138692379,0.7310978770256042,-0.459773451089859,0.006348409689962864,-0.734149694442749,-0.18940261006355286,-0.28667888045310974,0.760471522808075,-0.36529970169067383,-0.011757510714232922,0.16513404250144958,0.13353194296360016,2.8493025302886963,-0.05081311613321304,0.004891364835202694,0.04950662702322006,-1.7821344137191772,-0.049870219081640244,0.008850731886923313,0.1454438865184784,-0.4066961407661438,2.4620344638824463,-0.7952651381492615,-0.43394002318382263,0.6222553849220276,0.9231566786766052,0.966972827911377,1.2805413007736206,-0.49500060081481934,-0.3341459333896637,-3.3582184314727783,0.042039450258016586,-0.2414611577987671,1741522749.7532265,1741522748633,3.944439453125,1.2501319580078125,-0.17791798649972954,1.083819091796875,3.80567236328125
1741522749.7852793,2.3397594690322876,-0.01123211755861977,-0.061663567256565216,-0.9980337890113462,0.6608247756958008,-0.4599933922290802,-0.22866971790790558,-15.020004272460938,-8.673227310180664,16.607715606689453,-0.07000064849853516,0.09021854400634766,0.06313420087099075,-1.235241413116455,0.005531395319849253,-0.9706645011901855,0.41142138838768005,1.2489745616912842,0.01125352829694748,0.9134432077407837,0.13065537810325623,-0.22182802855968475,-0.054741740226745605,-0.07915617525577545,0.7894636392593384,-0.45261138677597046,0.013121801428496838,-0.7124055624008179,-0.1832990050315857,-0.26913100481033325,0.7852674126625061,-0.3619822561740875,-0.027272049337625504,0.22959668934345245,0.4286506772041321,3.3265652656555176,-0.5061919093132019,0.014057488180696964,0.05100546404719353,-2.577770709991455,-0.1877342015504837,0.001457491423934698,-0.18142828345298767,-0.6310248374938965,0.4092770218849182,-0.2525252103805542,-0.4464697539806366,3.2516448497772217,0.4395569860935211,0.2879091203212738,1.5305739641189575,0.548257052898407,1.2289067506790161,2.0991127490997314,0.06045153737068176,-0.6897972226142883,1741522749.7532265,1741522748633,3.944439453125,1.2501319580078125,-0.17791798649972954,1.083819091796875,3.80567236328125
1741522749.8036683,2.3398687839508057,-0.007170468588988981,-0.06839953274255123,-0.997632241009088,0.3501420319080353,0.16823332011699677,0.10154541581869125,-5.710979461669922,-2.1613457202911377,9.13320541381836,-0.06694889068603516,0.08068180084228516,0.13179980218410492,-1.2447782754898071,0.005531395319849253,-0.9676127433776855,0.35114824771881104,1.2520263195037842,0.01201647985726595,0.9149690866470337,0.11120012402534485,-0.2504386901855469,-0.06847485899925232,-0.10013733059167862,0.8993285894393921,-0.4216216504573822,0.019751787185668945,-0.6994354128837585,-0.17261768877506256,-0.2302204966545105,0.8207446336746216,-0.37381839752197266,-0.03366878628730774,0.09981747716665268,-0.19392308592796326,3.4915695190429688,-0.5563935041427612,0.010716996155679226,0.15559636056423187,-4.181063652038574,0.277926504611969,0.07154376059770584,0.140806645154953,-0.929827094078064,-2.023526191711426,-0.6780747175216675,-1.28562593460083,5.90809965133667,1.743285059928894,0.43637967109680176,0.31746506690979004,0.5111697316169739,1.903571367263794,1.1793146133422852,-0.6504390239715576,-0.20071730017662048,1741522749.7532265,1741522748633,3.944439453125,1.2501319580078125,-0.17791798649972954,1.083819091796875,3.80567236328125
1741522749.8236752,2.34932279586792,-0.0031006519359588133,-0.07113898653561476,-0.9974615935224062,0.04005713760852814,0.3147190511226654,0.5144391059875488,-7.127470016479492,-4.12239933013916,13.299090385437012,-0.060845375061035156,0.08182621002197266,0.1970321238040924,-1.2501189708709717,0.005531395319849253,-0.962272047996521,0.2798123061656952,1.2554595470428467,0.011635004542768002,0.9149690866470337,0.1031891331076622,-0.3274967670440674,-0.09098191559314728,-0.1363775134086609,1.0561150312423706,-0.37459155917167664,0.026660090312361717,-0.6761654019355774,-0.15697719156742096,-0.21152819693088531,0.8249408602714539,-0.37499213218688965,-0.033842913806438446,0.2005978524684906,0.016540460288524628,2.951296806335449,-0.24057036638259888,0.002572758123278618,0.2625353932380676,-4.782217979431152,0.2095009684562683,-0.044874176383018494,-0.04205244407057762,-0.2344478964805603,-4.393532752990723,-1.2198675870895386,-1.7594501972198486,8.412657737731934,2.3312652111053467,0.185016930103302,1.5506552457809448,0.8229286074638367,0.7621608972549438,0.4058496356010437,0.13058702647686005,-0.0295434407889843,1741522749.86621,1741522748733,3.867950439453125,1.3263610839843751,-0.3035022482313822,1.03941357421875,3.820046142578125
1741522749.8436773,2.3684771060943604,-0.0011515933803243257,-0.06245555841193654,-0.9980470815828979,-0.4581926167011261,0.04033154621720314,1.0208274126052856,-2.6870267391204834,-0.18204984068870544,10.430936813354492,-0.057412147521972656,0.09441566467285156,0.25425344705581665,-1.2501189708709717,0.005531395319849253,-0.9557870030403137,0.20313572883605957,1.2585114240646362,0.01201647985726595,0.9149690866470337,0.10852979123592377,-0.44117647409439087,-0.11768520623445511,-0.16193637251853943,1.2312123775482178,-0.3448755741119385,0.008030366152524948,-0.6475547552108765,-0.152399480342865,-0.21725031733512878,0.8306630253791809,-0.37478384375572205,-0.03333615884184837,0.1013914942741394,0.378207266330719,2.896376848220825,-0.012647479772567749,-0.012677534483373165,0.2798670530319214,-5.1202473640441895,0.20940540730953217,0.043361846357584,0.027300402522087097,0.32409167289733887,-5.878054618835449,-1.3920559883117676,-1.0148509740829468,8.463353157043457,1.0766327381134033,-0.8957849144935608,1.3208298683166504,0.10228073596954346,-0.5053818225860596,0.05788493528962135,-0.06516844034194946,0.09953175485134125,1741522749.86621,1741522748733,3.867950439453125,1.3263610839843751,-0.3035022482313822,1.03941357421875,3.820046142578125
1741522749.8636932,2.392235517501831,-0.000790284631468175,-0.05124712800496548,-0.9986856899552751,-0.5546724796295166,0.13761532306671143,1.1588512659072876,0.4759264886379242,1.3193089962005615,11.127361297607422,-0.043297767639160156,0.11005592346191406,0.3068970739841461,-1.2489745616912842,0.005531395319849253,-0.9485389590263367,0.12912946939468384,1.2585114240646362,0.01125352829694748,0.9164950251579285,0.11768520623445511,-0.5628671646118164,-0.1359960287809372,-0.1508735716342926,1.3738842010498047,-0.36405089497566223,0.009734943509101868,-0.6097886562347412,-0.15392538905143738,-0.2302204966545105,0.8283741474151611,-0.37862923741340637,-0.024844251573085785,0.39353328943252563,0.44374826550483704,2.5776872634887695,0.06871291995048523,-0.014416263438761234,0.35076239705085754,-4.9387078285217285,-0.033442556858062744,-0.048367951065301895,0.10301589965820312,0.4752466082572937,-6.0794782638549805,-0.8049241900444031,0.8198416233062744,6.579344272613525,-1.2766008377075195,0.25876617431640625,2.119565486907959,-0.11269944906234741,-0.5299767255783081,-0.07023864984512329,-0.18848422169685364,0.47144949436187744,1741522749.86621,1741522748733,3.867950439453125,1.3263610839843751,-0.3035022482313822,1.03941357421875,3.820046142578125
1741522749.8846884,2.416890859603882,0.0001994125473601023,-0.04325782233947121,-0.9990639223999047,-0.3517112731933594,0.024944592267274857,1.1779073476791382,4.028698444366455,6.441410064697266,10.249314308166504,-0.031472206115722656,0.12188148498535156,0.3568703830242157,-1.2489745616912842,0.005531395319849253,-0.9397650361061096,0.06198977679014206,1.2539336681365967,0.010872052982449532,0.917639434337616,0.12340734153985977,-0.6654840707778931,-0.12989242374897003,-0.11005569249391556,1.4429312944412231,-0.41360795497894287,0.01312633603811264,-0.572022557258606,-0.15697719156742096,-0.23670557141304016,0.8257037997245789,-0.38695093989372253,-0.012054665014147758,0.3618549108505249,0.3784118890762329,2.3847954273223877,-0.014426877722144127,-0.006404687184840441,0.40413084626197815,-4.393232822418213,-0.39133840799331665,-0.027534015476703644,0.023777514696121216,0.020178215578198433,-4.987710475921631,0.5865545868873596,2.246049642562866,2.7098729610443115,-2.5700178146362305,0.04990684986114502,1.7271978855133057,-0.23989878594875336,-0.21391570568084717,-0.16984781622886658,-0.4929285943508148,0.6203412413597107,1741522749.86621,1741522748733,3.867950439453125,1.3263610839843751,-0.3035022482313822,1.03941357421875,3.820046142578125
1741522749.903723,2.428113579750061,-0.002124552413694011,-0.04530660402473617,-0.9989708693994972,0.16677281260490417,-0.024763798341155052,0.5022826790809631,2.7407867908477783,1.5633928775787354,8.833548545837402,-0.01621246337890625,0.12569618225097656,0.4011215269565582,-1.2558410167694092,0.005531395319849253,-0.9317540526390076,0.009346150793135166,1.2432523965835571,0.011635004542768002,0.917639434337616,0.12111848592758179,-0.7364385724067688,-0.12493324279785156,-0.06046387553215027,1.427672266960144,-0.463408499956131,0.0021412172354757786,-0.536926805973053,-0.15583276748657227,-0.23441672325134277,0.8245593905448914,-0.404165655374527,-0.001542131882160902,0.46320322155952454,0.05560804903507233,2.147965908050537,-0.5320556163787842,-0.008090619929134846,0.40672844648361206,-3.358656406402588,-0.7446788549423218,0.0359785221517086,0.07516773790121078,0.03753761947154999,-3.3504860401153564,0.27015769481658936,2.656589984893799,-1.3076095581054688,-2.4657835960388184,-0.7202160954475403,1.9653247594833374,-0.0013421630719676614,0.1840127557516098,-0.06963290274143219,-0.9025457501411438,0.5393475294113159,1741522749.86621,1741522748733,3.867950439453125,1.3263610839843751,-0.3035022482313822,1.03941357421875,3.820046142578125
1741522749.9237955,2.431588888168335,-0.002922838583093983,-0.053920024358528704,-0.9985409796236672,0.47479724884033203,-0.048556044697761536,0.12863823771476746,2.8714661598205566,-0.7701333165168762,10.754413604736328,-0.01010894775390625,0.13370704650878906,0.4373617172241211,-1.2611817121505737,0.005912871100008488,-0.925650417804718,-0.04100862145423889,1.2340970039367676,0.010490577667951584,0.9210727214813232,0.12417028844356537,-0.7799267768859863,-0.12493324279785156,-0.012779430486261845,1.344510555267334,-0.4934140145778656,-0.011397545225918293,-0.4961089491844177,-0.15545128285884857,-0.2302204966545105,0.8222705721855164,-0.42603862285614014,0.01183129008859396,0.20422454178333282,0.24390065670013428,1.8114147186279297,-0.34586775302886963,0.03802866488695145,0.29962703585624695,-3.6548502445220947,-0.5308982133865356,-0.061244167387485504,0.3452501595020294,0.004537150729447603,-1.9633119106292725,0.005680266302078962,2.1941885948181152,-4.5647382736206055,-1.2094945907592773,-0.5481181740760803,1.7905220985412598,-0.029754288494586945,0.10769859701395035,-0.12542562186717987,-1.0925225019454956,0.5779029726982117,1741522749.9580154,1741522748833,3.802728515625,1.4081057128906251,-0.1974848897046098,0.9987218017578126,3.8338547363281252
1741522749.9437768,2.4457218647003174,-0.0026483248695535018,-0.06561087583218705,-0.9978417706970973,0.5530074834823608,0.10871297121047974,0.6895790100097656,-0.6781284809112549,2.6124770641326904,7.576788425445557,-0.00629425048828125,0.12722206115722656,0.4674982726573944,-1.2623261213302612,0.005531395319849253,-0.919165313243866,-0.08449683338403702,1.2283748388290405,0.010872052982449532,0.9321355223655701,0.10967422276735306,-0.7997635006904602,-0.12455176562070847,0.016212711110711098,1.2155718803405762,-0.4859101176261902,-0.013472511433064938,-0.4713130295276642,-0.15468832850456238,-0.22335393726825714,0.8211261034011841,-0.4496675133705139,0.018376288935542107,0.11512406915426254,-0.08972656726837158,1.3160319328308105,-0.03138422966003418,-0.021929798647761345,0.18910640478134155,-2.482797622680664,-0.366862416267395,0.03412244841456413,0.8229971528053284,-0.8269160389900208,-0.9367226958274841,0.03073723427951336,1.4421368837356567,-6.869723320007324,0.6579577922821045,-0.08254945278167725,1.5908809900283813,0.012116342782974243,0.5528404712677002,0.11783163994550705,-1.202657699584961,0.4327854514122009,1741522749.9580154,1741522748833,3.802728515625,1.4081057128906251,-0.1974848897046098,0.9987218017578126,3.8338547363281252
1741522749.9638722,2.458441972732544,0.0040120528478405516,-0.07518791393515675,-0.9971613114386385,0.4787306487560272,0.3594202399253845,0.6398193836212158,-1.5877376794815063,-2.6816797256469727,8.165152549743652,-0.00133514404296875,0.11882972717285156,0.47665369510650635,-1.2592743635177612,0.005531395319849253,-0.9195467829704285,-0.10166323184967041,1.222271203994751,0.010109102353453636,0.9473945498466492,0.08983749151229858,-0.7974746227264404,-0.11692225188016891,0.03452353551983833,1.0629816055297852,-0.44763606786727905,-0.012405390851199627,-0.44613564014434814,-0.14782176911830902,-0.20771344006061554,0.8222705721855164,-0.47512832283973694,0.02497269958257675,0.12290855497121811,-0.15412259101867676,0.34777751564979553,0.166869655251503,-0.006098680663853884,-0.025643711909651756,-1.0616474151611328,-0.4399479627609253,-0.027292223647236824,1.00775945186615,-1.02102530002594,0.29277023673057556,0.39946985244750977,0.8532783389091492,-8.01099967956543,2.0158002376556396,0.07128053158521652,1.012804627418518,0.5578820109367371,0.7105534076690674,-0.00542529858648777,-1.2957687377929688,0.4842667281627655,1741522749.9580154,1741522748833,3.802728515625,1.4081057128906251,-0.1974848897046098,0.9987218017578126,3.8338547363281252
1741522749.983822,2.468475103378296,0.016085925542236357,-0.07903177652711242,-0.9967423043587637,0.1306290328502655,0.6734448075294495,0.46062636375427246,4.733872413635254,-2.0307931900024414,5.281777381896973,0.00057220458984375,0.10967445373535156,0.4736018776893616,-1.2569855451583862,0.005531395319849253,-0.9229800701141357,-0.10547798871994019,1.218456506729126,0.010872052982449532,0.9611276388168335,0.06694895774126053,-0.7890821695327759,-0.10166323184967041,0.05970092490315437,0.9084840416908264,-0.40221071243286133,-0.005552268121391535,-0.4217212200164795,-0.12607766687870026,-0.18749523162841797,0.8249408602714539,-0.49889200925827026,0.02161608636379242,0.05273332819342613,-0.2620615065097809,-0.24075435101985931,0.22490639984607697,-0.0033609101083129644,-0.19231165945529938,-0.06028202921152115,-0.24394676089286804,0.01299034059047699,0.8251876831054688,-1.0768537521362305,0.12540413439273834,0.6931558847427368,1.5162158012390137,-7.471222400665283,2.2318637371063232,0.2565596401691437,1.4450727701187134,1.1205343008041382,1.1843972206115723,0.11627963185310364,-1.1332051753997803,-0.4942430555820465,1741522749.9580154,1741522748833,3.802728515625,1.4081057128906251,-0.1974848897046098,0.9987218017578126,3.8338547363281252
1741522750.003851,2.472954273223877,0.02459574726907607,-0.07387785637479369,-0.9969639469678636,-0.3156965374946594,0.4291868805885315,0.16345997154712677,3.4652791023254395,2.0084147453308105,8.331888198852539,0.00019073486328125,0.11005592346191406,0.46063172817230225,-1.2524077892303467,0.005531395319849253,-0.924887478351593,-0.08869306743144989,1.216549038887024,0.010490577667951584,0.967231273651123,0.05397878959774971,-0.7841230034828186,-0.08297093212604523,0.10166323184967041,0.7887006998062134,-0.3642295300960541,0.005066026467829943,-0.3889143168926239,-0.09632257372140884,-0.16994735598564148,0.8230335116386414,-0.5159925222396851,0.005998067557811737,-0.012288316152989864,-0.036599814891815186,-0.7228023409843445,0.28541433811187744,-0.0018480474827811122,-0.03333185240626335,1.3093416690826416,-0.10213856399059296,-0.0009659610805101693,0.33854779601097107,-0.5741922855377197,0.25929611921310425,1.2200368642807007,1.8961070775985718,-5.64345121383667,1.7185286283493042,0.5254859924316406,1.8301502466201782,1.540208339691162,0.7780259847640991,-0.03378957509994507,-0.6568471193313599,-0.568374752998352,1741522749.9580154,1741522748833,3.802728515625,1.4081057128906251,-0.1974848897046098,0.9987218017578126,3.8338547363281252
1741522750.0238705,2.474819302558899,0.025197634602165692,-0.06544801392645865,-0.9975377870955755,-0.44814637303352356,-0.05538448318839073,0.0715392678976059,14.606056213378906,8.042746543884277,4.8940935134887695,0.00171661376953125,0.13027381896972656,0.4339284300804138,-1.2455412149429321,0.005149920005351305,-0.9218356609344482,-0.051689937710762024,1.216549038887024,0.010490577667951584,0.9660868048667908,0.04787518084049225,-0.777256429195404,-0.048256658017635345,0.12836651504039764,0.7421606779098511,-0.33549103140830994,0.023360246792435646,-0.3412298858165741,-0.0707637146115303,-0.1646067053079605,0.8253223299980164,-0.5057167410850525,0.01191621832549572,0.018037650734186172,0.6401723027229309,-1.568678855895996,0.4264638125896454,-0.01979563757777214,0.1027696281671524,2.630002975463867,0.002355199074372649,0.020016327500343323,-0.17802953720092773,-0.4507105052471161,0.3901852071285248,1.5897310972213745,1.1794215440750122,-1.4771982431411743,1.3513613939285278,1.0092253684997559,2.4247851371765137,1.1725728511810303,0.24004821479320526,0.2542419135570526,0.7051962614059448,0.25046002864837646,1741522750.060416,1741522748933,3.7374411621093753,1.46959130859375,0.07504229180073319,0.9635218505859375,3.844225830078125
1741522750.043893,2.4768275022506714,0.018212531464445347,-0.058109376456383144,-0.998144079812883,-0.33585336804389954,-0.26046258211135864,0.14983175694942474,-4.159275531768799,2.4801013469696045,12.598243713378906,0.00095367431640625,0.14095497131347656,0.3934920132160187,-1.2432523965835571,0.005531395319849253,-0.9203097820281982,0.001716639962978661,1.216549038887024,0.010490577667951584,0.960746169090271,0.039101243019104004,-0.7360570430755615,-0.02880140393972397,0.12417028844356537,0.777256429195404,-0.32278838753700256,0.041058365255594254,-0.3099488914012909,-0.053215838968753815,-0.1527809500694275,0.8508812189102173,-0.49051570892333984,0.0014720509061589837,-0.019048577174544334,0.33294203877449036,-2.2119345664978027,0.040266003459692,-0.01142106857150793,0.012334732338786125,3.7423338890075684,-0.0024555509444326162,-0.01873517781496048,-0.29284653067588806,-0.3267912268638611,2.2229726314544678,0.7865737080574036,-0.3989964425563812,1.724050521850586,0.42778444290161133,0.6664357781410217,1.328951120376587,0.9395103454589844,0.7568885684013367,1.6993168592453003,0.7466098666191101,-0.41354021430015564,1741522750.060416,1741522748933,3.7374411621093753,1.46959130859375,0.07504229180073319,0.9635218505859375,3.844225830078125
1741522750.063938,2.479069948196411,0.014967475906004743,-0.052103225068983516,-0.9985295331648504,-0.30384957790374756,-0.21392683684825897,0.09154670685529709,-2.016584634780884,2.3969082832336426,12.374261856079102,-0.00057220458984375,0.14400672912597656,0.32673379778862,-1.2466856241226196,0.005531395319849253,-0.9225986003875732,0.06389715522527695,1.2234156131744385,0.01125352829694748,0.9573128819465637,0.03337911143898964,-0.7074463963508606,-0.028038453310728073,0.09784847497940063,0.7925154566764832,-0.32362961769104004,0.045658014714717865,-0.31910428404808044,-0.04100862145423889,-0.1199740618467331,0.9412909150123596,-0.4644896388053894,-0.007559728343039751,-0.05437096580862999,0.1199028342962265,-3.4857797622680664,-0.20725132524967194,0.005611783359199762,-0.07601898163557053,4.200211048126221,0.6208094954490662,0.06901361793279648,-0.23634999990463257,-0.3755825161933899,1.38608980178833,-0.05829493701457977,-1.5786246061325073,0.6219120025634766,-0.07156770676374435,0.23510394990444183,-1.0417571067810059,0.35515913367271423,2.0217764377593994,5.220574378967285,1.4555696249008179,-0.5694293975830078,1741522750.060416,1741522748933,3.7374411621093753,1.46959130859375,0.07504229180073319,0.9635218505859375,3.844225830078125
1741522750.083938,2.478766441345215,0.01589722646867977,-0.05325512869139674,-0.9984543902746215,0.1467815786600113,0.1491853892803192,-0.057935550808906555,-0.6878787875175476,0.5565903186798096,10.287772178649902,0.00057220458984375,0.14362525939941406,0.2458609938621521,-1.2524077892303467,0.005531395319849253,-0.9229800701141357,0.13103684782981873,1.2386746406555176,0.011635004542768002,0.9538795948028564,0.018501564860343933,-0.6654840707778931,-0.04749370738863945,0.06542305648326874,0.8005264401435852,-0.3254156708717346,0.05085990950465202,-0.3850995600223541,-0.031090257689356804,-0.06427863240242004,1.0900664329528809,-0.42266494035720825,-0.015890855342149734,0.028408674523234367,-0.040413856506347656,-4.163887023925781,-0.39139121770858765,0.0029158815741539,-0.01759454421699047,4.44089412689209,0.9192143082618713,-0.023312434554100037,-0.23532508313655853,-0.7457916736602783,2.126532793045044,-1.2183810472488403,-1.4403252601623535,0.43274083733558655,-0.02744896151125431,0.18498541414737701,-3.7734148502349854,0.7055959105491638,2.8234403133392334,7.559517860412598,2.1447560787200928,-0.26682448387145996,1741522750.060416,1741522748933,3.7374411621093753,1.46959130859375,0.07504229180073319,0.9635218505859375,3.844225830078125
1741522750.103976,2.4665719270706177,0.01796791306096894,-0.060695960958631036,-0.9979945663296678,0.41902267932891846,0.02343127876520157,-0.6417456269264221,-5.350069046020508,-0.8119610548019409,10.286453247070312,-0.00057220458984375,0.14629554748535156,0.16231784224510193,-1.2573670148849487,0.005531395319849253,-0.9225986003875732,0.18825818598270416,1.2451597452163696,0.011635004542768002,0.9493018984794617,0.00019073777366429567,-0.6296253800392151,-0.057793546468019485,0.05130846053361893,0.8024337887763977,-0.32616764307022095,0.05007519572973251,-0.49114975333213806,-0.009346150793135166,-0.016594186425209045,1.258297085762024,-0.38555195927619934,-0.011396693997085094,-0.08299236744642258,0.09212476015090942,-4.067572593688965,-0.28038883209228516,-0.0035083286929875612,-0.005251707509160042,3.743647336959839,0.3114564120769501,0.015306801535189152,-0.2805233895778656,-0.872876763343811,1.8632032871246338,-0.343107670545578,-0.578081488609314,0.0558805875480175,-0.017093224450945854,-0.043834149837493896,-5.315372943878174,1.1963313817977905,2.1541521549224854,8.342426300048828,1.5621086359024048,0.44358232617378235,1741522750.060416,1741522748933,3.7374411621093753,1.46959130859375,0.07504229180073319,0.9635218505859375,3.844225830078125
1741522750.1239724,2.4462772607803345,0.020617789807252963,-0.06946402581701817,-0.997371373090664,0.45359542965888977,0.0607932023704052,-1.0071214437484741,2.112455368041992,-0.8850587606430054,10.746012687683105,-0.00743865966796875,0.14629554748535156,0.08487831056118011,-1.2566040754318237,0.005531395319849253,-0.924124538898468,0.24166475236415863,1.2505004405975342,0.011635004542768002,0.9473945498466492,-0.022697795182466507,-0.5849927663803101,-0.05207141116261482,0.05245288833975792,0.7997635006904602,-0.3303752541542053,0.03942953795194626,-0.6006332635879517,0.010872052982449532,0.004386968910694122,1.3998245000839233,-0.394101083278656,-0.0052078417502343655,-0.20748209953308105,-0.012089346535503864,-3.7528798580169678,0.10521038621664047,-0.005218761041760445,-0.07475384324789047,3.510739326477051,0.4408583641052246,0.0018773775082081556,-0.10517067462205887,-1.1692619323730469,2.2312936782836914,0.37519893050193787,0.044670164585113525,-0.19812002778053284,-0.2579286992549896,-0.6409823298454285,-5.505608558654785,0.8996492028236389,0.8116143941879272,6.550353527069092,-0.8298721313476562,0.13742323219776154,1741522750.165278,1741522749033,3.641818359375,1.5370620117187501,0.03776268289049393,0.9350028076171876,3.856005859375
1741522750.1441762,2.4239012002944946,0.021585242676104406,-0.07569331815290531,-0.9968974866482595,0.2923377752304077,-0.023332610726356506,-1.0926783084869385,2.5604610443115234,-5.193843841552734,9.265792846679688,-0.01506805419921875,0.15430641174316406,0.01926451548933983,-1.2524077892303467,0.005531395319849253,-0.924887478351593,0.2920195460319519,1.2550780773162842,0.011635004542768002,0.9454871416091919,-0.046730753034353256,-0.5376898050308228,-0.04901960864663124,0.05207141116261482,0.7955672740936279,-0.34265103936195374,0.025631722062826157,-0.6986724734306335,0.02040894143283367,-0.0032425422687083483,1.4734493494033813,-0.43752336502075195,-0.004286757670342922,-0.22445334494113922,0.18592676520347595,-2.962951183319092,0.2755040228366852,-0.010675065219402313,-0.0196029432117939,3.305353879928589,0.25119757652282715,0.0030715877655893564,-0.16824613511562347,-1.0541491508483887,2.4474222660064697,0.12261900305747986,-0.01713232696056366,-0.22160808742046356,-0.6714159250259399,-0.6033914089202881,-4.769803524017334,0.2859005928039551,-0.6395782232284546,3.0686771869659424,-2.315640926361084,0.25152096152305603,1741522750.165278,1741522749033,3.641818359375,1.5370620117187501,0.03776268289049393,0.9350028076171876,3.856005859375
1741522750.1641574,2.414107918739319,0.021460789074192004,-0.07773926832505693,-0.9967427153947992,0.10194756090641022,-0.06990079581737518,-0.44879016280174255,0.7713003754615784,-1.71343195438385,10.029472351074219,-0.02384185791015625,0.15316200256347656,-0.02880140393972397,-1.2478300333023071,0.005531395319849253,-0.924887478351593,0.3393225073814392,1.2588928937911987,0.01125352829694748,0.9409094452857971,-0.06427863240242004,-0.4877164959907532,-0.050164032727479935,0.04329747334122658,0.7852674126625061,-0.36682042479515076,0.01100173406302929,-0.778782308101654,0.018120087683200836,-0.024986648932099342,1.4715418815612793,-0.4853785037994385,0.005447919946163893,-0.24789488315582275,-0.01161670871078968,-2.275151491165161,0.28494980931282043,-0.002276898128911853,-0.015731964260339737,3.093111038208008,0.2614128887653351,-0.0012490407098084688,-0.33942022919654846,-0.8805438280105591,2.474466562271118,-0.0629228726029396,-0.5542047023773193,-0.6257765889167786,-1.3378387689590454,-0.7509400844573975,-3.6677610874176025,-0.1930684745311737,-1.214351773262024,-0.6532193422317505,-2.311988115310669,0.38542020320892334,1741522750.165278,1741522749033,3.641818359375,1.5370620117187501,0.03776268289049393,0.9350028076171876,3.856005859375
1741522750.184383,2.4091256856918335,0.021891433869128823,-0.07620964804150769,-0.9968514707159453,-0.10229195654392242,0.03124561905860901,-0.2682245075702667,-0.46009117364883423,-3.615253448486328,8.745487213134766,-0.02574920654296875,0.15011024475097656,-0.08220797777175903,-1.2455412149429321,0.005531395319849253,-0.9290837049484253,0.38357365131378174,1.2638521194458008,0.01201647985726595,0.9348058104515076,-0.07610437273979187,-0.4373617172241211,-0.051689937710762024,0.03452353551983833,0.769245445728302,-0.40220335125923157,0.0101268095895648,-0.8371480703353882,0.013160906732082367,-0.04444190114736557,1.408216953277588,-0.5151575207710266,0.0061230589635670185,-0.08257551491260529,-0.08318610489368439,-2.7280285358428955,0.17592594027519226,0.026831891387701035,-0.34241020679473877,2.9882822036743164,0.2850664258003235,0.05243502929806709,-0.41985347867012024,-0.5341755151748657,2.5299694538116455,-0.04235944524407387,-0.3889620006084442,-0.7732892036437988,-1.848296046257019,0.08031424134969711,-2.7471542358398438,-0.3139752149581909,-0.8065422773361206,-3.5346426963806152,-1.145686388015747,-0.1053663045167923,1741522750.165278,1741522749033,3.641818359375,1.5370620117187501,0.03776268289049393,0.9350028076171876,3.856005859375
1741522750.204207,2.4057687520980835,0.024567916587063112,-0.07399995529170103,-0.9969555777924096,-0.1102384552359581,0.12493416666984558,-0.1979549676179886,4.633538722991943,-1.0041086673736572,7.3324456214904785,-0.03070831298828125,0.14400672912597656,-0.1199740618467331,-1.2409635782241821,0.005149920005351305,-0.9424353241920471,0.4331654906272888,1.2676668167114258,0.01125352829694748,0.926413357257843,-0.07763027399778366,-0.39654383063316345,-0.04901960864663124,0.03147173300385475,0.7501716613769531,-0.4412080645561218,0.005810259375721216,-0.8726252913475037,0.002861066721379757,-0.05092698708176613,1.3063629865646362,-0.5070899128913879,0.01615338772535324,-0.1459830105304718,-0.15127629041671753,-1.762425184249878,0.32012224197387695,0.0435844287276268,-0.6285305023193359,3.184948205947876,0.1741410195827484,-0.019447267055511475,-0.5393157005310059,0.13010159134864807,1.8337945938110352,0.1539713591337204,-0.1593066304922104,-1.0252387523651123,-1.9915639162063599,-0.3756857216358185,-1.5819416046142578,-0.6253812909126282,-0.18372578918933868,-5.259646415710449,0.7002285718917847,0.5417958498001099,1741522750.165278,1741522749033,3.641818359375,1.5370620117187501,0.03776268289049393,0.9350028076171876,3.856005859375
1741522750.2242033,2.40501606464386,0.03015689174403002,-0.0711834322638387,-0.9970072621859273,-0.14428697526454926,0.3777710497379303,-0.008601759560406208,1.284205675125122,0.10031609982252121,5.539132118225098,-0.034142494201660156,0.12760353088378906,-0.1359960287809372,-1.2363858222961426,0.005531395319849253,-0.9557870030403137,0.4640650153160095,1.2665224075317383,0.011635004542768002,0.9218356609344482,-0.059319447726011276,-0.3572518527507782,-0.048638131469488144,0.021171892061829567,0.7413977384567261,-0.47739431262016296,0.0014788629487156868,-0.8855955004692078,-0.018120087683200836,-0.05245288833975792,1.1839094161987305,-0.46764570474624634,0.02157404087483883,-0.1080453172326088,-0.5557723641395569,-0.7064859867095947,0.309531033039093,0.0014028321020305157,-0.7269091010093689,1.9156893491744995,-0.011588580906391144,0.008510731160640717,-0.29117700457572937,0.9993683695793152,1.9905446767807007,0.00027043389854952693,-0.5471782088279724,-0.3042321503162384,-1.7463914155960083,-0.03795713186264038,-0.40237584710121155,-1.1913714408874512,-0.11079220473766327,-6.249312400817871,2.0362799167633057,0.19376018643379211,1741522750.2658012,1741522749113,3.5729448242187503,1.5967744140625,0.6232641583735263,0.9101151123046876,3.8643515625
1741522750.2442832,2.405736804008484,0.039322781477461606,-0.06893655677205682,-0.9968457603848696,-0.11278093606233597,0.43155279755592346,0.059721920639276505,1.795817255973816,-0.551324725151062,5.737099647521973,-0.034142494201660156,0.12035560607910156,-0.1333257108926773,-1.231045126914978,0.005149920005351305,-0.967994213104248,0.47817960381507874,1.2646150588989258,0.01125352829694748,0.918402373790741,-0.02880140393972397,-0.32673379778862,-0.05741206929087639,-0.0009536888683214784,0.7398717999458313,-0.5026423931121826,0.0025261600967496634,-0.881017804145813,-0.05245288833975792,-0.06046387553215027,1.0400930643081665,-0.42401182651519775,0.015574991703033447,-0.0028851095121353865,-0.29758432507514954,0.3029741644859314,0.3283686339855194,-0.0078006768599152565,-0.5697226524353027,0.787821352481842,-0.17363852262496948,-0.005705390125513077,-0.2399429976940155,1.556712031364441,1.5637991428375244,-0.62422776222229,-1.095188021659851,0.06063567101955414,-1.0359687805175781,0.03411949798464775,0.20752422511577606,-1.7543854713439941,-0.513142466545105,-7.2946553230285645,2.143573760986328,-0.39744120836257935,1741522750.2658012,1741522749113,3.5729448242187503,1.5967744140625,0.6232641583735263,0.9101151123046876,3.8643515625
1741522750.2642345,2.406450390815735,0.04609188035503898,-0.06796776107686603,-0.9966222564339684,0.00939096324145794,0.3458291292190552,0.033712103962898254,2.528597831726074,1.0660721063613892,5.722953796386719,-0.034523963928222656,0.11730384826660156,-0.10776684433221817,-1.2283748388290405,0.005149920005351305,-0.9740977883338928,0.47436484694480896,1.2588928937911987,0.01125352829694748,0.9157320261001587,-0.000572213320992887,-0.30003052949905396,-0.08907453715801239,-0.011635004542768002,0.7558938264846802,-0.503364086151123,0.0131072411313653,-0.8581292629241943,-0.086785688996315,-0.07801175117492676,0.8855955004692078,-0.39116087555885315,-0.005336626432836056,-0.010064338333904743,-0.11815214157104492,1.3444795608520508,0.14168347418308258,-0.01032457035034895,-0.2512979507446289,-0.40018051862716675,-0.37286585569381714,-0.0016379592707380652,-0.12946674227714539,1.4079312086105347,1.283484935760498,-1.864549160003662,-0.22974449396133423,1.134185552597046,0.17164824903011322,0.7219644784927368,1.4489213228225708,-1.7028465270996094,-0.7511485815048218,-7.698897361755371,1.4651515483856201,-0.922882616519928,1741522750.2658012,1741522749113,3.5729448242187503,1.5967744140625,0.6232641583735263,0.9101151123046876,3.8643515625
1741522750.2842906,2.408658504486084,0.044689567147566195,-0.07521844400595445,-0.9961651611402028,0.39580631256103516,-0.282684862613678,0.10995408147573471,-16.763490676879883,0.3414546251296997,25.497066497802734,-0.02727508544921875,0.13561439514160156,-0.06351567804813385,-1.228756308555603,0.005149920005351305,-0.9721904397010803,0.45834288001060486,1.2497375011444092,0.01125352829694748,0.9126802682876587,0.010109102353453636,-0.28553444147109985,-0.08907453715801239,-0.00858320016413927,0.813878059387207,-0.49236759543418884,0.03961053490638733,-0.8306630253791809,-0.11463340371847153,-0.08602273464202881,0.8295185565948486,-0.343398779630661,0.00998611655086279,0.20453590154647827,0.6029735207557678,2.4949116706848145,-0.09952526539564133,-0.023434527218341827,0.1468813121318817,-1.220410704612732,-0.6850294470787048,0.010658635757863522,-0.289797306060791,0.2159750610589981,0.2710622251033783,0.5964329242706299,0.1793985664844513,3.300645589828491,0.5698838829994202,1.4057666063308716,1.6769769191741943,-1.0381654500961304,-0.3342881202697754,-0.5068007707595825,2.746181011199951,1.0960394144058228,1741522750.2658012,1741522749113,3.5729448242187503,1.5967744140625,0.6232641583735263,0.9101151123046876,3.8643515625
1741522750.3042946,2.4106825590133667,0.046725137402912946,-0.07837519916708383,-0.9958283434860643,0.09111062437295914,0.3276057243347168,0.19712576270103455,15.434865951538086,3.8089346885681152,3.0077884197235107,-0.041008949279785156,0.12912940979003906,-0.00019073777366429567,-1.2379117012023926,0.005912871100008488,-0.968757152557373,0.41599908471107483,1.2417265176773071,0.01125352829694748,0.9103913903236389,-0.004386968910694122,-0.30231937766075134,-0.0871671661734581,0.016975661739706993,0.9149690866470337,-0.4645182490348816,0.055524103343486786,-0.7902265787124634,-0.09594109654426575,-0.061226826161146164,0.8733882904052734,-0.3005802631378174,0.04521535336971283,-0.4358137845993042,-0.21613472700119019,3.1326792240142822,-0.575634241104126,0.07470625638961792,0.13592024147510529,-3.2099499702453613,-0.3719773292541504,-0.02140200324356556,-0.02446001023054123,-0.7690182328224182,-1.3002841472625732,0.0042257606983184814,1.2921528816223145,5.534923076629639,1.5870071649551392,0.6028391122817993,1.210396647453308,0.719246506690979,1.7530162334442139,1.2838389873504639,1.9083009958267212,1.871571660041809,1741522750.2658012,1741522749113,3.5729448242187503,1.5967744140625,0.6232641583735263,0.9101151123046876,3.8643515625
1741522750.3243475,2.4145842790603638,0.042636858070820426,-0.08347625574973314,-0.9955972142688296,0.3126479983329773,-0.10043267905712128,0.2796495258808136,-10.77597427368164,1.0407475233078003,12.492589950561523,-0.02841949462890625,0.13942909240722656,0.0711451917886734,-1.2440153360366821,0.005149920005351305,-0.9657053351402283,0.35229265689849854,1.2405821084976196,0.01201647985726595,0.9115357995033264,-0.023079270496964455,-0.3622110188007355,-0.0875486359000206,0.03376058489084244,1.0629816055297852,-0.418986439704895,0.063380166888237,-0.7597085237503052,-0.08068207651376724,-0.01506828423589468,0.8699550032615662,-0.27445077896118164,0.05022481828927994,0.3190750777721405,0.2573436498641968,3.663198947906494,-0.4788069427013397,-0.023930219933390617,0.15897370874881744,-4.22639274597168,-0.1266077607870102,0.020068423822522163,0.08689667284488678,-0.9550914764404297,-3.255810499191284,-0.04689928889274597,0.6203001737594604,7.538691520690918,2.260362148284912,0.40074482560157776,2.33724308013916,1.0296446084976196,1.9415496587753296,0.1389659345149994,1.2301177978515625,-0.49829041957855225,1741522750.2658012,1741522749113,3.5729448242187503,1.5967744140625,0.6232641583735263,0.9101151123046876,3.8643515625
1741522750.344367,2.430772304534912,0.04059153999227693,-0.08546200869611395,-0.9955142248861544,0.004968814551830292,-0.18853557109832764,0.9010168313980103,-1.3774837255477905,1.3276792764663696,13.537779808044434,-0.03032684326171875,0.15278053283691406,0.14095520973205566,-1.2535521984100342,0.005531395319849253,-0.959220290184021,0.28782328963279724,1.23447847366333,0.009346150793135166,0.9107728600502014,-0.03452353551983833,-0.4545281231403351,-0.09632257372140884,0.048256658017635345,1.2384604215621948,-0.3821830153465271,0.0406738743185997,-0.726138710975647,-0.06466010212898254,-0.004005493130534887,0.8760585784912109,-0.2534301280975342,0.0051325284875929356,-0.0231656264513731,0.4965270757675171,3.3788199424743652,-0.563335120677948,-0.04133514314889908,0.36895737051963806,-4.166435718536377,-0.4445633590221405,-0.08864392340183258,-0.09913443773984909,-0.5338197946548462,-4.965684413909912,-0.4093779921531677,0.7976410388946533,8.811100959777832,1.610913634300232,-1.7779405117034912,1.0412639379501343,0.31655848026275635,0.6458876132965088,0.21062225103378296,0.9536462426185608,-1.9144855737686157,1741522750.378124,1741522749333,3.4009477539062503,1.7855665283203126,0.5594746321567171,0.8598486328125,3.881499755859375
1741522750.3644087,2.455497980117798,0.034333152357710804,-0.08455233223464974,-0.9958273634334738,-0.04638374224305153,-0.06294941902160645,1.2207448482513428,-3.7700750827789307,4.17486572265625,17.515764236450195,-0.034142494201660156,0.14896583557128906,0.21114671230316162,-1.2588928937911987,0.005531395319849253,-0.9515907764434814,0.21877622604370117,1.231808066368103,0.010490577667951584,0.9115357995033264,-0.048638131469488144,-0.5575265288352966,-0.09136339277029037,0.07000076025724411,1.3754100799560547,-0.3803609013557434,-0.0031062515918165445,-0.6944762468338013,-0.07267109304666519,0.001716639962978661,0.8962767720222473,-0.2573143541812897,0.008191542699933052,-0.061950813978910446,-0.02645288221538067,3.3999102115631104,-0.393797367811203,-0.001998579129576683,0.3620203137397766,-4.706297397613525,-0.11799847334623337,0.0228179469704628,0.09785695374011993,-0.6896313428878784,-5.011768341064453,0.3396877348423004,1.2242332696914673,6.399152755737305,-0.2935784161090851,-1.5705996751785278,2.012204170227051,-0.2945249378681183,0.09214631468057632,1.1810487508773804,-0.47440868616104126,0.5544419884681702,1741522750.378124,1741522749333,3.4009477539062503,1.7855665283203126,0.5594746321567171,0.8598486328125,3.881499755859375
1741522750.3844304,2.478845000267029,0.03023840115907373,-0.08418494627047593,-0.9959912318473391,-0.10160194337368011,-0.2629567086696625,1.151784896850586,2.832458019256592,3.486708402633667,13.453153610229492,-0.02269744873046875,0.16308116912841797,0.28248265385627747,-1.2634705305099487,0.005531395319849253,-0.9424353241920471,0.14400701224803925,1.231045126914978,0.010490577667951584,0.9115357995033264,-0.06046387553215027,-0.6506065726280212,-0.086785688996315,0.10662241280078888,1.4425498247146606,-0.4154735505580902,0.010396787896752357,-0.6612878441810608,-0.07305257022380829,0.0009536888683214784,0.8993285894393921,-0.29596295952796936,0.02323625423014164,0.3130183815956116,0.4459393322467804,3.6871020793914795,-0.16636361181735992,0.0032433471642434597,0.48341765999794006,-4.92921257019043,-0.0863555520772934,0.03924645110964775,0.01784188114106655,-0.5863814949989319,-4.815944194793701,0.27084359526634216,2.1741087436676025,2.6713075637817383,-1.8227440118789673,0.8077611327171326,1.4931349754333496,-0.08419282734394073,0.004477136302739382,-0.16334204375743866,-2.1290197372436523,0.3918720781803131,1741522750.378124,1741522749333,3.4009477539062503,1.7855665283203126,0.5594746321567171,0.8598486328125,3.881499755859375
1741522750.4044325,2.4969594478607178,0.0251980070129118,-0.0816856821551632,-0.9963395554595947,-0.1316770613193512,-0.04039955511689186,0.851192831993103,-0.8794382214546204,5.955662727355957,9.989985466003418,-0.02269744873046875,0.15621376037597656,0.35152971744537354,-1.2649965286254883,0.005149920005351305,-0.9348058104515076,0.07381551712751389,1.230282187461853,0.010490577667951584,0.9142061471939087,-0.07534141838550568,-0.7238498330116272,-0.07686731964349747,0.13981078565120697,1.434157371520996,-0.45478442311286926,0.003553178394213319,-0.620851457118988,-0.07419699430465698,0.0020981156267225742,0.889028787612915,-0.3523094058036804,0.02445528656244278,0.01764375902712345,-0.14851249754428864,3.4409236907958984,-0.08336685597896576,-0.010883345268666744,0.37289443612098694,-4.641510486602783,-0.0035097571089863777,-0.010126194916665554,0.23333197832107544,-0.63918137550354,-3.565958261489868,0.7033591866493225,1.527287483215332,-0.9033554196357727,-1.8125828504562378,-0.7279863953590393,2.1283774375915527,-0.10511073470115662,0.0979706272482872,-0.5136021971702576,-2.826942205429077,0.3699370324611664,1741522750.378124,1741522749333,3.4009477539062503,1.7855665283203126,0.5594746321567171,0.8598486328125,3.881499755859375
1741522750.4244697,2.5045913457870483,0.026884508753385036,-0.08225306202104464,-0.9962487927105615,0.028600232675671577,0.128998801112175,0.30879971385002136,1.8826502561569214,2.260890245437622,8.041454315185547,-0.01697540283203125,0.15468788146972656,0.4091325104236603,-1.2661409378051758,0.005531395319849253,-0.9302281141281128,0.011635004542768002,1.231808066368103,0.010490577667951584,0.918402373790741,-0.07877469807863235,-0.7818341255187988,-0.06160829961299896,0.15850308537483215,1.3681620359420776,-0.47162139415740967,-0.016868002712726593,-0.5731670260429382,-0.07457847148180008,0.001716639962978661,0.8688105344772339,-0.399518221616745,0.04885908588767052,0.1658204346895218,-0.06337033212184906,2.8494575023651123,-0.13314607739448547,-0.0170475784689188,0.18510137498378754,-4.153672695159912,0.1411295086145401,0.00942222960293293,0.22478008270263672,-0.158874973654747,-2.7175180912017822,0.8240192532539368,0.7871165871620178,-3.5918498039245605,-0.5737612247467041,-0.7044084668159485,2.131486177444458,-0.05680357292294502,-0.05896330997347832,-1.1203216314315796,-2.190958261489868,1.3235136270523071,1741522750.378124,1741522749333,3.4009477539062503,1.7855665283203126,0.5594746321567171,0.8598486328125,3.881499755859375
1741522750.4444788,2.5102930068969727,0.03145338302414421,-0.08317914864548051,-0.9960381086720275,0.016429835930466652,0.3800477087497711,0.33352190256118774,1.3131389617919922,-1.5699913501739502,7.436633110046387,-0.01697540283203125,0.13866615295410156,0.4556725323200226,-1.2676668167114258,0.005531395319849253,-0.9279392957687378,-0.05436026677489281,1.2356228828430176,0.010872052982449532,0.926413357257843,-0.086785688996315,-0.8226520419120789,-0.0394827201962471,0.17185473442077637,1.2689783573150635,-0.45549410581588745,-0.005728841293603182,-0.5308232307434082,-0.07724879682064056,0.000572213320992887,0.8520256280899048,-0.4327389597892761,0.0588163360953331,0.00012504307960625738,-0.3913038372993469,2.2877254486083984,-0.1486666053533554,-0.022457009181380272,0.15311171114444733,-4.313631534576416,0.2063300907611847,0.0062075392343103886,0.6068032383918762,-0.5098546743392944,-1.9315216541290283,1.1721079349517822,0.6592758297920227,-5.12514066696167,1.1295959949493408,0.5408750176429749,2.406348705291748,-0.2071087509393692,-0.04605235904455185,-0.6613766551017761,-1.4978357553482056,0.1551162600517273,1741522750.4726815,1741522749433,3.328345458984375,1.84391162109375,0.1642153139111093,0.8444832763671876,3.890832763671875
1741522750.4645135,2.518272638320923,0.040269279245466874,-0.08308797421851234,-0.9957282629760563,-0.005725146271288395,0.40297794342041016,0.37168264389038086,3.5803117752075195,1.6860970258712769,6.140417575836182,-0.01621246337890625,0.12951087951660156,0.4987792670726776,-1.2669038772583008,0.005531395319849253,-0.9214541912078857,-0.1024261862039566,1.23447847366333,0.010872052982449532,0.9424353241920471,-0.09784847497940063,-0.8443961143493652,-0.008201723918318748,0.17872129380702972,1.1488136053085327,-0.4122130870819092,-0.0034223683178424835,-0.4888609051704407,-0.07457847148180008,-0.004005493130534887,0.8253223299980164,-0.45740705728530884,0.046233829110860825,0.018739912658929825,-0.27147623896598816,2.0115444660186768,0.1213781014084816,-0.010111897252500057,0.3469774127006531,-2.940072536468506,-0.09732244163751602,0.002844792790710926,1.0688183307647705,-0.5796171426773071,-0.8908241987228394,1.6621266603469849,0.4001218378543854,-6.122418403625488,2.205331563949585,0.2581203877925873,2.0183913707733154,0.2686884105205536,-0.2757248282432556,-1.4604419469833374,-1.1826211214065552,-0.5755204558372498,1741522750.4726815,1741522749433,3.328345458984375,1.84391162109375,0.1642153139111093,0.8444832763671876,3.890832763671875
1741522750.4845085,2.5265830755233765,0.0471901919763909,-0.08239685137217301,-0.9954817148823897,-0.07547596096992493,0.4266466796398163,0.42143872380256653,6.219546794891357,-0.8189951181411743,7.022327899932861,-0.01926422119140625,0.12455177307128906,0.5182345509529114,-1.2630890607833862,0.005531395319849253,-0.919165313243866,-0.12874799966812134,1.23295259475708,0.010872052982449532,0.9576943516731262,-0.11501488089561462,-0.8478294014930725,0.03528648987412453,0.20199130475521088,1.024452567100525,-0.36396828293800354,0.003630376188084483,-0.4346913993358612,-0.06389715522527695,0.0013351644156500697,0.8009079098701477,-0.478589802980423,0.030469413846731186,-0.08537273854017258,-0.20076075196266174,0.8286669850349426,0.26151472330093384,-0.005643291864544153,0.048916179686784744,-1.5103224515914917,-0.11676494032144547,0.014640700072050095,0.9677271246910095,-0.9159075617790222,-0.15203410387039185,2.293456554412842,1.3679898977279663,-6.1702141761779785,2.4262053966522217,0.23284736275672913,2.9256906509399414,0.5956916809082031,0.4365007281303406,-1.12348473072052,-1.067011833190918,-0.9507555365562439,1741522750.4726815,1741522749433,3.328345458984375,1.84391162109375,0.1642153139111093,0.8444832763671876,3.890832763671875
1741522750.5045612,2.5358738899230957,0.04685593049450832,-0.07761884652643354,-0.9958814369398596,-0.2793336808681488,-0.060439933091402054,0.44687357544898987,1.373597502708435,0.9126355648040771,7.788440227508545,-0.02307891845703125,0.13027381896972656,0.5216678380966187,-1.2592743635177612,0.005531395319849253,-0.9195467829704285,-0.12684062123298645,1.231045126914978,0.010872052982449532,0.9657053351402283,-0.1337071806192398,-0.838674008846283,0.07457847148180008,0.2454795092344284,0.9115357995033264,-0.3152480721473694,0.006318450905382633,-0.3763256371021271,-0.048638131469488144,0.010872052982449532,0.7742046117782593,-0.49260106682777405,0.02347838692367077,-0.1088588610291481,0.13819244503974915,0.04156779497861862,0.2715262472629547,-0.0064716883935034275,-0.008085163310170174,0.37090328335762024,-0.1177886500954628,0.0043312786146998405,0.48646828532218933,-1.029942512512207,0.5667504668235779,1.7278685569763184,2.352555513381958,-5.405660629272461,2.353025197982788,-0.04622695967555046,3.1108057498931885,0.9610752463340759,0.4811475872993469,-1.3922932147979736,-0.4691190719604492,-0.08824742585420609,1741522750.4726815,1741522749433,3.328345458984375,1.84391162109375,0.1642153139111093,0.8444832763671876,3.890832763671875
1741522750.5245757,2.5459402799606323,0.03969647508184265,-0.06986075945071912,-0.9967666046547935,-0.45403093099594116,-0.3408036530017853,0.5114535093307495,4.377700328826904,7.982028484344482,8.000051498413086,-0.02574920654296875,0.14362525939941406,0.506027340888977,-1.2550780773162842,0.005531395319849253,-0.9214541912078857,-0.1039520874619484,1.2291377782821655,0.010872052982449532,0.9676127433776855,-0.1493476778268814,-0.8154039978981018,0.10814831405878067,0.2931639552116394,0.8154039978981018,-0.2822118401527405,0.002033988479524851,-0.3057526648044586,-0.029564354568719864,0.02231631986796856,0.7494087219238281,-0.48341068625450134,0.039100516587495804,-0.08604367077350616,0.330666720867157,-0.9752084612846375,0.27487945556640625,-0.00929164793342352,-0.1303362250328064,1.7555900812149048,-0.0912732183933258,0.0034932238049805164,0.058946553617715836,-0.8049678802490234,1.2764244079589844,1.8541191816329956,2.195772886276245,-4.743778705596924,1.3526829481124878,-0.014045082032680511,3.4315686225891113,0.9572513699531555,0.6091949939727783,-1.0880850553512573,0.5015903115272522,0.7330915927886963,1741522750.4726815,1741522749433,3.328345458984375,1.84391162109375,0.1642153139111093,0.8444832763671876,3.890832763671875
1741522750.5445967,2.5574229955673218,0.027601634661003484,-0.062447540466452525,-0.9976665046265366,-0.41132301092147827,-0.6108002662658691,0.5781017541885376,-2.3932642936706543,0.3562406599521637,9.299839973449707,-0.02803802490234375,0.14896583557128906,0.4705500900745392,-1.2543151378631592,0.005531395319849253,-0.9233615398406982,-0.06084534898400307,1.2291377782821655,0.010872052982449532,0.9637979865074158,-0.15964750945568085,-0.7799267768859863,0.12874799966812134,0.32063019275665283,0.7238498330116272,-0.2845083177089691,0.01249091885983944,-0.25272753834724426,-0.010872052982449532,0.03833829239010811,0.7551308274269104,-0.47832849621772766,0.03638436272740364,-0.07040736824274063,0.15436339378356934,-1.96660315990448,-0.05837445333600044,-0.003078275825828314,-0.13051339983940125,3.053372859954834,-0.03909461572766304,-0.005185501184314489,-0.28280341625213623,-0.5207232236862183,1.85067617893219,0.7623975276947021,1.1881242990493774,-4.618663787841797,-0.4558788239955902,0.6202225685119629,2.4263246059417725,1.051313042640686,0.7848420739173889,0.7150893807411194,0.25722363591194153,-0.04920748248696327,1741522750.4726815,1741522749433,3.328345458984375,1.84391162109375,0.1642153139111093,0.8444832763671876,3.890832763671875
1741522750.5646455,2.569312334060669,0.016025881603555583,-0.050185030014544316,-0.9986113527700694,-0.6520295739173889,-0.5450199246406555,0.5614886283874512,-11.839550971984863,2.1280014514923096,14.869441032409668,-0.038720130920410156,0.14667701721191406,0.41485464572906494,-1.2539336681365967,0.005531395319849253,-0.9222171306610107,-0.004386968910694122,1.230282187461853,0.010872052982449532,0.959220290184021,-0.16918440163135529,-0.7413977384567261,0.11577782779932022,0.31795987486839294,0.6841763854026794,-0.2931858003139496,0.04272966831922531,-0.23403525352478027,-0.0032425422687083483,0.05893797054886818,0.8215075731277466,-0.4664496183395386,0.03490906208753586,-0.3192586600780487,-0.08358199894428253,-3.10634708404541,0.055784545838832855,-0.008384769782423973,0.13304169476032257,3.896338939666748,0.04851760342717171,-0.0020447529386729,-0.2780396044254303,-0.5137887597084045,2.033705234527588,-1.0672273635864258,-0.5087487697601318,-0.5934542417526245,-0.04755104333162308,1.707014560699463,0.42609676718711853,0.05723905563354492,1.270086646080017,4.000546455383301,0.6923224925994873,-0.19880403578281403,1741522750.4726815,1741522749433,3.328345458984375,1.84391162109375,0.1642153139111093,0.8444832763671876,3.890832763671875
1741522750.5846088,2.578922390937805,0.013109494728831677,-0.05033170595759333,-0.9986465142999063,0.15308931469917297,0.016340909525752068,0.509864091873169,9.642168045043945,2.3994226455688477,7.107551097869873,-0.033761024475097656,0.13828468322753906,0.3404669165611267,-1.2596558332443237,0.006294346414506435,-0.9203097820281982,0.054741740226745605,1.2348599433898926,0.010872052982449532,0.9588387608528137,-0.16117341816425323,-0.7131685614585876,0.07953765243291855,0.2763790488243103,0.724612832069397,-0.29263049364089966,0.07121787965297699,-0.2634088695049286,0.0036240178160369396,0.09288929402828217,0.9390020370483398,-0.4341598153114319,0.02209371142089367,0.13909171521663666,-0.3125680387020111,-3.9573936462402344,-0.5838390588760376,0.05143759399652481,0.028027890250086784,3.9338009357452393,0.24020332098007202,0.02004176937043667,0.024249089881777763,0.5588359236717224,0.6358489394187927,-1.6787664890289307,-2.1777279376983643,1.5148952007293701,-0.18057502806186676,1.2324550151824951,-1.8334513902664185,0.558256983757019,1.7149335145950317,6.22482442855835,1.7867425680160522,-0.5236218571662903,1741522750.4726815,1741522749433,3.328345458984375,1.84391162109375,0.1642153139111093,0.8444832763671876,3.890832763671875
1741522750.6046498,2.5803028345108032,0.009596276886679763,-0.05771148574707595,-0.9982871810670411,0.41071775555610657,-0.09373262524604797,0.04469800740480423,-5.730122089385986,0.6630082130432129,12.466327667236328,-0.043297767639160156,0.14019203186035156,0.2462424635887146,-1.2711000442504883,0.005531395319849253,-0.9245060086250305,0.11120012402534485,1.2348599433898926,0.010872052982449532,0.9588387608528137,-0.1512550562620163,-0.691042959690094,0.05130846053361893,0.23937590420246124,0.7318608164787292,-0.2990071177482605,0.07316144555807114,-0.33474478125572205,0.026512550190091133,0.13752193748950958,1.0919737815856934,-0.387350857257843,0.011014488525688648,-0.28036800026893616,0.021266650408506393,-4.818154335021973,-0.6345370411872864,-0.02311078831553459,-0.2181093543767929,3.672642230987549,-0.04071430861949921,0.01673266664147377,-0.005762589629739523,0.4652341902256012,1.626849889755249,-1.3406654596328735,-1.6276719570159912,0.3647628128528595,-0.1493775099515915,-0.0931471437215805,-3.844325542449951,1.1608785390853882,2.2098958492279053,7.758979797363281,2.395812749862671,-0.6362902522087097,1741522750.4726815,1741522749433,3.328345458984375,1.84391162109375,0.1642153139111093,0.8444832763671876,3.890832763671875
1741522750.62492,2.5738476514816284,0.009885230219584411,-0.07251021110345537,-0.9973186810188799,0.810755729675293,-0.14012806117534637,-0.37231263518333435,-0.08735906332731247,-2.6409215927124023,10.128752708435059,-0.045586585998535156,0.13981056213378906,0.15392538905143738,-1.2745333909988403,0.005912871100008488,-0.924124538898468,0.1665140837430954,1.23600435256958,0.010872052982449532,0.9580758213996887,-0.14476996660232544,-0.6601434350013733,0.029182879254221916,0.22259098291397095,0.727664589881897,-0.29676592350006104,0.06668590754270554,-0.4350728690624237,0.054741740226745605,0.17643244564533234,1.256008267402649,-0.35257241129875183,-0.0037932887207716703,-0.13312596082687378,-0.03230629116296768,-4.42100715637207,-0.22261202335357666,0.027530351653695107,0.06919462978839874,3.641618490219116,0.07017256319522858,0.018189383670687675,-0.05629914626479149,0.36228644847869873,1.2532883882522583,-0.9085130095481873,-0.6837682723999023,-0.2161101996898651,0.13787740468978882,-0.372859388589859,-5.363586902618408,1.5274441242218018,1.7027291059494019,7.825389385223389,1.2855958938598633,-0.9075329303741455,1741522750.4726815,1741522749433,3.328345458984375,1.84391162109375,0.1642153139111093,0.8444832763671876,3.890832763671875
1741522750.6449199,2.559066891670227,0.0076976133268397764,-0.08919136214037011,-0.9959847627692985,0.8060409426689148,-0.043490637093782425,-0.7662805914878845,4.929716110229492,-1.748417615890503,10.899219512939453,-0.044060707092285156,0.14133644104003906,0.0715266615152359,-1.2733889818191528,0.005531395319849253,-0.9245060086250305,0.21915769577026367,1.2379117012023926,0.01125352829694748,0.9576943516731262,-0.135233074426651,-0.6261920928955078,0.02536812424659729,0.22335393726825714,0.7345311641693115,-0.2948080599308014,0.051616471260786057,-0.5453193187713623,0.0875486359000206,0.1817730963230133,1.3857098817825317,-0.3688891530036926,-0.01407905388623476,0.039229489862918854,-0.06848901510238647,-4.070464134216309,0.12720026075839996,-0.024764632806181908,-0.09623673558235168,3.437845468521118,0.19050092995166779,0.03238032013177872,-0.032491184771060944,0.5084533095359802,1.9724962711334229,-0.14569097757339478,0.0028514028526842594,0.37708157300949097,0.06782921403646469,-0.8197447657585144,-5.305789947509766,1.605499267578125,-0.038196347653865814,6.043827533721924,-1.1760724782943726,-0.32091525197029114,1741522750.4726815,1741522749433,3.328345458984375,1.84391162109375,0.1642153139111093,0.8444832763671876,3.890832763671875
1741522750.6649857,2.541749954223633,0.008746068245012515,-0.09687134598232722,-0.9952584833186934,0.29935431480407715,-0.15438920259475708,-0.846889853477478,-0.6918678879737854,-1.4374271631240845,9.377284049987793,-0.057412147521972656,0.15201759338378906,0.004005493130534887,-1.2630890607833862,0.005531395319849253,-0.9260318875312805,0.26684215664863586,1.2436338663101196,0.01125352829694748,0.954261064529419,-0.1203555315732956,-0.5971999764442444,0.018120087683200836,0.22106507420539856,0.7352941036224365,-0.2996075451374054,0.03531629964709282,-0.6540398001670837,0.09861142933368683,0.16308079659938812,1.4562828540802002,-0.41667190194129944,-0.010558038018643856,-0.3951122760772705,0.49556902050971985,-3.383679151535034,0.7538222670555115,0.008452099747955799,-0.06431006640195847,3.10037899017334,0.39720872044563293,0.008001796901226044,-0.32051706314086914,0.7679861783981323,1.1235694885253906,-0.46793702244758606,-0.18729455769062042,0.052529845386743546,-0.34700819849967957,-0.7601816058158875,-5.453609943389893,0.17537851631641388,-0.7771362066268921,2.901893377304077,-2.5048365592956543,0.22611172497272491,1741522750.4726815,1741522749433,3.328345458984375,1.84391162109375,0.1642153139111093,0.8444832763671876,3.890832763671875
1741522750.6849856,2.5223814249038696,0.009532600618355426,-0.09807389493016577,-0.9951334788151174,0.08397452533245087,0.04260583221912384,-0.9864016771316528,-0.9130930304527283,1.6587824821472168,7.162868976593018,-0.057793617248535156,0.13942909240722656,-0.046730753034353256,-1.2482116222381592,0.004386968910694122,-0.9275577664375305,0.3118562698364258,1.2505004405975342,0.01125352829694748,0.9473945498466492,-0.10128175467252731,-0.568970799446106,-0.000572213320992887,0.20656901597976685,0.7433050870895386,-0.3175389766693115,0.027877233922481537,-0.7497901916503906,0.09136339277029037,0.13752193748950958,1.4623864889144897,-0.46738365292549133,0.003109570825472474,0.012332414276897907,-0.2510829567909241,-2.658196210861206,1.0222389698028564,-0.08066033571958542,-0.10479751229286194,3.0032267570495605,0.4548828601837158,-0.009196003898978233,-0.40107643604278564,1.0209227800369263,1.5549252033233643,-0.9567979574203491,-0.7984245419502258,0.5004176497459412,-1.025315284729004,-0.3175204396247864,-4.684171676635742,-0.28303393721580505,-1.197877049446106,-0.2911655604839325,-2.556122303009033,0.7999221682548523,1741522750.4726815,1741522749433,3.328345458984375,1.84391162109375,0.1642153139111093,0.8444832763671876,3.890832763671875
1741522750.7050097,2.5032206773757935,0.015222009027125621,-0.10195749435896403,-0.9946722876330776,0.20619727671146393,0.1748163253068924,-0.9290030002593994,0.8682458400726318,-3.2453532218933105,7.828096389770508,-0.057793617248535156,0.13294410705566406,-0.09632257372140884,-1.2371487617492676,0.005149920005351305,-0.9340428709983826,0.3538185656070709,1.2489745616912842,0.01125352829694748,0.9428167939186096,-0.08373387902975082,-0.5510414242744446,-0.013923857361078262,0.19283588230609894,0.7558938264846802,-0.3460504710674286,0.030207155272364616,-0.8318074345588684,0.08487831056118011,0.12111848592758179,1.4135576486587524,-0.5040884613990784,0.008280023001134396,3.912800821126439e-05,-0.27135899662971497,-2.2875733375549316,0.6691654920578003,-0.039636045694351196,-0.4396657943725586,2.781651020050049,-0.20601876080036163,-0.0020774640142917633,-0.3397425413131714,0.6084208488464355,0.6605111956596375,-0.6271811723709106,-0.4722657799720764,0.6324132680892944,-1.4505019187927246,0.23419533669948578,-4.071511745452881,-0.33226901292800903,-0.8579128384590149,-2.7738122940063477,-1.5563987493515015,0.13466309010982513,1741522750.4726815,1741522749433,3.328345458984375,1.84391162109375,0.1642153139111093,0.8444832763671876,3.890832763671875
1741522750.7250202,2.4938294887542725,0.018481029402539158,-0.10237468911001994,-0.9945742177343274,-0.0037429891526699066,0.13471396267414093,-0.42681536078453064,-8.27961540222168,-0.49755236506462097,9.973980903625488,-0.06427860260009766,0.12493324279785156,-0.13218127191066742,-1.2299007177352905,0.005149920005351305,-0.9462500810623169,0.3896772861480713,1.2485930919647217,0.01125352829694748,0.9370946884155273,-0.08258945494890213,-0.5430304408073425,-0.016212711110711098,0.19054703414440155,0.7761120200157166,-0.37451043725013733,0.03804577887058258,-0.8901731967926025,0.07038223743438721,0.11692225188016891,1.3269627094268799,-0.5003519058227539,0.008805762976408005,-0.18469025194644928,-0.2623147964477539,-1.6868475675582886,0.464821457862854,-0.011788062751293182,-0.6355313062667847,2.324472427368164,0.07775098085403442,0.019067591056227684,-0.39381352066993713,0.08403933793306351,0.8198068737983704,-0.06101762875914574,-0.11271638423204422,1.1987662315368652,-1.415143370628357,0.3030744194984436,-2.6693904399871826,-0.921542227268219,-0.25340205430984497,-4.678822994232178,0.5209514498710632,0.18095402419567108,1741522750.4726815,1741522749433,3.328345458984375,1.84391162109375,0.1642153139111093,0.8444832763671876,3.890832763671875
1741522750.7450728,2.487498641014099,0.02929093409312671,-0.10221186371384078,-0.9943313210877426,0.018897883594036102,0.44869568943977356,-0.32625797390937805,0.4153052270412445,-4.0741682052612305,3.6707584857940674,-0.06847476959228516,0.12302589416503906,-0.14667734503746033,-1.225704550743103,0.005149920005351305,-0.9584572911262512,0.42820629477500916,1.2508819103240967,0.011635004542768002,0.9298466444015503,-0.07763027399778366,-0.5273899435997009,-0.013923857361078262,0.18787670135498047,0.8016708493232727,-0.40870216488838196,0.03863777592778206,-0.917639434337616,0.04787518084049225,0.1028076633810997,1.19611656665802,-0.4629317820072174,0.016324348747730255,-0.10681422799825668,-0.031674377620220184,-0.49399957060813904,0.2633017599582672,-0.0034921339247375727,-0.5771164298057556,2.568617582321167,0.0538855716586113,-0.010202527046203613,-0.5843403339385986,0.3524926006793976,0.6432222127914429,0.0897698774933815,-0.1176408901810646,1.1993745565414429,-1.8011846542358398,-0.11046858876943588,-1.1725425720214844,-1.2086735963821411,-0.8508214354515076,-7.208906173706055,1.9627447128295898,0.2605411410331726,1741522750.7773278,1741522749633,3.160827880859375,1.956109375,-0.21261387109318844,0.5163779907226562,3.6432727050781253
1741522750.7650673,2.4854968786239624,0.03556017977903373,-0.09934303219512741,-0.994417636392457,-0.1645013839006424,0.3429088294506073,-0.0780368223786354,-1.0630853176116943,1.7534619569778442,7.2199811935424805,-0.06809329986572266,0.12684059143066406,-0.14019227027893066,-1.2211267948150635,0.005149920005351305,-0.967994213104248,0.4537651538848877,1.2505004405975342,0.011635004542768002,0.9222171306610107,-0.06580453366041183,-0.5079346895217896,-0.023460745811462402,0.1832990050315857,0.8295185565948486,-0.4455357789993286,0.0352688804268837,-0.9107728600502014,0.013923857361078262,0.08602273464202881,1.0088120698928833,-0.4210113286972046,0.005878441501408815,-0.013309089466929436,0.09351431578397751,0.37382376194000244,0.29942938685417175,-0.004299838561564684,-0.4490959346294403,1.5166620016098022,0.013022096827626228,0.037185050547122955,-0.47559890151023865,0.5812164545059204,1.1947360038757324,-0.7235768437385559,-0.22940753400325775,1.4070186614990234,-1.819242238998413,-0.20966434478759766,0.8258541226387024,-1.7799959182739258,-1.015187382698059,-9.652238845825195,1.9794350862503052,-0.827957272529602,1741522750.7773278,1741522749633,3.160827880859375,1.956109375,-0.21261387109318844,0.5163779907226562,3.6432727050781253
1741522750.7850883,2.486950635910034,0.03971156922264551,-0.09868493624299991,-0.9943260404055553,4.520953007158823e-05,0.13648374378681183,0.06677288562059402,40.88256072998047,-9.790515899658203,49.419189453125,-0.061226844787597656,0.13446998596191406,-0.11425192654132843,-1.2180750370025635,0.005531395319849253,-0.9721904397010803,0.46292057633399963,1.2501189708709717,0.011635004542768002,0.9164950251579285,-0.053215838968753815,-0.47589075565338135,-0.05359731614589691,0.17414358258247375,0.8527885675430298,-0.481194406747818,0.022437674924731255,-0.8787289261817932,-0.022697795182466507,0.051689937710762024,0.8367666006088257,-0.3715669810771942,0.00356106273829937,0.17484638094902039,0.16828259825706482,1.589920997619629,0.1379634588956833,-0.004031701944768429,-0.16072456538677216,0.5597245097160339,-0.09232258051633835,0.0023095703218132257,-0.3918800950050354,0.7261804342269897,1.767533540725708,-1.669338583946228,-0.34266361594200134,1.244659423828125,-1.6824649572372437,-0.8619704246520996,1.0544488430023193,-1.7580963373184204,-1.8908933401107788,-7.1349406242370605,3.0331954956054688,0.4981502592563629,1741522750.7773278,1741522749633,3.160827880859375,1.956109375,-0.21261387109318844,0.5163779907226562,3.6432727050781253
1741522750.8052387,2.487229108810425,0.03350076096758636,-0.09486716195065503,-0.9949260880075569,-0.33839699625968933,0.03422538563609123,-0.13702422380447388,-17.8185977935791,8.674882888793945,17.598785400390625,-0.053597450256347656,0.15049171447753906,-0.06656748056411743,-1.227230429649353,0.005149920005351305,-0.9718089699745178,0.4556725323200226,1.2455412149429321,0.01125352829694748,0.9046692848205566,-0.057793546468019485,-0.4362172782421112,-0.06160829961299896,0.1646067053079605,0.8714808821678162,-0.4949409067630768,0.004631068091839552,-0.8203631639480591,-0.03147173300385475,0.026131074875593185,0.8829251527786255,-0.2950993776321411,0.025019221007823944,0.21643395721912384,0.2988123297691345,2.523411512374878,-0.6099133491516113,-0.005552974063903093,0.019395850598812103,-0.9483563899993896,-0.25570982694625854,0.015882426872849464,-0.7519469857215881,-0.8047947883605957,1.9850752353668213,-0.8152097463607788,-0.24384209513664246,0.9193674921989441,-0.3254987299442291,-0.7986249327659607,3.180729627609253,-0.40761417150497437,-0.35672470927238464,2.2823894023895264,3.2991368770599365,0.923632800579071,1741522750.7773278,1741522749633,3.160827880859375,1.956109375,-0.21261387109318844,0.5163779907226562,3.6432727050781253
1741522750.8252645,2.4920718669891357,0.031497900526448394,-0.09101843581539629,-0.9953509564993367,-0.20116449892520905,-0.3158741891384125,0.24335385859012604,-8.965292930603027,11.89608097076416,6.594114303588867,-0.043297767639160156,0.16880321502685547,0.0032425422687083483,-1.2333340644836426,0.00667582219466567,-0.9710460305213928,0.41294726729393005,1.2451597452163696,0.01125352829694748,0.9042877554893494,-0.08297093212604523,-0.4053177833557129,-0.06961929053068161,0.1680399775505066,0.8985656499862671,-0.47095614671707153,0.0159499179571867,-0.7898451089859009,-0.042153049260377884,0.06351567804813385,0.8710994124412537,-0.2634486258029938,0.034531813114881516,0.42934802174568176,0.6617766618728638,3.510755777359009,-0.4603719413280487,0.09711528569459915,0.023783765733242035,-3.050530433654785,0.0609210841357708,-0.03526647016406059,-0.018910489976406097,-1.3532943725585938,1.193062424659729,-0.3328487277030945,0.1756369173526764,1.5875129699707031,1.4441739320755005,0.8470017313957214,1.3731516599655151,-0.42024555802345276,1.8419862985610962,-1.3528939485549927,1.3495335578918457,0.3350694179534912,1741522750.7773278,1741522749633,3.160827880859375,1.956109375,-0.21261387109318844,0.5163779907226562,3.6432727050781253
1741522750.8452454,2.497501015663147,0.028081755728916254,-0.09200154262780895,-0.9953628138268402,0.06738883256912231,-0.022101275622844696,0.27759626507759094,-3.1549429893493652,-3.9018189907073975,9.431462287902832,-0.02155303955078125,0.16842174530029297,0.07419699430465698,-1.2436338663101196,0.005531395319849253,-0.9714275002479553,0.36640727519989014,1.2428709268569946,0.010872052982449532,0.9016174674034119,-0.09899290651082993,-0.4175249934196472,-0.058175019919872284,0.17109178006649017,0.9847791194915771,-0.4321564733982086,0.03757072985172272,-0.7387273907661438,-0.019645990803837776,0.07953765243291855,0.8722438216209412,-0.24669580161571503,0.018262121826410294,0.6329504251480103,0.1772078573703766,3.5519297122955322,-0.8456125855445862,0.03454917296767235,-0.00993355456739664,-3.0581436157226562,-0.19991058111190796,-0.07432511448860168,-0.14302706718444824,-0.7700509428977966,-0.9878773093223572,0.8262459635734558,0.07961881160736084,4.986440658569336,1.9424854516983032,1.0206812620162964,2.7230985164642334,1.0506963729858398,0.8748417496681213,0.6936551928520203,0.8540893793106079,-1.0531526803970337,1741522750.8901556,1741522749833,2.9970192871093753,2.09206689453125,-0.2149372836025548,0.28729495239257813,3.48671923828125
1741522750.865293,2.514877676963806,0.024712810587877023,-0.09111257775510655,-0.9955339146245433,-0.06157821789383888,-0.1700088083744049,0.9202083349227905,-3.828601121902466,3.8994014263153076,10.638522148132324,-0.02346038818359375,0.18406200408935547,0.14438849687576294,-1.2585114240646362,0.005149920005351305,-0.9706645011901855,0.3084229826927185,1.236767292022705,0.010872052982449532,0.9031433463096619,-0.11387044936418533,-0.4800869822502136,-0.04444190114736557,0.17719538509845734,1.126688003540039,-0.39233577251434326,0.031159961596131325,-0.7162203192710876,-0.012397955171763897,0.10013733059167862,0.8878843188285828,-0.24971553683280945,0.006195247173309326,-0.023237502202391624,0.6257205009460449,3.5734076499938965,-0.8220316171646118,-0.09079864621162415,0.04194765165448189,-3.898444652557373,-0.44978320598602295,0.08266361802816391,0.11366868019104004,-0.7884004712104797,-3.5338799953460693,0.6539862751960754,0.27205246686935425,7.041184902191162,1.846025824546814,-0.7337074875831604,1.0838767290115356,0.21634596586227417,0.7622008919715881,0.6569659113883972,-0.3761679232120514,-0.3181811273097992,1741522750.8901556,1741522749833,2.9970192871093753,2.09206689453125,-0.2149372836025548,0.28729495239257813,3.48671923828125
1741522750.8853538,2.53891921043396,0.0251073025484189,-0.09395064637618135,-0.9952602169303462,0.10084470361471176,0.2154226452112198,1.1348649263381958,-0.031084531918168068,-0.9407321810722351,11.049702644348145,-0.00247955322265625,0.17948436737060547,0.21190966665744781,-1.2676668167114258,0.005912871100008488,-0.9683756828308105,0.2439536154270172,1.2299007177352905,0.010872052982449532,0.9046692848205566,-0.12989242374897003,-0.5685893297195435,-0.02994582988321781,0.18520638346672058,1.267833948135376,-0.3738642930984497,-0.004269152879714966,-0.691805899143219,-0.020027466118335724,0.09975585341453552,0.9039062857627869,-0.2834148108959198,0.007692547049373388,0.5917441844940186,0.010465104132890701,3.284928321838379,-0.6825602650642395,0.03078572452068329,0.08871570229530334,-4.228670597076416,-0.44656527042388916,-0.056102801114320755,0.03864540532231331,-0.879268229007721,-4.480082035064697,0.4716499447822571,0.45791539549827576,6.81052827835083,0.597098708152771,-1.4306572675704956,1.2099274396896362,-0.4475211203098297,0.024487989023327827,0.843876302242279,-1.9239202737808228,0.10674242675304413,1741522750.8901556,1741522749833,2.9970192871093753,2.09206689453125,-0.2149372836025548,0.28729495239257813,3.48671923828125
1741522750.9053724,2.561532139778137,0.027221933761139804,-0.09375817354014784,-0.9952227746674207,-0.03275556489825249,0.17437122762203217,1.146273136138916,1.2684110403060913,4.667854309082031,11.198806762695312,0.01010894775390625,0.18444347381591797,0.2813382148742676,-1.2730075120925903,0.005531395319849253,-0.9618905782699585,0.17147326469421387,1.2241785526275635,0.011635004542768002,0.9050507545471191,-0.13828489184379578,-0.6540398001670837,-0.025749599561095238,0.20199130475521088,1.3586251735687256,-0.3894512355327606,0.010925215668976307,-0.6609063744544983,-0.02841992862522602,0.09975585341453552,0.9061951637268066,-0.33307433128356934,0.019468987360596657,0.37561342120170593,0.15200242400169373,3.543379545211792,-0.24126845598220825,0.0042020464316010475,0.39762046933174133,-4.89200496673584,-0.41294965147972107,0.052613284438848495,0.010759777389466763,-0.23385325074195862,-3.913745403289795,0.20622678101062775,0.9591584205627441,4.04414701461792,-0.8916231393814087,0.9896974563598633,1.5702558755874634,-0.3719939887523651,0.004860401153564453,-0.038907241076231,-2.430371046066284,0.5778278708457947,1741522750.8901556,1741522749833,2.9970192871093753,2.09206689453125,-0.2149372836025548,0.28729495239257813,3.48671923828125
1741522750.9254425,2.5750179290771484,0.028128679568329533,-0.09251105291857074,-0.9953142631720092,-0.08696061372756958,0.1090712621808052,0.609390914440155,-0.6707266569137573,5.102654933929443,11.21914291381836,0.02498626708984375,0.18863964080810547,0.34847790002822876,-1.2749148607254028,0.005531395319849253,-0.9508277773857117,0.09937438368797302,1.219982385635376,0.01125352829694748,0.9050507545471191,-0.14019227027893066,-0.7242313027381897,-0.02231631986796856,0.20656901597976685,1.3818951845169067,-0.4142759144306183,0.010236318223178387,-0.6158922910690308,-0.04406042397022247,0.09937438368797302,0.8947508931159973,-0.3758808374404907,0.03353692963719368,0.43511152267456055,0.12349355220794678,3.3221328258514404,-0.03963605314493179,-0.003916294313967228,0.543414831161499,-4.748202323913574,-0.2022455483675003,-0.003568112151697278,0.029403312131762505,0.019592294469475746,-3.3195154666900635,0.27733516693115234,0.19151248037815094,0.6284299492835999,-1.2095296382904053,-0.594434916973114,2.443193197250366,-0.9740553498268127,-0.0204381812363863,-0.5664835572242737,-2.0474555492401123,0.5920411944389343,1741522750.8901556,1741522749833,2.9970192871093753,2.09206689453125,-0.2149372836025548,0.28729495239257813,3.48671923828125
1741522750.9454849,2.579704523086548,0.0293716021967551,-0.09157575087909728,-0.9953648531243833,-0.059342995285987854,0.05446904897689819,0.18371397256851196,3.6360414028167725,1.3251067399978638,8.049790382385254,0.041390419006347656,0.18978404998779297,0.4064621925354004,-1.2745333909988403,0.005531395319849253,-0.9390020370483398,0.034142062067985535,1.2211267948150635,0.01125352829694748,0.9088655114173889,-0.13179980218410492,-0.7745860815048218,-0.01735713705420494,0.2141985148191452,1.3483253717422485,-0.4296343922615051,-0.01496640034019947,-0.5640115737915039,-0.06351567804813385,0.09288929402828217,0.8752956390380859,-0.40771162509918213,0.03304572403430939,0.46634507179260254,0.04425835981965065,2.720313787460327,-0.011023933999240398,-0.017372310161590576,0.5872124433517456,-4.2077107429504395,0.08798649162054062,-0.0004136591451242566,0.260154128074646,0.4047470986843109,-2.4537458419799805,0.2844686806201935,0.3776879608631134,-2.0462968349456787,-0.6746851205825806,-0.9337680339813232,2.616405487060547,-0.9482265114784241,-0.31373316049575806,-1.1102670431137085,-1.5565462112426758,-0.08914203196763992,1741522750.9923494,1741522749933,2.914234619140625,2.134933837890625,-0.1640678749917929,0.198619873046875,3.430317626953125
1741522750.9654717,2.5832974910736084,0.02799018498711063,-0.09230789436002551,-0.9953370294444016,0.06001277267932892,-0.021360021084547043,0.2019391506910324,1.319808006286621,-2.477626085281372,8.541836738586426,0.050545692443847656,0.18902111053466797,0.4560540020465851,-1.2745333909988403,0.005531395319849253,-0.9267948269844055,-0.02536812424659729,1.2268489599227905,0.01125352829694748,0.9164950251579285,-0.12951095402240753,-0.811589241027832,0.0024795911740511656,0.22716869413852692,1.28080415725708,-0.4273683726787567,-0.0026017038617283106,-0.5079346895217896,-0.07953765243291855,0.0864042118191719,0.8508812189102173,-0.4343773126602173,0.030210677534341812,0.27109983563423157,-0.015377850271761417,2.4766170978546143,-0.009544230997562408,-0.01691250689327717,0.6511096954345703,-4.05277156829834,0.33569052815437317,-0.003394071478396654,0.6475995182991028,-0.0025467537343502045,-1.689564824104309,1.1477866172790527,0.7329307794570923,-3.472646474838257,0.35055217146873474,0.5147770643234253,2.8804445266723633,-0.7208558917045593,-0.3257734775543213,-1.213754653930664,-1.2839233875274658,-0.30251383781433105,1741522750.9923494,1741522749933,2.914234619140625,2.134933837890625,-0.1640678749917929,0.198619873046875,3.430317626953125
1741522750.985478,2.5933616161346436,0.026878150118839584,-0.09253694472912811,-0.9953464115102778,-0.025978336110711098,-0.06460458040237427,0.4908042550086975,0.4149777591228485,1.7542155981063843,9.44333553314209,0.060845375061035156,0.18482494354248047,0.4968718886375427,-1.2707185745239258,0.005531395319849253,-0.9172579646110535,-0.07495994865894318,1.224560022354126,0.01125352829694748,0.9309910535812378,-0.14133669435977936,-0.8310444951057434,0.0394827201962471,0.248531311750412,1.19153892993927,-0.3989822268486023,-0.006886487361043692,-0.4533836841583252,-0.0875486359000206,0.08487831056118011,0.8180742859840393,-0.4579399824142456,0.024228962138295174,0.29899653792381287,-0.1318734586238861,1.7714537382125854,0.33882391452789307,0.00429688161239028,0.4020015001296997,-3.0133097171783447,-0.23667603731155396,0.009636767208576202,0.9747927188873291,-0.6606560349464417,-0.8738947510719299,1.9749231338500977,1.2086448669433594,-4.617115497589111,1.6227610111236572,-0.28600597381591797,2.613623857498169,-0.30553287267684937,-0.08646360784769058,-1.73187255859375,-1.2118098735809326,-0.09751095622777939,1741522750.9923494,1741522749933,2.914234619140625,2.134933837890625,-0.1640678749917929,0.198619873046875,3.430317626953125
1741522751.0055277,2.604859232902527,0.021292450016119367,-0.09028127407355552,-0.995688667769181,-0.15702465176582336,-0.22684630751609802,0.5894946455955505,-4.011627674102783,1.3177045583724976,8.903698921203613,0.061989784240722656,0.18520641326904297,0.5182345509529114,-1.2642335891723633,0.005531395319849253,-0.9119172692298889,-0.10090028494596481,1.222271203994751,0.01125352829694748,0.9462500810623169,-0.1646067053079605,-0.8249408602714539,0.0864042118191719,0.2801937758922577,1.0847257375717163,-0.3531776964664459,-0.010496302507817745,-0.4053177833557129,-0.086785688996315,0.086785688996315,0.7837415337562561,-0.480478972196579,0.02704601362347603,0.029812665656208992,-0.02059035748243332,0.9156525135040283,0.37483957409858704,0.0003531916590873152,0.23172253370285034,-1.5275768041610718,-0.05382370948791504,0.008545326068997383,1.002181053161621,-1.2465564012527466,0.5896111726760864,2.2714381217956543,1.711485505104065,-5.478174209594727,2.369492292404175,0.03329770267009735,2.6675028800964355,0.0880410224199295,0.21081186830997467,-1.611769676208496,-1.0739691257476807,0.15511836111545563,1741522750.9923494,1741522749933,2.914234619140625,2.134933837890625,-0.1640678749917929,0.198619873046875,3.430317626953125
1741522751.0255275,2.6176377534866333,0.02077840108573072,-0.08486138590218666,-0.996176090473507,-0.30250656604766846,0.016473839059472084,0.614998459815979,9.120102882385254,0.4100298583507538,5.485592365264893,0.06847476959228516,0.17795848846435547,0.5174715518951416,-1.2577484846115112,0.005531395319849253,-0.9103913903236389,-0.10509651154279709,1.223034143447876,0.01125352829694748,0.9580758213996887,-0.19054703414440155,-0.7967116832733154,0.1188296303153038,0.31681543588638306,0.959220290184021,-0.3051893413066864,0.0009747131261974573,-0.3416113555431366,-0.08106355369091034,0.09746700525283813,0.7475013136863708,-0.4973229467868805,0.023452170193195343,0.17693281173706055,-0.2024596631526947,-0.14424237608909607,0.4234226644039154,-0.003151697339490056,0.029174309223890305,-0.079116091132164,0.01453594770282507,-0.0036789567675441504,0.7910664677619934,-1.3269540071487427,1.3004562854766846,1.3847370147705078,1.8949109315872192,-6.454122066497803,2.3167788982391357,0.6062625646591187,3.067646026611328,0.3664073646068573,0.46859148144721985,-1.9554742574691772,-0.7867056131362915,-0.13059590756893158,1741522750.9923494,1741522749933,2.914234619140625,2.134933837890625,-0.1640678749917929,0.198619873046875,3.430317626953125
1741522751.0455716,2.629258155822754,0.014792588234725821,-0.0767177007784899,-0.9969431145860731,-0.4263131618499756,-0.15230394899845123,0.5908561944961548,4.634639263153076,4.029428482055664,4.240057945251465,0.07152652740478516,0.17376232147216797,0.5056458115577698,-1.2531707286834717,0.005531395319849253,-0.9119172692298889,-0.09174486994743347,1.223034143447876,0.01125352829694748,0.9657053351402283,-0.21038375794887543,-0.7639048099517822,0.13981078565120697,0.3545815348625183,0.8150225281715393,-0.2752140760421753,0.007813016884028912,-0.2733272314071655,-0.0722896158695221,0.10204470902681351,0.7166017889976501,-0.4994829595088959,0.030319320037961006,0.0866980329155922,-0.11644002795219421,-0.8111450672149658,0.2915128767490387,-0.007701020687818527,-0.10826348513364792,1.105763554573059,-0.004118740558624268,-0.011431984603404999,0.5205255150794983,-0.8616180419921875,1.9035747051239014,0.9199047684669495,1.694486141204834,-7.264916896820068,1.194283366203308,0.244042307138443,3.50911545753479,0.37599119544029236,0.2685111463069916,-1.2364956140518188,0.19708259403705597,0.5238741636276245,1741522751.0871167,1741522750013,2.838984619140625,2.164142578125,-0.14397653022949264,0.1289776611328125,3.385632080078125
1741522751.0660164,2.638067841529846,0.01006625634988263,-0.06767755910760824,-0.997656463155697,-0.468546599149704,-0.29184046387672424,0.4593830406665802,-0.10339298099279404,-1.7934236526489258,9.285560607910156,0.07381534576416016,0.16689586639404297,0.4728389382362366,-1.2512633800506592,0.005531395319849253,-0.9126802682876587,-0.06427863240242004,1.223034143447876,0.01125352829694748,0.967994213104248,-0.21801327168941498,-0.7234683632850647,0.1489662081003189,0.3732738196849823,0.6868467330932617,-0.27960526943206787,0.01585608907043934,-0.21839475631713867,-0.06694895774126053,0.11196307092905045,0.7116426229476929,-0.4862118363380432,0.04692680388689041,0.061404693871736526,-0.18174980580806732,-1.6921405792236328,0.0773705318570137,-0.0033569226507097483,-0.020734872668981552,1.9988481998443604,-0.0033613471314311028,0.0017887449357658625,0.07004626095294952,-0.39954203367233276,1.8047877550125122,0.21154657006263733,1.0388844013214111,-6.106740951538086,-0.4394303858280182,0.5604038238525391,2.381991147994995,0.37725844979286194,0.389995276927948,-0.060613974928855896,0.5593985915184021,0.617857038974762,1741522751.0871167,1741522750013,2.838984619140625,2.164142578125,-0.14397653022949264,0.1289776611328125,3.385632080078125
1741522751.0855887,2.6495819091796875,0.0005191030562549829,-0.05544293911928513,-0.9984617223678793,-0.5898398160934448,-0.43798360228538513,0.6052969694137573,-12.16677474975586,8.42085075378418,15.689295768737793,0.07038211822509766,0.17299938201904297,0.42591744661331177,-1.2478300333023071,0.005531395319849253,-0.9096284508705139,-0.02040894143283367,1.2241785526275635,0.01125352829694748,0.9634165167808533,-0.22487983107566833,-0.6940947771072388,0.13103684782981873,0.3881513774394989,0.6853207945823669,-0.2749040722846985,0.06113646551966667,-0.19283588230609894,-0.07343403995037079,0.12684062123298645,0.7555122971534729,-0.4767724871635437,0.05632089078426361,-0.12486773729324341,0.17579694092273712,-2.436793565750122,0.31015709042549133,0.011807744391262531,0.22609663009643555,3.0276834964752197,0.16953442990779877,-0.00011064382852055132,-0.35207507014274597,-0.2939804792404175,1.8745375871658325,-1.579845905303955,0.4702298939228058,1.605232834815979,0.3703000843524933,2.4874024391174316,1.0909178256988525,-0.3094801902770996,1.0152738094329834,2.63240909576416,0.483656108379364,0.3434423506259918,1741522751.0871167,1741522750013,2.838984619140625,2.164142578125,-0.14397653022949264,0.1289776611328125,3.385632080078125
1741522751.1056287,2.665029287338257,0.004819151452501245,-0.054872664621827744,-0.9984817306573908,0.004198546055704355,0.1284555345773697,0.7401659488677979,-6.930751800537109,-1.2513158321380615,8.921724319458008,0.08831119537353516,0.16804027557373047,0.34847790002822876,-1.2527892589569092,0.006294346414506435,-0.9107728600502014,0.03604944050312042,1.227230429649353,0.010872052982449532,0.9611276388168335,-0.21801327168941498,-0.6769283413887024,0.10624094307422638,0.3534370958805084,0.7234683632850647,-0.2865665853023529,0.09391758590936661,-0.2134355753660202,-0.06466010212898254,0.15468832850456238,0.8604180812835693,-0.4470062851905823,0.04758526384830475,0.563916802406311,-0.13435634970664978,-4.119368076324463,-0.5801424980163574,0.04917046055197716,-0.12787777185440063,3.872668981552124,0.09542872756719589,0.02237842231988907,-0.13900969922542572,0.28166213631629944,0.2553979158401489,-1.1801320314407349,-2.149735927581787,0.945875883102417,-0.771602213382721,1.3345168828964233,-1.604504942893982,0.6612666845321655,1.7006523609161377,5.83615255355835,1.6406638622283936,-0.6304309964179993,1741522751.0871167,1741522750013,2.838984619140625,2.164142578125,-0.14397653022949264,0.1289776611328125,3.385632080078125
1741522751.125682,2.6765583753585815,0.006973226850902084,-0.05880911167829758,-0.9982448910417199,0.27598416805267334,0.26689955592155457,0.5884039402008057,-10.390397071838379,4.139798164367676,11.680289268493652,0.08144474029541016,0.16231822967529297,0.2504386901855469,-1.2604187726974487,0.005149920005351305,-0.9157320261001587,0.09136339277029037,1.226467490196228,0.011635004542768002,0.9596017599105835,-0.22144655883312225,-0.6525139212608337,0.07610437273979187,0.31795987486839294,0.725375771522522,-0.29092922806739807,0.09085284918546677,-0.28591591119766235,-0.0398641936480999,0.20962081849575043,1.02216374874115,-0.40231797099113464,0.036422647535800934,-0.16575054824352264,-0.17391420900821686,-4.867782115936279,-0.3617081344127655,-0.032997723668813705,-0.19645504653453827,3.5886242389678955,-0.03851611539721489,0.01755450665950775,-0.09638261795043945,-0.05346966162323952,1.7629727125167847,-1.5890635251998901,-1.357226014137268,0.43002569675445557,0.09963560849428177,-0.2977391481399536,-4.070841312408447,1.3722840547561646,2.8597958087921143,8.618563652038574,2.2779688835144043,-0.5888471007347107,1741522751.0871167,1741522750013,2.838984619140625,2.164142578125,-0.14397653022949264,0.1289776611328125,3.385632080078125
1741522751.145699,2.675380229949951,0.007174448959285522,-0.07284633553787462,-0.9973173710914867,0.7070226669311523,-0.22929556667804718,-0.16108578443527222,-4.246480941772461,0.959621787071228,11.466202735900879,0.09365177154541016,0.18787670135498047,0.16193637251853943,-1.2661409378051758,0.005912871100008488,-0.9145876169204712,0.14286258816719055,1.2268489599227905,0.011635004542768002,0.9588387608528137,-0.22144655883312225,-0.6296253800392151,0.048638131469488144,0.29850462079048157,0.7223239541053772,-0.2863677442073822,0.08267045766115189,-0.3892957866191864,0.008964675478637218,0.2630273997783661,1.2148088216781616,-0.3586094379425049,0.01652362197637558,0.35818591713905334,0.9894816875457764,-4.2223076820373535,-0.4013608396053314,0.031613558530807495,0.07394658774137497,3.3543641567230225,0.028964944183826447,0.021962018683552742,-0.05810805410146713,-0.0029923005495220423,1.0004802942276,-1.3265588283538818,-0.8508599996566772,-0.26707562804222107,0.2196497917175293,-0.5423879623413086,-5.582984447479248,2.6014151573181152,2.4315247535705566,9.496480941772461,1.994066834449768,-1.3316386938095093,1741522751.0871167,1741522750013,2.838984619140625,2.164142578125,-0.14397653022949264,0.1289776611328125,3.385632080078125
1741522751.1656969,2.666384220123291,0.005037398659062838,-0.0863086207435631,-0.996255713459197,0.6625423431396484,-0.04491923004388809,-0.47401028871536255,0.5929633975028992,-2.6409847736358643,10.7765531539917,0.08792972564697266,0.18596935272216797,0.08411535620689392,-1.2669038772583008,0.005149920005351305,-0.9153505563735962,0.19283588230609894,1.2306636571884155,0.011635004542768002,0.9580758213996887,-0.21725031733512878,-0.5933852195739746,0.03452353551983833,0.2943083941936493,0.7234683632850647,-0.28049224615097046,0.06624678522348404,-0.501068115234375,0.06504157930612564,0.2782863974571228,1.3853284120559692,-0.35086795687675476,-0.01839062198996544,-0.1434270292520523,0.1502995640039444,-3.8504810333251953,-0.026426292955875397,0.007814588956534863,-0.10936643928289413,3.3909032344818115,0.3222183287143707,-0.002042802283540368,-0.06032586097717285,0.2652088701725006,1.9830305576324463,-0.5896584391593933,-0.20127901434898376,0.1006954163312912,0.2884144186973572,-0.7818231582641602,-5.592257976531982,2.837517023086548,0.38394296169281006,8.100932121276855,0.014426782727241516,-1.4053269624710083,1741522751.0871167,1741522750013,2.838984619140625,2.164142578125,-0.14397653022949264,0.1289776611328125,3.385632080078125
1741522751.1857173,2.6501959562301636,0.0030063678392286317,-0.09326824143042634,-0.9956364782855692,0.272951602935791,-0.26793965697288513,-0.8060823678970337,-1.3380206823349,-1.0986119508743286,12.176775932312012,0.08030033111572266,0.19398021697998047,0.01926451548933983,-1.2623261213302612,0.005149920005351305,-0.9180209040641785,0.24319066107273102,1.2386746406555176,0.011635004542768002,0.953498125076294,-0.20466163754463196,-0.5640115737915039,0.02193484455347061,0.28973066806793213,0.725375771522522,-0.2794834077358246,0.05116860941052437,-0.6166552305221558,0.10662241280078888,0.25539788603782654,1.491378664970398,-0.3855338394641876,-0.015720706433057785,-0.26515570282936096,0.3114704489707947,-2.9556407928466797,0.3731374740600586,0.004526184871792793,-0.16260837018489838,3.322246551513672,0.5861022472381592,0.010893591679632664,-0.38160303235054016,0.7425920963287354,1.3515132665634155,-0.6912322640419006,-0.39685773849487305,0.11274190992116928,-0.036988940089941025,-0.6720446944236755,-5.780545234680176,1.7580411434173584,-1.3106486797332764,4.795348644256592,-1.936801552772522,0.26816532015800476,1741522751.0871167,1741522750013,2.838984619140625,2.164142578125,-0.14397653022949264,0.1289776611328125,3.385632080078125
