Freshhhhh-LC/Legged_odom/data/5/segments/booster_seg_9.81s.csv
time,yaw,projected_gravity_x,projected_gravity_y,projected_gravity_z,ang_vel_x,ang_vel_y,ang_vel_z,lin_acc_x,lin_acc_y,lin_acc_z,q_0,q_1,q_2,q_3,q_4,q_5,q_6,q_7,q_8,q_9,q_10,q_11,q_12,q_13,q_14,q_15,q_16,q_17,q_18,q_19,q_20,q_21,q_22,dq_0,dq_1,dq_2,dq_3,dq_4,dq_5,dq_6,dq_7,dq_8,dq_9,dq_10,dq_11,dq_12,dq_13,dq_14,dq_15,dq_16,dq_17,dq_18,dq_19,dq_20,dq_21,dq_22,mocap_time,mocap_timestamp,robot_x,robot_y,robot_yaw,ball_x,ball_y
1741523069.999766,-0.09684646129608154,-0.01726657957533929,0.03358274617955115,-0.9992867778514876,0.24850359559059143,0.06186364218592644,-1.1055876016616821,15.028860092163086,15.904242515563965,8.689906120300293,-0.3789958953857422,0.19626903533935547,-0.10128175467252731,-1.2226526737213135,0.005149920005351305,-0.9653238654136658,0.464446485042572,1.2524077892303467,0.01125352829694748,0.9149690866470337,0.28400853276252747,-0.5365453362464905,0.13141833245754242,-0.1028076633810997,0.7547493577003479,-0.29741549491882324,-0.1279548853635788,-0.6628137826919556,-0.1676585078239441,-0.3740367889404297,0.8749141693115234,-0.40684252977371216,-0.02847263589501381,0.45302614569664,-0.28849560022354126,1.1106507778167725,0.5626020431518555,-0.0028734812512993813,-0.2799156606197357,0.12151322513818741,-0.049371641129255295,-0.0015675196191295981,-0.5294753313064575,1.3111889362335205,1.236405849456787,-0.4659101665019989,-0.7571142911911011,0.5060954093933105,-1.1829990148544312,0.04050397127866745,1.051913857460022,-0.8418903946876526,-3.4821741580963135,-2.942535638809204,2.9901747703552246,-2.168219566345215,1741523069.9692461,1741523068913,-0.9844296875,1.8464637451171875,-2.574384082757037,1.7710699462890624,1.0595635986328125
1741523070.0018704,-0.12141287326812744,-0.017098096533186904,0.03523817081158705,-0.9992326688078184,-0.15334966778755188,0.27644678950309753,-1.1826812028884888,4.054059982299805,5.656700134277344,5.9022536277771,-0.3770885467529297,0.19398021697998047,-0.06046387553215027,-1.215786099433899,0.005149920005351305,-0.9645609259605408,0.4491874575614929,1.2535521984100342,0.011635004542768002,0.9096284508705139,0.29850462079048157,-0.5029755234718323,0.12111848592758179,-0.1333257108926773,0.7494087219238281,-0.32703647017478943,-0.11238253861665726,-0.6063553690910339,-0.14858472347259521,-0.4194323718547821,0.8607995510101318,-0.37308424711227417,-0.04446788877248764,0.03533266484737396,-0.1293468326330185,2.1421804428100586,0.3979460597038269,-0.0026715195272117853,0.008286181837320328,-1.3429725170135498,0.26413384079933167,-0.0018979365704581141,-0.16915488243103027,0.7692533731460571,1.7560572624206543,-0.661213755607605,-1.6083835363388062,-0.324262410402298,-1.5275675058364868,1.3025405406951904,2.5756561756134033,0.8364261388778687,-1.3367066383361816,-1.5448671579360962,1.3378266096115112,0.004968699067831039,1741523069.9692461,1741523068913,-0.9844296875,1.8464637451171875,-2.574384082757037,1.7710699462890624,1.0595635986328125
1741523070.0039196,-0.26354408264160156,-0.05808705141002939,0.04280642890517268,-0.9973933547517123,-0.15714964270591736,-0.18905217945575714,-0.33784908056259155,-9.707475662231445,-6.252686977386475,12.270881652832031,-0.047875404357910156,0.18291759490966797,-0.043678950518369675,-1.2432523965835571,0.005531395319849253,-0.9287022352218628,0.26989394426345825,1.2619446516036987,0.011635004542768002,0.9496833682060242,-0.13942931592464447,-0.6452658772468567,0.19398032128810883,0.23670557141304016,0.9203097820281982,-0.41636306047439575,-0.01388982031494379,-0.7124055624008179,0.18596932291984558,0.13027389347553253,1.3654917478561401,-0.4732816219329834,0.006558133754879236,-0.29983314871788025,0.01743718609213829,-3.247319221496582,0.6498343348503113,-0.002673148177564144,-0.5428470373153687,4.552886486053467,0.3963575065135956,0.017725585028529167,-0.01476528774946928,0.6047573089599609,0.44391655921936035,0.2278904765844345,-0.12242162227630615,0.4485558271408081,-0.9079457521438599,-0.6527566909790039,-4.809529781341553,-0.835200309753418,-1.7434327602386475,-1.0945922136306763,-2.24403977394104,0.47834715247154236,1741523069.9692461,1741523068913,-0.9844296875,1.8464637451171875,-2.574384082757037,1.7710699462890624,1.0595635986328125
1741523070.0247777,-0.2662090063095093,-0.05047727862529582,0.044978508308217036,-0.9977118713000022,-0.09723689407110214,0.44303372502326965,-0.13001321256160736,-2.3376777172088623,0.3543146252632141,7.867672443389893,-0.050164222717285156,0.15583229064941406,-0.10090028494596481,-1.2356228828430176,0.005531395319849253,-0.9466315507888794,0.33360037207603455,1.2627075910568237,0.01125352829694748,0.9504463076591492,-0.13179980218410492,-0.6383993029594421,0.20389868319034576,0.23289081454277039,0.9401465058326721,-0.4364124834537506,-0.021351270377635956,-0.802815318107605,0.1653696447610855,0.10662241280078888,1.3166629076004028,-0.48862704634666443,0.0125769954174757,-0.06555835157632828,-0.65104079246521,-2.9222052097320557,0.45628294348716736,0.006183430086821318,-0.8904239535331726,4.273332118988037,-0.01014543604105711,-0.015657691285014153,0.05945027247071266,0.36048728227615356,0.04999550059437752,0.6428256034851074,-0.09921117126941681,0.9686086773872375,-1.0708612203598022,-0.443412184715271,-4.470560550689697,-0.9739295244216919,-1.0213267803192139,-2.5874650478363037,-0.4375220835208893,0.2859834134578705,1741523070.0716968,1741523069013,-0.9057255859375,1.804988525390625,-2.550033922428416,1.8441741943359375,1.0240751953125
1741523070.0423987,-0.26452744007110596,-0.036456807985003704,0.04571000952176301,-0.9982892848173144,-0.044852279126644135,0.6891348958015442,0.1468152105808258,0.17181068658828735,0.14805826544761658,8.307900428771973,-0.053215980529785156,0.14820289611816406,-0.14286258816719055,-1.2283748388290405,0.005531395319849253,-0.962272047996521,0.3850995600223541,1.2600373029708862,0.01125352829694748,0.9500648379325867,-0.12111848592758179,-0.6387808322906494,0.22030213475227356,0.2302204966545105,0.9641794562339783,-0.45470917224884033,-0.03238781914114952,-0.8783474564552307,0.14744029939174652,0.09479667246341705,1.2399863004684448,-0.4660305082798004,0.015426615253090858,-0.11421272158622742,-0.18192557990550995,-1.9697792530059814,0.465706467628479,-0.006375120487064123,-0.7540560960769653,3.311522960662842,-0.10950657725334167,0.01790717989206314,-0.025353029370307922,0.544617772102356,0.023080363869667053,0.6539559364318848,-0.14915159344673157,1.255155324935913,-0.877397894859314,-0.5033280849456787,-3.5652015209198,-0.9898576140403748,-0.4020554721355438,-4.247560024261475,1.383796215057373,0.0684291273355484,1741523070.0716968,1741523069013,-0.9057255859375,1.804988525390625,-2.550033922428416,1.8441741943359375,1.0240751953125
1741523070.062359,-0.25872790813446045,-0.02236102210171542,0.045715236125477114,-0.9987042114042368,0.019384777173399925,0.7122403979301453,0.27698782086372375,2.3550570011138916,1.196746587753296,9.718320846557617,-0.057412147521972656,0.14972877502441406,-0.16117341816425323,-1.224560022354126,0.005149920005351305,-0.9718089699745178,0.42629891633987427,1.2627075910568237,0.012397955171763897,0.9458686113357544,-0.09708552807569504,-0.6353475451469421,0.22716869413852692,0.2130540907382965,0.9885938763618469,-0.4737796187400818,-0.04908980056643486,-0.9103913903236389,0.11272602528333664,0.09060044586658478,1.128213882446289,-0.4249046742916107,0.007430665194988251,-0.1402067095041275,0.022393662482500076,-0.7280493974685669,0.25939834117889404,-0.0018660586792975664,-0.4817480146884918,2.8073060512542725,0.159136101603508,0.08691585063934326,-0.3890734314918518,1.340446949005127,0.23660586774349213,0.0982063040137291,-1.0377517938613892,1.2032562494277954,-0.9433044791221619,-0.7883557081222534,-1.2089399099349976,-1.8249422311782837,-0.3572606146335602,-6.017071723937988,2.1004045009613037,-0.34592464566230774,1741523070.0716968,1741523069013,-0.9057255859375,1.804988525390625,-2.550033922428416,1.8441741943359375,1.0240751953125
1741523070.0823352,-0.26161742210388184,-0.014747741563484134,0.04585054292217193,-0.9988394424693684,-0.00910203903913498,0.2979312241077423,-0.20785433053970337,1.2815067768096924,0.5594745874404907,9.892778396606445,-0.055886268615722656,0.16269969940185547,-0.14858472347259521,-1.219982385635376,0.005149920005351305,-0.9744792580604553,0.4663538634777069,1.2623261213302612,0.011635004542768002,0.9325169920921326,-0.04940108209848404,-0.6280995011329651,0.21114671230316162,0.19283588230609894,1.0076676607131958,-0.49595579504966736,-0.062967948615551,-0.8909361362457275,0.06885633617639542,0.06656748056411743,0.9657053351402283,-0.3897096812725067,-0.003713165409862995,0.05464959889650345,0.4049544632434845,0.9041266441345215,0.2879461944103241,0.00455537298694253,-0.04303613305091858,2.3904566764831543,-0.16624698042869568,-0.04112572968006134,-0.7660401463508606,2.469409942626953,0.43237701058387756,-0.9965562224388123,-1.021415114402771,0.8873419761657715,-1.1306060552597046,-0.5065264105796814,1.330291509628296,-2.4136581420898438,-1.2251454591751099,-8.333702087402344,1.629048228263855,-0.5205504894256592,1741523070.0716968,1741523069013,-0.9057255859375,1.804988525390625,-2.550033922428416,1.8441741943359375,1.0240751953125
1741523070.1024148,-0.26938748359680176,-0.0191224929265624,0.04702273243737278,-0.9987107653862537,-0.09575937688350677,-0.432407945394516,-0.44356897473335266,-10.776662826538086,-6.752636909484863,17.379045486450195,-0.057030677795410156,0.20389842987060547,-0.11005569249391556,-1.2180750370025635,0.005531395319849253,-0.9710460305213928,0.4808499217033386,1.2539336681365967,0.011635004542768002,0.9172579646110535,0.0009536888683214784,-0.6010147333145142,0.18711376190185547,0.15430685877799988,1.02216374874115,-0.5145899057388306,-0.05366607382893562,-0.8493552803993225,0.02994582988321781,0.010109102353453636,0.8871213793754578,-0.3268585503101349,0.027110131457448006,-0.011532299220561981,1.3750146627426147,2.033461809158325,0.06963600963354111,-0.007196973077952862,0.1704162061214447,0.8117683529853821,-0.612752377986908,0.0013361830497160554,-1.2024595737457275,2.4449102878570557,1.4722323417663574,-0.3582790791988373,-2.482454538345337,0.4142323136329651,-0.9224040508270264,0.7507551908493042,2.4663400650024414,-1.4071934223175049,-3.424637794494629,-1.206172227859497,3.5892579555511475,1.7861411571502686,1741523070.0716968,1741523069013,-0.9057255859375,1.804988525390625,-2.550033922428416,1.8441741943359375,1.0240751953125
1741523070.1224177,-0.287821888923645,-0.02227960568143364,0.05404133974403293,-0.9982901145305155,-0.3764968812465668,-0.026652831584215164,-0.8710443377494812,2.9270403385162354,4.404051303863525,4.0935750007629395,-0.06961917877197266,0.20122814178466797,-0.04940108209848404,-1.219982385635376,0.004386968910694122,-0.9683756828308105,0.4648279547691345,1.2501189708709717,0.011635004542768002,0.9069581031799316,0.020027466118335724,-0.5537117719650269,0.16193637251853943,0.11768520623445511,1.0072861909866333,-0.5396098494529724,-0.013850235380232334,-0.7799267768859863,0.02994582988321781,-0.005912871100008488,0.8787289261817932,-0.2723177969455719,0.053650498390197754,-0.41270408034324646,0.13329556584358215,3.1729910373687744,-0.13688740134239197,-0.0035425720270723104,0.12257356941699982,-1.4481059312820435,-0.24194546043872833,0.0008167360792867839,-0.4717113673686981,0.8717450499534607,2.5529589653015137,-1.264212965965271,-1.7786931991577148,-0.7964140772819519,-1.214059591293335,2.1272995471954346,2.947124719619751,-0.23877298831939697,-0.022319607436656952,-1.4253724813461304,2.292257308959961,0.8785428404808044,1741523070.1724129,1741523069113,-0.8167146606445312,1.7568258056640624,-2.6323970992528456,1.9133897705078124,0.9906729125976562
1741523070.1424198,-0.3019075393676758,-0.03208193931478483,0.05897847982693348,-0.997743598369394,-0.18897868692874908,-0.5395634174346924,-0.8372634053230286,-3.8147408962249756,2.0640814304351807,14.106593132019043,-0.058938026428222656,0.21648693084716797,0.02689402550458908,-1.229519248008728,0.005912871100008488,-0.9584572911262512,0.4339284300804138,1.2478300333023071,0.01201647985726595,0.9031433463096619,0.018501564860343933,-0.5041199326515198,0.1340886503458023,0.0879301130771637,1.0049973726272583,-0.5536147952079773,0.0034540423657745123,-0.7200350761413574,0.03376058489084244,0.02841992862522602,0.8375295400619507,-0.24717865884304047,0.0338209792971611,0.2406804859638214,0.45525550842285156,3.8369204998016357,-0.8778234720230103,-0.0757722556591034,0.48228609561920166,-1.932724952697754,-0.27352380752563477,-0.0037667430005967617,-0.2610805630683899,-0.3412059545516968,2.3843319416046143,-1.277673363685608,-1.47642183303833,0.21682320535182953,-0.417975515127182,0.1685670167207718,3.2471652030944824,0.6352424025535583,1.436887264251709,-1.4226864576339722,1.125733494758606,-1.311581015586853,1741523070.1724129,1741523069113,-0.8167146606445312,1.7568258056640624,-2.6323970992528456,1.9133897705078124,0.9906729125976562
1741523070.1625054,-0.30871331691741943,-0.03575306061294227,0.057752967902782684,-0.9976904897588368,0.041339412331581116,-0.20841211080551147,-0.13681204617023468,-0.2644905149936676,-2.3176064491271973,4.079768180847168,-0.059319496154785156,0.21457958221435547,0.1028076633810997,-1.2520263195037842,0.007057297509163618,-0.9515907764434814,0.3915846347808838,1.2409635782241821,0.008964675478637218,0.9035248160362244,-0.01201647985726595,-0.47817960381507874,0.11310750246047974,0.08106355369091034,1.0496299266815186,-0.5275988578796387,-0.01898064836859703,-0.6620507836341858,0.06618601083755493,0.0558861680328846,0.8295185565948486,-0.24596719443798065,0.008066123351454735,-0.00799824669957161,-0.058876778930425644,3.637040138244629,-1.4299371242523193,0.15511676669120789,0.29727816581726074,-2.8348007202148438,-0.5000832676887512,-0.15877975523471832,-0.05442805960774422,-1.622525930404663,0.6156011819839478,-1.1796278953552246,0.00399065064266324,2.613633155822754,1.5224497318267822,-0.8215906620025635,2.506378412246704,1.3401914834976196,1.6616287231445312,-0.592409610748291,-0.22192606329917908,-0.8326765894889832,1741523070.1724129,1741523069113,-0.8167146606445312,1.7568258056640624,-2.6323970992528456,1.9133897705078124,0.9906729125976562
1741523070.1825352,-0.2984952926635742,-0.04247628347470156,0.05690299744084558,-0.9974757211202806,0.09233328700065613,-0.23891156911849976,0.6153820753097534,-6.7571024894714355,1.410109043121338,12.634927749633789,-0.07228946685791016,0.22602462768554688,0.16308079659938812,-1.2661409378051758,0.005531395319849253,-0.9470130205154419,0.35038527846336365,1.231808066368103,0.009727626107633114,0.9039062857627869,-0.04940108209848404,-0.5117494463920593,0.08945601433515549,0.1028076633810997,1.1446174383163452,-0.4847021698951721,-0.016324395313858986,-0.6288624405860901,0.08449683338403702,0.08411535620689392,0.8199816942214966,-0.2647431492805481,0.003112001111730933,-0.4028201699256897,0.2226928323507309,2.8331708908081055,-0.9132640957832336,0.003648211481049657,0.23131248354911804,-2.962073802947998,-0.588476300239563,-0.00794783141463995,0.07268176972866058,-1.8727084398269653,-1.9994049072265625,-1.1316407918930054,1.1786342859268188,5.0616068840026855,2.170524835586548,0.26358917355537415,1.7996026277542114,0.930996835231781,1.0558619499206543,-0.19958533346652985,-0.9824150800704956,-0.336442232131958,1741523070.1724129,1741523069113,-0.8167146606445312,1.7568258056640624,-2.6323970992528456,1.9133897705078124,0.9906729125976562
1741523070.2025974,-0.2773580551147461,-0.03597736867365785,0.05500048870053956,-0.9978379503636958,0.12747643887996674,0.24754959344863892,1.134168267250061,1.9045835733413696,-3.225207567214966,10.960062026977539,-0.06733036041259766,0.23098373413085938,0.2157244235277176,-1.2772036790847778,0.005531395319849253,-0.9451056718826294,0.291638046503067,1.224941611289978,0.010490577667951584,0.9061951637268066,-0.08258945494890213,-0.5849927663803101,0.07763027399778366,0.1203555315732956,1.272793173789978,-0.4456932246685028,-0.0007830142858438194,-0.5971999764442444,0.09288929402828217,0.10090028494596481,0.8180742859840393,-0.2918965816497803,-0.005873540416359901,0.10675892978906631,0.1782025247812271,2.6634929180145264,-0.6268281936645508,-0.005692759994417429,0.04587840661406517,-3.971001148223877,-0.46564504504203796,0.052309855818748474,0.08885353058576584,-1.5966717004776,-4.014153957366943,-0.5439907312393188,0.7789219617843628,6.240675926208496,1.8077211380004883,0.902260959148407,1.3382495641708374,0.32024717330932617,0.7612590789794922,-0.23135730624198914,-1.3572251796722412,-0.3733329176902771,1741523070.1724129,1741523069113,-0.8167146606445312,1.7568258056640624,-2.6323970992528456,1.9133897705078124,0.9906729125976562
1741523070.2225845,-0.25251758098602295,-0.031535987590526324,0.056464042276068806,-0.9979064552434443,-0.059995923191308975,0.20811329782009125,1.2205915451049805,-0.11479446291923523,-2.4319558143615723,9.993797302246094,-0.06809329986572266,0.22869491577148438,0.27065691351890564,-1.2787295579910278,0.005531395319849253,-0.9473945498466492,0.22678720951080322,1.222271203994751,0.010872052982449532,0.9081025123596191,-0.1035706102848053,-0.6742580533027649,0.051689937710762024,0.1337071806192398,1.3776988983154297,-0.42841243743896484,0.006113193929195404,-0.570496678352356,0.09594109654426575,0.1028076633810997,0.8096818327903748,-0.32301753759384155,-0.010669171810150146,0.005050146486610174,-0.06185314804315567,2.633899688720703,-0.11315557360649109,-0.017238423228263855,-0.1403990238904953,-4.407265663146973,-0.0714070051908493,0.017237013205885887,0.14924059808254242,-0.7640605568885803,-4.567638397216797,-1.3633646965026855,0.7940861582756042,4.847606658935547,0.7153032422065735,0.040167879313230515,1.59714937210083,0.03488396853208542,0.047773394733667374,-0.4174270033836365,-1.6306390762329102,-0.09461513161659241,1741523070.1724129,1741523069113,-0.8167146606445312,1.7568258056640624,-2.6323970992528456,1.9133897705078124,0.9906729125976562
1741523070.2425475,-0.23104119300842285,-0.023502666643267993,0.0604716760603634,-0.997893181184793,-0.16249649226665497,0.31059861183166504,0.9244272112846375,3.8824479579925537,0.16346187889575958,8.559574127197266,-0.06389713287353516,0.22983932495117188,0.32520791888237,-1.2752963304519653,0.005149920005351305,-0.9477760195732117,0.15583276748657227,1.223797082901001,0.010490577667951584,0.9103913903236389,-0.10013733059167862,-0.7532234787940979,0.029564354568719864,0.14019227027893066,1.4295796155929565,-0.42747730016708374,-0.0005700548063032329,-0.5331120491027832,0.09288929402828217,0.10166323184967041,0.7997635006904602,-0.35586726665496826,-0.012972107157111168,0.11711572110652924,0.03133556619286537,2.6328701972961426,0.25212886929512024,-0.019491130486130714,0.010994498617947102,-4.668074131011963,0.058500293642282486,-0.007678666617721319,0.1297484040260315,0.03629256784915924,-3.948965549468994,-1.0253528356552124,0.1585373878479004,2.1371443271636963,-0.04434258118271828,-0.1876019984483719,1.8222804069519043,-0.18575255572795868,-0.09599488228559494,-0.6027987599372864,-1.6997435092926025,-0.2568683922290802,1741523070.1724129,1741523069113,-0.8167146606445312,1.7568258056640624,-2.6323970992528456,1.9133897705078124,0.9906729125976562
1741523070.262619,-0.22651851177215576,-0.020648541118670476,0.06412519773696705,-0.9977282178854447,-0.1996290534734726,0.15498623251914978,0.17069292068481445,-0.6600717902183533,1.3528172969818115,6.892148971557617,-0.055123329162597656,0.23670578002929688,0.3736552894115448,-1.2703371047973633,0.005531395319849253,-0.9473945498466492,0.086785688996315,1.2234156131744385,0.01201647985726595,0.9126802682876587,-0.08983749151229858,-0.8199816942214966,0.021553369238972664,0.14019227027893066,1.426146388053894,-0.4288400113582611,0.0026330528780817986,-0.4980163276195526,0.09365224838256836,0.09822995215654373,0.7879377603530884,-0.3908943235874176,-0.012559301219880581,0.2666161358356476,0.2325887829065323,2.4050514698028564,0.35954806208610535,0.016151294112205505,0.036972593516111374,-4.599383354187012,0.006750582717359066,0.049997441470623016,0.1888515055179596,0.676220715045929,-3.1949188709259033,-0.28300487995147705,0.01620054431259632,-0.5474045276641846,-0.01249329186975956,0.08791974186897278,1.837725281715393,0.034894224256277084,-0.10616058111190796,-0.5612369179725647,-1.75325345993042,0.03571751341223717,1741523070.1724129,1741523069113,-0.8167146606445312,1.7568258056640624,-2.6323970992528456,1.9133897705078124,0.9906729125976562
1741523070.2827814,-0.23450827598571777,-0.01539999929463972,0.06817455102870401,-0.9975545451822471,-0.18835093080997467,0.29466181993484497,-0.4637184739112854,2.1052770614624023,0.376252681016922,6.99287748336792,-0.049782752990722656,0.23403549194335938,0.4243915379047394,-1.2691926956176758,0.005531395319849253,-0.9447242021560669,0.02193484455347061,1.2306636571884155,0.010872052982449532,0.918402373790741,-0.07343403995037079,-0.8703364729881287,0.02880140393972397,0.1348516047000885,1.3841840028762817,-0.4226083755493164,-0.002178877592086792,-0.45834288001060486,0.09517814964056015,0.09670405089855194,0.7753490209579468,-0.4254796504974365,-0.011764404363930225,0.17100878059864044,-0.027125241234898567,2.825014591217041,-0.0004353842814452946,-0.013392308726906776,0.23427684605121613,-4.323957443237305,0.5983832478523254,-0.040753696113824844,0.39552170038223267,0.7735515832901001,-2.4298360347747803,0.49700140953063965,-0.37225428223609924,-2.2844724655151367,0.3467073142528534,-0.21055302023887634,1.918563723564148,0.12286491692066193,-0.14491824805736542,-0.637834906578064,-1.6390092372894287,0.14131507277488708,1741523070.3877792,1741523069213,-0.7395518798828126,1.7330307617187501,-2.5935165387950065,1.9823854980468751,0.9626199951171875
1741523070.3026855,-0.23935019969940186,-0.011779651481857067,0.06797860344063514,-0.9976172358601403,0.017425213009119034,0.16934773325920105,-0.17191016674041748,1.5230532884597778,-1.7861384153366089,7.647329330444336,-0.046730995178222656,0.23174667358398438,0.47474631667137146,-1.2669038772583008,0.005531395319849253,-0.9382390975952148,-0.040627144277095795,1.2402005195617676,0.011635004542768002,0.9294651746749878,-0.07343403995037079,-0.9084840416908264,0.05092698708176613,0.12493324279785156,1.3170443773269653,-0.4043121337890625,-0.006790362298488617,-0.43125811219215393,0.09594109654426575,0.0871671661734581,0.763523280620575,-0.45644375681877136,-0.017873188480734825,0.0929727628827095,-0.047203429043293,2.226701021194458,0.2597619295120239,-0.005554147530347109,0.32172664999961853,-4.061269283294678,0.5094900727272034,-0.006791071500629187,0.8743215203285217,-0.12788766622543335,-1.7331898212432861,1.2156928777694702,-0.5706603527069092,-3.566617488861084,1.0045636892318726,-0.1934540569782257,1.2348132133483887,-0.05515862628817558,-0.5680445432662964,-0.5924219489097595,-1.5317379236221313,-0.43187272548675537,1741523070.3877792,1741523069213,-0.7395518798828126,1.7330307617187501,-2.5935165387950065,1.9823854980468751,0.9626199951171875
1741523070.3227036,-0.23720526695251465,-0.00900762826538139,0.07048396499188858,-0.9974722418754594,-0.130660280585289,0.13558797538280487,0.14967210590839386,1.7793140411376953,1.2210992574691772,8.122368812561035,-0.051308631896972656,0.23098373413085938,0.49496451020240784,-1.2608002424240112,0.005531395319849253,-0.9317540526390076,-0.0871671661734581,1.23600435256958,0.01125352829694748,0.9443427324295044,-0.0875486359000206,-0.9275577664375305,0.08297093212604523,0.1192111074924469,1.2319753170013428,-0.37430667877197266,-0.0032741797622293234,-0.4007400572299957,0.08907453715801239,0.07953765243291855,0.7524605393409729,-0.4829826056957245,-0.02112738788127899,-0.11214583367109299,-0.015027279034256935,0.8512176871299744,0.3671635091304779,0.01253512967377901,0.3382653594017029,-2.7439420223236084,-0.34468790888786316,-0.02102101780474186,0.9897350668907166,-0.7238837480545044,-0.7846421599388123,1.645457148551941,-0.2700038552284241,-4.4765753746032715,1.5381087064743042,0.23812612891197205,1.748924970626831,-0.32893797755241394,-0.43666884303092957,-0.5117113590240479,-1.2517035007476807,-0.048849593847990036,1741523070.3877792,1741523069213,-0.7395518798828126,1.7330307617187501,-2.5935165387950065,1.9823854980468751,0.9626199951171875
1741523070.3426764,-0.23037207126617432,-0.006051273406640695,0.07165948193107924,-0.997410798387268,-0.05217110365629196,0.12988623976707458,0.3597826361656189,0.6873432993888855,-0.9856731295585632,8.492277145385742,-0.050545692443847656,0.22983932495117188,0.50030517578125,-1.2577484846115112,0.005531395319849253,-0.925650417804718,-0.10585946589708328,1.2314265966415405,0.010872052982449532,0.9565499424934387,-0.09975585341453552,-0.916113555431366,0.11501488089561462,0.12302586436271667,1.1316472291946411,-0.34084975719451904,-0.00016549228166695684,-0.36449989676475525,0.0883115902543068,0.06733043491840363,0.7368200421333313,-0.5036931037902832,-0.0159186702221632,0.020810311660170555,-0.031197838485240936,0.09929689019918442,0.20192772150039673,0.005205492023378611,0.289490282535553,-1.001490592956543,-0.2557889521121979,0.010531355626881123,0.7871339321136475,-0.5195627212524414,0.8380599617958069,1.5294984579086304,0.2855243384838104,-5.219265460968018,1.662134051322937,0.18361712992191315,1.9022870063781738,0.04783589020371437,-0.6145260334014893,-0.724962592124939,-1.002562165260315,0.3103019595146179,1741523070.3877792,1741523069213,-0.7395518798828126,1.7330307617187501,-2.5935165387950065,1.9823854980468751,0.9626199951171875
1741523070.3628585,-0.22031831741333008,-0.002211397341166386,0.07549065928741859,-0.9971440568353954,-0.20831294357776642,0.04397767409682274,0.4982222318649292,2.5184621810913086,4.193614959716797,5.902956008911133,-0.051308631896972656,0.22068405151367188,0.4861905872821808,-1.2527892589569092,0.005531395319849253,-0.9203097820281982,-0.1035706102848053,1.230282187461853,0.01125352829694748,0.9645609259605408,-0.10700388997793198,-0.8958953022956848,0.134470134973526,0.14667734503746033,1.0076676607131958,-0.32278740406036377,0.005280636716634035,-0.31490805745124817,0.09250781685113907,0.06618601083755493,0.7207980751991272,-0.5195084810256958,-0.018671510741114616,-0.010803495533764362,-0.2670156955718994,-0.7427269816398621,0.33317190408706665,-0.006864033639431,0.2533341646194458,0.3538094758987427,-0.02807273156940937,0.019561022520065308,0.44881582260131836,-0.29316022992134094,1.1253739595413208,0.7356919646263123,1.1928032636642456,-6.16955041885376,0.712988018989563,0.29677969217300415,2.467984437942505,0.22885994613170624,0.026135634630918503,-0.860267162322998,-0.6970282793045044,-0.2218458205461502,1741523070.3877792,1741523069213,-0.7395518798828126,1.7330307617187501,-2.5935165387950065,1.9823854980468751,0.9626199951171875
1741523070.3827484,-0.2096085548400879,-0.003937434009977545,0.07959787720288068,-0.9968192787853835,-0.20008602738380432,-0.12801046669483185,0.5285137295722961,-0.981164276599884,3.877823829650879,8.077022552490234,-0.052834510803222656,0.22297286987304688,0.46139466762542725,-1.2497375011444092,0.005531395319849253,-0.9203097820281982,-0.07991912961006165,1.230282187461853,0.010872052982449532,0.9676127433776855,-0.09784847497940063,-0.8588922023773193,0.15354390442371368,0.17299915850162506,0.890554666519165,-0.33106961846351624,0.007468723226338625,-0.2504386901855469,0.10013733059167862,0.06198977679014206,0.697528064250946,-0.5132657289505005,-0.008648443967103958,-0.0374724306166172,-0.015365004539489746,-1.2958914041519165,0.229346364736557,-0.007046262267976999,-0.03191925585269928,1.764899730682373,-0.002448087325319648,0.004055938683450222,0.12084294855594635,0.5429788827896118,1.8829538822174072,0.8525570631027222,1.206613540649414,-5.60433292388916,-0.6397130489349365,0.10647976398468018,3.284160852432251,0.31934142112731934,-0.3439241051673889,-1.1133575439453125,0.4475054442882538,0.5408724546432495,1741523070.3877792,1741523069213,-0.7395518798828126,1.7330307617187501,-2.5935165387950065,1.9823854980468751,0.9626199951171875
1741523070.4030797,-0.20128905773162842,-0.008048859128961102,0.08335074913823126,-0.9964877663498021,-0.23718100786209106,-0.24905335903167725,0.3963984251022339,0.42057472467422485,-1.8181047439575195,11.254680633544922,-0.052834510803222656,0.22411727905273438,0.4228656589984894,-1.2489745616912842,0.005531395319849253,-0.9237430095672607,-0.043678950518369675,1.2299007177352905,0.01125352829694748,0.9653238654136658,-0.07801175117492676,-0.8199816942214966,0.16193637251853943,0.1844434291124344,0.802815318107605,-0.36331209540367126,0.010585530661046505,-0.2004653960466385,0.11768520623445511,0.039101243019104004,0.7013428211212158,-0.4993565082550049,-0.03988025709986687,-0.005645730532705784,0.045486968010663986,-1.9926190376281738,0.012802756391465664,-0.014212188310921192,-0.2035452127456665,2.5068883895874023,-0.03386145457625389,0.011052845045924187,-0.16422870755195618,0.9501391053199768,1.7762022018432617,0.34657081961631775,0.2696918249130249,-3.8196842670440674,-1.3372337818145752,0.1685934066772461,2.196667194366455,0.7244883179664612,-1.1797925233840942,0.6334353089332581,0.5954164862632751,-1.4243100881576538,1741523070.3877792,1741523069213,-0.7395518798828126,1.7330307617187501,-2.5935165387950065,1.9823854980468751,0.9626199951171875
1741523070.4230993,-0.19909393787384033,-0.013334736821962413,0.09401261329797331,-0.9954816991460841,-0.44233959913253784,-0.17744851112365723,0.11750660091638565,-11.297693252563477,9.36318588256836,14.049873352050781,-0.061226844787597656,0.22297286987304688,0.3763256371021271,-1.2447782754898071,0.005531395319849253,-0.9206912517547607,0.000572213320992887,1.235241413116455,0.01125352829694748,0.959220290184021,-0.04711223021149635,-0.7967116832733154,0.14782176911830902,0.16079194843769073,0.8531700372695923,-0.3611997663974762,0.02108774706721306,-0.19130998849868774,0.11348897218704224,0.02079041674733162,0.7665750980377197,-0.4893990755081177,-0.05640823394060135,-0.29322710633277893,-0.021969985216856003,-2.4085354804992676,0.3128620386123657,0.026442231610417366,0.18471659719944,2.964012861251831,0.5466089248657227,0.022903818637132645,-0.3636772930622101,1.9114183187484741,1.1996479034423828,-0.9270186424255371,-1.2710801362991333,2.891453266143799,-0.18432220816612244,0.534382164478302,0.012635602615773678,-0.08687485009431839,-0.868096649646759,3.4326367378234863,0.6517955660820007,-0.7219606041908264,1741523070.3877792,1741523069213,-0.7395518798828126,1.7330307617187501,-2.5935165387950065,1.9823854980468751,0.9626199951171875
1741523070.4430873,-0.20470976829528809,-0.01267096484987362,0.09470369317025888,-0.995424862633884,-0.0981244370341301,-0.08790884912014008,-0.40289583802223206,-4.8404388427734375,-4.479127883911133,13.371315002441406,-0.042534828186035156,0.21915817260742188,0.30498969554901123,-1.2508819103240967,0.005912871100008488,-0.9237430095672607,0.048256658017635345,1.2428709268569946,0.01201647985726595,0.9580758213996887,-0.01506828423589468,-0.7932783961296082,0.14667734503746033,0.12378881871700287,0.8764400482177734,-0.3818909525871277,0.01764070615172386,-0.23670557141304016,0.12073700875043869,0.009727626107633114,0.8871213793754578,-0.45163801312446594,-0.0623144693672657,0.46913018822669983,0.018616998568177223,-3.6169025897979736,-0.5015788078308105,0.013857738114893436,-0.24474364519119263,3.0602593421936035,0.39377880096435547,0.06176494434475899,-0.11773114651441574,1.5968142747879028,0.53992760181427,0.1759743094444275,-1.7174596786499023,0.8217078447341919,-0.9777782559394836,-0.45304349064826965,-2.678530693054199,0.290618360042572,-0.24580159783363342,6.290658473968506,1.9689913988113403,-0.15521711111068726,1741523070.4910066,1741523069313,-0.647158935546875,1.7134136962890625,-2.510686759871063,2.049090576171875,0.9349495849609375
1741523070.4631274,-0.21795809268951416,-0.01074585870617126,0.09553567489127543,-0.9953680029736416,0.020231477916240692,0.21074102818965912,-0.7890508770942688,-5.34124231338501,0.286013662815094,15.974535942077637,-0.053978919982910156,0.20580577850341797,0.22449836134910583,-1.2516448497772217,0.005149920005351305,-0.924124538898468,0.09555962681770325,1.2497375011444092,0.01125352829694748,0.9565499424934387,-0.0020981156267225742,-0.7665750980377197,0.13103684782981873,0.11272602528333664,0.8848325610160828,-0.38458847999572754,0.011755811050534248,-0.3233005404472351,0.12569619715213776,0.02727550081908703,1.0515373945236206,-0.40668797492980957,-0.06396074593067169,-0.23949363827705383,-0.32738563418388367,-3.9910261631011963,-0.00498583260923624,-0.0014381383080035448,0.015046359971165657,3.1763432025909424,0.5183539390563965,-0.010022934526205063,-0.1153007373213768,0.45437684655189514,1.3131338357925415,-0.5566602945327759,-0.35339075326919556,0.3827170729637146,-0.042925696820020676,-0.1613311916589737,-4.7060160636901855,0.2887156307697296,0.7804397344589233,8.508330345153809,2.1134579181671143,0.3191632628440857,1741523070.4910066,1741523069313,-0.647158935546875,1.7134136962890625,-2.510686759871063,2.049090576171875,0.9349495849609375
1741523070.483087,-0.2386265993118286,-0.010600595560554557,0.08500227991493804,-0.9963243647442453,0.5260205864906311,0.09681909531354904,-1.047993540763855,1.4928596019744873,-2.9426698684692383,11.96522045135498,-0.041771888732910156,0.21038341522216797,0.14858472347259521,-1.2520263195037842,0.005531395319849253,-0.9218356609344482,0.14858472347259521,1.2520263195037842,0.011635004542768002,0.954261064529419,-0.00476844422519207,-0.7368200421333313,0.13942931592464447,0.11539635062217712,0.8871213793754578,-0.3859037458896637,0.010476767085492611,-0.4365987777709961,0.1329442262649536,0.029564354568719864,1.205653429031372,-0.3864313066005707,-0.00910166185349226,0.3519708216190338,0.011674214154481888,-3.7584660053253174,-0.060304563492536545,-0.015611132606863976,0.00948571227490902,3.531769275665283,0.00818033330142498,0.010279703885316849,-0.2073613852262497,-0.17249524593353271,1.7022714614868164,0.37629708647727966,0.22128093242645264,0.18085235357284546,-0.06408219039440155,-0.15087835490703583,-5.649999618530273,0.4044977128505707,0.018739288672804832,7.334695816040039,0.7747974395751953,2.7445297241210938,1741523070.4910066,1741523069313,-0.647158935546875,1.7134136962890625,-2.510686759871063,2.049090576171875,0.9349495849609375
1741523070.5031686,-0.26006054878234863,-0.010691511705606803,0.07647801149525683,-0.9970139444035777,0.3644035756587982,0.037874363362789154,-0.9836990833282471,1.8897579908370972,-4.291007041931152,9.123221397399902,-0.057412147521972656,0.21572399139404297,0.07534141838550568,-1.2493560314178467,0.005531395319849253,-0.924887478351593,0.20389868319034576,1.2531707286834717,0.011635004542768002,0.9493018984794617,-0.014686808921396732,-0.6940947771072388,0.14553292095661163,0.12531471252441406,0.8855955004692078,-0.39561572670936584,4.3235282646492124e-05,-0.5407415628433228,0.12722209095954895,0.002861066721379757,1.3124666213989258,-0.4086639881134033,-0.0006073627737350762,-0.4063492715358734,0.18268978595733643,-3.5187623500823975,0.24176670610904694,-0.012157968245446682,-0.14562490582466125,3.7200827598571777,0.11294638365507126,0.017459286376833916,-0.29073256254196167,-0.5135263204574585,2.13728928565979,0.34936076402664185,0.28510206937789917,-0.14465320110321045,-0.5576130747795105,-0.4811660647392273,-5.06612491607666,-0.4471920132637024,-1.4843066930770874,4.882930755615234,-1.4628136157989502,0.0013648498570546508,1741523070.4910066,1741523069313,-0.647158935546875,1.7134136962890625,-2.510686759871063,2.049090576171875,0.9349495849609375
1741523070.5232272,-0.27812278270721436,-0.01585580646179257,0.07107365145431215,-0.9973450403297732,0.22840966284275055,-0.21127550303936005,-0.8282578587532043,2.508829355239868,-1.9658806324005127,9.876965522766113,-0.061608314514160156,0.21610546112060547,0.012397955171763897,-1.2421079874038696,0.005531395319849253,-0.9260318875312805,0.2637903392314911,1.2543151378631592,0.01125352829694748,0.9458686113357544,-0.01773861236870289,-0.6532768607139587,0.15316243469715118,0.12493324279785156,0.8821622133255005,-0.4108371138572693,-0.013481569476425648,-0.6292439103126526,0.11310750246047974,-0.03147173300385475,1.3536659479141235,-0.4534919559955597,-0.005973640829324722,-0.14311134815216064,0.07030755281448364,-3.092129707336426,0.44953930377960205,0.010055961087346077,-0.04499505087733269,3.997328758239746,0.06341414153575897,-0.02026326209306717,-0.27761808037757874,0.057024434208869934,2.1238105297088623,0.3951309025287628,0.0002000643580686301,-0.13554692268371582,-0.7680511474609375,-0.7337644696235657,-4.287729740142822,-0.738880455493927,-1.7366232872009277,1.6094392538070679,-2.2912845611572266,0.03609595447778702,1741523070.4910066,1741523069313,-0.647158935546875,1.7134136962890625,-2.510686759871063,2.049090576171875,0.9349495849609375
1741523070.5436518,-0.29069089889526367,-0.01870475773344036,0.07256537151261677,-0.9971882464687243,-0.1100665032863617,-0.09023214131593704,-0.5971527099609375,3.414992570877075,2.15750789642334,8.556272506713867,-0.06542301177978516,0.21076488494873047,-0.0398641936480999,-1.2363858222961426,0.004386968910694122,-0.9267948269844055,0.3229190409183502,1.2569855451583862,0.011635004542768002,0.9409094452857971,-0.02079041674733162,-0.6055924296379089,0.15697719156742096,0.12340734153985977,0.8752956390380859,-0.4297729432582855,-0.0276001188904047,-0.698291003704071,0.09899290651082993,-0.06885633617639542,1.338025450706482,-0.49675455689430237,0.00711840158328414,-0.14790168404579163,-0.13468654453754425,-2.6904077529907227,0.3711278736591339,-0.07384748756885529,-0.06488154083490372,3.7186355590820312,0.14818041026592255,0.01935564912855625,-0.3561049997806549,-0.07032239437103271,2.2758278846740723,0.1870492547750473,-0.06620808690786362,-0.370324969291687,-0.9510800242424011,-0.5615349411964417,-3.3666791915893555,-0.6538920998573303,-1.7086048126220703,-1.1872177124023438,-1.958855152130127,0.5933839678764343,1741523070.584266,1741523069413,-0.5467188720703126,1.7009246826171875,-2.761799900183497,2.110813232421875,0.9090215454101562
1741523070.5636582,-0.3038289546966553,-0.022557144544049973,0.07668709299143657,-0.9968000125393968,-0.19776593148708344,-0.1147150918841362,-0.6025664806365967,3.8643362522125244,4.008932590484619,5.836533546447754,-0.07114505767822266,0.20923900604248047,-0.086785688996315,-1.2291377782821655,0.005149920005351305,-0.9317540526390076,0.3744182586669922,1.2592743635177612,0.011635004542768002,0.9359502792358398,-0.01888304017484188,-0.5754558444023132,0.15888457000255585,0.11692225188016891,0.8684290647506714,-0.4489382803440094,-0.036565396934747696,-0.7520790696144104,0.08335240930318832,-0.09021896868944168,1.281567096710205,-0.5077259540557861,0.012743805535137653,-0.1819450855255127,-0.0502178855240345,-2.1674301624298096,0.46783190965652466,-0.015316703356802464,-0.32836249470710754,3.3167665004730225,0.14709852635860443,-0.0035179341211915016,-0.29421067237854004,0.060269374400377274,1.3116068840026855,0.04584650695323944,-0.42803719639778137,-0.31259608268737793,-0.9520131945610046,-0.4661239683628082,-2.4814953804016113,-0.7326578497886658,-0.9961475133895874,-3.0080108642578125,-0.23202016949653625,0.23370465636253357,1741523070.584266,1741523069413,-0.5467188720703126,1.7009246826171875,-2.761799900183497,2.110813232421875,0.9090215454101562
1741523070.583709,-0.31559908390045166,-0.02161010318860592,0.07985456869983168,-0.9965722509170831,-0.1900155246257782,0.1603253185749054,-0.5845435261726379,0.4304801821708679,-2.5744035243988037,7.169874668121338,-0.07076358795166016,0.19588756561279297,-0.11692225188016891,-1.224941611289978,0.005531395319849253,-0.9428167939186096,0.41638055443763733,1.2600373029708862,0.01125352829694748,0.9340428709983826,-0.00858320016413927,-0.5399786233901978,0.16002899408340454,0.10662241280078888,0.8680475950241089,-0.46892690658569336,-0.04419704154133797,-0.7917525172233582,0.06694895774126053,-0.10166323184967041,1.195353627204895,-0.4791506230831146,0.013801626861095428,-0.025018248707056046,-0.42534762620925903,-1.3178614377975464,0.29255956411361694,-0.001817374024540186,-0.6091649532318115,2.8230068683624268,-0.01854267716407776,0.018742356449365616,-0.13174059987068176,0.582589864730835,1.6319254636764526,0.016257954761385918,-0.5187370777130127,-0.0632755383849144,-0.9896604418754578,-0.30378687381744385,-1.7870244979858398,-0.8791875839233398,-0.43067532777786255,-4.614309310913086,1.663178563117981,0.14843399822711945,1741523070.584266,1741523069413,-0.5467188720703126,1.7009246826171875,-2.761799900183497,2.110813232421875,0.9090215454101562
1741523070.6036751,-0.32658350467681885,-0.01539558907383351,0.08464069216872606,-0.9962925920964527,-0.2470550537109375,0.4270956218242645,-0.5060504674911499,2.3279285430908203,-2.3391501903533936,7.029152870178223,-0.07152652740478516,0.17948436737060547,-0.12607766687870026,-1.219982385635376,0.005531395319849253,-0.955024003982544,0.45834288001060486,1.2596558332443237,0.01125352829694748,0.9279392957687378,0.00858320016413927,-0.5140383243560791,0.15964750945568085,0.09708552807569504,0.8695735335350037,-0.489060640335083,-0.04937718063592911,-0.7997635006904602,0.045204851776361465,-0.10433356463909149,1.0809109210968018,-0.43459343910217285,0.01238295715302229,-0.03505026176571846,-0.5447763800621033,-0.36857470870018005,0.3282031714916229,0.004527275450527668,-0.5926840901374817,2.5569076538085938,-0.03238411620259285,-0.021615268662571907,-0.3559979498386383,0.9520993232727051,1.371841311454773,-0.03919593617320061,-0.6821507215499878,0.15012875199317932,-0.9848220348358154,-0.22234009206295013,-0.3123070001602173,-1.0491361618041992,-0.17289960384368896,-5.9889235496521,2.1957647800445557,-0.18250218033790588,1741523070.584266,1741523069413,-0.5467188720703126,1.7009246826171875,-2.761799900183497,2.110813232421875,0.9090215454101562
1741523070.623769,-0.3323848247528076,-0.00924976111340014,0.08729326464048114,-0.9961397130261155,-0.0990808978676796,0.26252225041389465,-0.25622469186782837,-2.425570249557495,-0.5166955590248108,8.033306121826172,-0.07000064849853516,0.17872142791748047,-0.11768520623445511,-1.2161675691604614,0.005149920005351305,-0.9641794562339783,0.481612890958786,1.2592743635177612,0.011635004542768002,0.9218356609344482,0.031090257689356804,-0.4850461483001709,0.1489662081003189,0.07801175117492676,0.8707179427146912,-0.5092197060585022,-0.04693986475467682,-0.7963302135467529,0.018120087683200836,-0.12569619715213776,0.9321355223655701,-0.38802242279052734,0.006126403342932463,0.02493531070649624,-0.044069960713386536,0.591279923915863,0.19700473546981812,-0.003972556907683611,-0.3704337775707245,1.4191832542419434,-0.026952262967824936,0.021200574934482574,-0.40175873041152954,1.1040207147598267,1.4529292583465576,-0.5791631937026978,-1.0216578245162964,0.015133500099182129,-1.0306191444396973,0.2123144418001175,0.42042025923728943,-1.4136942625045776,-1.2117211818695068,-7.501896858215332,2.2870895862579346,-0.2945801019668579,1741523070.584266,1741523069413,-0.5467188720703126,1.7009246826171875,-2.761799900183497,2.110813232421875,0.9090215454101562
1741523070.6437206,-0.33449387550354004,-0.005806315195408916,0.0856748982679416,-0.9963062272768495,0.10009288042783737,0.11868557333946228,-0.10038306564092636,3.2249505519866943,-5.074871063232422,8.360710144042969,-0.06275272369384766,0.17910289764404297,-0.0883115902543068,-1.2173120975494385,0.005149920005351305,-0.9653238654136658,0.4892423748970032,1.2588928937911987,0.01125352829694748,0.9164950251579285,0.04711223021149635,-0.44384679198265076,0.11654078215360641,0.053215838968753815,0.8733882904052734,-0.528698205947876,-0.026775218546390533,-0.7715343236923218,-0.01125352829694748,-0.16346226632595062,0.7936598658561707,-0.34555310010910034,-0.010399341583251953,0.21129372715950012,-0.004538196604698896,1.5057733058929443,-0.09860020875930786,-0.010614249855279922,-0.01970050483942032,0.32858291268348694,-0.0728079229593277,0.02012667804956436,-0.41174542903900146,0.6700800657272339,2.149021625518799,-1.7239569425582886,-1.147400975227356,0.1653844118118286,-0.9649145007133484,1.1485273838043213,1.178489089012146,-1.6119309663772583,-2.0375380516052246,-6.367467880249023,2.196714401245117,-0.8528132438659668,1741523070.6861763,1741523069513,-0.4512500305175781,1.667393310546875,-2.6241079027178795,2.169791259765625,0.8834756469726562
1741523070.6637478,-0.3340233564376831,-0.014934764063355229,0.08549139540568339,-0.9962269691862196,-0.05882132798433304,-0.5180968642234802,0.000381851481506601,-12.562997817993164,-2.3327527046203613,15.14538860321045,-0.061226844787597656,0.20618724822998047,-0.04139009863138199,-1.2188379764556885,0.005149920005351305,-0.961509108543396,0.4804684519767761,1.2562226057052612,0.01125352829694748,0.9088655114173889,0.059319447726011276,-0.39768826961517334,0.11196307092905045,0.02994582988321781,0.8718623518943787,-0.5356635451316833,-0.016715308651328087,-0.7360570430755615,-0.02193484455347061,-0.21953918039798737,0.7917525172233582,-0.30109599232673645,-0.03463248163461685,0.08266905695199966,0.8763893246650696,2.4215869903564453,-0.09072896093130112,-0.02466258406639099,0.2101343274116516,-0.8011952638626099,-0.08055585622787476,0.02434764802455902,-0.49264654517173767,0.4109780490398407,2.2371420860290527,-0.38065290451049805,-1.2554397583007812,-0.1813834309577942,-0.06038440763950348,0.24207112193107605,2.3938136100769043,0.03446579352021217,-2.545964241027832,0.6632864475250244,1.8603792190551758,-1.0341514348983765,1741523070.6861763,1741523069513,-0.4512500305175781,1.667393310546875,-2.6241079027178795,2.169791259765625,0.8834756469726562
1741523070.683831,-0.33801186084747314,-0.01347102084419726,0.09074457270451705,-0.9957830858786917,-0.24408870935440063,0.16339056193828583,-0.19173918664455414,8.661036491394043,6.988155364990234,9.571744918823242,-0.06389713287353516,0.19283580780029297,0.024986648932099342,-1.2196009159088135,0.005149920005351305,-0.9569314122200012,0.4404135048389435,1.2615631818771362,0.01201647985726595,0.9084840416908264,0.061226826161146164,-0.3530556261539459,0.10128175467252731,-0.0036240178160369396,0.8775845170021057,-0.5118604302406311,-0.018849970772862434,-0.6738765835762024,-0.02231631986796856,-0.21953918039798737,0.7963302135467529,-0.2976830005645752,-0.04246386140584946,-0.05140169337391853,-0.31941643357276917,3.2282326221466064,-0.057419873774051666,-0.003317894646897912,0.16905920207500458,-2.9712047576904297,0.3774506449699402,0.003579071955755353,0.04123411327600479,0.11728837341070175,2.071342706680298,-0.2852918803691864,-1.9744764566421509,0.49284401535987854,1.1781216859817505,0.1904681771993637,2.6625349521636963,-0.006665819324553013,0.2556440234184265,-0.10134954750537872,0.04448920488357544,-0.31241899728775024,1741523070.6861763,1741523069513,-0.4512500305175781,1.667393310546875,-2.6241079027178795,2.169791259765625,0.8834756469726562
1741523070.7042668,-0.34412097930908203,-0.015580579699113929,0.0922432430268695,-0.9956145989548995,-0.07802113145589828,-0.06463148444890976,-0.40983760356903076,-7.017391681671143,0.0060570333153009415,13.942971229553223,-0.047493934631347656,0.19703197479248047,0.09861142933368683,-1.2283748388290405,0.005531395319849253,-0.9569314122200012,0.38281071186065674,1.2615631818771362,0.011635004542768002,0.9081025123596191,0.06809338182210922,-0.35038527846336365,0.10128175467252731,-0.05054550990462303,0.9466315507888794,-0.4853264391422272,-0.013008570298552513,-0.6311513185501099,-0.01201647985726595,-0.19207294285297394,0.7856488823890686,-0.3003621995449066,-0.045442480593919754,0.4936593770980835,0.0744604766368866,3.6127712726593018,-0.810828447341919,-0.027917206287384033,-0.02720656804740429,-3.838247776031494,-0.12410077452659607,-0.043825190514326096,-0.039048291742801666,0.30712416768074036,-0.2488454282283783,-0.011278592981398106,-2.460149049758911,4.067907333374023,1.3717336654663086,0.2378181517124176,2.27303147315979,0.7162463068962097,1.1431039571762085,-0.33652186393737793,-0.1066431775689125,-0.04642875865101814,1741523070.6861763,1741523069513,-0.4512500305175781,1.667393310546875,-2.6241079027178795,2.169791259765625,0.8834756469726562
1741523070.7246594,-0.3439624309539795,-0.01301043094540033,0.09572703535604773,-0.9953225926243997,-0.20177999138832092,0.04794267937541008,0.12087063491344452,0.3150094449520111,-0.8882450461387634,8.470181465148926,-0.047875404357910156,0.19703197479248047,0.17261768877506256,-1.2432523965835571,0.005912871100008488,-0.9546425342559814,0.3118562698364258,1.2588928937911987,0.01125352829694748,0.9100099205970764,0.07610437273979187,-0.4079881012439728,0.09021896868944168,-0.09899290651082993,1.0946440696716309,-0.4441347122192383,-0.0035584706347435713,-0.5766003131866455,0.02193484455347061,-0.17185473442077637,0.7810711860656738,-0.30776724219322205,-0.04956178367137909,0.02520046755671501,0.018055861815810204,3.487405776977539,-0.8958905935287476,-0.004419104196131229,0.12736880779266357,-4.749144077301025,-0.0927099734544754,-0.006476450711488724,0.07556746155023575,0.34234973788261414,-3.4358441829681396,-0.795120358467102,-2.187859535217285,7.721362113952637,2.142984628677368,0.48244237899780273,2.359696388244629,1.5821107625961304,0.8923192024230957,-0.45204102993011475,-0.47248369455337524,-0.20767079293727875,1741523070.6861763,1741523069513,-0.4512500305175781,1.667393310546875,-2.6241079027178795,2.169791259765625,0.8834756469726562
1741523070.7438688,-0.33058977127075195,-0.01268031550856093,0.10173218482633228,-0.9947310049300083,-0.32020512223243713,0.04777412489056587,0.725301206111908,10.32647705078125,0.24767622351646423,15.172840118408203,-0.052071571350097656,0.21038341522216797,0.23632410168647766,-1.2527892589569092,0.005531395319849253,-0.951209306716919,0.24052032828330994,1.2585114240646362,0.01125352829694748,0.9111543297767639,0.08258945494890213,-0.5132753252983093,0.05893797054886818,-0.12645913660526276,1.280041217803955,-0.4048035144805908,0.006533714942634106,-0.5380712747573853,0.03528648987412453,-0.16231784224510193,0.7696269154548645,-0.3228810727596283,-0.04644431918859482,-0.10327501595020294,0.2733910381793976,3.2534682750701904,-0.6000286340713501,-0.0014352304860949516,0.1942889392375946,-4.821370601654053,-0.06346798688173294,-0.04773607477545738,0.08863918483257294,0.3345462381839752,-5.472583770751953,-1.7048671245574951,-1.1892023086547852,9.352211952209473,1.7298930883407593,0.5025927424430847,2.0994629859924316,0.5507838726043701,0.3568643033504486,-0.3663425147533417,-0.7886137366294861,0.2742955982685089,1741523070.7955022,1741523069613,-0.3467520141601563,1.6265201416015624,-2.6269124484462463,2.225379150390625,0.8599843139648438
1741523070.7638884,-0.31106090545654297,-0.007138105026477102,0.10924807079625262,-0.9939888864992042,-0.3630537688732147,0.1699078232049942,0.9743128418922424,2.840268611907959,-1.2452852725982666,11.692740440368652,-0.041390419006347656,0.21457958221435547,0.2931639552116394,-1.2592743635177612,0.005531395319849253,-0.9447242021560669,0.16384375095367432,1.2558410167694092,0.010872052982449532,0.9130617380142212,0.08983749151229858,-0.6258106231689453,0.022697795182466507,-0.1192111074924469,1.4471274614334106,-0.4029533565044403,0.009243302047252655,-0.49114975333213806,0.035667963325977325,-0.1680399775505066,0.7612344622612,-0.3403673470020294,-0.020318858325481415,0.28658270835876465,0.07072918117046356,2.8495845794677734,-0.4006345570087433,0.004922996740788221,0.35156819224357605,-5.108731746673584,-0.2269769161939621,-0.000247055635554716,0.15159067511558533,0.31768450140953064,-5.5766377449035645,-1.748797059059143,0.5832945704460144,7.992081642150879,-0.20958827435970306,0.09165452420711517,2.2606163024902344,-0.016200218349695206,-0.18228790163993835,-0.5225463509559631,-0.8694629669189453,1.252682089805603,1741523070.7955022,1741523069613,-0.3467520141601563,1.6265201416015624,-2.6269124484462463,2.225379150390625,0.8599843139648438
1741523070.7838724,-0.2917015552520752,-0.00669536533476776,0.11486620046993948,-0.9933584086686102,-0.24939082562923431,-0.09360487014055252,0.8711466789245605,-5.103427886962891,3.9345884323120117,13.317198753356934,-0.02994537353515625,0.22297286987304688,0.34618905186653137,-1.2623261213302612,0.005531395319849253,-0.9397650361061096,0.09136339277029037,1.2497375011444092,0.010872052982449532,0.916876494884491,0.08411535620689392,-0.728427529335022,0.005912871100008488,-0.08411535620689392,1.5402075052261353,-0.43225687742233276,0.0071372720412909985,-0.44804301857948303,0.03452353551983833,-0.15888457000255585,0.7429236173629761,-0.3589739501476288,-0.01334167830646038,0.3351404070854187,0.2209019660949707,2.586573600769043,-0.20832522213459015,-0.00712021766230464,0.23565569519996643,-4.735646724700928,-0.40188267827033997,0.012066025286912918,0.2372736781835556,-0.5564849376678467,-4.917552947998047,-0.5281895399093628,1.9143437147140503,3.9638030529022217,-1.5968515872955322,-0.1589900255203247,2.3492212295532227,0.0764707550406456,0.603882908821106,-0.882341206073761,-0.9112652540206909,0.16065330803394318,1741523070.7955022,1741523069613,-0.3467520141601563,1.6265201416015624,-2.6269124484462463,2.225379150390625,0.8599843139648438
1741523070.8048592,-0.2832300662994385,-0.0024445041882808476,0.11279160899654506,-0.9936156587631074,0.15126170217990875,0.12842237949371338,0.3241935074329376,3.5179896354675293,-2.889158248901367,7.245637893676758,-0.01888275146484375,0.21610546112060547,0.3919661343097687,-1.2657594680786133,0.005531395319849253,-0.9332799315452576,0.03032730519771576,1.2440153360366821,0.01125352829694748,0.9199283123016357,0.07419699430465698,-0.8096818327903748,-0.000572213320992887,-0.03528648987412453,1.5531777143478394,-0.4686700403690338,-0.0018765467684715986,-0.39501792192459106,0.04634927958250046,-0.13141833245754242,0.7211795449256897,-0.3731893301010132,-0.014615041203796864,0.36137309670448303,-0.1734127551317215,2.2651562690734863,-0.21514438092708588,0.001057937159202993,0.33996909856796265,-3.9360508918762207,-0.3750719726085663,-0.006228546611964703,0.20799124240875244,-0.442280113697052,-3.8120505809783936,-0.24833574891090393,2.779110908508301,0.051952846348285675,-1.7474732398986816,-0.5488977432250977,2.4985032081604004,0.563679575920105,1.5358468294143677,-1.2395051717758179,-0.7107647061347961,0.05043560639023781,1741523070.7955022,1741523069613,-0.3467520141601563,1.6265201416015624,-2.6269124484462463,2.225379150390625,0.8599843139648438
1741523070.8239946,-0.2805790901184082,-0.0010895546465454298,0.10809337581810226,-0.9941401485579983,0.2500666379928589,0.1126326397061348,0.0950298085808754,-1.5556265115737915,-1.650808572769165,7.181931495666504,-0.01544952392578125,0.21572399139404297,0.42896926403045654,-1.2676668167114258,0.005531395319849253,-0.9302281141281128,-0.020027466118335724,1.2421079874038696,0.01125352829694748,0.9222171306610107,0.061226826161146164,-0.8764400482177734,0.002861066721379757,0.007438773289322853,1.4940489530563354,-0.4857701361179352,-0.00917197298258543,-0.3599221706390381,0.061226826161146164,-0.09822995215654373,0.6921873688697815,-0.39493799209594727,-0.006281444337219,0.10343045741319656,-0.02454228885471821,1.7295503616333008,-0.1018751934170723,0.003987317904829979,0.12943294644355774,-3.4620742797851562,0.025775766000151634,0.005112956743687391,0.23467899858951569,-0.6857225894927979,-3.084306240081787,0.2846500873565674,1.9536597728729248,-3.4485561847686768,-0.6398856043815613,-0.15959049761295319,1.745926856994629,0.7340412139892578,1.4861572980880737,-1.3636425733566284,-1.1764520406723022,0.3973090350627899,1741523070.7955022,1741523069613,-0.3467520141601563,1.6265201416015624,-2.6269124484462463,2.225379150390625,0.8599843139648438
1741523070.843962,-0.27129554748535156,0.008161427184794864,0.10290706775109679,-0.9946574920610504,0.22983838617801666,0.4212084710597992,0.5161913633346558,-1.3781347274780273,1.0551495552062988,5.908942222595215,-0.01354217529296875,0.20695018768310547,0.46063172817230225,-1.2669038772583008,0.005531395319849253,-0.926413357257843,-0.07686731964349747,1.2409635782241821,0.01125352829694748,0.9378576278686523,0.032616160809993744,-0.9222171306610107,0.013160906732082367,0.03223468363285065,1.3830395936965942,-0.4707592725753784,-0.007954130880534649,-0.31910428404808044,0.06351567804813385,-0.07915617525577545,0.6715877056121826,-0.42360788583755493,-0.009997998364269733,0.05848533660173416,-0.23997661471366882,1.3946934938430786,0.05955022573471069,-0.007478950545191765,0.1461082547903061,-3.513439416885376,-0.16556230187416077,0.02184041030704975,1.0471372604370117,-1.4963990449905396,-2.1444857120513916,0.6106380820274353,1.0448925495147705,-5.963363170623779,1.0132964849472046,0.01780839078128338,1.9369289875030518,0.06219303980469704,0.9084659218788147,-1.0170553922653198,-1.506974458694458,-0.3122140169143677,1741523070.8922665,1741523069713,-0.24391577148437502,1.5868359375,-2.795162124090807,2.276865966796875,0.8399186401367188
1741523070.8640144,-0.26195085048675537,0.018794357563449514,0.09755037589720258,-0.9950531122940582,0.280965119600296,0.5303953289985657,0.43225744366645813,-4.223985195159912,-1.2139602899551392,9.76834774017334,-0.01087188720703125,0.19855785369873047,0.47512778639793396,-1.2615631818771362,0.005149920005351305,-0.9225986003875732,-0.11005569249391556,1.2340970039367676,0.010872052982449532,0.953498125076294,-0.0009536888683214784,-0.9355688095092773,0.031090257689356804,0.03757534176111221,1.2399863004684448,-0.4282786548137665,-0.011074310168623924,-0.29812315106391907,0.06466010212898254,-0.06694895774126053,0.6563286781311035,-0.4583733379840851,-0.006670213304460049,0.0506904311478138,-0.17979766428470612,0.6153498291969299,0.36600902676582336,-0.013669569976627827,0.1999407559633255,-2.0800962448120117,-0.4836622476577759,-0.03431200981140137,1.016111969947815,-1.6615703105926514,-0.36962267756462097,0.9858232736587524,0.19773012399673462,-7.097133159637451,2.1547837257385254,0.0921235978603363,1.1770628690719604,0.08921288698911667,0.6089352965354919,-0.5068305730819702,-1.734981656074524,0.30101531744003296,1741523070.8922665,1741523069713,-0.24391577148437502,1.5868359375,-2.795162124090807,2.276865966796875,0.8399186401367188
1741523070.8840566,-0.25540482997894287,0.03585797570164598,0.09157452454265473,-0.9951524064349977,0.2862069606781006,0.7735747694969177,0.3354662358760834,0.05472097173333168,-0.270931601524353,3.8674986362457275,-0.01049041748046875,0.18863964080810547,0.47436484694480896,-1.2562226057052612,0.005531395319849253,-0.9218356609344482,-0.12645913660526276,1.2276118993759155,0.01125352829694748,0.967231273651123,-0.03452353551983833,-0.9363317489624023,0.057793546468019485,0.042153049260377884,1.0763332843780518,-0.38210374116897583,-0.003397074993699789,-0.266460657119751,0.07343403995037079,-0.048638131469488144,0.655947208404541,-0.48574239015579224,-0.00108007388189435,0.0038276398554444313,-0.2255145013332367,-0.1216425895690918,0.2642647922039032,-0.017318522557616234,0.0038464507088065147,-0.799200177192688,-0.40984442830085754,0.015238861553370953,0.8450724482536316,-1.5333274602890015,0.05549442395567894,1.472924828529358,0.25369521975517273,-8.531112670898438,2.2682785987854004,0.4910891354084015,1.5169941186904907,0.5325616002082825,0.919689953327179,-0.07292091846466064,-1.2227251529693604,-0.025183480232954025,1741523070.8922665,1741523069713,-0.24391577148437502,1.5868359375,-2.795162124090807,2.276865966796875,0.8399186401367188
1741523070.904086,-0.2508118152618408,0.04321904942112549,0.08969351828854681,-0.9950312490289722,0.023810533806681633,0.32500970363616943,0.20331884920597076,-0.09885156899690628,-0.46893998980522156,5.409835338592529,-0.00782012939453125,0.18787670135498047,0.46368351578712463,-1.2539336681365967,0.005531395319849253,-0.9233615398406982,-0.1184481605887413,1.2218897342681885,0.010872052982449532,0.9729533791542053,-0.0551232174038887,-0.916876494884491,0.07724879682064056,0.06885633617639542,0.9126802682876587,-0.34813860058784485,0.007928362116217613,-0.23594263195991516,0.09708552807569504,-0.037193864583969116,0.6570916175842285,-0.4902687072753906,-0.014230230823159218,0.06366593390703201,-0.06768188625574112,-0.6458708047866821,0.183002308011055,-0.015487991273403168,-0.10941695421934128,0.7016704082489014,-0.38945090770721436,-0.006012583151459694,0.3203350305557251,-0.8915769457817078,1.1978099346160889,0.7415075302124023,1.335049033164978,-8.060379028320312,1.5270851850509644,0.5147311687469482,1.638953685760498,1.3082528114318848,0.3366077244281769,0.21313659846782684,-0.053592748939991,-0.6671474575996399,1741523070.8922665,1741523069713,-0.24391577148437502,1.5868359375,-2.795162124090807,2.276865966796875,0.8399186401367188
1741523070.9240663,-0.2504159212112427,0.04343466772233886,0.09632347999059754,-0.9944019392792589,-0.38959503173828125,-0.06411563605070114,0.0298104640096426,45.170265197753906,-5.9445390701293945,25.22739601135254,-0.01850128173828125,0.21267223358154297,0.44308385252952576,-1.2493560314178467,0.005149920005351305,-0.9225986003875732,-0.09060044586658478,1.2196009159088135,0.010872052982449532,0.9729533791542053,-0.05092698708176613,-0.8909361362457275,0.10700388997793198,0.08869306743144989,0.813115119934082,-0.3224267065525055,0.010160139761865139,-0.1993209719657898,0.1180666834115982,-0.0555046908557415,0.691805899143219,-0.4887021780014038,-0.03294123336672783,-0.3503028154373169,0.6200266480445862,-1.0874000787734985,0.3667556047439575,-0.03994959965348244,0.07374197244644165,2.1215670108795166,-0.11736207455396652,0.0009194178855977952,-0.04920303076505661,0.34451550245285034,1.0542875528335571,1.376634955406189,0.6362900137901306,-3.3182554244995117,1.697696566581726,0.12688703835010529,1.6351072788238525,0.4550919830799103,-0.847755491733551,2.137441396713257,-0.0021052402444183826,-0.9151700735092163,1741523070.8922665,1741523069713,-0.24391577148437502,1.5868359375,-2.795162124090807,2.276865966796875,0.8399186401367188
1741523070.944064,-0.2518991231918335,0.037160392091911715,0.10523447360288511,-0.9937528922348347,-0.33732494711875916,0.043393831700086594,-0.07273221760988235,8.570000648498535,7.733916282653809,2.4584288597106934,-0.01125335693359375,0.21686840057373047,0.40951400995254517,-1.2402005195617676,0.005531395319849253,-0.917639434337616,-0.04711223021149635,1.232571005821228,0.010872052982449532,0.967231273651123,-0.02689402550458908,-0.8516441583633423,0.1035706102848053,0.06504157930612564,0.8733882904052734,-0.29360586404800415,0.006460437551140785,-0.20275425910949707,0.10814831405878067,-0.07648584991693497,0.7837415337562561,-0.4773656725883484,-0.04532962664961815,0.20992396771907806,-0.03974790498614311,-1.9429744482040405,0.6268374919891357,-0.016385337337851524,0.16158455610275269,3.0832066535949707,1.0829426050186157,0.003778463928028941,-0.38156598806381226,1.3475184440612793,1.4236280918121338,-0.3549952208995819,-1.4345872402191162,2.5223333835601807,1.116459608078003,-0.7112078666687012,-0.3722066879272461,0.01917547732591629,-1.2669273614883423,5.012669086456299,0.8501583337783813,-0.4970182180404663,1741523070.8922665,1741523069713,-0.24391577148437502,1.5868359375,-2.795162124090807,2.276865966796875,0.8399186401367188
1741523070.9640803,-0.26018452644348145,0.03289334092057261,0.10806411456998731,-0.9935996051052393,-0.213798388838768,-0.23084953427314758,-0.3876265585422516,-6.38779354095459,-12.947111129760742,19.354520797729492,-0.00667572021484375,0.22564315795898438,0.344663143157959,-1.23905611038208,0.006294346414506435,-0.9187838435173035,0.00667582219466567,1.2443968057632446,0.012397955171763897,0.9611276388168335,0.0009536888683214784,-0.8329518437385559,0.09708552807569504,0.01888304017484188,0.8829251527786255,-0.28555816411972046,-0.028103990480303764,-0.266460657119751,0.11692225188016891,-0.08068207651376724,0.9351872801780701,-0.43682530522346497,-0.05063112825155258,0.009966929443180561,0.1982581615447998,-3.467339515686035,-0.051175713539123535,0.058121208101511,-0.06336520612239838,3.5481977462768555,0.6444559693336487,0.0569014847278595,-0.38236480951309204,1.3683109283447266,1.5217524766921997,-0.22829599678516388,-2.2509121894836426,0.44508087635040283,0.2715293765068054,-1.067893385887146,-3.254288911819458,0.12637656927108765,0.26509690284729004,8.132734298706055,2.119098663330078,-0.2169765830039978,1741523071.0023775,1741523069813,-0.14446611022949218,1.5605152587890625,-2.639362850289224,2.323715087890625,0.8228598022460938
1741523070.9841602,-0.2727245092391968,0.029303927913476205,0.11148114161275591,-0.9933344023407014,0.014659368433058262,-0.19616204500198364,-0.7166785001754761,-1.3539894819259644,1.3131699562072754,11.363716125488281,-0.01735687255859375,0.23327255249023438,0.26722362637519836,-1.2394375801086426,0.005149920005351305,-0.917639434337616,0.06046387553215027,1.2550780773162842,0.010872052982449532,0.9588387608528137,0.013542382046580315,-0.7970931529998779,0.07000076025724411,-0.0020981156267225742,0.8981841802597046,-0.2846699357032776,-0.0011842794483527541,-0.36564430594444275,0.12645913660526276,-0.061226826161146164,1.1308842897415161,-0.38889849185943604,-0.05673207715153694,-0.29595860838890076,0.31437385082244873,-3.7822725772857666,-0.014460026286542416,-0.0039770351722836494,0.0940350666642189,3.7058651447296143,0.6994518041610718,-0.030171001330018044,-0.13005296885967255,0.517690896987915,1.4932167530059814,-1.0736594200134277,-1.0548712015151978,0.7487004399299622,-0.002709787804633379,1.4135375022888184,-5.330334186553955,0.703690767288208,0.8421444296836853,9.653351783752441,2.290604591369629,-0.11042158305644989,1741523071.0023775,1741523069813,-0.14446611022949218,1.5605152587890625,-2.639362850289224,2.323715087890625,0.8228598022460938
1741523071.004204,-0.29089438915252686,0.02157653125141151,0.10117257811734567,-0.9946348891609657,0.5037665367126465,-0.227790966629982,-0.8783561587333679,2.391704797744751,-4.182339668273926,13.575907707214355,0.00133514404296875,0.23632431030273438,0.18825818598270416,-1.2428709268569946,0.005531395319849253,-0.916876494884491,0.12188144028186798,1.2585114240646362,0.011635004542768002,0.9580758213996887,0.011635004542768002,-0.7696269154548645,0.07572289556264877,-0.013160906732082367,0.9134432077407837,-0.29445186257362366,0.004374393727630377,-0.49305713176727295,0.13828489184379578,-0.054741740226745605,1.3017853498458862,-0.36200857162475586,-0.011835668236017227,0.45609453320503235,0.05571603775024414,-4.040189743041992,-0.2845669984817505,-0.026138227432966232,-0.02556750923395157,4.179579734802246,0.1945120245218277,0.0028146065305918455,-0.041183337569236755,-0.09977468848228455,1.6174083948135376,0.2901879847049713,-0.25891759991645813,0.8086479902267456,-0.5880013108253479,-0.08179405331611633,-6.183234214782715,0.6282491087913513,0.3040233254432678,8.06515121459961,1.0588055849075317,2.4333136081695557,1741523071.0024738,1741523069913,-0.03104543685913086,1.53303125,-2.162412916450564,2.368515625,0.8091393432617188
1741523071.0241697,-0.3067690134048462,0.019887386021580397,0.09542980766680136,-0.9952374810495764,0.29657360911369324,-0.06745206564664841,-0.8014430403709412,2.814575672149658,-4.094311714172363,11.818805694580078,-0.02155303955078125,0.23594284057617188,0.10471503436565399,-1.2424894571304321,0.005531395319849253,-0.917639434337616,0.18520638346672058,1.2642335891723633,0.01125352829694748,0.9569314122200012,0.005149920005351305,-0.724612832069397,0.08869306743144989,-0.0036240178160369396,0.919165313243866,-0.3216548264026642,-0.013138922862708569,-0.6013962030410767,0.14019227027893066,-0.06580453366041183,1.3975356817245483,-0.37913158535957336,0.0041922349482774734,-0.6160761713981628,0.010186019353568554,-4.063110828399658,0.0646204873919487,-0.007839107885956764,-0.030963370576500893,4.421421527862549,0.3264521360397339,0.023691460490226746,-0.09533561021089554,-0.3823413848876953,2.2165815830230713,0.7257383465766907,0.38764023780822754,0.10739542543888092,-1.5141284465789795,-0.7229120135307312,-5.257472038269043,-0.09168309718370438,-0.6882519721984863,4.076267242431641,-1.2639398574829102,0.21687251329421997,1741523071.0024738,1741523069913,-0.03104543685913086,1.53303125,-2.162412916450564,2.368515625,0.8091393432617188
1741523071.0441883,-0.31765687465667725,0.011477510823322122,0.08982536004572807,-0.9958913954031112,0.3010046184062958,-0.32808709144592285,-0.3363293409347534,0.3407009541988373,-0.3165775239467621,11.362752914428711,-0.02193450927734375,0.23861312866210938,0.031090257689356804,-1.2402005195617676,0.005912871100008488,-0.918402373790741,0.25349050760269165,1.2657594680786133,0.011635004542768002,0.9523537158966064,0.002861066721379757,-0.6826505064964294,0.09441519528627396,-0.0009536888683214784,0.9164950251579285,-0.36269620060920715,-0.027880314737558365,-0.6879911422729492,0.1337071806192398,-0.086785688996315,1.4055466651916504,-0.42141687870025635,-0.0056920466013252735,-0.0679025799036026,0.07226140052080154,-3.470550775527954,0.1400226205587387,0.021341968327760696,-0.06668949127197266,4.51466178894043,0.13630570471286774,-0.03533453866839409,-0.32954683899879456,-0.00391007773578167,2.2806804180145264,0.2728450298309326,0.10259826481342316,-0.16392411291599274,-2.1290886402130127,-0.8125683069229126,-3.8532886505126953,-0.31605207920074463,-0.9922186732292175,-0.1825135350227356,-2.172048568725586,-0.21550774574279785,1741523071.0024738,1741523069913,-0.03104543685913086,1.53303125,-2.162412916450564,2.368515625,0.8091393432617188
1741523071.064239,-0.31876862049102783,0.010216386209919602,0.0861507356118655,-0.9962297306376396,0.15080220997333527,-0.04208657518029213,0.0038303080946207047,2.9840471744537354,0.9802296757698059,9.279562950134277,-0.02384185791015625,0.23136520385742188,-0.035667963325977325,-1.23753023147583,0.005149920005351305,-0.9252689480781555,0.31910428404808044,1.2684297561645508,0.01125352829694748,0.9454871416091919,-0.0013351644156500697,-0.6261920928955078,0.09899290651082993,0.000572213320992887,0.9039062857627869,-0.40573590993881226,-0.04059183970093727,-0.7555122971534729,0.11615930497646332,-0.10051880776882172,1.3551918268203735,-0.4599739611148834,0.005148120224475861,-0.10726573318243027,-0.19156821072101593,-3.5396413803100586,0.12455999851226807,-0.003041619434952736,-0.43067923188209534,4.3412957191467285,0.13551250100135803,0.03701942041516304,-0.463104248046875,-0.21012113988399506,2.678556203842163,0.23453906178474426,0.14823022484779358,-0.7440477609634399,-2.1328177452087402,-0.5837586522102356,-3.2332286834716797,-0.9594787955284119,-0.5534681081771851,-2.725299119949341,-1.7193429470062256,0.7367203831672668,1741523071.0024738,1741523069913,-0.03104543685913086,1.53303125,-2.162412916450564,2.368515625,0.8091393432617188
1741523071.0842295,-0.31944990158081055,0.010055814889681682,0.08426209622345371,-0.9963928842213466,0.1290319412946701,-0.006721746642142534,0.03702017664909363,-9.000894546508789,-1.375294804573059,11.93743896484375,-0.02498626708984375,0.22488021850585938,-0.09822995215654373,-1.23753023147583,0.005149920005351305,-0.9390020370483398,0.37861448526382446,1.2699556350708008,0.01201647985726595,0.9378576278686523,-0.002861066721379757,-0.5922408103942871,0.10471503436565399,0.0078202486038208,0.8871213793754578,-0.4428025782108307,-0.0473935604095459,-0.8093003630638123,0.08945601433515549,-0.10166323184967041,1.2788968086242676,-0.4650431275367737,0.015018661506474018,-0.04776853322982788,-0.18499836325645447,-2.7891156673431396,0.016697529703378677,-0.04977066442370415,-0.7914493680000305,3.838160514831543,0.1358407437801361,0.0015129772946238518,-0.5005432367324829,-0.05765853822231293,1.7440205812454224,0.3330605626106262,0.2546482980251312,-0.6916469931602478,-1.810876488685608,-0.2690199613571167,-2.6412177085876465,-1.3371527194976807,-0.115269735455513,-3.7229812145233154,0.04366115480661392,0.3281792998313904,1741523071.0024738,1741523069913,-0.03104543685913086,1.53303125,-2.162412916450564,2.368515625,0.8091393432617188
1741523071.1042204,-0.3212696313858032,0.01723216860139753,0.07991195218526505,-0.9966529648093327,0.22013525664806366,0.4146743714809418,-0.13212627172470093,2.10265851020813,-3.9948253631591797,7.704219818115234,-0.01964569091796875,0.20275402069091797,-0.14057374000549316,-1.236767292022705,0.005149920005351305,-0.9557870030403137,0.4339284300804138,1.2707185745239258,0.011635004542768002,0.9309910535812378,0.007438773289322853,-0.5487525463104248,0.11196307092905045,0.009727626107633114,0.8772030472755432,-0.47463423013687134,-0.04635117948055267,-0.8539330363273621,0.05741206929087639,-0.09822995215654373,1.182383418083191,-0.4328743517398834,0.011055300012230873,0.14457137882709503,-0.667096734046936,-1.8746861219406128,0.08866417407989502,-0.007355135399848223,-0.8088740110397339,3.6029610633850098,-0.0731504037976265,-0.010745937936007977,-0.5250598192214966,0.5385226607322693,1.9468495845794678,0.284191757440567,0.1287873387336731,-0.6275517344474792,-1.5988256931304932,0.13248619437217712,-2.1119930744171143,-1.6977131366729736,0.22095635533332825,-4.867478847503662,1.8305045366287231,-0.19647379219532013,1741523071.1966498,1741523070053,0.1018230209350586,1.475726806640625,-2.5086158066107584,2.425850830078125,0.7946273803710938
1741523071.1243129,-0.3248908519744873,0.023724347129769455,0.07717134572448965,-0.9967355410299853,0.12684175372123718,0.3680245876312256,-0.14902137219905853,-1.3256522417068481,-0.6366156339645386,5.537796497344971,-0.02040863037109375,0.19512462615966797,-0.15812161564826965,-1.231045126914978,0.005531395319849253,-0.967994213104248,0.47589075565338135,1.2649965286254883,0.011635004542768002,0.9233615398406982,0.024986648932099342,-0.5140383243560791,0.10929274559020996,0.007438773289322853,0.8699550032615662,-0.5033745765686035,-0.04309762269258499,-0.8741512298583984,0.01773861236870289,-0.09861142933368683,1.0763332843780518,-0.3862757384777069,0.005830459296703339,-0.013160059228539467,-0.2781353294849396,-0.7508489489555359,0.37176749110221863,-0.001961062429472804,-0.5959104299545288,2.5878078937530518,-0.35970813035964966,-0.004929416347295046,-0.46115076541900635,0.998300313949585,1.937817931175232,-0.16397882997989655,-0.22886961698532104,-0.20216044783592224,-1.4271944761276245,0.2675537168979645,-0.9352757334709167,-2.055161714553833,-0.11691270023584366,-5.492546558380127,2.3203506469726562,-0.2853367030620575,1741523071.1966498,1741523070053,0.1018230209350586,1.475726806640625,-2.5086158066107584,2.425850830078125,0.7946273803710938
1741523071.1444407,-0.3311058282852173,0.027686123608847448,0.0747551687754904,-0.996817507521243,0.15468893945217133,0.1208067461848259,-0.3626086711883545,2.7017016410827637,-1.5458918809890747,5.967137813568115,-0.01850128173828125,0.18902111053466797,-0.1504921019077301,-1.227230429649353,0.005531395319849253,-0.9748607873916626,0.4968718886375427,1.2600373029708862,0.011635004542768002,0.917639434337616,0.05397878959774971,-0.4686427116394043,0.10013733059167862,-0.005149920005351305,0.8638513684272766,-0.5329801440238953,-0.02793274261057377,-0.8714808821678162,-0.026512550190091133,-0.11692225188016891,0.9447242021560669,-0.3387549817562103,-8.47663905005902e-05,0.057559359818696976,-0.18780149519443512,0.6503427624702454,0.1953735053539276,-0.00767428008839488,-0.2459297478199005,1.1862902641296387,-0.3459472358226776,-0.007388169411569834,-0.37377113103866577,1.4970566034317017,2.15155029296875,-0.6220720410346985,-0.6384891867637634,-0.44436851143836975,-1.527201771736145,0.8079710602760315,0.4446800947189331,-2.143617868423462,-1.0690590143203735,-6.725649356842041,2.310549259185791,-0.2933819591999054,1741523071.1966498,1741523070053,0.1018230209350586,1.475726806640625,-2.5086158066107584,2.425850830078125,0.7946273803710938
1741523071.1643848,-0.34101903438568115,0.02127451308201824,0.0710680299378367,-0.9972445689066839,0.2079232782125473,-0.3153327703475952,-0.5060242414474487,-1.9956928491592407,-4.509518623352051,8.577523231506348,-0.01354217529296875,0.20733165740966797,-0.11501488089561462,-1.224560022354126,0.005531395319849253,-0.9737163186073303,0.4999237060546875,1.2546966075897217,0.01125352829694748,0.9130617380142212,0.08182650804519653,-0.4171435236930847,0.06923781335353851,-0.02040894143283367,0.8630884289741516,-0.5575829744338989,-0.02051728591322899,-0.838674008846283,-0.06542305648326874,-0.1520180106163025,0.7967116832733154,-0.3097042143344879,-0.009305505082011223,0.12748467922210693,0.48841652274131775,1.8776286840438843,0.18966282904148102,-0.00561254657804966,0.06920162588357925,0.04182129353284836,-0.4112424850463867,-0.00034901491017080843,-0.2919232249259949,1.3191347122192383,2.631195545196533,-1.4567620754241943,-0.6312702894210815,0.08613292127847672,-1.0639708042144775,0.02077915146946907,1.7714259624481201,-2.0019338130950928,-1.7357361316680908,-7.286578178405762,1.403287410736084,-0.3470771312713623,1741523071.1966498,1741523070053,0.1018230209350586,1.475726806640625,-2.5086158066107584,2.425850830078125,0.7946273803710938
1741523071.1844099,-0.3516833782196045,0.006738004045689907,0.0663475477244934,-0.9977738231745842,0.17952056229114532,-0.7907803058624268,-0.612616777420044,-14.998044967651367,-9.062201499938965,14.01046085357666,-0.01316070556640625,0.22488021850585938,-0.06389715522527695,-1.221508264541626,0.00476844422519207,-0.9699015617370605,0.4861905872821808,1.2451597452163696,0.011635004542768002,0.9081025123596191,0.09327077120542526,-0.36488136649131775,0.07610437273979187,-0.039101243019104004,0.8756771087646484,-0.5545221567153931,-0.02505444549024105,-0.7860303521156311,-0.06923781335353851,-0.20199130475521088,0.7997635006904602,-0.2686678171157837,-0.021531781181693077,0.02317998930811882,0.6292399168014526,2.710158109664917,0.16842137277126312,-0.040235672146081924,0.1768772304058075,-1.151687741279602,-0.6541469097137451,0.02602100744843483,-0.39813724160194397,0.11037124693393707,2.4145054817199707,0.41271641850471497,-1.077980875968933,0.5294735431671143,0.30650433897972107,0.26805758476257324,3.168428897857666,0.633198618888855,-2.332705497741699,1.5115572214126587,1.8185724020004272,-0.8158260583877563,1741523071.1966498,1741523070053,0.1018230209350586,1.475726806640625,-2.5086158066107584,2.425850830078125,0.7946273803710938
1741523071.2043612,-0.3606224060058594,0.0015198931765456859,0.07054386573843574,-0.9975075202380228,-0.2365022599697113,-0.27074384689331055,-0.3356628715991974,6.735779285430908,5.581439971923828,15.192056655883789,-0.02307891845703125,0.21267223358154297,0.006294346414506435,-1.220745325088501,0.005912871100008488,-0.9683756828308105,0.4396505653858185,1.2466856241226196,0.011635004542768002,0.9084840416908264,0.07572289556264877,-0.33169299364089966,0.07839322835206985,-0.05054550990462303,0.9115357995033264,-0.5251951217651367,-0.011395709589123726,-0.7406347990036011,-0.05130846053361893,-0.19436179101467133,0.810826301574707,-0.26854002475738525,-0.038745272904634476,-0.2561527192592621,-0.1948108822107315,3.451056718826294,0.04604234918951988,0.08942150324583054,0.05770338326692581,-3.326366901397705,0.3393086791038513,0.03147118538618088,0.06233958154916763,-0.9673677682876587,1.2791622877120972,0.14815744757652283,-0.7255818843841553,2.111416816711426,1.5689924955368042,0.6848353743553162,1.7008857727050781,0.8273205161094666,0.980191171169281,-0.14651496708393097,-0.21426944434642792,-0.8011897802352905,1741523071.1966498,1741523070053,0.1018230209350586,1.475726806640625,-2.5086158066107584,2.425850830078125,0.7946273803710938
1741523071.2244692,-0.3641701936721802,-0.003876902695628106,0.07354980411996895,-0.9972840096679596,-0.20298457145690918,-0.10645946115255356,-0.16391627490520477,-3.4032719135284424,1.311991572380066,13.268508911132812,-0.01277923583984375,0.20962047576904297,0.07267109304666519,-1.225704550743103,0.005149920005351305,-0.9653238654136658,0.38128480315208435,1.2508819103240967,0.01125352829694748,0.9092469811439514,0.06160829961299896,-0.34733349084854126,0.07877469807863235,-0.07991912961006165,1.0194933414459229,-0.4859773814678192,0.0016544440295547247,-0.6914244294166565,-0.026131074875593185,-0.15621423721313477,0.802815318107605,-0.27192533016204834,-0.04168953746557236,0.2509162425994873,-0.1135357916355133,3.12017560005188,-0.49484413862228394,-0.05402802303433418,0.17839789390563965,-3.948077440261841,0.12108299136161804,-0.10990876704454422,0.021557101979851723,-0.8338984251022339,-1.115253210067749,-0.10226036608219147,-1.5022040605545044,6.151827335357666,2.02353835105896,0.698939323425293,2.527266025543213,1.4178450107574463,1.4295728206634521,-0.20083706080913544,-0.05239313468337059,-0.07306770235300064,1741523071.1966498,1741523070053,0.1018230209350586,1.475726806640625,-2.5086158066107584,2.425850830078125,0.7946273803710938
1741523071.247295,-0.35588085651397705,-0.003502417645665258,0.08175312530600581,-0.996646456660202,-0.41105812788009644,-0.07720267027616501,0.5830360651016235,-5.9059014320373535,1.1120717525482178,9.263578414916992,-0.01850128173828125,0.20923900604248047,0.13790340721607208,-1.23753023147583,0.005531395319849253,-0.9580758213996887,0.3114747703075409,1.2501189708709717,0.010872052982449532,0.9103913903236389,0.048256658017635345,-0.4243915379047394,0.05703059583902359,-0.10967422276735306,1.1846723556518555,-0.4418064057826996,0.009996390901505947,-0.6517509818077087,0.0013351644156500697,-0.14095520973205566,0.7990005612373352,-0.2779636085033417,-0.04840606451034546,-0.11649154126644135,0.023007214069366455,3.171736001968384,-0.7969610095024109,-0.044156286865472794,0.3681313693523407,-4.565768718719482,0.02337178774178028,0.02076411247253418,0.060500964522361755,-0.672471821308136,-4.194177627563477,-1.1777119636535645,-1.411442518234253,8.351815223693848,2.121562957763672,0.24444814026355743,1.9805935621261597,1.01034414768219,0.7020966410636902,-0.26018065214157104,-0.39407721161842346,-0.20052002370357513,1741523071.1966498,1741523070053,0.1018230209350586,1.475726806640625,-2.5086158066107584,2.425850830078125,0.7946273803710938
1741523071.2644913,-0.33583152294158936,-0.002528318769937905,0.0883781817220233,-0.996083783925683,-0.30368557572364807,-0.039615172892808914,1.036252737045288,-0.15751275420188904,2.7810871601104736,11.519949913024902,-0.01735687255859375,0.21305370330810547,0.1962691694498062,-1.2478300333023071,0.005531395319849253,-0.9531166553497314,0.24128328263759613,1.2485930919647217,0.01125352829694748,0.9115357995033264,0.03604944050312042,-0.5270084738731384,0.02231631986796856,-0.11043716967105865,1.3586251735687256,-0.42164137959480286,0.006222711410373449,-0.6105515956878662,0.0078202486038208,-0.14057374000549316,0.7944228053092957,-0.28954946994781494,-0.03837211802601814,0.003214244730770588,0.06601371616125107,2.751530885696411,-0.6500747203826904,-0.011037258431315422,0.263416051864624,-4.791719436645508,-0.1522766351699829,-0.011953654699027538,0.07336558401584625,-0.611762523651123,-5.195209503173828,-1.7602782249450684,0.22557201981544495,8.400647163391113,0.6818450093269348,-0.16091331839561462,2.074259042739868,0.14744748175144196,0.03139680624008179,-0.2145908772945404,-0.6263970136642456,0.5638859868049622,1741523071.300417,1741523070213,0.262556640625,1.3879697265625,-2.0783101038323104,2.484033203125,0.784020263671875
1741523071.2844582,-0.3101769685745239,-0.001427348451314399,0.09096567683721905,-0.9958530053747616,-0.11800624430179596,-0.08210054785013199,1.263979434967041,0.7656121253967285,1.7438900470733643,9.593050956726074,-0.00667572021484375,0.22411727905273438,0.2580682039260864,-1.2569855451583862,0.005531395319849253,-0.9451056718826294,0.1672770231962204,1.2440153360366821,0.010872052982449532,0.9145876169204712,0.01888304017484188,-0.6300068497657776,-0.0013351644156500697,-0.08106355369091034,1.4806973934173584,-0.4393827021121979,0.009652821347117424,-0.572022557258606,0.007438773289322853,-0.13981078565120697,0.7928969264030457,-0.31079936027526855,-0.023967500776052475,0.3155182898044586,0.29829972982406616,2.9432973861694336,-0.5450106263160706,-0.016657482832670212,0.4380987584590912,-4.891005992889404,-0.35167840123176575,-0.018829969689249992,0.2248651087284088,-0.8344656825065613,-4.9952569007873535,-0.9518991112709045,1.6131762266159058,5.458448886871338,-1.058154821395874,0.1796204298734665,1.9235732555389404,-0.017747750505805016,0.09256120771169662,-0.04931771382689476,-1.173689365386963,0.8156757354736328,1741523071.300417,1741523070213,0.262556640625,1.3879697265625,-2.0783101038323104,2.484033203125,0.784020263671875
1741523071.3045058,-0.2836465835571289,0.00030635349206125707,0.08922551696213822,-0.9960114021788994,0.13836629688739777,0.0002793815219774842,1.3344227075576782,2.179608106613159,0.47463878989219666,10.191383361816406,-0.00362396240234375,0.22182846069335938,0.31948578357696533,-1.2619446516036987,0.005531395319849253,-0.9386205673217773,0.09784847497940063,1.2363858222961426,0.010872052982449532,0.9187838435173035,0.0036240178160369396,-0.7166017889976501,-0.012779430486261845,-0.03757534176111221,1.5272372961044312,-0.47463342547416687,0.00321434554643929,-0.5296788215637207,0.010872052982449532,-0.12836651504039764,0.7875562906265259,-0.3417068421840668,-0.014998365193605423,0.0791747123003006,-0.040525250136852264,2.960749864578247,-0.33294573426246643,-0.0011103978613391519,0.32885876297950745,-4.593405723571777,-0.5402566194534302,-0.016172971576452255,0.2780514359474182,-0.6375398635864258,-4.312026023864746,-0.5615463256835938,2.3787777423858643,1.7214691638946533,-1.7693651914596558,-0.48143741488456726,2.1619815826416016,0.23565827310085297,0.6030410528182983,-0.39144131541252136,-1.6329513788223267,0.32182323932647705,1741523071.300417,1741523070213,0.262556640625,1.3879697265625,-2.0783101038323104,2.484033203125,0.784020263671875
1741523071.324511,-0.2657235860824585,0.0013901285308003477,0.0838540761997629,-0.996477075224188,0.2613357603549957,-0.006733966525644064,0.7379173636436462,-1.4437522888183594,-0.13304665684700012,9.892095565795898,0.00591278076171875,0.22068405151367188,0.3736552894115448,-1.2630890607833862,0.005531395319849253,-0.9336614012718201,0.038719769567251205,1.2283748388290405,0.010872052982449532,0.9203097820281982,-0.008201723918318748,-0.7909895181655884,-0.018501564860343933,0.010872052982449532,1.505874752998352,-0.5036730170249939,-0.00833882112056017,-0.4854276478290558,0.01888304017484188,-0.11615930497646332,0.7696269154548645,-0.3791782259941101,-0.008695374242961407,0.28488174080848694,-0.03297601267695427,2.5793206691741943,-0.0419975221157074,-0.016373716294765472,0.20043271780014038,-3.8067238330841064,-0.5241165161132812,0.051464907824993134,0.06383261829614639,-0.47620293498039246,-3.550694704055786,-0.13599136471748352,2.3002026081085205,-1.4988148212432861,-1.2773823738098145,-0.30053356289863586,2.178030252456665,0.27244773507118225,0.6105092763900757,-0.8397014141082764,-1.90877103805542,0.2409636229276657,1741523071.300417,1741523070213,0.262556640625,1.3879697265625,-2.0783101038323104,2.484033203125,0.784020263671875
1741523071.34457,-0.2617509365081787,0.006169208773524648,0.07851091170115153,-0.9968941657001321,0.2600550353527069,0.25061488151550293,0.08302608132362366,2.7978408336639404,0.8821625113487244,5.977793216705322,0.01201629638671875,0.21686840057373047,0.41523614525794983,-1.2615631818771362,0.005531395319849253,-0.9348058104515076,-0.01125352829694748,1.224560022354126,0.01125352829694748,0.9225986003875732,-0.0078202486038208,-0.8524070978164673,-0.01506828423589468,0.04634927958250046,1.4383535385131836,-0.50533527135849,-0.008103053085505962,-0.44689860939979553,0.02231631986796856,-0.10738536715507507,0.7539864182472229,-0.4152873456478119,-0.015346930362284184,0.17062075436115265,-0.08996615558862686,2.05068039894104,0.064945288002491,0.00756921898573637,-0.09015187621116638,-3.4692702293395996,-0.11519096791744232,0.00383407692424953,0.14962580800056458,-0.007942864671349525,-2.9890332221984863,0.28891289234161377,1.6364235877990723,-3.7610867023468018,0.1801750808954239,-0.12073726952075958,1.7953146696090698,0.08464336395263672,0.40936481952667236,-0.7318987250328064,-1.8185157775878906,-0.1732785850763321,1741523071.300417,1741523070213,0.262556640625,1.3879697265625,-2.0783101038323104,2.484033203125,0.784020263671875
1741523071.3645248,-0.25653326511383057,0.01223959479947076,0.07350873836545128,-0.9972194631589699,0.21886375546455383,0.3128453493118286,0.33934539556503296,-1.747327208518982,2.1414239406585693,8.756010055541992,0.01277923583984375,0.21038341522216797,0.46292057633399963,-1.2611817121505737,0.005149920005351305,-0.9328984618186951,-0.07381551712751389,1.2260860204696655,0.011635004542768002,0.9370946884155273,-0.02079041674733162,-0.9004730582237244,-0.0032425422687083483,0.06809338182210922,1.341458797454834,-0.4726105034351349,-0.01727997325360775,-0.41599908471107483,0.02231631986796856,-0.10585946589708328,0.7410162687301636,-0.44782984256744385,-0.009829578921198845,0.010913972742855549,-0.18293648958206177,2.2984890937805176,0.02732059732079506,-0.05828758329153061,0.07099224627017975,-3.9200279712677,-0.015454080887138844,0.02184486761689186,1.0429418087005615,-0.7753134965896606,-2.29862642288208,0.7133947610855103,1.0368125438690186,-4.939444541931152,1.800311803817749,-0.4172447919845581,1.7486191987991333,-0.014787636697292328,0.15439671277999878,-0.5144026875495911,-1.6175836324691772,0.4085612893104553,1741523071.300417,1741523070213,0.262556640625,1.3879697265625,-2.0783101038323104,2.484033203125,0.784020263671875
1741523071.3845692,-0.25110745429992676,0.02256601965114283,0.06891732961681742,-0.9973671221950277,0.2415483444929123,0.4842023253440857,0.23660074174404144,-0.018230648711323738,-2.317903757095337,6.888442039489746,0.01850128173828125,0.20809459686279297,0.49305713176727295,-1.2550780773162842,0.005531395319849253,-0.9344243407249451,-0.11043716967105865,1.2218897342681885,0.010490577667951584,0.951209306716919,-0.04253452271223068,-0.9237430095672607,0.023460745811462402,0.07953765243291855,1.2243458032608032,-0.42825955152511597,-0.014611480757594109,-0.38090333342552185,0.02727550081908703,-0.09517814964056015,0.7310978770256042,-0.47591906785964966,-0.004468800034373999,0.1605396419763565,-0.054521892219781876,1.2976995706558228,0.4025379419326782,0.0045627411454916,-0.08829580247402191,-2.23569393157959,-0.23909592628479004,-0.060478053987026215,0.8947829008102417,-1.1953482627868652,-0.872154176235199,1.4953534603118896,0.4894888401031494,-5.932398319244385,2.238524913787842,0.23602262139320374,1.6758145093917847,0.36524122953414917,0.5894173979759216,-0.6256572604179382,-1.3593472242355347,0.22276708483695984,1741523071.300417,1741523070213,0.262556640625,1.3879697265625,-2.0783101038323104,2.484033203125,0.784020263671875
1741523071.4047525,-0.24454498291015625,0.03287772922690327,0.06453195513315052,-0.997373892623812,0.1960723102092743,0.49873244762420654,0.37090808153152466,5.304447650909424,-0.481308251619339,6.267162799835205,0.01773834228515625,0.20771312713623047,0.5037384629249573,-1.2505004405975342,0.005531395319849253,-0.9344243407249451,-0.12569619715213776,1.2211267948150635,0.010872052982449532,0.9634165167808533,-0.07495994865894318,-0.924124538898468,0.06351567804813385,0.09937438368797302,1.0938811302185059,-0.3805447518825531,-0.006909616757184267,-0.3400854468345642,0.04482337832450867,-0.0707637146115303,0.7169833183288574,-0.49515825510025024,-0.00903256144374609,-0.007467329036444426,0.004412563983350992,0.3432791829109192,0.30920952558517456,-0.005520724691450596,-0.002449595835059881,-0.707507848739624,-0.04930650070309639,0.009979933500289917,0.7230084538459778,-1.5808136463165283,-0.07133371382951736,2.0396170616149902,1.0846885442733765,-6.5178093910217285,2.363619327545166,0.41901326179504395,2.2234644889831543,0.9538649916648865,1.3822213411331177,-0.7258849740028381,-0.8196698427200317,-0.2083648294210434,1741523071.5056927,1741523070313,0.35288763427734376,1.35195068359375,-1.8109051531206377,2.5175458984375,0.7797891235351563
1741523071.42473,-0.2366694211959839,0.036119563655729214,0.06347525521970132,-0.9973295689470525,0.0009427273762412369,0.09366340190172195,0.38978010416030884,5.448406219482422,-1.2010071277618408,8.3637113571167,0.01773834228515625,0.22030258178710938,0.4983977973461151,-1.2455412149429321,0.005531395319849253,-0.9344243407249451,-0.11539635062217712,1.2211267948150635,0.010872052982449532,0.9691386222839355,-0.1024261862039566,-0.9084840416908264,0.09822995215654373,0.14095520973205566,0.9664682745933533,-0.33542680740356445,0.002482765121385455,-0.28553444147109985,0.06923781335353851,-0.04253452271223068,0.6967650651931763,-0.494301974773407,-0.01271181832998991,-0.026076437905430794,0.37626275420188904,-0.3235084116458893,0.301449179649353,-0.004943637643009424,-0.021897247061133385,0.8844654560089111,-0.0034565692767500877,0.0060678934678435326,0.280370831489563,-1.2744415998458862,0.9897125363349915,1.4245723485946655,2.0639941692352295,-6.241828918457031,2.1863086223602295,0.521903932094574,2.8356645107269287,1.2968261241912842,1.3178963661193848,-0.978550374507904,0.1196540966629982,-0.44174614548683167,1741523071.5056927,1741523070313,0.35288763427734376,1.35195068359375,-1.8109051531206377,2.5175458984375,0.7797891235351563
1741523071.445148,-0.23222696781158447,0.03139164821128342,0.06947909739652823,-0.9970893738514832,-0.35747992992401123,-0.2777046263217926,0.26106899976730347,5.538094520568848,1.02088463306427,6.082503795623779,0.01697540283203125,0.23861312866210938,0.4800869822502136,-1.2424894571304321,0.005149920005351305,-0.9344243407249451,-0.08564125746488571,1.2218897342681885,0.010872052982449532,0.9664682745933533,-0.10814831405878067,-0.8760585784912109,0.1371404528617859,0.17605096101760864,0.8558403849601746,-0.3115265965461731,0.007723044138401747,-0.22373540699481964,0.09784847497940063,-0.03643091395497322,0.693331778049469,-0.48613572120666504,-0.036252278834581375,-0.010948232375085354,0.4851644039154053,-1.0597736835479736,0.18622693419456482,-0.027730681002140045,-0.017938943579792976,2.1607210636138916,0.06778314709663391,-0.0014242666075006127,-0.18930655717849731,-0.040784042328596115,1.7534615993499756,1.8915003538131714,1.3361872434616089,-5.3771185874938965,0.9332280158996582,0.22220474481582642,2.843277931213379,1.461643934249878,0.1709306240081787,0.07341524958610535,0.3893415331840515,-1.0225192308425903,1741523071.5056927,1741523070313,0.35288763427734376,1.35195068359375,-1.8109051531206377,2.5175458984375,0.7797891235351563
1741523071.4647899,-0.23097741603851318,0.019620440977256303,0.08209544136773039,-0.9964313206651502,-0.6778439283370972,-0.5906768441200256,0.01878436468541622,1.4876527786254883,-9.235326766967773,22.474668502807617,0.01277923583984375,0.24776840209960938,0.44575417041778564,-1.2424894571304321,0.005531395319849253,-0.9344243407249451,-0.04139009863138199,1.2299007177352905,0.01125352829694748,0.960746169090271,-0.09822995215654373,-0.8413442969322205,0.15697719156742096,0.17261768877506256,0.775730550289154,-0.3057473599910736,0.014175422489643097,-0.19436179101467133,0.11654078215360641,-0.04139009863138199,0.7402533292770386,-0.47762200236320496,-0.048056721687316895,-0.13341152667999268,0.28883659839630127,-1.7551168203353882,-0.005833357106894255,-0.006050285417586565,-0.00623594643548131,3.0500736236572266,0.6103997826576233,0.04496860131621361,-0.38676807284355164,0.5100802183151245,1.544572114944458,0.6911095976829529,-0.3350657522678375,-3.083134412765503,0.49617770314216614,0.3854306936264038,1.184901475906372,0.6738970875740051,-0.13055063784122467,2.946823835372925,0.5420448184013367,-0.5616130232810974,1741523071.5056927,1741523070313,0.35288763427734376,1.35195068359375,-1.8109051531206377,2.5175458984375,0.7797891235351563
1741523071.4847674,-0.2322934865951538,0.01036269482839506,0.09475906234156342,-0.9954462992346906,-0.45993658900260925,-0.2378496676683426,-0.028982218354940414,2.7583959102630615,2.571305274963379,3.5700531005859375,0.01125335693359375,0.2534904479980469,0.39578089118003845,-1.2424894571304321,0.005531395319849253,-0.9313725233078003,0.013160906732082367,1.2459226846694946,0.01125352829694748,0.9573128819465637,-0.07763027399778366,-0.8016708493232727,0.13218127191066742,0.1325627565383911,0.8283741474151611,-0.29348644614219666,0.023739583790302277,-0.2153429538011551,0.11577782779932022,-0.035667963325977325,0.8665217161178589,-0.4500221014022827,-0.06198135390877724,-0.11314607411623001,0.15083658695220947,-2.857306957244873,-0.004927711095660925,-0.005216403864324093,0.151468425989151,3.7474026679992676,1.0742576122283936,-0.01166512630879879,-0.1868167668581009,1.145974040031433,1.5720198154449463,-1.4787836074829102,-2.257542133331299,2.5127105712890625,0.29110878705978394,0.5476489663124084,-1.4841848611831665,0.28715288639068604,0.34172964096069336,6.759957790374756,1.56242036819458,-0.6644623875617981,1741523071.5056927,1741523070313,0.35288763427734376,1.35195068359375,-1.8109051531206377,2.5175458984375,0.7797891235351563
1741523071.5048356,-0.23675012588500977,0.003982268924180282,0.09354189789403888,-0.9956073798805414,0.03954700753092766,-0.30554044246673584,-0.22838394343852997,-7.167998313903809,-10.398022651672363,17.66353988647461,0.02040863037109375,0.2611198425292969,0.31376364827156067,-1.2505004405975342,0.005912871100008488,-0.9294651746749878,0.06961929053068161,1.2493560314178467,0.01125352829694748,0.9557870030403137,-0.06885633617639542,-0.7902265787124634,0.1028076633810997,0.08487831056118011,0.8493552803993225,-0.3005870580673218,0.02279704436659813,-0.29964902997016907,0.12989242374897003,-0.012779430486261845,1.0408560037612915,-0.4031431972980499,-0.06819566339254379,0.14891906082630157,0.26745787262916565,-4.35293436050415,-0.74399733543396,-0.00788212101906538,0.062374766916036606,3.624281644821167,0.07788138836622238,-0.011932970024645329,-0.0813169926404953,0.3313644528388977,1.154301404953003,-1.2934163808822632,-2.0575459003448486,0.9829790592193604,-0.32189273834228516,-0.16529233753681183,-3.9169492721557617,0.5979625582695007,1.488516926765442,9.018049240112305,2.4242734909057617,-0.5306154489517212,1741523071.5056927,1741523070313,0.35288763427734376,1.35195068359375,-1.8109051531206377,2.5175458984375,0.7797891235351563
