Freshhhhh-LC/Legged_odom/data/5/segments/booster_seg_9.87s.csv
time,yaw,projected_gravity_x,projected_gravity_y,projected_gravity_z,ang_vel_x,ang_vel_y,ang_vel_z,lin_acc_x,lin_acc_y,lin_acc_z,q_0,q_1,q_2,q_3,q_4,q_5,q_6,q_7,q_8,q_9,q_10,q_11,q_12,q_13,q_14,q_15,q_16,q_17,q_18,q_19,q_20,q_21,q_22,dq_0,dq_1,dq_2,dq_3,dq_4,dq_5,dq_6,dq_7,dq_8,dq_9,dq_10,dq_11,dq_12,dq_13,dq_14,dq_15,dq_16,dq_17,dq_18,dq_19,dq_20,dq_21,dq_22,mocap_time,mocap_timestamp,robot_x,robot_y,robot_yaw,ball_x,ball_y
1741523105.6152332,0.8167199194431305,0.02802706578752533,0.11876206501999194,-0.9925271056729529,0.06615303456783295,0.07772950828075409,0.27706411480903625,-8.3497953414917,-3.2870662212371826,16.06348419189453,-0.07381534576416016,0.7619972229003906,0.30422675609588623,-1.2684297561645508,0.005531395319849253,-0.8741512298583984,0.03604944050312042,1.2463041543960571,0.011635004542768002,0.9187838435173035,-0.1031891331076622,-0.7536049485206604,0.18558785319328308,0.13141833245754242,0.9050507545471191,-0.33942171931266785,0.056242626160383224,-0.248531311750412,0.14209964871406555,0.07495994865894318,0.8974212408065796,-0.4292961061000824,-0.043662186712026596,-0.1647174209356308,0.07175023853778839,-3.672200918197632,-0.17808897793293,-0.032990604639053345,0.046724677085876465,3.158651113510132,0.24993173778057098,0.043263327330350876,-0.34673044085502625,0.9430480599403381,1.3130455017089844,-0.6016297340393066,-1.6935477256774902,-0.7071786522865295,0.41792094707489014,-1.2358219623565674,-2.0031301975250244,0.030774980783462524,0.45129138231277466,5.883317947387695,1.910313606262207,-0.5775231122970581,1741523105.6100762,1741523104513,0.5490659790039063,0.832790283203125,-2.0234834369006287,1.556066162109375,1.6003929443359375
1741523105.617182,0.7258782982826233,0.003449014767662345,0.07844192662906785,-0.9969127185686079,-0.22661404311656952,0.0720955953001976,0.09266318380832672,3.605172872543335,-2.917829751968384,10.250743865966797,0.057412147521972656,0.7249946594238281,0.4358358085155487,-1.2489745616912842,0.005531395319849253,-0.9348058104515076,0.03452353551983833,1.224560022354126,0.01125352829694748,0.9172579646110535,-0.18749523162841797,-0.8859769701957703,0.14667734503746033,0.11310750246047974,1.2491416931152344,-0.3810000419616699,0.001743862871080637,-0.39463645219802856,0.08907453715801239,0.01430533267557621,0.7467383742332458,-0.5043265223503113,-0.05135692283511162,0.5646551251411438,0.38212767243385315,1.6267719268798828,-0.053047873079776764,-0.016893651336431503,0.5091959834098816,-3.044954538345337,-0.005972301587462425,0.027645794674754143,-0.1022733747959137,-0.8947537541389465,-0.013026336207985878,1.2666478157043457,-0.10547159612178802,-2.5429978370666504,0.9932271838188171,-0.04378483071923256,1.0612162351608276,0.19406352937221527,-0.021886859089136124,-0.5674256086349487,-0.8587661981582642,-0.12139885127544403,1741523105.6100762,1741523104513,0.5490659790039063,0.832790283203125,-2.0234834369006287,1.556066162109375,1.6003929443359375
1741523105.6348343,0.7303304672241211,0.005675598775741615,0.08206343531731418,-0.9966109472419303,-0.17317640781402588,0.14885377883911133,0.23157843947410583,4.2821855545043945,-1.2420660257339478,9.248893737792969,0.057793617248535156,0.7261390686035156,0.4655908942222595,-1.2497375011444092,0.005531395319849253,-0.9210727214813232,0.00019073777366429567,1.2268489599227905,0.010872052982449532,0.918402373790741,-0.20428015291690826,-0.8710994124412537,0.17071031033992767,0.11768520623445511,1.1694133281707764,-0.3733760118484497,0.0013674969086423516,-0.36488136649131775,0.0879301130771637,0.010490577667951584,0.7383459210395813,-0.519004225730896,-0.05171655863523483,0.05451790988445282,0.05655158683657646,1.2935774326324463,0.04609457775950432,-0.0034605376422405243,0.6521726250648499,-2.161306142807007,0.21750803291797638,-0.03259366378188133,0.11077320575714111,-0.7808679342269897,0.8252273797988892,1.1405112743377686,0.4261746406555176,-4.30624532699585,0.2661032974720001,0.03855928033590317,1.570500373840332,-0.07973688840866089,-0.23921887576580048,-0.45555731654167175,-0.7582696676254272,-0.004542169626802206,1741523105.6100762,1741523104513,0.5490659790039063,0.832790283203125,-2.0234834369006287,1.556066162109375,1.6003929443359375
1741523105.654856,0.7400287985801697,0.006300608849685513,0.08423040043297966,-0.9964263856256634,-0.11078113317489624,-0.05545995384454727,0.5316737294197083,5.793835163116455,-3.812255620956421,8.268024444580078,0.055886268615722656,0.7387275695800781,0.4736018776893616,-1.2470670938491821,0.005531395319849253,-0.9130617380142212,-0.021171892061829567,1.230282187461853,0.010872052982449532,0.9225986003875732,-0.2138170450925827,-0.84592205286026,0.18978407979011536,0.14248111844062805,1.0709925889968872,-0.3816601634025574,0.0032542278058826923,-0.325970858335495,0.08449683338403702,-0.0032425422687083483,0.7177462577819824,-0.5313214063644409,-0.044176846742630005,0.009462865069508553,0.38872280716896057,0.24762646853923798,0.11092834174633026,-0.007583647966384888,0.3869275748729706,-1.2370970249176025,0.19110070168972015,0.011224238201975822,0.32966649532318115,-0.440410852432251,1.4239985942840576,0.8603953123092651,1.3232022523880005,-5.118009090423584,-0.5568923354148865,0.09226463735103607,1.9976258277893066,-0.10025335103273392,-0.790524959564209,-1.123282790184021,-0.5571781992912292,0.38046374917030334,1741523105.6100762,1741523104513,0.5490659790039063,0.832790283203125,-2.0234834369006287,1.556066162109375,1.6003929443359375
1741523105.674897,0.7594622671604156,0.0044181449955508064,0.08959413276759039,-0.9959685594276668,-0.31460151076316833,-0.16077037155628204,1.0288021564483643,4.984683513641357,-1.8071743249893188,6.993216514587402,0.058175086975097656,0.7505531311035156,0.464446485042572,-1.2443968057632446,0.005531395319849253,-0.9096284508705139,-0.02727550081908703,1.2299007177352905,0.010872052982449532,0.9336614012718201,-0.21725031733512878,-0.7963302135467529,0.20428015291690826,0.17452506721019745,0.9588387608528137,-0.4096234440803528,0.008136694319546223,-0.27065691351890564,0.08907453715801239,-0.015449759550392628,0.6868467330932617,-0.5380018949508667,-0.02952847257256508,0.08289320021867752,0.29526373744010925,-0.6151560544967651,0.24058037996292114,-0.0009111204417422414,0.099980928003788,-0.2028481364250183,-0.03468009829521179,-0.01599041186273098,0.7966366410255432,-0.0036365429405122995,2.518375873565674,0.6622409224510193,1.723063588142395,-5.547728538513184,-1.5601154565811157,0.354756236076355,2.9570274353027344,0.2903563976287842,-0.559678852558136,-1.610886573791504,-0.25563186407089233,0.8379698395729065,1741523105.7081273,1741523104633,0.5923915405273438,0.8778015747070312,-2.1990865667705752,1.8737991943359376,1.6070245361328126
1741523105.6949074,0.7870747745037079,0.0008641847032155738,0.10024652597361573,-0.9949622541659658,-0.5687905550003052,-0.32787877321243286,1.4147037267684937,0.9596074223518372,0.3735066056251526,3.2666561603546143,0.057793617248535156,0.7593269348144531,0.439269095659256,-1.23905611038208,0.005531395319849253,-0.9122987985610962,-0.011635004542768002,1.2306636571884155,0.010872052982449532,0.9428167939186096,-0.20466163754463196,-0.7444495558738708,0.2141985148191452,0.20428015291690826,0.8512626886367798,-0.45420101284980774,0.003992530517280102,-0.20618753135204315,0.10662241280078888,-0.024605173617601395,0.6490806341171265,-0.5302920937538147,-0.018352150917053223,-0.044115666300058365,0.2173999696969986,-1.302899956703186,0.32574528455734253,-0.002957440447062254,-0.14809350669384003,1.3164457082748413,0.058925334364175797,-0.0007992909522727132,0.6040486693382263,0.7067345976829529,2.6048803329467773,0.3191465735435486,1.2380812168121338,-5.2741475105285645,-2.2639100551605225,-0.28540775179862976,3.2093091011047363,1.0013145208358765,-0.3469364643096924,-1.8126469850540161,0.6783097386360168,0.6761787533760071,1741523105.7081273,1741523104633,0.5923915405273438,0.8778015747070312,-2.1990865667705752,1.8737991943359376,1.6070245361328126
1741523105.714973,0.812237024307251,-0.0034239190320890346,0.1145125769222602,-0.9934158980533204,-0.7546574473381042,-0.39695706963539124,1.1637578010559082,-6.331435680389404,26.15141487121582,14.663843154907227,0.055504798889160156,0.7619972229003906,0.4060807228088379,-1.2340970039367676,0.005149920005351305,-0.9134432077407837,0.01888304017484188,1.232571005821228,0.010872052982449532,0.9485389590263367,-0.18749523162841797,-0.6944762468338013,0.212672621011734,0.200083926320076,0.8340963125228882,-0.4621153175830841,0.004586466588079929,-0.15468832850456238,0.12493324279785156,-0.021553369238972664,0.6296253800392151,-0.49420157074928284,-0.010514606721699238,-0.05707786977291107,0.02876294031739235,-1.7098712921142578,0.37395551800727844,-0.015185846947133541,0.046993888914585114,1.9930566549301147,0.17211885750293732,0.005968114826828241,0.2826387882232666,0.8895856142044067,2.3571486473083496,-0.08338750898838043,-0.44712743163108826,0.5873908996582031,-0.10862691700458527,0.07366302609443665,2.4158785343170166,0.6267915368080139,0.303627073764801,-0.6327723264694214,1.9005634784698486,-0.06607601046562195,1741523105.7081273,1741523104633,0.5923915405273438,0.8778015747070312,-2.1990865667705752,1.8737991943359376,1.6070245361328126
1741523105.7507966,0.8297105133533478,-0.008530594318560389,0.10977434285795509,-0.993919927665542,0.31930944323539734,-0.4418080151081085,0.7249990701675415,2.840934991836548,-2.365788459777832,4.362396240234375,0.08411502838134766,0.7700080871582031,0.3603036403656006,-1.2340970039367676,0.005912871100008488,-0.9100099205970764,0.04901960864663124,1.23905611038208,0.012397955171763897,0.952735185623169,-0.15659570693969727,-0.6937133073806763,0.20389868319034576,0.17528800666332245,0.8695735335350037,-0.4740274250507355,0.0073865195736289024,-0.14744029939174652,0.14400701224803925,0.011635004542768002,0.6696802973747253,-0.4518457353115082,-0.024427630007267,0.7907947897911072,0.2692124545574188,-2.6418237686157227,-0.3035309910774231,0.009856291115283966,0.05404520034790039,1.9613487720489502,0.23630520701408386,0.07750297337770462,0.3509830832481384,1.379820466041565,-0.04794929549098015,-0.5690327882766724,-1.2180275917053223,1.2724511623382568,-0.7007632255554199,0.0901310071349144,-0.2571072578430176,1.1563669443130493,1.8366765975952148,2.964947462081909,2.1190261840820312,-0.561349630355835,1741523105.7081273,1741523104633,0.5923915405273438,0.8778015747070312,-2.1990865667705752,1.8737991943359376,1.6070245361328126
1741523105.7549763,0.8299280107021332,-0.01460230606063419,0.10064356322835437,-0.994815382791406,0.46676525473594666,-0.1580648124217987,-0.046004269272089005,1.6083320379257202,-0.1891247034072876,12.843001365661621,0.07152652740478516,0.7547492980957031,0.2962157726287842,-1.2516448497772217,0.005149920005351305,-0.9122987985610962,0.06694895774126053,1.2333340644836426,0.01125352829694748,0.9569314122200012,-0.135233074426651,-0.6738765835762024,0.1813916265964508,0.17109178006649017,0.8779659867286682,-0.48444220423698425,-0.003960448317229748,-0.20275425910949707,0.16041046380996704,0.06847485899925232,0.8081559538841248,-0.40970757603645325,-0.03929856792092323,-0.255271852016449,-0.4219617247581482,-3.3556976318359375,-0.9801363348960876,-0.06859194487333298,-0.08783984929323196,1.2977098226547241,-0.3769325613975525,-0.04166262969374657,0.2749181389808655,1.088708519935608,1.258010983467102,-1.153201699256897,-0.09960147738456726,0.36599016189575195,-0.35974031686782837,-0.3831586241722107,-3.4306790828704834,0.6796133518218994,2.997516632080078,7.6072821617126465,2.1645750999450684,-0.7219657897949219,1741523105.7081273,1741523104633,0.5923915405273438,0.8778015747070312,-2.1990865667705752,1.8737991943359376,1.6070245361328126
1741523105.7749677,0.8167775273323059,-0.017105097192355697,0.08554062999203071,-0.9961878418604628,0.8177935481071472,-0.12137652188539505,-0.7097054123878479,-3.9696011543273926,6.554649829864502,10.900325775146484,0.06618595123291016,0.7467384338378906,0.23327229917049408,-1.2585114240646362,0.005531395319849253,-0.9107728600502014,0.08907453715801239,1.2306636571884155,0.01125352829694748,0.9569314122200012,-0.12493324279785156,-0.6624323129653931,0.1684214472770691,0.17490653693675995,0.8791103959083557,-0.48379313945770264,-0.004590142052620649,-0.3126192092895508,0.1653696447610855,0.11615930497646332,1.0034713745117188,-0.37386372685432434,-0.02228882908821106,-0.17103712260723114,-0.21252767741680145,-3.312795400619507,-0.41135919094085693,0.04087597504258156,0.10801097750663757,1.514492392539978,-0.06787677109241486,0.008294753730297089,0.00408899923786521,0.5255239605903625,0.43535932898521423,-0.4576607942581177,0.2978935241699219,0.05956609174609184,0.009064662270247936,-0.03040807880461216,-5.7459330558776855,0.2632720470428467,2.0835464000701904,9.788117408752441,1.5014276504516602,1.4294335842132568,1741523105.7081273,1741523104633,0.5923915405273438,0.8778015747070312,-2.1990865667705752,1.8737991943359376,1.6070245361328126
1741523105.7949946,0.7967759370803833,-0.018627057992002923,0.06731605553831688,-0.9975578085390965,0.8444156646728516,0.06056154891848564,-1.0156612396240234,-0.5269528031349182,-4.831929683685303,11.20254135131836,0.052071571350097656,0.7288093566894531,0.164988175034523,-1.2619446516036987,0.005531395319849253,-0.9126802682876587,0.1184481605887413,1.2340970039367676,0.01125352829694748,0.9569314122200012,-0.11539635062217712,-0.6433585286140442,0.16346226632595062,0.19359883666038513,0.881017804145813,-0.48520398139953613,-0.004932394716888666,-0.4335469603538513,0.17109178006649017,0.12607766687870026,1.1743724346160889,-0.3826478123664856,0.0004641638370230794,-0.4366718828678131,-0.5418312549591064,-3.5322108268737793,-0.12236446887254715,-0.010841353796422482,-0.11473143845796585,1.9723291397094727,0.2702893912792206,-0.00012241177319083363,-0.016318436712026596,0.5116211771965027,1.1623953580856323,-0.2505809962749481,1.010143756866455,-0.017168251797556877,-0.09401976317167282,-0.02205897495150566,-5.926671504974365,0.18827956914901733,0.11419171094894409,8.011859893798828,-0.8506705164909363,0.6535303592681885,1741523105.7081273,1741523104633,0.5923915405273438,0.8778015747070312,-2.1990865667705752,1.8737991943359376,1.6070245361328126
1741523105.8152573,0.7765308618545532,-0.017723032852611325,0.054111041667027855,-0.9983776285936171,0.61271733045578,0.039145175367593765,-0.9895722270011902,2.9039623737335205,-3.2190663814544678,11.912302017211914,0.02613067626953125,0.7173643112182617,0.09365224838256836,-1.2566040754318237,0.005531395319849253,-0.9153505563735962,0.16079194843769073,1.2421079874038696,0.011635004542768002,0.954261064529419,-0.10471503436565399,-0.622377336025238,0.16422522068023682,0.20656901597976685,0.8791103959083557,-0.48783236742019653,-0.00889459066092968,-0.54264897108078,0.15888457000255585,0.11196307092905045,1.2861448526382446,-0.4278097152709961,-0.00199506850913167,-0.779301643371582,-0.32736021280288696,-3.3821144104003906,0.3989739716053009,-0.007505370303988457,-0.13670797646045685,2.9570212364196777,0.4757521152496338,0.017690690234303474,-0.21689999103546143,0.4261070787906647,0.8550360202789307,0.08181966841220856,0.5252776145935059,-0.0665271207690239,-0.1366085559129715,-0.20611931383609772,-5.261476039886475,-0.8211045265197754,-0.6755614280700684,5.1487531661987305,-2.310840368270874,-0.058519549667835236,1741523105.9159865,1741523104733,0.636342529296875,0.9162368774414062,-1.9182419605551222,2.0890078125000002,1.6256270751953126
1741523105.8352432,0.7604437172412872,-0.019050902165644545,0.04625210506875907,-0.9987481193491098,0.3348493278026581,0.022345276549458504,-0.759642481803894,1.3010395765304565,-3.7470598220825195,9.620672225952148,-0.01354217529296875,0.7021055221557617,0.031090257689356804,-1.2493560314178467,0.005531395319849253,-0.917639434337616,0.21686884760856628,1.2512633800506592,0.01125352829694748,0.9493018984794617,-0.10051880776882172,-0.6044480204582214,0.1657511293888092,0.20733195543289185,0.8794918656349182,-0.494564414024353,-0.01887764222919941,-0.6311513185501099,0.13866636157035828,0.09288929402828217,1.3281071186065674,-0.47749602794647217,0.007595363073050976,-1.161211371421814,-0.4528946578502655,-3.075105905532837,0.4779653251171112,-0.000752772786654532,-0.1464080661535263,3.7205116748809814,0.6585784554481506,0.005402760114520788,-0.29234766960144043,0.25443458557128906,1.1114108562469482,0.08773737400770187,0.032898012548685074,0.023959167301654816,-0.4023294448852539,-0.5997241735458374,-4.097537517547607,-1.0057750940322876,-1.0975948572158813,1.7223644256591797,-2.540457248687744,0.751552164554596,1741523105.9159865,1741523104733,0.636342529296875,0.9162368774414062,-1.9182419605551222,2.0890078125000002,1.6256270751953126
1741523105.8552778,0.757372111082077,-0.016354306709200673,0.043872985109846205,-0.9989032474817631,0.08973806351423264,0.13237318396568298,-0.12068326026201248,2.966383934020996,-2.7843005657196045,9.177909851074219,-0.056267738342285156,0.6822690963745117,-0.016212711110711098,-1.2402005195617676,0.005531395319849253,-0.9222171306610107,0.2779049277305603,1.2569855451583862,0.01125352829694748,0.9473945498466492,-0.10509651154279709,-0.5861371755599976,0.1676585078239441,0.20771344006061554,0.8802548050880432,-0.5057799220085144,-0.0340103842318058,-0.700579822063446,0.12378881871700287,0.07915617525577545,1.3193331956863403,-0.5220171213150024,0.012417170219123363,-1.263033151626587,-0.6148478984832764,-2.211994171142578,0.5856808423995972,0.014177060686051846,-0.26704156398773193,4.182405948638916,0.2922143340110779,-0.004808948840945959,-0.15594163537025452,-0.4179162085056305,0.5625175833702087,0.1563611775636673,0.02482372149825096,0.020655248314142227,-0.5758219957351685,-0.6338168382644653,-3.3169500827789307,-0.7983814477920532,-0.534673810005188,-0.6971970200538635,-2.104667901992798,-0.02836412563920021,1741523105.9159865,1741523104733,0.636342529296875,0.9162368774414062,-1.9182419605551222,2.0890078125000002,1.6256270751953126
1741523105.8752584,0.7583829760551453,-0.016383918799026984,0.04439668730427914,-0.9988796230583509,-0.02857433445751667,0.023124583065509796,0.025390749797225,2.747861623764038,-2.8266353607177734,8.956681251525879,-0.08831119537353516,0.6666288375854492,-0.06427863240242004,-1.235241413116455,0.005531395319849253,-0.9317540526390076,0.33550775051116943,1.2627075910568237,0.01201647985726595,0.9454871416091919,-0.11310750246047974,-0.5804150700569153,0.17223620414733887,0.20923933386802673,0.8878843188285828,-0.5172842741012573,-0.042210597544908524,-0.7539864182472229,0.11348897218704224,0.07610437273979187,1.269359827041626,-0.5463613271713257,-0.0010603799019008875,-0.9641166925430298,-0.4333733320236206,-2.507784366607666,0.32525837421417236,-0.0005982384318485856,-0.5412593483924866,3.711029529571533,0.41693586111068726,0.06834890693426132,-0.14106449484825134,-0.19452548027038574,0.7900232672691345,0.2644725739955902,0.017024105414748192,0.5637402534484863,-0.5831736326217651,-0.4535788893699646,-2.5711395740509033,-0.45842620730400085,-0.21807217597961426,-2.850559711456299,-0.9467982649803162,-0.3650928735733032,1741523105.9159865,1741523104733,0.636342529296875,0.9162368774414062,-1.9182419605551222,2.0890078125000002,1.6256270751953126
1741523105.8953288,0.7567280828952789,-0.010423841234526611,0.04410178295485736,-0.9989726604237575,0.01371827069669962,0.19565357267856598,-0.11909569799900055,-4.441359043121338,-2.5566318035125732,9.914002418518066,-0.11501502990722656,0.6380176544189453,-0.09822995215654373,-1.2299007177352905,0.005149920005351305,-0.9500648379325867,0.38242924213409424,1.2672853469848633,0.01201647985726595,0.9409094452857971,-0.11463340371847153,-0.5724040865898132,0.17605096101760864,0.20885786414146423,0.8943694233894348,-0.53181391954422,-0.0446028895676136,-0.7803082466125488,0.09937438368797302,0.07267109304666519,1.1728465557098389,-0.5444027185440063,0.010825169272720814,-0.8021814823150635,-0.7810152173042297,-1.4306397438049316,0.35930922627449036,0.003668505232781172,-0.8305209279060364,2.978300094604492,0.2382253259420395,0.018938345834612846,-0.3506895899772644,-0.054018959403038025,0.13082267343997955,0.09032019227743149,0.005316096358001232,0.27010229229927063,-0.7074311971664429,-0.15696872770786285,-0.7815358638763428,-0.8069716691970825,-0.22887444496154785,-5.229533672332764,0.20818853378295898,0.4756157398223877,1741523105.9159865,1741523104733,0.636342529296875,0.9162368774414062,-1.9182419605551222,2.0890078125000002,1.6256270751953126
1741523105.915341,0.752417266368866,-0.0011661555303224638,0.04416337559769565,-0.9990236415306176,0.0019177787471562624,0.43562519550323486,-0.2336397022008896,1.5110719203948975,0.9340595602989197,6.7841620445251465,-0.14400672912597656,0.6059741973876953,-0.10967422276735306,-1.227230429649353,0.005149920005351305,-0.9634165167808533,0.4186694025993347,1.2691926956176758,0.011635004542768002,0.9344243407249451,-0.09594109654426575,-0.5674448609352112,0.17185473442077637,0.20237277448177338,0.9111543297767639,-0.5447767972946167,-0.0443144366145134,-0.7749675512313843,0.07915617525577545,0.05703059583902359,1.0225452184677124,-0.5368529558181763,-0.002936104778200388,-0.8720610737800598,-0.9843481779098511,-0.40777555108070374,0.1297123283147812,-0.002740730531513691,-0.6527807116508484,2.394227981567383,0.10364735126495361,-0.010161166079342365,-0.5150884985923767,1.0932058095932007,0.23078550398349762,-0.3428139388561249,-0.39739781618118286,0.7885317802429199,-0.7521460652351379,0.28194114565849304,0.4911360740661621,-0.974439799785614,-0.9368738532066345,-8.091699600219727,0.3115394711494446,-0.7330214977264404,1741523105.9159865,1741523104733,0.636342529296875,0.9162368774414062,-1.9182419605551222,2.0890078125000002,1.6256270751953126
1741523105.9353573,0.7392718195915222,0.007912579311598973,0.04147481858950894,-0.999108217617894,0.16883961856365204,0.496140718460083,-0.6710927486419678,80.82381439208984,-30.187570571899414,38.89094161987305,-0.16689586639404297,0.5891885757446289,-0.09555962681770325,-1.223797082901001,0.005149920005351305,-0.9710460305213928,0.44575417041778564,1.2653779983520508,0.01125352829694748,0.925650417804718,-0.06084534898400307,-0.5590524077415466,0.14438849687576294,0.18673227727413177,0.9290837049484253,-0.5596559643745422,-0.03963626176118851,-0.7478827834129333,0.048638131469488144,0.02994582988321781,0.8680475950241089,-0.508167564868927,0.015455244109034538,-0.7014316916465759,-0.6658281087875366,0.9256352186203003,0.2923572063446045,0.012356520630419254,-0.31233516335487366,1.5586789846420288,-0.3748556673526764,-0.039627742022275925,-0.5314124226570129,1.905903697013855,0.682395339012146,-1.6884223222732544,-0.8935189843177795,1.1135903596878052,-0.6957669258117676,0.20537464320659637,1.0689609050750732,-1.5627670288085938,-1.4996832609176636,-6.318391799926758,2.321934700012207,1.708596110343933,1741523105.9159865,1741523104733,0.636342529296875,0.9162368774414062,-1.9182419605551222,2.0890078125000002,1.6256270751953126
1741523105.9553812,0.7258211970329285,0.004315766612497971,0.04474056016373925,-0.9989893174778103,-0.22880470752716064,0.01595485769212246,-0.8152863383293152,-15.198169708251953,10.714820861816406,11.440103530883789,-0.20427989959716797,0.5914773941040039,-0.06237125024199486,-1.2196009159088135,0.00476844422519207,-0.9725719094276428,0.4537651538848877,1.2585114240646362,0.01201647985726595,0.9096284508705139,-0.03833829239010811,-0.5373083353042603,0.1337071806192398,0.1516365259885788,0.9290837049484253,-0.5764150023460388,-0.01648840866982937,-0.6994354128837585,0.045204851776361465,-0.007438773289322853,0.8852140307426453,-0.45030727982521057,0.039550650864839554,-1.1575409173965454,-0.2067723125219345,1.8301684856414795,0.21120646595954895,-0.04490310698747635,-0.042367346584796906,0.1645384132862091,-0.31662270426750183,0.10070082545280457,-0.903816819190979,0.483967125415802,1.1003990173339844,-1.193882942199707,-1.4913777112960815,-0.24659155309200287,-1.0604581832885742,1.6706939935684204,2.752255439758301,-0.0935533195734024,-1.2076393365859985,0.30440905690193176,2.479437828063965,0.7039317488670349,1741523105.9159865,1741523104733,0.636342529296875,0.9162368774414062,-1.9182419605551222,2.0890078125000002,1.6256270751953126
1741523105.9753692,0.7156147360801697,0.008125506332895067,0.04789366947190402,-0.9988193893649393,-0.13981255888938904,0.1983230710029602,-0.3912450969219208,12.007058143615723,7.4967427253723145,5.945863723754883,-0.23327255249023438,0.5720224380493164,-0.0078202486038208,-1.219982385635376,0.006294346414506435,-0.9710460305213928,0.4346913993358612,1.2569855451583862,0.01125352829694748,0.9092469811439514,-0.03376058489084244,-0.5025940537452698,0.10585946589708328,0.13179980218410492,0.9199283123016357,-0.591042160987854,0.0005163951427675784,-0.6609063744544983,0.03528648987412453,0.016212711110711098,0.840199887752533,-0.4263225495815277,0.019861740991473198,-0.8388079404830933,-0.5752266645431519,2.942603349685669,-0.07109648734331131,0.12009719759225845,0.08386147022247314,-1.2879853248596191,-0.007734119426459074,-0.0872388631105423,0.015296713449060917,0.1986677497625351,1.726791262626648,-1.3900470733642578,-1.1276322603225708,-0.2434438019990921,-0.5841231346130371,0.4752110540866852,1.9007151126861572,-0.5887158513069153,1.6823047399520874,-2.5203144550323486,1.155842661857605,-1.0558995008468628,1741523106.0156548,1741523104833,0.6987413940429688,0.9430581665039063,-1.7405544793614032,2.2803706054687503,1.643242919921875
1741523105.9954183,0.6941890120506287,0.0067373600507475715,0.04433209512400847,-0.9989941307742817,0.22705073654651642,0.024659892544150352,-1.0651377439498901,-2.532477617263794,-17.20064353942871,8.873257637023926,-0.24357223510742188,0.5579080581665039,0.05741206929087639,-1.231045126914978,0.005531395319849253,-0.9710460305213928,0.403410404920578,1.2516448497772217,0.011635004542768002,0.9081025123596191,-0.042153049260377884,-0.47627222537994385,0.08869306743144989,0.11196307092905045,0.9431982636451721,-0.5794000029563904,-0.013006764464080334,-0.6097886562347412,0.05245288833975792,0.040245670825242996,0.8226520419120789,-0.4090847969055176,0.009713741950690746,-0.35085222125053406,-0.4089488983154297,3.3922548294067383,-0.9871293306350708,0.01348292175680399,-0.003950661979615688,-2.3696327209472656,-0.4035184681415558,0.011667946353554726,0.014852424152195454,-0.6508648991584778,1.2935093641281128,-0.8044412732124329,-0.8585817217826843,1.5419564247131348,0.8930872678756714,-0.5745809078216553,2.4461076259613037,1.061637043952942,1.0236777067184448,-0.46371006965637207,0.7487200498580933,-0.5491812825202942,1741523106.0156548,1741523104833,0.6987413940429688,0.9430581665039063,-1.7405544793614032,2.2803706054687503,1.643242919921875
1741523106.0154514,0.6868399381637573,0.0031704800638437795,0.043078888725048406,-0.9990666431236606,0.02392527461051941,-0.2708812355995178,-0.38623228669166565,-6.658271312713623,0.0025263852439820766,10.619745254516602,-0.2702751159667969,0.5537118911743164,0.12760357558727264,-1.2482116222381592,0.00476844422519207,-0.9691386222839355,0.3606851398944855,1.2413450479507446,0.010109102353453636,0.9088655114173889,-0.05397878959774971,-0.49267566204071045,0.06809338182210922,0.11501488089561462,1.0137712955474854,-0.5401265621185303,-0.015499760396778584,-0.579270601272583,0.06313420087099075,0.06961929053068161,0.8127336502075195,-0.4098753035068512,0.0027063037268817425,-0.7377294301986694,-0.042789191007614136,3.4540178775787354,-0.9456798434257507,-0.1434863805770874,0.09818946570158005,-2.6954500675201416,-0.7134944200515747,-0.013730177655816078,0.040551502257585526,-0.5130656361579895,-1.226549506187439,-0.9939793348312378,0.22298133373260498,4.011380195617676,2.0270369052886963,-0.07227040827274323,1.4654872417449951,0.4686155617237091,1.3855383396148682,-0.6428800821304321,-0.05642769858241081,-0.1901979297399521,1741523106.0156548,1741523104833,0.6987413940429688,0.9430581665039063,-1.7405544793614032,2.2803706054687503,1.643242919921875
1741523106.035431,0.6899459958076477,0.0013886743884189744,0.040108091876204774,-0.9991943817643756,0.17689840495586395,-0.01718943752348423,0.21472632884979248,2.242727518081665,-0.3608874976634979,9.26120376586914,-0.3007936477661133,0.5327310562133789,0.19054703414440155,-1.2581299543380737,0.006294346414506435,-0.967231273651123,0.3133821487426758,1.2306636571884155,0.010109102353453636,0.9103913903236389,-0.06275273114442825,-0.5510414242744446,0.06046387553215027,0.12188144028186798,1.1339360475540161,-0.500004231929779,-0.00775669002905488,-0.5449378490447998,0.0722896158695221,0.07686731964349747,0.8039597272872925,-0.4138208329677582,-0.004712516907602549,-0.869258463382721,-0.5884710550308228,2.835282802581787,-0.8265213370323181,0.1010356917977333,0.09290473908185959,-3.3682847023010254,-0.6722935438156128,0.005787787958979607,0.11431194096803665,-0.321341335773468,-3.195431709289551,-0.13966770470142365,0.1547011137008667,6.376466751098633,1.9281032085418701,0.6944626569747925,1.6762217283248901,0.36811578273773193,0.2838078439235687,-0.363259881734848,-0.2702493369579315,-0.48446133732795715,1741523106.0157158,1741523104913,0.7558279418945313,0.9710147705078125,-1.6908478141785455,2.427009521484375,1.6541282958984376
1741523106.0555022,0.7018936276435852,0.0019646735329858877,0.03949711067849855,-0.9992177531979499,-0.0228230319917202,0.007752313278615475,0.6064679622650146,-4.021512508392334,-2.4727096557617188,11.986251831054688,-0.3229188919067383,0.517852783203125,0.24929426610469818,-1.2676668167114258,0.005149920005351305,-0.9618905782699585,0.25577935576438904,1.2260860204696655,0.010872052982449532,0.9103913903236389,-0.06694895774126053,-0.6338216066360474,0.05092698708176613,0.1188296303153038,1.2636377811431885,-0.47766801714897156,0.006866030395030975,-0.5170900821685791,0.07457847148180008,0.08030059933662415,0.7925154566764832,-0.4232915937900543,-0.00744426716119051,-0.646989643573761,-0.48982200026512146,3.0847511291503906,-0.46823760867118835,-0.049236029386520386,0.2834334075450897,-3.946441888809204,-0.19889360666275024,0.06826937198638916,-0.011446578428149223,-0.22956936061382294,-4.442209243774414,-0.6166478395462036,0.014878804795444012,6.320561408996582,0.9509859681129456,0.42563143372535706,1.351521611213684,0.12462206929922104,0.016166098415851593,-0.5669609904289246,-0.5676121115684509,-0.06706640869379044,1741523106.0157158,1741523104913,0.7558279418945313,0.9710147705078125,-1.6908478141785455,2.427009521484375,1.6541282958984376
1741523106.0755303,0.7198833227157593,0.0049005424963962756,0.04331451085055223,-0.9990494671601694,-0.2169681191444397,0.1398710161447525,0.8919171094894409,3.4106807708740234,1.8140531778335571,11.001540184020996,-0.3408479690551758,0.501068115234375,0.3057526648044586,-1.2680482864379883,0.005531395319849253,-0.952735185623169,0.19359883666038513,1.2283748388290405,0.01125352829694748,0.9103913903236389,-0.06351567804813385,-0.7185091972351074,0.03337911143898964,0.1203555315732956,1.3544288873672485,-0.473056435585022,-0.0033969006035476923,-0.4888609051704407,0.07343403995037079,0.07457847148180008,0.7833600640296936,-0.43969085812568665,-0.007649424485862255,-0.5451942086219788,-0.5003662705421448,2.7859513759613037,-0.03688329458236694,0.0011365010868757963,0.4067552983760834,-4.124924659729004,0.11616426706314087,0.004140254110097885,0.009897631593048573,0.27728861570358276,-4.021262168884277,-0.7784987688064575,-0.02500828355550766,4.085859298706055,0.1665342152118683,-0.5146464109420776,1.4741407632827759,-0.07855893671512604,-0.2706202268600464,-0.5437599420547485,-0.8367370367050171,-0.10235410183668137,1741523106.116707,1741523105013,0.8201195068359375,1.0110726318359375,-1.687294450263844,2.6111318359375,1.672689453125
1741523106.0955377,0.7333531379699707,0.008952105052265923,0.04748334005178927,-0.9988319139037656,-0.22235272824764252,0.18147730827331543,0.5234676599502563,1.9665063619613647,-0.47514817118644714,10.093032836914062,-0.3488597869873047,0.485809326171875,0.3580147922039032,-1.2688112258911133,0.005149920005351305,-0.9435797929763794,0.12760357558727264,1.227993369102478,0.010872052982449532,0.9119172692298889,-0.05397878959774971,-0.7887006998062134,0.025749599561095238,0.11234454810619354,1.3887617588043213,-0.47376108169555664,-0.0017032292671501637,-0.45872434973716736,0.0722896158695221,0.06542305648326874,0.7681010365486145,-0.45788756012916565,-0.009213599376380444,-0.2573854923248291,-0.45691990852355957,2.4865188598632812,-0.0640643835067749,-0.030779333785176277,0.4048178195953369,-4.460375785827637,-0.0093762231990695,-0.00419002678245306,0.06279522180557251,0.3730171322822571,-3.4872262477874756,-0.28454190492630005,-0.38942500948905945,1.2772111892700195,-0.00025727329193614423,0.18673232197761536,1.533653736114502,-0.061427947133779526,-0.3542183041572571,-0.7813403606414795,-0.9455203413963318,-0.022677788510918617,1741523106.116707,1741523105013,0.8201195068359375,1.0110726318359375,-1.687294450263844,2.6111318359375,1.672689453125
1741523106.115536,0.7328349351882935,0.012586819115659939,0.05297646897587882,-0.9985164323732472,-0.28480374813079834,0.1827009916305542,-0.1261080950498581,2.933659315109253,3.437800884246826,8.344531059265137,-0.3534374237060547,0.4686422348022461,0.4011215269565582,-1.2676668167114258,0.005531395319849253,-0.9374761581420898,0.06427863240242004,1.2291377782821655,0.01125352829694748,0.9153505563735962,-0.03757534176111221,-0.840962827205658,0.02841992862522602,0.10585946589708328,1.3715953826904297,-0.4696042239665985,-0.0033372710458934307,-0.4331654906272888,0.07305257022380829,0.05893797054886818,0.7486457824707031,-0.4779512584209442,-0.008513567969202995,-0.1498674601316452,-0.524603545665741,2.063190221786499,0.023699739947915077,-0.00039374447078444064,0.3086172044277191,-3.9969234466552734,0.10155435651540756,-0.002104029059410095,0.27642762660980225,0.9595250487327576,-2.504187822341919,0.18608596920967102,-0.347322940826416,-1.2194738388061523,0.2955709397792816,-0.12587720155715942,1.2413989305496216,0.03615599870681763,-0.2475573569536209,-0.9984222650527954,-0.9778457880020142,-0.030559251084923744,1741523106.116707,1741523105013,0.8201195068359375,1.0110726318359375,-1.687294450263844,2.6111318359375,1.672689453125
1741523106.1355453,0.7211885452270508,0.016725298590463338,0.05652793832972829,-0.9982609160811867,-0.13424888253211975,0.2987505793571472,-0.5652504563331604,2.170246124267578,2.309034585952759,8.293863296508789,-0.3572521209716797,0.4499502182006836,0.4526207447052002,-1.2718631029129028,0.005531395319849253,-0.9260318875312805,0.009346150793135166,1.23447847366333,0.01125352829694748,0.9210727214813232,-0.02231631986796856,-0.8794918656349182,0.0398641936480999,0.09708552807569504,1.3174258470535278,-0.4569486379623413,-0.005019299685955048,-0.4007400572299957,0.07457847148180008,0.05664911866188049,0.7337682247161865,-0.49764081835746765,-0.009426716715097427,-0.13691429793834686,-0.581720769405365,2.7166836261749268,-0.2698339521884918,-0.007493466138839722,0.6109609603881836,-3.600207567214966,0.43100666999816895,-0.012482068501412868,0.41067734360694885,0.661921501159668,-1.7725013494491577,0.592630922794342,-0.4704952836036682,-2.921539068222046,0.7445339560508728,0.012791983783245087,1.6774357557296753,0.09707120060920715,-0.14298637211322784,-0.6897437572479248,-1.0313060283660889,-0.15847072005271912,1741523106.116707,1741523105013,0.8201195068359375,1.0110726318359375,-1.687294450263844,2.6111318359375,1.672689453125
1741523106.1555696,0.7138001918792725,0.02257760235222723,0.055885829142727536,-0.9981818601703072,0.050533562898635864,0.3096351623535156,-0.3297620713710785,2.625929117202759,-1.475756049156189,9.590710639953613,-0.3622112274169922,0.4362173080444336,0.49076828360557556,-1.2703371047973633,0.005531395319849253,-0.9180209040641785,-0.04100862145423889,1.2413450479507446,0.01125352829694748,0.9321355223655701,-0.024986648932099342,-0.8997100591659546,0.059319447726011276,0.09327077120542526,1.2384604215621948,-0.4353610575199127,-0.002621440449729562,-0.3755626678466797,0.0722896158695221,0.05359731614589691,0.7207980751991272,-0.5192128419876099,-0.011881734244525433,-0.13476987183094025,-0.3953858017921448,1.6183583736419678,0.10410195589065552,-0.0005912623601034284,0.2934468984603882,-3.373173952102661,0.2522050142288208,0.0018081185407936573,0.8190280795097351,-0.37060800194740295,-0.8195675015449524,1.041326880455017,-0.1662154495716095,-4.134679794311523,1.1181120872497559,0.13598869740962982,1.2522361278533936,-0.1689348667860031,-0.13681374490261078,-0.5582319498062134,-1.0110104084014893,-0.15776924788951874,1741523106.116707,1741523105013,0.8201195068359375,1.0110726318359375,-1.687294450263844,2.6111318359375,1.672689453125
1741523106.1756508,0.714781641960144,0.030074229672648646,0.055713269521434475,-0.9979937736823956,0.014633300714194775,0.3849598169326782,0.08166403323411942,2.1370248794555664,-0.4862562417984009,8.972623825073242,-0.3728923797607422,0.4152364730834961,0.4999237060546875,-1.2691926956176758,0.005531395319849253,-0.9153505563735962,-0.07495994865894318,1.236767292022705,0.01125352829694748,0.9443427324295044,-0.04291599988937378,-0.889028787612915,0.08869306743144989,0.09784847497940063,1.1366063356399536,-0.4131704270839691,-0.00033246687962673604,-0.34924086928367615,0.0715266615152359,0.05436026677489281,0.7104982137680054,-0.5390485525131226,-0.013643511570990086,-0.30197057127952576,-0.6140543222427368,0.2697499990463257,0.024934519082307816,-0.004990874789655209,0.11812080442905426,-1.8571631908416748,-0.37319886684417725,-0.016516393050551414,0.8557599186897278,-0.9363507032394409,0.7933318614959717,1.5342727899551392,0.36727476119995117,-5.238149642944336,1.0339579582214355,0.1896257996559143,1.3883599042892456,0.0756247341632843,0.06187213957309723,-0.5867790579795837,-1.0180342197418213,-0.06229402497410774,1741523106.2190151,1741523105133,0.88544970703125,1.077486083984375,-1.6311066554659068,2.827154296875,1.695988525390625
1741523106.1956177,0.717878520488739,0.03704203920339016,0.05593585205773218,-0.9977469958793311,-0.04612986370921135,0.3331059515476227,0.1582726538181305,8.418310165405273,-2.3986597061157227,6.557168483734131,-0.3786144256591797,0.4060802459716797,0.49458304047584534,-1.2676668167114258,0.005531395319849253,-0.9130617380142212,-0.08411535620689392,1.2299007177352905,0.010872052982449532,0.9557870030403137,-0.0551232174038887,-0.8588922023773193,0.11158160120248795,0.1192111074924469,1.0133898258209229,-0.4055519104003906,0.005644796881824732,-0.3110933005809784,0.08487831056118011,0.05893797054886818,0.6940947771072388,-0.556456446647644,-0.009809911251068115,-0.17431241273880005,-0.32885292172431946,-0.3676045536994934,0.1576891839504242,-0.004625183995813131,0.08345437794923782,-0.43283960223197937,-0.43198519945144653,0.0025108952540904284,0.7106277346611023,-0.5822503566741943,1.536487340927124,0.9675308465957642,1.0202186107635498,-6.4208173751831055,0.18653126060962677,0.2757314443588257,2.071146011352539,0.8166114687919617,0.25623422861099243,-0.8393848538398743,-0.7464384436607361,0.15534554421901703,1741523106.2190151,1741523105133,0.88544970703125,1.077486083984375,-1.6311066554659068,2.827154296875,1.695988525390625
1741523106.2156374,0.7223541736602783,0.037392182359722616,0.06103552809963575,-0.997434954775486,-0.30210110545158386,0.01199286337941885,0.24759843945503235,2.281064033508301,4.241630554199219,1.8185904026031494,-0.3866252899169922,0.4053173065185547,0.47703516483306885,-1.2608002424240112,0.005531395319849253,-0.9126802682876587,-0.07419699430465698,1.227993369102478,0.01125352829694748,0.9626535177230835,-0.04749370738863945,-0.8173113465309143,0.12874799966812134,0.13790340721607208,0.881017804145813,-0.42383092641830444,0.010530870407819748,-0.2630273997783661,0.10662241280078888,0.06198977679014206,0.6742580533027649,-0.5521641969680786,-0.0037881701719015837,-0.2305038571357727,-0.07065600156784058,-1.0063107013702393,0.45188310742378235,-0.009958872571587563,0.0021786848083138466,0.9246922731399536,-0.06620084494352341,-0.0065185329876840115,0.4081054925918579,0.6699806451797485,2.146756887435913,0.885319173336029,0.7819028496742249,-6.587413787841797,-1.2074958086013794,0.19491781294345856,2.490770101547241,1.1186023950576782,-0.10890570282936096,-0.8799512386322021,0.5343241095542908,0.5593946576118469,1741523106.2190151,1741523105133,0.88544970703125,1.077486083984375,-1.6311066554659068,2.827154296875,1.695988525390625
1741523106.2356713,0.7231470346450806,0.03564493224787876,0.06884341764726232,-0.9969904827287414,-0.41685330867767334,-0.11961165815591812,0.017657745629549026,-1.840214490890503,3.5623836517333984,-0.8280516266822815,-0.3889141082763672,0.3988323211669922,0.4488059878349304,-1.2539336681365967,0.005149920005351305,-0.9126802682876587,-0.048638131469488144,1.230282187461853,0.01125352829694748,0.9664682745933533,-0.018501564860343933,-0.7795453071594238,0.1363775134086609,0.13065537810325623,0.7803082466125488,-0.4548370838165283,0.004602049011737108,-0.22182802855968475,0.12569619715213776,0.04329747334122658,0.6742580533027649,-0.5153031349182129,-4.4517393689602613e-05,-0.10607530176639557,-0.18346165120601654,-1.3970016241073608,0.41559505462646484,-0.03192315623164177,-0.009960658848285675,1.8675570487976074,0.10826077312231064,0.010156414471566677,0.21428389847278595,1.5168508291244507,1.6149498224258423,0.3164064288139343,-0.6504555940628052,-4.4602766036987305,-1.0889678001403809,-0.5451807975769043,1.8365755081176758,0.8311576843261719,-1.0230971574783325,0.27068892121315,1.8827322721481323,-0.17171870172023773,1741523106.2190151,1741523105133,0.88544970703125,1.077486083984375,-1.6311066554659068,2.827154296875,1.695988525390625
1741523106.2556663,0.7225083708763123,0.03244723353377072,0.07556623946565642,-0.9966127234232082,-0.16772711277008057,-0.005073851905763149,0.10995331406593323,-2.6025760173797607,18.77306365966797,7.11537504196167,-0.3881511688232422,0.3927288055419922,0.4091325104236603,-1.2463041543960571,0.005531395319849253,-0.9073395729064941,-0.01430533267557621,1.232571005821228,0.010109102353453636,0.9653238654136658,0.02231631986796856,-0.7688639760017395,0.12912946939468384,0.10776684433221817,0.8356221914291382,-0.44053977727890015,-0.010159866884350777,-0.21686884760856628,0.11425192654132843,0.01506828423589468,0.734149694442749,-0.4815225899219513,-0.03216726705431938,-0.07906803488731384,-0.10842201113700867,-2.202270984649658,0.5558266043663025,0.02101871371269226,0.3401057720184326,2.4148008823394775,0.23581331968307495,-0.12725794315338135,-0.06621857732534409,2.3274290561676025,0.2823660373687744,-0.46403563022613525,-1.2968709468841553,3.0449981689453125,0.5597350001335144,-0.8187143802642822,-0.15585896372795105,-0.3456721305847168,-1.5859874486923218,3.5420472621917725,1.5956306457519531,-2.024009943008423,1741523106.2190151,1741523105133,0.88544970703125,1.077486083984375,-1.6311066554659068,2.827154296875,1.695988525390625
1741523106.2757096,0.7116021513938904,0.029508890390190258,0.06708292510369122,-0.9973109377458328,0.38982924818992615,-0.2764380872249603,-0.5703558921813965,-0.6423013210296631,-3.748828887939453,8.358949661254883,-0.3740367889404297,0.3915843963623047,0.33665215969085693,-1.2466856241226196,0.005912871100008488,-0.9107728600502014,0.024605173617601395,1.232571005821228,0.011635004542768002,0.9626535177230835,0.04749370738863945,-0.7753490209579468,0.12531471252441406,0.08030059933662415,0.8619440197944641,-0.42400720715522766,-0.058319833129644394,-0.2779049277305603,0.11043716967105865,-0.012779430486261845,0.8737697601318359,-0.4448140561580658,-0.048026639968156815,0.292402058839798,0.15541110932826996,-3.8562796115875244,-0.23529745638370514,0.010040114633738995,-0.27442172169685364,2.5270888805389404,-0.040883105248212814,0.14832529425621033,-0.23322057723999023,1.0152199268341064,0.13989722728729248,-0.17827236652374268,-1.1227357387542725,0.6496519446372986,0.7224177718162537,-1.7969727516174316,-3.586548328399658,-0.48573681712150574,-0.9340129494667053,7.497812747955322,1.866482138633728,-0.6209101676940918,1741523106.2190151,1741523105133,0.88544970703125,1.077486083984375,-1.6311066554659068,2.827154296875,1.695988525390625
1741523106.2957342,0.6946229934692383,0.028566597644810173,0.06575395976549987,-0.9974268726448854,0.08445935696363449,0.0595126710832119,-0.9198592305183411,-2.3581960201263428,3.8862483501434326,13.191916465759277,-0.3946361541748047,0.3782329559326172,0.25196459889411926,-1.2470670938491821,0.005149920005351305,-0.9149690866470337,0.06733043491840363,1.23600435256958,0.010490577667951584,0.9603646993637085,0.05970092490315437,-0.7444495558738708,0.11959258466959,0.08602273464202881,0.8642328381538391,-0.40704846382141113,-0.028662804514169693,-0.3717479109764099,0.10090028494596481,-0.01583123579621315,1.0595483779907227,-0.4113064408302307,-0.025690358132123947,-0.5831567645072937,-0.2454797923564911,-4.111573219299316,0.08559821546077728,-0.03090188093483448,-0.10769141465425491,2.904170513153076,0.3733251094818115,-0.09307283908128738,-0.1489046812057495,0.6270451545715332,1.3451496362686157,-0.20335768163204193,0.1759890615940094,0.3516489565372467,0.9820738434791565,1.589255690574646,-4.882542610168457,-0.3449314534664154,-0.27870064973831177,9.224342346191406,1.4884494543075562,1.596378207206726,1741523106.2190151,1741523105133,0.88544970703125,1.077486083984375,-1.6311066554659068,2.827154296875,1.695988525390625
1741523106.3157418,0.6670072674751282,0.023472326937955756,0.056533488643125775,-0.998124748981787,0.4864371120929718,-0.2627304792404175,-1.4087650775909424,-6.780855655670166,-4.473642349243164,13.730338096618652,-0.3747997283935547,0.3824291229248047,0.17643244564533234,-1.2440153360366821,0.005149920005351305,-0.9126802682876587,0.11768520623445511,1.2440153360366821,0.012397955171763897,0.9576943516731262,0.08144503086805344,-0.7249943017959595,0.12188144028186798,0.0864042118191719,0.8745326995849609,-0.3911498785018921,-0.025144262239336967,-0.47741663455963135,0.10128175467252731,-0.0394827201962471,1.2121385335922241,-0.41193148493766785,0.00494192773476243,0.5494890213012695,0.16074369847774506,-3.8562021255493164,0.16012194752693176,-0.0063439528457820415,0.05608608201146126,3.358858346939087,0.4477626085281372,0.14299985766410828,-0.19299514591693878,1.110072374343872,1.0302340984344482,0.1554398387670517,0.045605335384607315,0.3270241618156433,0.6410164833068848,-0.11176507920026779,-5.092922210693359,-0.17867620289325714,-1.394726037979126,7.304666042327881,-0.49333032965660095,1.0352909564971924,1741523106.2190151,1741523105133,0.88544970703125,1.077486083984375,-1.6311066554659068,2.827154296875,1.695988525390625
1741523106.3357527,0.6332703232765198,0.015900105754116465,0.05327916185511242,-0.9984530622663365,0.16438254714012146,-0.28560301661491394,-1.6785634756088257,0.5193467736244202,-0.24210254848003387,11.894265174865723,-0.3915843963623047,0.3793773651123047,0.10128175467252731,-1.2409635782241821,0.005149920005351305,-0.9130617380142212,0.17223620414733887,1.2543151378631592,0.01201647985726595,0.9538795948028564,0.11234454810619354,-0.6906614899635315,0.12722209095954895,0.08907453715801239,0.8745326995849609,-0.388182669878006,-0.02829141356050968,-0.5628671646118164,0.08449683338403702,-0.07534141838550568,1.3078888654708862,-0.4501395523548126,-0.003430277341976762,-0.4506538212299347,-0.004121639300137758,-3.714874029159546,0.2202846258878708,-0.005693259183317423,-0.00870739109814167,3.7700092792510986,0.6936197280883789,-0.022511018440127373,-0.29613304138183594,1.5543758869171143,1.7081326246261597,0.26150014996528625,0.1966131329536438,-0.007299017161130905,0.06483680009841919,-0.1055842936038971,-4.309744358062744,-1.005427360534668,-1.7982817888259888,4.365390777587891,-2.0470755100250244,-0.29771751165390015,1741523106.2190151,1741523105133,0.88544970703125,1.077486083984375,-1.6311066554659068,2.827154296875,1.695988525390625
1741523106.3557975,0.5974576473236084,0.00698799959529839,0.05131079334168737,-0.9986582850746809,0.14277774095535278,-0.35140150785446167,-1.8021470308303833,-0.531226634979248,0.9055991768836975,10.446077346801758,-0.3965435028076172,0.3759441375732422,0.03528648987412453,-1.2363858222961426,0.005149920005351305,-0.9130617380142212,0.23479819297790527,1.2604187726974487,0.01201647985726595,0.9477760195732117,0.13103684782981873,-0.6593804955482483,0.134470134973526,0.09708552807569504,0.8710994124412537,-0.3929685354232788,-0.035175666213035583,-0.6330586671829224,0.0558861680328846,-0.11463340371847153,1.342221736907959,-0.49681994318962097,0.006015639286488295,-0.17103008925914764,-0.06941238790750504,-3.330484390258789,0.3047419488430023,-0.01051580160856247,0.01473870687186718,4.337488174438477,0.3594779968261719,-0.013317564502358437,-0.4015688896179199,0.6469457745552063,1.5569274425506592,0.4056148827075958,0.3379960060119629,-0.202911838889122,-0.28357839584350586,-0.5044919848442078,-3.411451816558838,-1.3594374656677246,-2.0121283531188965,1.3519041538238525,-2.352689504623413,0.6221188306808472,1741523106.2190151,1741523105133,0.88544970703125,1.077486083984375,-1.6311066554659068,2.827154296875,1.695988525390625
1741523106.3803914,0.5704622864723206,0.0017206479919664246,0.043625495891151375,-0.999046473132626,0.40885868668556213,-0.2336023896932602,-1.1779474020004272,-5.139585971832275,-4.100445747375488,10.919164657592773,-0.4049358367919922,0.3645000457763672,-0.012397955171763897,-1.2306636571884155,0.005912871100008488,-0.9103913903236389,0.2969787120819092,1.2608002424240112,0.010490577667951584,0.9416723847389221,0.1359960287809372,-0.6322957277297974,0.14553292095661163,0.11348897218704224,0.8646143078804016,-0.40383684635162354,-0.05350875481963158,-0.6929503083229065,0.03185320645570755,-0.13866636157035828,1.3315403461456299,-0.5361533164978027,0.005767920054495335,-0.2442384511232376,-0.31389594078063965,-2.275205135345459,0.35938701033592224,0.062275514006614685,0.1424618661403656,4.230884075164795,-0.08940885215997696,-0.10001417994499207,-0.44477102160453796,0.14335447549819946,1.5332738161087036,0.5654940605163574,1.0282443761825562,-0.26566529273986816,-0.5669565200805664,-0.8375799059867859,-3.087831497192383,-1.233884334564209,-1.0310475826263428,-0.8524734377861023,-1.7628847360610962,-0.40878215432167053,1741523106.529939,1741523105333,1.0150045776367187,1.1825916748046876,-1.7122625393494866,3.16965185546875,1.7266806640625
1741523106.3958154,0.5522511601448059,0.005086329254593643,0.03677450071524474,-0.9993106450708199,0.34198829531669617,0.23327821493148804,-0.9520092606544495,-0.1663564145565033,0.09596549719572067,10.519306182861328,-0.4118032455444336,0.3427553176879883,-0.06198977679014206,-1.2299007177352905,0.005531395319849253,-0.9119172692298889,0.35191118717193604,1.2577484846115112,0.010490577667951584,0.9298466444015503,0.12912946939468384,-0.5960555672645569,0.16079194843769073,0.13218127191066742,0.8607995510101318,-0.41622015833854675,-0.06075502559542656,-0.7387273907661438,0.009346150793135166,-0.14019227027893066,1.2857633829116821,-0.5468732714653015,0.004651933442801237,-0.18546131253242493,-0.6467987895011902,-2.6768364906311035,-0.04897655174136162,0.05083134397864342,-0.12416934967041016,3.5571181774139404,-0.20750822126865387,0.030696038156747818,-0.8749023079872131,-0.2820504605770111,1.6661617755889893,0.7789963483810425,0.8355976343154907,-0.2858285903930664,-0.653713047504425,-0.5400187969207764,-1.9625588655471802,-1.0800144672393799,-0.004830827470868826,-2.4988174438476562,-0.2562147080898285,0.22522737085819244,1741523106.529939,1741523105333,1.0150045776367187,1.1825916748046876,-1.7122625393494866,3.16965185546875,1.7266806640625
1741523106.4159176,0.5395645499229431,0.012392009079483972,0.03004748430256579,-0.9994716538241897,0.3260352611541748,0.3350098729133606,-0.5857715010643005,-0.32073336839675903,3.2562203407287598,10.657922744750977,-0.4163808822631836,0.3301668167114258,-0.10585946589708328,-1.23295259475708,0.005149920005351305,-0.9172579646110535,0.39539939165115356,1.2592743635177612,0.010872052982449532,0.9119172692298889,0.13103684782981873,-0.5628671646118164,0.1676585078239441,0.13790340721607208,0.8600366115570068,-0.42906108498573303,-0.06967119872570038,-0.7665750980377197,-0.01583123579621315,-0.14019227027893066,1.204890489578247,-0.5267597436904907,0.01909543015062809,-0.12270677834749222,-0.35212430357933044,-2.0615711212158203,-0.20896847546100616,-0.02075423114001751,-0.13319963216781616,2.8574228286743164,0.20591208338737488,0.04215531796216965,-1.3293168544769287,0.3366933763027191,1.6571192741394043,0.20531724393367767,0.17100150883197784,-0.03697701916098595,-0.6513242721557617,-0.2840920090675354,-1.2399743795394897,-1.408292531967163,0.06757624447345734,-4.513153553009033,1.1975661516189575,0.7041329741477966,1741523106.529939,1741523105333,1.0150045776367187,1.1825916748046876,-1.7122625393494866,3.16965185546875,1.7266806640625
1741523106.4358606,0.5201874375343323,0.01602981127997224,0.027575019960601434,-0.9994912022746878,0.11045337468385696,0.18506264686584473,-1.034957766532898,2.357180118560791,-1.5721302032470703,6.914604663848877,-0.4163808822631836,0.3233003616333008,-0.1184481605887413,-1.233715534210205,0.005149920005351305,-0.9126802682876587,0.439269095659256,1.2649965286254883,0.011635004542768002,0.8802548050880432,0.16155488789081573,-0.5323491096496582,0.1661325991153717,0.13027389347553253,0.8607995510101318,-0.4411695599555969,-0.07062121480703354,-0.7722972631454468,-0.05130846053361893,-0.14553292095661163,1.0809109210968018,-0.48809921741485596,0.017518002539873123,0.0075652459636330605,-0.2251087874174118,-0.3277948796749115,-0.017370183020830154,-0.008369547314941883,0.2943592071533203,2.6405670642852783,0.31578466296195984,-0.00986865721642971,-2.037889003753662,1.6953701972961426,1.6064459085464478,-0.15645720064640045,-0.456098735332489,0.08247470110654831,-0.6231823563575745,0.1694076508283615,-0.027996454387903214,-1.8069672584533691,-0.38003623485565186,-6.615128993988037,1.944307804107666,-0.08667127043008804,1741523106.529939,1741523105333,1.0150045776367187,1.1825916748046876,-1.7122625393494866,3.16965185546875,1.7266806640625
1741523106.455875,0.49842000007629395,0.014754240556553359,0.027946435615210482,-0.9995005298257746,0.014655292965471745,-0.08660097420215607,-1.2344169616699219,7.436127185821533,-1.398930549621582,6.386507987976074,-0.4163808822631836,0.3339815139770508,-0.10814831405878067,-1.2306636571884155,0.005149920005351305,-0.9023804068565369,0.45681697130203247,1.2642335891723633,0.011635004542768002,0.8501182794570923,0.20618753135204315,-0.4957274794578552,0.1501106321811676,0.10471503436565399,0.8615625500679016,-0.4515612721443176,-0.06540840864181519,-0.7558938264846802,-0.08525978773832321,-0.164988175034523,0.9214541912078857,-0.4448799788951874,0.008096431382000446,-0.004839595407247543,0.31903889775276184,0.6419853568077087,0.19226522743701935,-0.004316284786909819,0.4673615097999573,1.0591646432876587,-0.03385734558105469,0.022893298417329788,-2.077944040298462,2.314844846725464,1.8227514028549194,-1.1566474437713623,-1.3502439260482788,0.004755792208015919,-0.5317378044128418,0.3238815665245056,0.9908506274223328,-1.5735780000686646,-1.278398871421814,-8.166006088256836,2.1783387660980225,-0.4936171770095825,1741523106.529939,1741523105333,1.0150045776367187,1.1825916748046876,-1.7122625393494866,3.16965185546875,1.7266806640625
1741523106.4759214,0.4626050591468811,0.005916061759390851,0.02565327446542562,-0.9996533947936458,0.11261796206235886,-0.35108259320259094,-1.5763262510299683,0.8027525544166565,-4.7459797859191895,9.760398864746094,-0.4137105941772461,0.3385591506958008,-0.0722896158695221,-1.227230429649353,0.00476844422519207,-0.8901731967926025,0.45986875891685486,1.2608002424240112,0.01125352829694748,0.8241779208183289,0.2462424635887146,-0.46025025844573975,0.1192111074924469,0.06694895774126053,0.8569847941398621,-0.46104395389556885,-0.048556096851825714,-0.6960021257400513,-0.1024261862039566,-0.23861294984817505,0.8756771087646484,-0.36922523379325867,-0.03677079826593399,0.0794307291507721,0.2086404263973236,1.854081392288208,0.1925683319568634,-0.028570888563990593,0.5894184708595276,0.031096458435058594,-0.30633634328842163,-0.007846529595553875,-1.757938027381897,1.679409146308899,1.8202959299087524,-1.2326911687850952,-2.014413595199585,-0.4038494825363159,-0.43710172176361084,0.9041953682899475,3.57623028755188,-0.3271002471446991,-3.9133102893829346,-0.5293786525726318,3.6286723613739014,-2.203096866607666,1741523106.529939,1741523105333,1.0150045776367187,1.1825916748046876,-1.7122625393494866,3.16965185546875,1.7266806640625
1741523106.495915,0.4317070245742798,0.0033847648281318523,0.02687055947670734,-0.9996331909257851,-0.013637044467031956,-0.08985316753387451,-1.4217051267623901,6.570286750793457,6.59808874130249,10.814077377319336,-0.4278249740600586,0.3286409378051758,-0.014686808921396732,-1.228756308555603,0.005531395319849253,-0.8806362748146057,0.4365987777709961,1.2596558332443237,0.01125352829694748,0.8146410584449768,0.25425344705581665,-0.4091325104236603,0.08030059933662415,0.01926451548933983,0.8325703740119934,-0.46918851137161255,-0.01980874501168728,-0.6414511203765869,-0.09441519528627396,-0.2607385218143463,0.8405813574790955,-0.3199962377548218,-0.07193133234977722,-0.4049343764781952,-0.24048733711242676,2.8422579765319824,-0.1530219316482544,0.04905262589454651,0.3887437880039215,-1.7511485815048218,0.01434155274182558,-0.012194021604955196,-0.35409048199653625,0.24191898107528687,2.801351547241211,-1.8810657262802124,-2.294058322906494,-1.1524358987808228,-0.1726706176996231,1.2353774309158325,2.2575457096099854,0.27537137269973755,-0.24725520610809326,-2.485590696334839,2.260392427444458,-1.3083083629608154,1741523106.529939,1741523105333,1.0150045776367187,1.1825916748046876,-1.7122625393494866,3.16965185546875,1.7266806640625
1741523106.5159538,0.40316593647003174,0.004062803926568841,0.026964766129099944,-0.999628128361671,-0.04852552339434624,0.13737452030181885,-1.4551197290420532,-22.058719635009766,-1.9587575197219849,17.21705436706543,-0.4159994125366211,0.3206300735473633,0.046730753034353256,-1.2436338663101196,0.005531395319849253,-0.8821622133255005,0.4060807228088379,1.2600373029708862,0.01125352829694748,0.8184558153152466,0.23441672325134277,-0.36907759308815,0.05664911866188049,-0.03795681521296501,0.8310444951057434,-0.4526319205760956,-0.02219812199473381,-0.5811780095100403,-0.06466010212898254,-0.20733195543289185,0.8062485456466675,-0.2888890504837036,-0.06973662227392197,0.2812812924385071,-0.20873838663101196,2.8611466884613037,-1.1148085594177246,-0.020764607936143875,-0.1365271657705307,-2.234496831893921,-0.07220830768346786,-0.0028812880627810955,0.3863668739795685,-1.2935696840286255,1.6196504831314087,-0.8560106158256531,-3.0218584537506104,0.5146558880805969,1.0682324171066284,-0.11400057375431061,3.597578763961792,1.6536829471588135,3.549760580062866,-1.046204686164856,1.3524420261383057,0.23823875188827515,1741523106.529939,1741523105333,1.0150045776367187,1.1825916748046876,-1.7122625393494866,3.16965185546875,1.7266806640625
1741523106.53599,0.389188289642334,0.009783883941831457,0.031329392947938156,-0.9994612272382188,-0.2208777815103531,0.16292472183704376,-0.6746275424957275,-1.188174843788147,0.9515318870544434,7.452793121337891,-0.4175252914428711,0.3137636184692383,0.10509651154279709,-1.2596558332443237,0.005531395319849253,-0.89131760597229,0.36297398805618286,1.2657594680786133,0.01201647985726595,0.8325703740119934,0.1974135935306549,-0.3770885765552521,0.045204851776361465,-0.09327077120542526,0.9073395729064941,-0.41591721773147583,-0.011447959579527378,-0.5518043637275696,-0.018501564860343933,-0.15735866129398346,0.7906080484390259,-0.2892649173736572,-0.06893493235111237,-0.015237941406667233,-0.20308008790016174,2.9969539642333984,-0.9954414963722229,-0.019174404442310333,-0.5067078471183777,-2.879749298095703,0.47348514199256897,0.10020734369754791,1.0340420007705688,-1.8417991399765015,-1.3993055820465088,-0.7788136601448059,-2.6427083015441895,4.271886825561523,1.917232632637024,0.5691910982131958,1.0004956722259521,2.3109793663024902,2.1309316158294678,-1.0351482629776,-0.22804594039916992,-0.11000935733318329,1741523106.530011,1741523105433,1.107464599609375,1.22163623046875,-1.6577372866684275,3.32863720703125,1.7428741455078125
1741523106.5559983,0.3856204152107239,0.018833389833328253,0.03493852944089612,-0.9992119908147087,-0.21760597825050354,0.704993486404419,-0.10013733059167862,2.292548418045044,4.652288436889648,8.731487274169922,-0.4068441390991211,0.3107118606567383,0.1646067053079605,-1.2726260423660278,0.005531395319849253,-0.9050507545471191,0.3130006790161133,1.2676668167114258,0.01125352829694748,0.8554589152336121,0.1684214472770691,-0.4549095928668976,0.024605173617601395,-0.1325627565383911,1.0599298477172852,-0.3741590976715088,0.0014540355186909437,-0.5182345509529114,0.01773861236870289,-0.12912946939468384,0.778019368648529,-0.31013521552085876,-0.07287844270467758,0.3022962808609009,-0.20243915915489197,2.693976402282715,-0.8565255999565125,-0.00232487078756094,-0.7632784247398376,-3.559129238128662,0.03493010252714157,-0.12630902230739594,1.604057788848877,-1.2547485828399658,-3.8763303756713867,-1.1204800605773926,-1.7715505361557007,8.48531723022461,1.9107697010040283,0.7939945459365845,2.035187005996704,1.8314628601074219,1.1722455024719238,-0.48102131485939026,-1.0370304584503174,0.004886808339506388,1741523106.530011,1741523105433,1.107464599609375,1.22163623046875,-1.6577372866684275,3.32863720703125,1.7428741455078125
1741523106.5759897,0.38646483421325684,0.025829949452327125,0.04073876844740108,-0.9988359056705357,-0.28648313879966736,0.21261818706989288,0.04097703844308853,-0.9256922602653503,-4.515303134918213,9.621062278747559,-0.4053173065185547,0.3244447708129883,0.22144655883312225,-1.2806370258331299,0.005531395319849253,-0.9225986003875732,0.2508201599121094,1.2657594680786133,0.01201647985726595,0.8806362748146057,0.1497291475534439,-0.5727855563163757,-0.000572213320992887,-0.14858472347259521,1.2495231628417969,-0.3590720295906067,0.011022502556443214,-0.4987792670726776,0.039101243019104004,-0.11005569249391556,0.7562752962112427,-0.3308566212654114,-0.06436122953891754,0.06434614211320877,0.3534711003303528,2.7811577320098877,-0.46048498153686523,-0.00510690500959754,-0.8028808236122131,-4.0144548416137695,-0.1474645733833313,0.1283397525548935,1.6479222774505615,-0.9257324934005737,-6.20904016494751,-1.2597330808639526,-0.5973080396652222,8.996905326843262,0.4506833851337433,0.34115079045295715,0.7847820520401001,0.7201111912727356,0.9549871683120728,-1.3080888986587524,-1.0516548156738281,0.2529591917991638,1741523106.530011,1741523105433,1.107464599609375,1.22163623046875,-1.6577372866684275,3.32863720703125,1.7428741455078125
1741523106.5960226,0.39135074615478516,0.034470076264181894,0.04849958105853515,-0.9982282326599905,-0.38696715235710144,0.5597403049468994,0.22939260303974152,1.358266830444336,-0.09456884115934372,8.590871810913086,-0.3927288055419922,0.3194856643676758,0.2794308364391327,-1.2825443744659424,0.005531395319849253,-0.9374761581420898,0.1848248988389969,1.2627075910568237,0.010872052982449532,0.9046692848205566,0.14095520973205566,-0.6929503083229065,-0.03147173300385475,-0.13828489184379578,1.3994430303573608,-0.37321218848228455,0.006087966728955507,-0.465209424495697,0.043678950518369675,-0.10128175467252731,0.7410162687301636,-0.3494715690612793,-0.06622924655675888,0.3097304105758667,-0.14468418061733246,2.973080635070801,-0.059665098786354065,-0.00938580185174942,-0.7154050469398499,-4.4208502769470215,-0.17473381757736206,-0.09465590864419937,1.5771735906600952,-0.24138717353343964,-5.9257917404174805,-1.5621778964996338,0.8004120588302612,6.983804225921631,-0.9162222146987915,-0.2772989869117737,2.0834217071533203,0.34695062041282654,0.40850237011909485,-0.6284723281860352,-0.8683921694755554,0.0893159881234169,1741523106.530011,1741523105433,1.107464599609375,1.22163623046875,-1.6577372866684275,3.32863720703125,1.7428741455078125
1741523106.61604,0.3946661353111267,0.04024571355188987,0.05127059651938225,-0.9978735433276332,-0.07003641128540039,0.12056160718202591,0.12360134720802307,0.22386594116687775,3.4404308795928955,11.08145523071289,-0.3793773651123047,0.3217744827270508,0.33474478125572205,-1.2825443744659424,0.005531395319849253,-0.9431982636451721,0.11768520623445511,1.2566040754318237,0.01125352829694748,0.9237430095672607,0.14248111844062805,-0.7993820309638977,-0.049782559275627136,-0.11539635062217712,1.4742122888565063,-0.40505877137184143,0.0036162894684821367,-0.4362172782421112,0.04444190114736557,-0.086785688996315,0.7192721366882324,-0.36990365386009216,-0.05294312536716461,0.4018554389476776,0.07788839936256409,2.806826114654541,-0.012905241921544075,-0.008845867589116096,-0.18322362005710602,-4.4553046226501465,-0.42758405208587646,0.0523788183927536,1.1391772031784058,-0.13883645832538605,-5.319643020629883,-0.6152312159538269,1.293436050415039,3.002939462661743,-1.5780006647109985,-0.16566532850265503,1.2648446559906006,-0.03460158035159111,0.7153303623199463,-1.1923105716705322,-1.120284080505371,0.5828028321266174,1741523106.530011,1741523105433,1.107464599609375,1.22163623046875,-1.6577372866684275,3.32863720703125,1.7428741455078125
1741523106.636069,0.393673837184906,0.046104737550091035,0.04666762185444025,-0.997845923099297,0.25466302037239075,0.4000590741634369,-0.043190523982048035,0.1492404341697693,2.9710891246795654,8.662214279174805,-0.3519115447998047,0.3049898147583008,0.38166627287864685,-1.2821629047393799,0.005531395319849253,-0.9435797929763794,0.05664911866188049,1.2474485635757446,0.010872052982449532,0.9370946884155273,0.1329442262649536,-0.8802548050880432,-0.05359731614589691,-0.08258945494890213,1.4665827751159668,-0.4310952425003052,-0.00011328409891575575,-0.39539939165115356,0.042153049260377884,-0.0711451917886734,0.7024872303009033,-0.3966379761695862,-0.04740848392248154,0.7161977887153625,-0.5784247517585754,2.1986467838287354,0.0867496132850647,-0.013415880501270294,-0.03082767315208912,-4.024646759033203,-0.6044420003890991,-0.0811181366443634,0.8376400470733643,-0.29892757534980774,-4.084521770477295,-0.31885862350463867,1.8892890214920044,-0.8891265392303467,-1.2042344808578491,-0.22747664153575897,2.4347331523895264,-0.11733736842870712,1.079187035560608,-0.7336059212684631,-1.323891520500183,0.2687327563762665,1741523106.740175,1741523105633,1.2844549560546876,1.3167281494140626,-1.4688561593722163,3.6402905273437502,1.7735257568359375
1741523106.6561089,0.38127219676971436,0.052787884107216576,0.0389374703749018,-0.9978463372144465,0.43209367990493774,0.25102633237838745,-0.6440382599830627,-4.561588764190674,0.18129006028175354,11.744756698608398,-0.3404664993286133,0.3053712844848633,0.4175249934196472,-1.2810184955596924,0.005531395319849253,-0.9431982636451721,0.0078202486038208,1.239819049835205,0.010490577667951584,0.9431982636451721,0.1333257108926773,-0.9405279755592346,-0.0551232174038887,-0.035667963325977325,1.4009689092636108,-0.4364531636238098,-0.00809160154312849,-0.36449989676475525,0.04253452271223068,-0.053215838968753815,0.6784542798995972,-0.42373546957969666,-0.036147091537714005,0.3768949806690216,-0.0893491730093956,1.7369270324707031,0.11069374531507492,-0.0056612528860569,0.023195968940854073,-3.175304651260376,-0.4809510111808777,0.02439490333199501,0.25327688455581665,-0.03162151575088501,-2.947756052017212,0.005497043486684561,2.135754108428955,-3.6362862586975098,0.006145040038973093,-0.3274502754211426,1.0958114862442017,0.10021916776895523,0.7954856753349304,-1.2607450485229492,-1.373303771018982,0.40514475107192993,1741523106.740175,1741523105633,1.2844549560546876,1.3167281494140626,-1.4688561593722163,3.6402905273437502,1.7735257568359375
1741523106.6761057,0.37243807315826416,0.057561236249332244,0.03001304076710414,-0.997890736235867,0.43684014678001404,0.40187251567840576,-0.3138609528541565,2.0168282985687256,-2.221676826477051,6.3033833503723145,-0.3255891799926758,0.2981233596801758,0.4503318965435028,-1.2813999652862549,0.005149920005351305,-0.9382390975952148,-0.0394827201962471,1.2379117012023926,0.01125352829694748,0.9458686113357544,0.12455176562070847,-0.9817273020744324,-0.048256658017635345,0.000572213320992887,1.2991149425506592,-0.4147263467311859,-0.00809759646654129,-0.3377965986728668,0.04444190114736557,-0.03643091395497322,0.6612878441810608,-0.4495637118816376,-0.04374144971370697,0.414242684841156,-0.15606370568275452,1.60731041431427,-0.058115530759096146,-0.04499929025769234,0.30167505145072937,-3.2212822437286377,-0.07170674204826355,0.002754994435235858,0.2679963707923889,-0.6515827775001526,-1.8371955156326294,0.3545515835285187,1.8022890090942383,-5.257708549499512,1.2696739435195923,0.07081190496683121,1.8874109983444214,0.06915348768234253,1.0237722396850586,-0.626449704170227,-1.2493678331375122,-0.2264358401298523,1741523106.740175,1741523105633,1.2844549560546876,1.3167281494140626,-1.4688561593722163,3.6402905273437502,1.7735257568359375
1741523106.6961584,0.3720960021018982,0.06651874513368056,0.024936518937347777,-0.9974735217383606,0.22082574665546417,0.3471992611885071,-0.06124458834528923,-1.9238078594207764,-3.888803720474243,13.367698669433594,-0.3233003616333008,0.2874422073364258,0.4678797721862793,-1.2741519212722778,0.005531395319849253,-0.9321355223655701,-0.07572289556264877,1.23447847366333,0.01125352829694748,0.955024003982544,0.1031891331076622,-0.9847791194915771,-0.03147173300385475,0.026512550190091133,1.1758984327316284,-0.3767256736755371,-0.005397064611315727,-0.3133821487426758,0.049782559275627136,-0.01506828423589468,0.6441214680671692,-0.4702737331390381,-0.030692538246512413,0.11623284220695496,-0.23555174469947815,0.7461026906967163,0.5788898468017578,-0.01019405946135521,0.29539918899536133,-2.1012256145477295,-0.2572248876094818,-0.001964857103303075,0.5459761619567871,-1.0901532173156738,0.1744341403245926,0.8810324668884277,1.1876343488693237,-6.356249809265137,1.9166663885116577,0.2142743319272995,0.8197495341300964,0.46441563963890076,1.0081000328063965,-1.0487985610961914,-1.0474685430526733,0.6568644046783447,1741523106.740175,1741523105633,1.2844549560546876,1.3167281494140626,-1.4688561593722163,3.6402905273437502,1.7735257568359375
1741523106.7161644,0.370369553565979,0.07518574044640491,0.024479819397024895,-0.996869019919776,0.000734397501219064,0.4691193103790283,-0.0728878304362297,-0.10439341515302658,0.6772919297218323,4.580657482147217,-0.3076601028442383,0.2836275100708008,0.47398337721824646,-1.2623261213302612,0.005531395319849253,-0.9279392957687378,-0.09212634712457657,1.231045126914978,0.01125352829694748,0.960746169090271,0.07610437273979187,-0.9725719094276428,-0.01125352829694748,0.045204851776361465,1.021400809288025,-0.3424360156059265,0.0009057113784365356,-0.2794308364391327,0.06160829961299896,0.0020981156267225742,0.6414511203765869,-0.48537692427635193,-0.03125045821070671,0.4367470145225525,-0.14182540774345398,0.2002776712179184,0.7294984459877014,-0.008178525604307652,0.1873558610677719,-0.8944197297096252,-0.22727003693580627,-0.006940155290067196,0.37303903698921204,-1.1830472946166992,1.142438530921936,1.0304911136627197,0.8118554353713989,-7.6721415519714355,1.4894870519638062,0.39341986179351807,1.7947617769241333,0.49082228541374207,0.9271025657653809,-0.12285172194242477,-0.6347056031227112,0.20047520101070404,1741523106.740175,1741523105633,1.2844549560546876,1.3167281494140626,-1.4688561593722163,3.6402905273437502,1.7735257568359375
1741523106.7361808,0.36507195234298706,0.07849358426661551,0.029454193853148077,-0.9964794065576272,-0.22609002888202667,0.03306790068745613,-0.312563955783844,-0.9489632248878479,0.747372031211853,6.590035438537598,-0.3023195266723633,0.2897310256958008,0.4690241813659668,-1.2520263195037842,0.005531395319849253,-0.9233615398406982,-0.08945601433515549,1.2291377782821655,0.01125352829694748,0.9634165167808533,0.06084534898400307,-0.9325169920921326,0.007438773289322853,0.06084534898400307,0.8627069592475891,-0.33784669637680054,0.009549022652208805,-0.2450980395078659,0.07991912961006165,0.004386968910694122,0.6403067111968994,-0.48582059144973755,-0.020527681335806847,0.17874658107757568,0.2021418660879135,-0.29703935980796814,0.6757313013076782,-0.00649744737893343,0.25310635566711426,0.3528643548488617,-0.0918639525771141,0.027981212362647057,0.1457824409008026,-0.6391223073005676,2.1386659145355225,0.8171638250350952,0.7014176845550537,-7.855935573577881,-0.12775151431560516,0.3859875798225403,1.5718919038772583,1.2035496234893799,-0.1666129231452942,0.07089316844940186,0.1260349452495575,0.19608014822006226,1741523106.740175,1741523105633,1.2844549560546876,1.3167281494140626,-1.4688561593722163,3.6402905273437502,1.7735257568359375
1741523106.7562978,0.35611093044281006,0.07559082728656963,0.044007600037725095,-0.9961673343214239,-0.8205540180206299,-0.11952828615903854,-0.5261475443840027,0.29266324639320374,1.8148632049560547,2.1215567588806152,-0.2954530715942383,0.2950716018676758,0.4530022144317627,-1.2443968057632446,0.005531395319849253,-0.9218356609344482,-0.07000076025724411,1.231808066368103,0.01125352829694748,0.9637979865074158,0.06046387553215027,-0.8745326995849609,0.03833829239010811,0.05207141116261482,0.7257572412490845,-0.37385520339012146,0.011853276751935482,-0.22182802855968475,0.09975585341453552,-0.02231631986796856,0.6754024624824524,-0.4712309241294861,-0.05636761337518692,0.18773816525936127,0.238948792219162,-0.8687957525253296,0.5010747313499451,-0.004494502209126949,0.003415680956095457,1.3759695291519165,0.2775866687297821,0.022130031138658524,-0.016471412032842636,0.0836917832493782,3.0131027698516846,1.77070951461792,-0.915838897228241,-6.552058696746826,-2.124427080154419,0.26313516497612,0.9630913138389587,0.8995975255966187,-1.588119387626648,2.413430690765381,0.7856596112251282,-1.8900091648101807,1741523106.740175,1741523105633,1.2844549560546876,1.3167281494140626,-1.4688561593722163,3.6402905273437502,1.7735257568359375
1741523106.7762604,0.34305113554000854,0.06587107421514168,0.06949450601610387,-0.9954052015211297,-1.3103055953979492,-0.608201265335083,-0.7370115518569946,-30.338308334350586,28.744192123413086,29.508390426635742,-0.2950716018676758,0.3049898147583008,0.42820629477500916,-1.233715534210205,0.005149920005351305,-0.9203097820281982,-0.03795681521296501,1.2409635782241821,0.011635004542768002,0.961509108543396,0.0722896158695221,-0.8463035225868225,0.06008239835500717,0.025749599561095238,0.7082093358039856,-0.3593544661998749,-0.02299085445702076,-0.23861294984817505,0.09822995215654373,-0.06885633617639542,0.7871748208999634,-0.45690616965293884,-0.07911603152751923,0.034433916211128235,0.4189493954181671,-1.3999663591384888,0.8322470784187317,-0.03162405267357826,0.15422984957695007,2.2692408561706543,0.6243653893470764,0.0425245426595211,-0.22016263008117676,0.858203649520874,0.8803783655166626,0.4042256474494934,-1.1075814962387085,1.5265358686447144,1.702253818511963,-1.9837186336517334,-1.3148794174194336,-0.8051538467407227,-2.2731542587280273,6.191075801849365,0.7203862071037292,-0.9248564839363098,1741523106.740175,1741523105633,1.2844549560546876,1.3167281494140626,-1.4688561593722163,3.6402905273437502,1.7735257568359375
1741523106.7962954,0.3345024585723877,0.06500133613765993,0.0796495503001539,-0.9947013498720619,-0.33533868193626404,-0.12117304652929306,-0.7278451919555664,9.626446723937988,2.2501604557037354,9.067696571350098,-0.2523460388183594,0.2931642532348633,0.3747997283935547,-1.215786099433899,0.005912871100008488,-0.9145876169204712,0.00858320016413927,1.2554595470428467,0.010872052982449532,0.9596017599105835,0.0871671661734581,-0.848210871219635,0.0558861680328846,-0.023460745811462402,0.778782308101654,-0.3114223778247833,-0.0842413529753685,-0.3103303611278534,0.09937438368797302,-0.11463340371847153,0.9420538544654846,-0.4219468832015991,-0.08257383108139038,1.3581987619400024,-0.3010300099849701,-3.034717559814453,1.0246628522872925,-0.031488873064517975,0.18850605189800262,3.343979835510254,0.7635921835899353,0.02370290271937847,-0.09878116846084595,0.3164486289024353,0.12486297637224197,0.563912570476532,-2.937035083770752,2.3922839164733887,1.9110950231552124,-2.30837082862854,-3.9537179470062256,0.22938482463359833,-2.4294159412384033,7.907732009887695,1.8750721216201782,0.17568059265613556,1741523106.8402267,1741523105733,1.373442138671875,1.379431884765625,-1.4023058238093626,3.78841259765625,1.7860291748046875
1741523106.8166142,0.31859034299850464,0.0579989294734702,0.08738867241417478,-0.9944844614741949,-0.4377986788749695,-0.18855947256088257,-0.8705068230628967,6.077667236328125,-9.558860778808594,13.669074058532715,-0.2622642517089844,0.2809562683105469,0.28515297174453735,-1.2218897342681885,0.005531395319849253,-0.916113555431366,0.058175019919872284,1.2531707286834717,0.01125352829694748,0.959220290184021,0.08564125746488571,-0.8093003630638123,0.06466010212898254,-0.04711223021149635,0.778782308101654,-0.2789468765258789,-0.07060366123914719,-0.39883267879486084,0.10624094307422638,-0.13027389347553253,1.1190584897994995,-0.38960230350494385,-0.050085730850696564,-0.16582128405570984,-0.4719655513763428,-4.643911838531494,-0.515875518321991,-8.343434456037357e-05,-0.12268438190221786,3.2677745819091797,-0.2573126554489136,-0.06304175406694412,-0.007406903430819511,0.16066259145736694,2.058465003967285,0.1476077139377594,-0.4808870851993561,0.15897062420845032,1.7139183282852173,1.4897656440734863,-4.595883369445801,0.29211676120758057,-0.48809534311294556,8.850641250610352,1.4031177759170532,2.2691195011138916,1741523106.8402267,1741523105733,1.373442138671875,1.379431884765625,-1.4023058238093626,3.78841259765625,1.7860291748046875
1741523106.8410325,0.28291213512420654,0.041182010962194524,0.09972795611692113,-0.9941621481136018,-0.3984531760215759,-0.7085017561912537,-1.8429286479949951,-3.05534029006958,-1.7416036128997803,14.015028953552246,-0.2515830993652344,0.2912569046020508,0.1958876997232437,-1.2253230810165405,0.005531395319849253,-0.9126802682876587,0.1035706102848053,1.2596558332443237,0.013542382046580315,0.9580758213996887,0.09708552807569504,-0.7795453071594238,0.07724879682064056,-0.05664911866188049,0.7928969264030457,-0.24578282237052917,-0.02731122076511383,-0.49382010102272034,0.10776684433221817,-0.14362554252147675,1.256008267402649,-0.3878885805606842,0.0013210235629230738,0.30037084221839905,0.13298001885414124,-4.082614898681641,-0.10685674846172333,0.019795529544353485,0.28480663895606995,3.072115898132324,0.5694607496261597,0.2228279560804367,-0.04181797802448273,0.5689206719398499,1.3715630769729614,0.8110731244087219,-1.026294469833374,0.5785715579986572,1.453360676765442,1.565502643585205,-4.4685959815979,0.24055978655815125,-0.8546786308288574,6.255864143371582,-0.3285401165485382,1.7598563432693481,1741523106.8402267,1741523105733,1.373442138671875,1.379431884765625,-1.4023058238093626,3.78841259765625,1.7860291748046875
1741523106.856667,0.25287389755249023,0.026189126559115764,0.10520543562630952,-0.9941056010126637,-0.30021411180496216,-0.6143382787704468,-1.497118592262268,3.7080531120300293,-7.015756130218506,12.915456771850586,-0.23517990112304688,0.2801933288574219,0.12493324279785156,-1.222271203994751,0.005149920005351305,-0.9100099205970764,0.16231784224510193,1.2615631818771362,0.010872052982449532,0.9584572911262512,0.10738536715507507,-0.7429236173629761,0.0879301130771637,-0.06504157930612564,0.8016708493232727,-0.23275788128376007,-0.04714534059166908,-0.569733738899231,0.10700388997793198,-0.182917520403862,1.3239108324050903,-0.42515143752098083,-0.00467411894351244,0.4213245213031769,-0.3114875555038452,-3.570348024368286,0.24258743226528168,-0.009632566943764687,0.04166491702198982,3.9683737754821777,-0.041021306067705154,-0.27335628867149353,-0.04865811765193939,0.40835705399513245,1.9037216901779175,0.45368319749832153,-0.04304273799061775,0.38886743783950806,0.46181297302246094,-1.1627938747406006,-3.6823675632476807,-0.29574108123779297,-2.1640241146087646,2.82082200050354,-1.9966886043548584,-0.17035526037216187,1741523106.8402267,1741523105733,1.373442138671875,1.379431884765625,-1.4023058238093626,3.78841259765625,1.7860291748046875
1741523106.8766797,0.22403264045715332,0.011538533556498223,0.11330769999774554,-0.9934929427854968,-0.26598021388053894,-0.523675262928009,-1.3814104795455933,-0.8299066424369812,-0.7524204850196838,12.79951286315918,-0.23861312866210938,0.2714195251464844,0.05436026677489281,-1.2188379764556885,0.005149920005351305,-0.9122987985610962,0.2317463904619217,1.2604187726974487,0.010109102353453636,0.955024003982544,0.11005569249391556,-0.7055390477180481,0.10547798871994019,-0.06160829961299896,0.8054856061935425,-0.23872624337673187,-0.056433867663145065,-0.6239032745361328,0.0871671661734581,-0.21648737788200378,1.3261997699737549,-0.4739364981651306,0.0022112252190709114,-0.10449486970901489,-0.2522507607936859,-3.432835340499878,0.2171224057674408,-0.02357693761587143,-0.0856301486492157,4.561605453491211,-0.02087266370654106,0.05736341327428818,-0.21419920027256012,0.25146612524986267,1.712001085281372,1.3482383489608765,0.0456930473446846,0.23202064633369446,-0.33866527676582336,-0.3628923296928406,-2.539630889892578,-1.0518145561218262,-1.5490726232528687,-0.3521918058395386,-2.4344675540924072,0.6318821310997009,1741523106.8402267,1741523105733,1.373442138671875,1.379431884765625,-1.4023058238093626,3.78841259765625,1.7860291748046875
1741523106.8967073,0.20273351669311523,0.0016410885928728883,0.11079573439574326,-0.9938418445949728,0.12290973961353302,-0.36242416501045227,-1.0484787225723267,-4.338229179382324,-5.979205131530762,9.291522979736328,-0.22564315795898438,0.2584495544433594,-0.010109102353453636,-1.219982385635376,0.005149920005351305,-0.9153505563735962,0.30117493867874146,1.2585114240646362,0.010490577667951584,0.9493018984794617,0.10929274559020996,-0.6815060377120972,0.12111848592758179,-0.04634927958250046,0.8112077713012695,-0.25616884231567383,-0.06965289264917374,-0.6639581918716431,0.07305257022380829,-0.23899443447589874,1.28080415725708,-0.5111621022224426,0.007265747990459204,0.33252862095832825,-0.3590690493583679,-3.3695194721221924,-0.1574275642633438,-0.04683252051472664,-0.21908415853977203,4.510153770446777,-0.15754356980323792,0.0025466647930443287,-0.436414510011673,-0.15187206864356995,1.4484968185424805,0.5684353113174438,0.8740430474281311,0.27015385031700134,-0.9718049168586731,-0.7424837350845337,-1.9406416416168213,-0.7487400770187378,-0.9886744618415833,-2.4724621772766113,-1.653045892715454,0.2919374704360962,1741523106.9377768,1741523105833,1.4491513671875,1.4235362548828125,-2.369036164372832,3.9350517578125,1.8002352294921875
1741523106.9167397,0.19016051292419434,0.005968079863432859,0.10876911510649134,-0.9940491243503484,0.14175422489643097,0.3280008137226105,-0.6181036829948425,2.7500221729278564,-4.973881244659424,8.986296653747559,-0.22716903686523438,0.22335433959960938,-0.07991912961006165,-1.2241785526275635,0.005531395319849253,-0.925650417804718,0.3606851398944855,1.2566040754318237,0.010109102353453636,0.9458686113357544,0.10585946589708328,-0.6460288166999817,0.13065537810325623,-0.040245670825242996,0.8112077713012695,-0.2876330316066742,-0.0822596549987793,-0.7009612917900085,0.05245288833975792,-0.23632410168647766,1.2148088216781616,-0.5150216221809387,0.00837722234427929,-0.03873675689101219,-0.9995477199554443,-3.2796638011932373,-0.27688729763031006,-0.040347035974264145,-0.6642376780509949,3.818572521209717,-0.14106233417987823,0.006119577679783106,-0.24207593500614166,-0.10143491625785828,1.5507779121398926,0.6552268266677856,0.14922687411308289,-0.004262564703822136,-1.5930613279342651,-0.674968421459198,-1.8635238409042358,-1.137421727180481,0.1613798290491104,-3.407130718231201,0.07476060092449188,0.10304699093103409,1741523106.9377768,1741523105833,1.4491513671875,1.4235362548828125,-2.369036164372832,3.9350517578125,1.8002352294921875
1741523106.9367576,0.18371844291687012,0.014019032840592712,0.10390107519256714,-0.9944888301494607,0.23661363124847412,0.4773883521556854,-0.302711546421051,1.7718505859375,-1.4244130849838257,8.452762603759766,-0.21801280975341797,0.20504283905029297,-0.1333257108926773,-1.2253230810165405,0.005531395319849253,-0.9431982636451721,0.4064621925354004,1.2562226057052612,0.010872052982449532,0.9420538544654846,0.11120012402534485,-0.619325578212738,0.1340886503458023,-0.031090257689356804,0.813878059387207,-0.32052668929100037,-0.09416628628969193,-0.733386754989624,0.027656977996230125,-0.23746852576732635,1.1247806549072266,-0.48882758617401123,0.015801163390278816,0.2573789656162262,-0.609009325504303,-2.480846643447876,-0.03496866300702095,-0.006320186425000429,-0.8718375563621521,2.881617784500122,0.005625884514302015,0.027654193341732025,-0.28824302554130554,0.45520707964897156,1.4489259719848633,0.1933441460132599,0.3770867884159088,0.0982375293970108,-1.6729604005813599,-0.4452545940876007,-1.5149941444396973,-1.3275271654129028,-0.1132548525929451,-4.462109088897705,1.4851199388504028,0.29668840765953064,1741523106.9377768,1741523105833,1.4491513671875,1.4235362548828125,-2.369036164372832,3.9350517578125,1.8002352294921875
1741523106.9567401,0.1741734743118286,0.021972958996358854,0.10057502630321005,-0.9946868115930022,0.16727347671985626,0.4294785261154175,-0.5512617230415344,3.1587915420532227,-1.9300497770309448,7.39753532409668,-0.20580577850341797,0.19970226287841797,-0.15812161564826965,-1.223797082901001,0.005149920005351305,-0.9596017599105835,0.4537651538848877,1.2623261213302612,0.011635004542768002,0.9298466444015503,0.1325627565383911,-0.5918593406677246,0.1340886503458023,-0.03147173300385475,0.811589241027832,-0.3517518937587738,-0.09171099960803986,-0.7475013136863708,-0.010872052982449532,-0.2443350851535797,1.0336079597473145,-0.44554463028907776,0.013682150281965733,0.3552423417568207,-0.1948147714138031,-0.9896765947341919,0.14162884652614594,-0.011794477701187134,-0.7544591426849365,3.1225428581237793,0.4246569275856018,0.03962394595146179,-0.8675589561462402,1.243465542793274,1.4245737791061401,-0.006960636004805565,-0.021407300606369972,-0.05154099315404892,-1.4968150854110718,0.07578087598085403,-0.5849011540412903,-2.032273530960083,-0.524456799030304,-4.607397079467773,2.1520333290100098,-0.18897360563278198,1741523106.9377768,1741523105833,1.4491513671875,1.4235362548828125,-2.369036164372832,3.9350517578125,1.8002352294921875
1741523106.9767895,0.15925073623657227,0.024566801199370145,0.09919266641525108,-0.9947649406810954,0.07969895005226135,0.16959327459335327,-0.7391357421875,1.572332739830017,-0.705328106880188,8.020186424255371,-0.19398021697998047,0.20122814178466797,-0.15430685877799988,-1.2203638553619385,0.005149920005351305,-0.9706645011901855,0.47894254326820374,1.2611817121505737,0.011635004542768002,0.9203097820281982,0.16422522068023682,-0.5628671646118164,0.1325627565383911,-0.038719769567251205,0.8093003630638123,-0.38024863600730896,-0.08830223232507706,-0.7463569045066833,-0.05359731614589691,-0.26951247453689575,0.9397650361061096,-0.39988940954208374,0.008253474719822407,0.33739832043647766,0.04893114045262337,0.35163038969039917,0.2235194742679596,-0.013303997926414013,-0.495941698551178,1.4021540880203247,-0.12822416424751282,0.032986000180244446,-0.5786946415901184,1.6771751642227173,1.5577490329742432,-0.09559061378240585,-0.36089715361595154,-0.14754635095596313,-1.4064209461212158,0.14421097934246063,0.19481343030929565,-2.1510610580444336,-1.3523366451263428,-4.699592590332031,2.2903780937194824,-0.32302865386009216,1741523106.9377768,1741523105833,1.4491513671875,1.4235362548828125,-2.369036164372832,3.9350517578125,1.8002352294921875
1741523106.9968975,0.13910925388336182,0.023950104472733377,0.09805157446378902,-0.994893100408741,0.09581779688596725,0.040924713015556335,-1.0241202116012573,3.0450918674468994,-1.086259365081787,8.212608337402344,-0.18177318572998047,0.20580577850341797,-0.12417028844356537,-1.217693567276001,0.005149920005351305,-0.9748607873916626,0.4846646785736084,1.2604187726974487,0.01125352829694748,0.9126802682876587,0.2004653960466385,-0.5243381261825562,0.12455176562070847,-0.054741740226745605,0.8039597272872925,-0.40598204731941223,-0.08299356698989868,-0.7249943017959595,-0.09212634712457657,-0.3076600432395935,0.8424887657165527,-0.3551832437515259,0.00196013692766428,0.35764333605766296,0.14696794748306274,1.7248278856277466,0.13361996412277222,-0.002630271017551422,-0.11940689384937286,0.17474402487277985,-0.07016894221305847,0.004854887258261442,-0.45083126425743103,1.7986996173858643,1.987592101097107,-0.5445493459701538,-0.8931207656860352,-0.3102107644081116,-1.2608282566070557,0.34330108761787415,1.181593894958496,-1.7804534435272217,-2.078057050704956,-4.823857307434082,2.098149538040161,-0.25636589527130127,1741523107.0398793,1741523105913,1.524613525390625,1.43904248046875,-2.263052888615433,4.051643798828125,1.8158614501953125
1741523107.0168245,0.11845564842224121,0.018475919176926685,0.09285352374303733,-0.9955083442839988,0.3270164132118225,-0.18542227149009705,-1.0083684921264648,0.9804943799972534,-2.7190804481506348,9.44230842590332,-0.17032909393310547,0.21000194549560547,-0.0722896158695221,-1.215023159980774,0.005149920005351305,-0.9718089699745178,0.47550925612449646,1.2588928937911987,0.01125352829694748,0.9103913903236389,0.2286945879459381,-0.4732204079627991,0.10852979123592377,-0.0715266615152359,0.7932783961296082,-0.4277227818965912,-0.06113539636135101,-0.692568838596344,-0.11730372905731201,-0.3576333224773407,0.7444495558738708,-0.3236084282398224,-0.011178936809301376,0.32811903953552246,0.12508338689804077,2.555558919906616,0.13457517325878143,-0.00022421152971219271,0.16813501715660095,-0.7610917687416077,-0.11658436805009842,0.010812775231897831,-0.15773709118366241,1.2938510179519653,2.798443078994751,-0.8551483154296875,-0.8774095177650452,-0.5109267234802246,-1.0422133207321167,1.264454960823059,1.6406331062316895,-1.182254672050476,-2.627595901489258,-4.663114070892334,1.5052849054336548,-0.7598719000816345,1741523107.0398793,1741523105913,1.524613525390625,1.43904248046875,-2.263052888615433,4.051643798828125,1.8158614501953125
1741523107.036886,0.10165774822235107,0.0045233233249880175,0.08670343916033767,-0.9962238971154361,0.25379884243011475,-0.7138580679893494,-0.7801505327224731,1.132947325706482,1.8214954137802124,11.969438552856445,-0.15506935119628906,0.21877670288085938,-0.004386968910694122,-1.2154046297073364,0.005149920005351305,-0.9683756828308105,0.4537651538848877,1.2566040754318237,0.011635004542768002,0.9069581031799316,0.2443350851535797,-0.4087510406970978,0.09746700525283813,-0.09288929402828217,0.7814526557922363,-0.44545164704322815,-0.037394970655441284,-0.6490806341171265,-0.12340734153985977,-0.4018844962120056,0.7196536064147949,-0.3011537790298462,-0.03725817799568176,0.441459983587265,0.2849484384059906,3.574084758758545,-0.038356147706508636,0.00010792952525662258,0.12132997810840607,-1.5534002780914307,-0.04830557852983475,0.020639998838305473,-0.25906142592430115,0.6154923439025879,3.1897289752960205,-0.3629644215106964,-1.4379279613494873,-0.7476617693901062,-0.8072078824043274,1.2406301498413086,2.5206186771392822,-0.10730426758527756,-1.8910759687423706,-0.5507798790931702,0.9971198439598083,-1.2637872695922852,1741523107.0398793,1741523105913,1.524613525390625,1.43904248046875,-2.263052888615433,4.051643798828125,1.8158614501953125
1741523107.0568655,0.08753859996795654,-0.0071197314303071985,0.08387941955157988,-0.9964504766419906,0.17337264120578766,-0.39813506603240967,-0.6409199237823486,-4.334407806396484,-1.3719170093536377,10.552757263183594,-0.15278053283691406,0.21648693084716797,0.0722896158695221,-1.218456506729126,0.005531395319849253,-0.9653238654136658,0.41027694940567017,1.2623261213302612,0.011635004542768002,0.9092469811439514,0.2439536154270172,-0.3553444743156433,0.07991912961006165,-0.1325627565383911,0.778019368648529,-0.43696606159210205,-0.033029116690158844,-0.5823224186897278,-0.10624094307422638,-0.3931105434894562,0.7120240926742554,-0.3062189519405365,-0.04670120030641556,0.06401260942220688,-0.14004847407341003,3.805936813354492,-0.25969603657722473,0.006566453725099564,0.1899634152650833,-3.088690757751465,0.386065810918808,-0.01737230457365513,0.17932045459747314,-0.027978988364338875,2.4915544986724854,-1.1575260162353516,-2.1835098266601562,0.2153940498828888,0.733738899230957,-0.13504771888256073,3.20693302154541,0.9339613914489746,0.9347482323646545,-0.6607452034950256,-0.4003939628601074,-0.37665116786956787,1741523107.0398793,1741523105913,1.524613525390625,1.43904248046875,-2.263052888615433,4.051643798828125,1.8158614501953125
1741523107.07688,0.0761336088180542,-0.009393355502087825,0.0806332611778219,-0.9966995746283033,0.15337887406349182,-0.08670254051685333,-0.5442492365837097,-17.04465103149414,-6.73974609375,11.75365924835205,-0.13904762268066406,0.21419811248779297,0.1497291475534439,-1.2306636571884155,0.005531395319849253,-0.9576943516731262,0.35038527846336365,1.2630890607833862,0.011635004542768002,0.9107728600502014,0.23746852576732635,-0.34618905186653137,0.0707637146115303,-0.19245441257953644,0.841725766658783,-0.40648773312568665,-0.02821861021220684,-0.5399786233901978,-0.08068207651376724,-0.3557259440422058,0.699816882610321,-0.3162059485912323,-0.06770845502614975,0.3723030984401703,-0.07655971497297287,3.8076469898223877,-0.9149501323699951,-0.008018962107598782,0.40877828001976013,-4.014322757720947,0.052689146250486374,0.0035748055670410395,0.09750296920537949,-0.3428668975830078,-0.16976229846477509,-0.4851686656475067,-2.9155800342559814,3.8563501834869385,1.565669059753418,0.4451422691345215,2.0372817516326904,1.4232921600341797,1.8213083744049072,-0.5756791234016418,-0.47752729058265686,-1.093385100364685,1741523107.0398793,1741523105913,1.524613525390625,1.43904248046875,-2.263052888615433,4.051643798828125,1.8158614501953125
1741523107.0969477,0.07634186744689941,-0.00621692091099831,0.08001985286081716,-0.996773882604535,0.003640581853687763,0.14951306581497192,0.09809045493602753,-4.311194896697998,-1.2346757650375366,7.563217639923096,-0.13218116760253906,0.21000194549560547,0.21839475631713867,-1.2440153360366821,0.005531395319849253,-0.9504463076591492,0.2817196846008301,1.2638521194458008,0.011635004542768002,0.9115357995033264,0.2309834510087967,-0.4083695709705353,0.050164032727479935,-0.2450980395078659,0.9912642240524292,-0.3623904883861542,-0.014794651418924332,-0.5056458115577698,-0.040627144277095795,-0.32673379778862,0.6914244294166565,-0.3222350776195526,-0.07950283586978912,0.18840652704238892,-0.027449963614344597,3.4397077560424805,-0.8201433420181274,-0.008275249041616917,0.37006551027297974,-4.584975719451904,0.018653636798262596,0.02205902524292469,0.05811353772878647,-0.28008201718330383,-3.8695855140686035,-1.192097783088684,-2.4364981651306152,8.419337272644043,2.2441251277923584,0.6363283395767212,1.7476298809051514,1.8156285285949707,1.398303508758545,-0.46145859360694885,-0.18985292315483093,-0.28865867853164673,1741523107.1402004,1741523106033,1.64852587890625,1.443223876953125,-2.372681428026113,4.21639111328125,1.8300427246093751
1741523107.11693,0.09081578254699707,-0.00010522410574276523,0.08470819221799768,-0.9964057963997631,-0.24278736114501953,0.22085364162921906,0.8006979823112488,-3.5238351821899414,-0.4344230890274048,8.389389991760254,-0.12798500061035156,0.21076488494873047,0.2744716703891754,-1.2505004405975342,0.005531395319849253,-0.9443427324295044,0.20962081849575043,1.2630890607833862,0.011635004542768002,0.9134432077407837,0.2294575423002243,-0.5243381261825562,0.006294346414506435,-0.2779049277305603,1.198405385017395,-0.3270297646522522,0.006602379959076643,-0.47932401299476624,-0.01506828423589468,-0.309567391872406,0.6792172193527222,-0.3211386203765869,-0.07123664766550064,0.09796823561191559,0.02759142406284809,2.7591159343719482,-0.37982049584388733,-0.0029796522576361895,0.2820509076118469,-4.86222505569458,-0.09373202919960022,0.011182134971022606,0.15989430248737335,0.03333533555269241,-6.151036739349365,-2.2568719387054443,-1.4125534296035767,10.414358139038086,1.3635882139205933,1.2011163234710693,1.177415370941162,1.1584997177124023,0.6562243700027466,-0.5779470205307007,0.09621359407901764,0.4615049958229065,1741523107.1402004,1741523106033,1.64852587890625,1.443223876953125,-2.372681428026113,4.21639111328125,1.8300427246093751
1741523107.136941,0.11289370059967041,0.006812816402179879,0.09277340225095419,-0.9956639399754582,-0.41492873430252075,0.25893715023994446,1.127610683441162,3.439868450164795,1.426414132118225,9.985136032104492,-0.11387062072753906,0.21915817260742188,0.3240634799003601,-1.2520263195037842,0.005531395319849253,-0.9435797929763794,0.13942931592464447,1.2577484846115112,0.01125352829694748,0.916876494884491,0.23517967760562897,-0.6593804955482483,-0.045204851776361465,-0.2801937758922577,1.4032578468322754,-0.3370817005634308,0.019466254860162735,-0.4526207447052002,-0.001716639962978661,-0.30231937766075134,0.6765468716621399,-0.31914597749710083,-0.05125026777386665,0.3679964542388916,0.257551372051239,2.419038772583008,-0.07494091242551804,-0.009442833252251148,0.010989416390657425,-4.6845622062683105,-0.31729140877723694,0.0005690745892934501,0.23677116632461548,0.3670457899570465,-6.654428482055664,-2.574571371078491,0.08948539942502975,9.853192329406738,-0.85201096534729,0.4202219843864441,1.3148247003555298,0.5758002996444702,0.280166357755661,-0.08644489198923111,0.07020445913076401,1.206337809562683,1741523107.1402004,1741523106033,1.64852587890625,1.443223876953125,-2.372681428026113,4.21639111328125,1.8300427246093751
1741523107.1569824,0.13550543785095215,0.012785164616946577,0.09955941127480505,-0.9949494777084572,-0.3282625377178192,0.14233504235744476,1.061021327972412,0.5309005975723267,-0.011999831534922123,14.107144355773926,-0.09517860412597656,0.23098373413085938,0.36678874492645264,-1.2531707286834717,0.005531395319849253,-0.9439612627029419,0.07381551712751389,1.2505004405975342,0.01125352829694748,0.918402373790741,0.24090181291103363,-0.7806897163391113,-0.0864042118191719,-0.2454795092344284,1.5356298685073853,-0.38169974088668823,0.012829607352614403,-0.42820629477500916,0.0013351644156500697,-0.2927824854850769,0.6769283413887024,-0.32695168256759644,-0.039849258959293365,0.5656720399856567,0.37112587690353394,2.0489680767059326,-0.08478810638189316,-0.010463804937899113,-0.01072962861508131,-4.335089683532715,-0.5266463756561279,0.008732400834560394,0.03378364071249962,-0.015207447111606598,-5.858433723449707,-1.8918461799621582,1.9590861797332764,5.778057098388672,-2.3512473106384277,-0.35805439949035645,1.1694509983062744,0.09000997990369797,0.5112475156784058,0.028369968757033348,-0.5309653878211975,0.3675425052642822,1741523107.1402004,1741523106033,1.64852587890625,1.443223876953125,-2.372681428026113,4.21639111328125,1.8300427246093751
