Freshhhhh-LC/Legged_odom/data/5/segments/booster_seg_9.89s.csv
time,yaw,projected_gravity_x,projected_gravity_y,projected_gravity_z,ang_vel_x,ang_vel_y,ang_vel_z,lin_acc_x,lin_acc_y,lin_acc_z,q_0,q_1,q_2,q_3,q_4,q_5,q_6,q_7,q_8,q_9,q_10,q_11,q_12,q_13,q_14,q_15,q_16,q_17,q_18,q_19,q_20,q_21,q_22,dq_0,dq_1,dq_2,dq_3,dq_4,dq_5,dq_6,dq_7,dq_8,dq_9,dq_10,dq_11,dq_12,dq_13,dq_14,dq_15,dq_16,dq_17,dq_18,dq_19,dq_20,dq_21,dq_22,mocap_time,mocap_timestamp,robot_x,robot_y,robot_yaw,ball_x,ball_y
1741522917.367906,1.714496523141861,0.03358753000005091,0.012508018139603295,-0.999357507256895,-0.35947930812835693,-0.21642515063285828,-0.11492520570755005,1.0041807889938354,-1.90248441696167,5.790189743041992,-0.02613067626953125,0.8939876556396484,0.1844434291124344,-1.3336620330810547,0.005531395319849253,-0.5495155453681946,0.1802472025156021,1.369139313697815,0.01125352829694748,0.5365453362464905,0.029564354568719864,-0.5239566564559937,0.06275273114442825,0.06694895774126053,0.6719691753387451,-0.21575956046581268,0.009652838110923767,-0.7299534678459167,-0.0036240178160369396,-0.08487831056118011,1.0233081579208374,-0.34067973494529724,-0.0002741790085565299,-0.2645343840122223,-0.16744138300418854,0.20713403820991516,0.1239369809627533,-0.003459186991676688,0.018116923049092293,0.003348700935021043,0.3052571415901184,-0.0009508933289907873,-0.10249491780996323,1.8325107097625732,0.5597882866859436,0.09404883533716202,-0.6115823984146118,0.4831045866012573,-0.6981744766235352,-0.30025213956832886,2.1044371128082275,0.5358737111091614,0.1338171511888504,-3.079676628112793,-0.4932258725166321,-0.22228069603443146,1741522917.3950105,1741522916273,-4.3434604492187505,0.23626046752929689,-2.0189279898007273,-0.48183895874023436,0.9767077636718751
1741522917.3700962,1.650889813899994,0.027837734756245184,0.032756004711847087,-0.999075625105006,0.15160410106182098,0.10302272439002991,-1.2927509546279907,-9.053730010986328,6.21735954284668,24.074934005737305,0.00362396240234375,0.8745326995849609,0.212672621011734,-1.3325176239013672,0.005531395319849253,-0.5453193187713623,0.17376211285591125,1.3664690256118774,0.010872052982449532,0.5422675013542175,0.16956588625907898,-0.5987258553504944,0.06389715522527695,0.06046387553215027,0.7898451089859009,-0.30313393473625183,0.014779298566281796,-0.5468451976776123,0.01926451548933983,-0.1348516047000885,0.698291003704071,-0.33732712268829346,-0.010856608860194683,0.23280662298202515,-0.004309052135795355,0.41226837038993835,-0.050419989973306656,0.005685747135430574,0.3192741274833679,-0.3982022702693939,-0.40967217087745667,0.002044615102931857,0.06378871202468872,1.0147699117660522,-1.074918508529663,-0.2717275023460388,-0.04818142578005791,2.0663087368011475,-1.10084068775177,0.18251655995845795,1.6036287546157837,0.2529012858867645,-0.7519789338111877,-2.075160264968872,2.0359103679656982,-0.8767220973968506,1741522917.3950105,1741522916273,-4.3434604492187505,0.23626046752929689,-2.0189279898007273,-0.48183895874023436,0.9767077636718751
1741522917.3720434,0.32893359661102295,-0.001544205905898858,0.04381372719811378,-0.9990385241506603,0.5542721152305603,0.22661231458187103,-0.9641268253326416,-5.375173091888428,0.897437572479248,10.219892501831055,-0.3519115447998047,0.054741859436035156,0.18902114033699036,-1.3267955780029297,0.006294346414506435,-0.7154573798179626,0.18520638346672058,1.3065773248672485,0.010109102353453636,0.7166017889976501,0.24967575073242188,-0.5956740379333496,0.05359731614589691,-0.13141833245754242,0.8588922023773193,-0.49810007214546204,-0.015142947435379028,-0.5205233693122864,0.04940108209848404,-0.0871671661734581,0.724612832069397,-0.33009564876556396,-0.07056280225515366,0.5294226408004761,0.11108428984880447,0.041330479085445404,-0.1567809283733368,0.05700722336769104,-0.8088691234588623,-1.138458490371704,-1.33357572555542,-0.02272031456232071,1.671998143196106,-2.50089168548584,0.8998529314994812,-1.031342625617981,-0.2879839539527893,0.06823524087667465,-2.2312920093536377,-0.5447371006011963,0.4756091237068176,0.4303843379020691,2.1081809997558594,-0.01921452023088932,-0.039321910589933395,0.23378321528434753,1741522917.3950105,1741522916273,-4.3434604492187505,0.23626046752929689,-2.0189279898007273,-0.48183895874023436,0.9767077636718751
1741522917.389813,0.31082987785339355,0.004975612699855106,0.031233068378493718,-0.9994997442310455,0.6032532453536987,0.33438295125961304,-0.7949720025062561,0.39231204986572266,-7.777719020843506,8.020157814025879,-0.3377962112426758,0.060463905334472656,0.19092851877212524,-1.3287029266357422,0.005531395319849253,-0.7364385724067688,0.16956588625907898,1.2821629047393799,0.010490577667951584,0.7383459210395813,0.20428015291690826,-0.6086442470550537,0.025749599561095238,-0.1356145590543747,0.9073395729064941,-0.5348665714263916,0.0008926287409849465,-0.5193789601325989,0.06275273114442825,-0.06198977679014206,0.7158388495445251,-0.3297138810157776,-0.07049527019262314,0.4073118567466736,0.1940051019191742,0.2044612169265747,-0.03192978352308273,0.0014591892249882221,-1.1147445440292358,-1.0257271528244019,-1.6101617813110352,0.025191986933350563,1.3822658061981201,-2.210073709487915,-1.0152289867401123,-1.4582979679107666,-0.0367409847676754,2.83054256439209,-1.7368091344833374,1.2146552801132202,0.023375006392598152,0.6177506446838379,1.138440728187561,-0.4697359800338745,0.032112836837768555,-0.0435686931014061,1741522917.3950105,1741522916273,-4.3434604492187505,0.23626046752929689,-2.0189279898007273,-0.48183895874023436,0.9767077636718751
1741522917.4098878,0.3055974841117859,0.008447514956704809,0.02476309867283822,-0.9996576556177498,0.30089929699897766,0.1580994874238968,-0.2309776097536087,-1.15398371219635,-4.420912742614746,8.123069763183594,-0.3347444534301758,0.08106327056884766,0.1985580176115036,-1.3229807615280151,0.00476844422519207,-0.760471522808075,0.15545128285884857,1.2627075910568237,0.010109102353453636,0.7574197053909302,0.1813916265964508,-0.6666285395622253,0.0013351644156500697,-0.12989242374897003,1.0111008882522583,-0.5445419549942017,-0.0015551566611975431,-0.5228122472763062,0.0707637146115303,-0.04444190114736557,0.7124055624008179,-0.3293304443359375,-0.07133198529481888,0.098811574280262,0.6620203852653503,0.25391340255737305,0.45301714539527893,-0.07303154468536377,-1.2247675657272339,-0.9270989298820496,-1.1928526163101196,-0.0017859488725662231,1.2152866125106812,-0.9004999399185181,-3.2128095626831055,-1.2642974853515625,0.3952293395996094,5.5718674659729,-0.2011280655860901,-0.6439184546470642,-0.1418103575706482,0.5245147943496704,0.8492371439933777,-0.14838053286075592,-0.010910012759268284,-0.02152026630938053,1741522917.3950105,1741522916273,-4.3434604492187505,0.23626046752929689,-2.0189279898007273,-0.48183895874023436,0.9767077636718751
1741522917.4298577,0.3035734295845032,0.011219259598063639,0.024978773161837976,-0.9996250242492934,-0.04851555451750755,0.15265828371047974,-0.0822107344865799,-0.871868908405304,-1.120877981185913,9.097657203674316,-0.3194856643676758,0.08945560455322266,0.20351719856262207,-1.3115365505218506,0.005531395319849253,-0.7871748208999634,0.14133669435977936,1.2531707286834717,0.010872052982449532,0.7738231420516968,0.1813916265964508,-0.7562752962112427,-0.01888304017484188,-0.1192111074924469,1.1430914402008057,-0.5250681638717651,-0.016500109806656837,-0.5270084738731384,0.08144503086805344,-0.03528648987412453,0.7089722752571106,-0.33255472779273987,-0.07690009474754333,0.41468536853790283,0.27984583377838135,0.3490711748600006,0.7869423627853394,-0.014480684883892536,-1.410986065864563,-0.920930027961731,-0.5651237964630127,0.03525217995047569,1.0832799673080444,0.07097761332988739,-4.629298210144043,-0.8910573124885559,0.49458733201026917,6.5260748863220215,1.1750785112380981,-0.3100627064704895,-0.24051021039485931,0.4990452229976654,0.4062662720680237,-0.21532228589057922,-0.18786294758319855,-0.35130414366722107,1741522917.3950105,1741522916273,-4.3434604492187505,0.23626046752929689,-2.0189279898007273,-0.48183895874023436,0.9767077636718751
1741522917.4498765,0.30469000339508057,0.015363851492049899,0.029571611951024025,-0.9994445816722147,-0.2489275336265564,0.20093552768230438,-0.0021489253267645836,8.745664596557617,1.7669621706008911,13.819314002990723,-0.3019380569458008,0.09899330139160156,0.21725031733512878,-1.298947811126709,0.005531395319849253,-0.8142595291137695,0.12912946939468384,1.2485930919647217,0.010490577667951584,0.7879377603530884,0.19130998849868774,-0.8455405235290527,-0.026512550190091133,-0.11348897218704224,1.2491416931152344,-0.48707324266433716,-0.00791529007256031,-0.536926805973053,0.08983749151229858,-0.03452353551983833,0.7051575779914856,-0.3387266993522644,-0.09040781855583191,0.5307960510253906,0.2916194796562195,0.6837583184242249,0.7985305786132812,-0.0022902963683009148,-1.3726418018341064,-0.7374951839447021,-0.29659268260002136,0.0030432292260229588,0.871669352054596,0.6071006655693054,-4.173011779785156,-0.2548832297325134,0.2325010895729065,4.9039201736450195,1.9776453971862793,0.3983811140060425,-0.6936912536621094,0.31640204787254333,0.06340573728084564,-0.17557203769683838,-0.3078051805496216,-0.6735149621963501,1741522917.4907587,1741522916373,-4.31258203125,0.21973077392578125,-2.22586696806586,-0.4865751342773438,0.9780931396484375
1741522917.469913,0.2992265820503235,0.017651576200794886,0.035834194306401904,-0.9992018476644439,-0.31575706601142883,0.1832115352153778,-0.3139466941356659,0.30054932832717896,1.5164552927017212,9.266701698303223,-0.2847719192504883,0.10776710510253906,0.24090181291103363,-1.2882665395736694,0.005531395319849253,-0.8360036611557007,0.1199740618467331,1.2470670938491821,0.010490577667951584,0.8012893795967102,0.2130540907382965,-0.8932250142097473,-0.04177157208323479,-0.09708552807569504,1.2933928966522217,-0.4412451982498169,-0.004949850030243397,-0.5476081371307373,0.09822995215654373,-0.03376058489084244,0.7028687000274658,-0.3449154496192932,-0.0985972210764885,0.5053932666778564,0.2715604901313782,1.2127898931503296,0.6836316585540771,-0.020664658397436142,-1.0923024415969849,-0.6621202230453491,-0.06829113513231277,-0.005590379238128662,0.8986852169036865,1.1112593412399292,-1.8649581670761108,-0.773650050163269,0.8525680899620056,1.5165774822235107,2.233407974243164,0.02097417041659355,-0.23800112307071686,0.4155062437057495,0.057871971279382706,-0.014626286923885345,-0.3297727406024933,-0.30071961879730225,1741522917.4907587,1741522916373,-4.31258203125,0.21973077392578125,-2.22586696806586,-0.4865751342773438,0.9780931396484375
1741522917.4899118,0.28328949213027954,0.024955870396312464,0.04005887047604908,-0.9988856247984278,-0.1130310446023941,0.37029820680618286,-0.8842158317565918,4.882425308227539,0.7372230291366577,10.276606559753418,-0.2641716003417969,0.11043739318847656,0.2740901708602905,-1.2802555561065674,0.005531395319849253,-0.8539330363273621,0.10509651154279709,1.2489745616912842,0.010872052982449532,0.8169298768043518,0.22259098291397095,-0.9004730582237244,-0.05283436179161072,-0.09212634712457657,1.258297085762024,-0.4052816331386566,0.004135464783757925,-0.5487525463104248,0.09975585341453552,-0.03223468363285065,0.7013428211212158,-0.35433340072631836,-0.10017504543066025,0.5962238907814026,0.14603473246097565,1.7042560577392578,0.4156559407711029,0.003566848114132881,-0.8722655773162842,-1.006067156791687,0.1428559124469757,0.03914516046643257,1.0645676851272583,0.4959582984447479,-0.2196219116449356,-0.5026861429214478,0.1932571828365326,-2.515080213546753,1.5787875652313232,0.4575400948524475,-0.11886784434318542,0.149121955037117,0.035752072930336,-0.07491961866617203,-0.4809257984161377,-0.15276502072811127,1741522917.4907587,1741522916373,-4.31258203125,0.21973077392578125,-2.22586696806586,-0.4865751342773438,0.9780931396484375
1741522917.509939,0.258952796459198,0.02877269467111522,0.03842966724841808,-0.9988469816325914,0.0932331308722496,0.30094802379608154,-1.2757538557052612,1.2598001956939697,2.422992467880249,5.904575824737549,-0.24090194702148438,0.10967445373535156,0.3110933005809784,-1.2802555561065674,0.005531395319849253,-0.8661402463912964,0.0875486359000206,1.2508819103240967,0.01125352829694748,0.8371480703353882,0.22564278542995453,-0.8604180812835693,-0.05436026677489281,-0.09403372555971146,1.1442358493804932,-0.40030720829963684,0.00743703031912446,-0.5510414242744446,0.1028076633810997,-0.03147173300385475,0.7059205174446106,-0.36562514305114746,-0.09796005487442017,0.7038424015045166,-0.016973543912172318,1.8283573389053345,0.01950332336127758,-0.005209555849432945,-0.6192567348480225,-1.1958643198013306,0.12399277091026306,0.019624926149845123,1.2982594966888428,0.055260203778743744,2.4424004554748535,-0.023008860647678375,-0.12565338611602783,-6.153770446777344,-0.10619991272687912,0.1272132247686386,-0.06043389067053795,0.14639879763126373,0.07871142029762268,0.2705177366733551,-0.5861433744430542,0.21222653985023499,1741522917.4907587,1741522916373,-4.31258203125,0.21973077392578125,-2.22586696806586,-0.4865751342773438,0.9780931396484375
1741522917.530008,0.2340480089187622,0.03206742188133803,0.034964766598335445,-0.9988739387683554,0.2274245172739029,0.16031675040721893,-1.2232410907745361,-1.8298264741897583,-0.7407612204551697,6.897478103637695,-0.22755050659179688,0.11081886291503906,0.3412298858165741,-1.2798740863800049,0.005531395319849253,-0.8787289261817932,0.07038223743438721,1.2531707286834717,0.01125352829694748,0.8611810207366943,0.20885786414146423,-0.7852674126625061,-0.04558632895350456,-0.09784847497940063,0.9767681360244751,-0.4354303479194641,0.006552693899720907,-0.5586709380149841,0.11043716967105865,-0.04329747334122658,0.7104982137680054,-0.37901654839515686,-0.09040573239326477,0.42972925305366516,0.014056769199669361,1.4258333444595337,0.005817890167236328,0.01344348955899477,-0.6555465459823608,-1.0880908966064453,0.08735344558954239,0.013662287965416908,1.6547144651412964,-1.1041673421859741,3.961550712585449,0.5393013954162598,-0.06380827724933624,-8.839285850524902,-2.064795732498169,-0.07303817570209503,-0.4226211905479431,0.38013267517089844,-0.8519160151481628,0.21568115055561066,-0.6630110740661621,0.2854871153831482,1741522917.4907587,1741522916373,-4.31258203125,0.21973077392578125,-2.22586696806586,-0.4865751342773438,0.9780931396484375
1741522917.5499942,0.2139195203781128,0.03763813530541844,0.03630344801402483,-0.9986317792024365,-0.11924747377634048,0.33851194381713867,-0.949396014213562,3.4046401977539062,-8.442026138305664,9.167213439941406,-0.21724987030029297,0.11081886291503906,0.3564889132976532,-1.2783480882644653,0.005531395319849253,-0.8947508931159973,0.061226826161146164,1.2524077892303467,0.01125352829694748,0.8871213793754578,0.1810101419687271,-0.7028687000274658,-0.020027466118335724,-0.09250781685113907,0.80510413646698,-0.4826808571815491,-0.0025931212585419416,-0.5640115737915039,0.11120012402534485,-0.071908138692379,0.7227054238319397,-0.3880431056022644,-0.08946941047906876,0.29155683517456055,0.0035921058151870966,0.5709617137908936,0.15454967319965363,-0.013506453484296799,-0.8054018616676331,-0.5096654295921326,-0.02788967452943325,-0.0014225727645680308,1.6901172399520874,-1.2769100666046143,4.146817207336426,1.3767807483673096,0.21417829394340515,-8.177574157714844,-2.209240674972534,-0.6714968085289001,-0.28506824374198914,0.01980367861688137,-1.3498237133026123,0.6848421692848206,-0.3672385513782501,-0.08380983769893646,1741522917.4907587,1741522916373,-4.31258203125,0.21973077392578125,-2.22586696806586,-0.4865751342773438,0.9780931396484375
1741522917.5700276,0.2064800262451172,0.03874448379486959,0.04880398509338123,-0.9980566296631038,-0.5903261303901672,-0.007518184371292591,-0.28564563393592834,16.228458404541016,22.029151916503906,16.27875328063965,-0.20275402069091797,0.13065528869628906,0.3587777614593506,-1.2688112258911133,0.005531395319849253,-0.9054322242736816,0.06427863240242004,1.2566040754318237,0.01125352829694748,0.9084840416908264,0.15774014592170715,-0.6769283413887024,-0.004386968910694122,-0.08564125746488571,0.7795453071594238,-0.45949190855026245,-0.06283533573150635,-0.5621042251586914,0.09098191559314728,-0.09060044586658478,0.7322422862052917,-0.3885938227176666,-0.09201265126466751,0.41461265087127686,0.6838741302490234,0.1553853303194046,0.7500201463699341,0.002697323216125369,-0.2599474787712097,0.2824122905731201,0.528753399848938,0.02055039443075657,1.2672325372695923,-1.2240298986434937,0.6475498676300049,0.7662951946258545,0.28309330344200134,0.3546777367591858,1.4100399017333984,-3.073516845703125,0.28076550364494324,-1.4031872749328613,-0.9082802534103394,0.18310628831386566,0.0057449424639344215,0.03868982940912247,1741522917.4907587,1741522916373,-4.31258203125,0.21973077392578125,-2.22586696806586,-0.4865751342773438,0.9780931396484375
1741522917.590031,0.21500170230865479,0.041238594716232896,0.04861407992519439,-0.9979659561021395,-0.056218769401311874,0.012002860195934772,0.5261424779891968,-1.5145015716552734,-0.40330103039741516,7.336941719055176,-0.17643260955810547,0.13141822814941406,0.34657052159309387,-1.2569855451583862,0.005531395319849253,-0.9134432077407837,0.07953765243291855,1.2619446516036987,0.01125352829694748,0.9275577664375305,0.14705882966518402,-0.6853207945823669,0.0394827201962471,-0.09861142933368683,0.7921339869499207,-0.42934542894363403,-0.08182793855667114,-0.5453193187713623,0.0879301130771637,-0.14057374000549316,0.7169833183288574,-0.3994499742984772,-0.05082697048783302,0.7627914547920227,0.15972962975502014,-0.8058507442474365,0.6644707322120667,-0.008387832902371883,-0.4826902747154236,1.2188732624053955,0.1402338296175003,-0.028603482991456985,1.2892520427703857,-0.5009572505950928,0.13277849555015564,2.0393757820129395,-0.479861319065094,-0.029120435938239098,1.357511043548584,0.1708277463912964,0.7922898530960083,0.2650785446166992,-2.7660655975341797,-0.7634335160255432,-0.5773060321807861,2.3156843185424805,1741522917.4907587,1741522916373,-4.31258203125,0.21973077392578125,-2.22586696806586,-0.4865751342773438,0.9780931396484375
1741522917.610102,0.22140729427337646,0.035740365491893675,0.058949673939580664,-0.9976209511717979,-0.5971810221672058,-0.3112545311450958,0.1694563776254654,-1.460049033164978,-3.985750198364258,9.05716323852539,-0.18291759490966797,0.13752174377441406,0.31757840514183044,-1.2527892589569092,0.005149920005351305,-0.9245060086250305,0.11005569249391556,1.2569855451583862,0.011635004542768002,0.9420538544654846,0.134470134973526,-0.6441214680671692,0.06961929053068161,-0.10013733059167862,0.7536049485206604,-0.41200318932533264,-0.046083081513643265,-0.5319676399230957,0.08297093212604523,-0.18825818598270416,0.7204165458679199,-0.42338085174560547,-0.0305605661123991,-0.20909903943538666,0.12302173674106598,-1.4244877099990845,0.2409263253211975,-0.03151841461658478,-0.5371774435043335,2.0865023136138916,-0.26797884702682495,0.08450572192668915,0.8445786237716675,-0.5436198115348816,2.028660297393799,1.4508289098739624,-0.047915998846292496,-2.0175108909606934,0.8030604124069214,1.2950682640075684,0.7203744053840637,-0.6722631454467773,-2.020343065261841,0.5612702965736389,-1.3640159368515015,0.6480830311775208,1741522917.6923625,1741522916473,-4.2944775390625,0.21987750244140625,-2.2216367917792685,-0.48977032470703125,0.9800760498046875
1741522917.6300929,0.2221667766571045,0.029476987849566396,0.07504595231239355,-0.9967443063438299,-0.8369660377502441,-0.3275775611400604,-0.15531910955905914,-0.7773682475090027,6.3323259353637695,12.37755298614502,-0.14515113830566406,0.14629554748535156,0.2931639552116394,-1.2459226846694946,0.005149920005351305,-0.9275577664375305,0.14324407279491425,1.2619446516036987,0.01201647985726595,0.9473945498466492,0.14286258816719055,-0.6197070479393005,0.07686731964349747,-0.11463340371847153,0.733386754989624,-0.39121127128601074,-0.06826132535934448,-0.5399786233901978,0.05703059583902359,-0.21229113638401031,0.7749675512313843,-0.4628298878669739,-0.015727434307336807,1.0270843505859375,0.3109494149684906,-1.2177274227142334,0.5095596313476562,-0.012349460273981094,-0.09201376885175705,2.043670415878296,0.5344630479812622,-0.014886494725942612,0.25392550230026245,0.6072050333023071,0.7228335738182068,0.26927632093429565,-0.9762385487556458,-0.6281304955482483,1.0141396522521973,-1.117753028869629,-0.582964301109314,-1.2787357568740845,-1.0448787212371826,3.1765947341918945,-2.0214529037475586,0.9165781736373901,1741522917.6923625,1741522916473,-4.2944775390625,0.21987750244140625,-2.2216367917792685,-0.48977032470703125,0.9800760498046875
1741522917.650138,0.20781230926513672,0.024398401514751145,0.08480045951122184,-0.996099191883123,-0.4211415946483612,-0.12811236083507538,-0.7901085615158081,1.4143177270889282,-6.392875671386719,9.362059593200684,-0.13027381896972656,0.13179969787597656,0.2603570520877838,-1.2356228828430176,0.005531395319849253,-0.925650417804718,0.16384375095367432,1.2711000442504883,0.013160906732082367,0.9504463076591492,0.16880293190479279,-0.615129292011261,0.08525978773832321,-0.13065537810325623,0.7318608164787292,-0.38060760498046875,-0.06862522661685944,-0.579270601272583,0.040627144277095795,-0.23975738883018494,0.8749141693115234,-0.4991076588630676,0.008979287929832935,0.4904167354106903,-0.39922356605529785,-1.8507897853851318,0.6426752209663391,0.0037866809871047735,0.057757798582315445,1.267944097518921,0.3940357565879822,0.001890930230729282,0.21845944225788116,1.3045835494995117,0.3531897962093353,0.2046288698911667,-0.6424933075904846,-0.17951838672161102,0.5143905282020569,0.2095879316329956,-2.3247861862182617,-0.8008498549461365,-1.4363933801651,5.247128009796143,-1.6665213108062744,1.1718599796295166,1741522917.6923625,1741522916473,-4.2944775390625,0.21987750244140625,-2.2216367917792685,-0.48977032470703125,0.9800760498046875
1741522917.6701071,0.1889498233795166,0.019515487983926855,0.08858323685162733,-0.9958775807686594,-0.09237239509820938,-0.11955758184194565,-0.9295821189880371,0.4810536205768585,-0.820738673210144,11.000030517578125,-0.11654090881347656,0.12912940979003906,0.2149614691734314,-1.227230429649353,0.005531395319849253,-0.9214541912078857,0.1810101419687271,1.2653779983520508,0.010490577667951584,0.9554055333137512,0.19054703414440155,-0.6101701259613037,0.08411535620689392,-0.1371404528617859,0.7249943017959595,-0.37449902296066284,-0.07310223579406738,-0.6342030763626099,0.007057297509163618,-0.2618829607963562,0.9962233901023865,-0.5172122716903687,-0.0009015826508402824,0.38533005118370056,-0.14490705728530884,-2.2906482219696045,0.5340091586112976,-0.020382707938551903,0.21288053691387177,1.2878040075302124,-0.4812031686306,-0.14638075232505798,0.31184160709381104,0.9990121126174927,0.2293703705072403,-0.00650445744395256,-0.19349919259548187,-0.28644588589668274,0.30711790919303894,-0.4577617943286896,-2.659191846847534,-1.8760969638824463,-0.9324306845664978,6.119680881500244,-0.7257346510887146,-0.6657586693763733,1741522917.6923625,1741522916473,-4.2944775390625,0.21987750244140625,-2.2216367917792685,-0.48977032470703125,0.9800760498046875
1741522917.6901443,0.17291665077209473,0.017716132835834706,0.08388535028532118,-0.9963179144454103,0.27924269437789917,-0.021900305524468422,-0.76394122838974,2.327324151992798,-1.4399703741073608,9.454239845275879,-0.09517860412597656,0.11692237854003906,0.15850308537483215,-1.221508264541626,0.005531395319849253,-0.9218356609344482,0.21038375794887543,1.2531707286834717,0.010109102353453636,0.9573128819465637,0.20847637951374054,-0.6010147333145142,0.09365224838256836,-0.1348516047000885,0.7215610146522522,-0.3730736970901489,-0.07741840183734894,-0.6853207945823669,-0.03604944050312042,-0.26836803555488586,1.0984588861465454,-0.5136635899543762,0.00690092658624053,0.6421507000923157,-0.3265242874622345,-2.8590471744537354,0.3534257709980011,-0.002777667483314872,-0.07173911482095718,2.114996910095215,-0.828846275806427,-0.005186435300856829,0.040749385952949524,0.8372744917869568,0.43228381872177124,0.6126320958137512,0.24471774697303772,-0.20199944078922272,0.012083095498383045,-0.09459330141544342,-2.407013177871704,-2.102966070175171,-0.2793997526168823,4.578469753265381,0.33226099610328674,0.710359513759613,1741522917.6923625,1741522916473,-4.2944775390625,0.21987750244140625,-2.2216367917792685,-0.48977032470703125,0.9800760498046875
1741522917.710203,0.1603792905807495,0.01413256099002081,0.07702829082125569,-0.9969287402482784,0.34229570627212524,-0.1494365781545639,-0.5852962136268616,2.080922842025757,-1.7681430578231812,9.006943702697754,-0.08754825592041016,0.11120033264160156,0.09822995215654373,-1.221508264541626,0.005531395319849253,-0.9245060086250305,0.2481498420238495,1.2466856241226196,0.010490577667951584,0.954261064529419,0.2153429538011551,-0.5933852195739746,0.11577782779932022,-0.1199740618467331,0.7166017889976501,-0.3751105070114136,-0.08548562973737717,-0.7082093358039856,-0.0722896158695221,-0.26760509610176086,1.1484321355819702,-0.49720853567123413,0.00978978630155325,0.22937099635601044,-0.16394813358783722,-3.1950817108154297,-0.05890218913555145,-0.010091230273246765,-0.12915153801441193,2.535790205001831,-0.3121613562107086,0.01659814827144146,-0.23219357430934906,0.14344052970409393,0.3769242763519287,1.1119989156723022,0.7371153235435486,-0.263298898935318,-0.16658225655555725,-0.5454108119010925,-0.8580273389816284,-1.8827744722366333,0.1293426901102066,1.9572700262069702,0.8772547245025635,-0.2609705626964569,1741522917.6923625,1741522916473,-4.2944775390625,0.21987750244140625,-2.2216367917792685,-0.48977032470703125,0.9800760498046875
1741522917.730169,0.15105664730072021,0.007206897727163127,0.07162996596982005,-0.9974052379049915,0.2557133436203003,-0.31766432523727417,-0.45281466841697693,1.073365569114685,-1.4959090948104858,7.440687656402588,-0.07381534576416016,0.10624122619628906,0.04139009863138199,-1.221508264541626,0.005531395319849253,-0.9252689480781555,0.28973066806793213,1.2470670938491821,0.010490577667951584,0.9496833682060242,0.2161058932542801,-0.5754558444023132,0.14248111844062805,-0.10700388997793198,0.7131685614585876,-0.38126611709594727,-0.10416962951421738,-0.7043945789337158,-0.10013733059167862,-0.264934778213501,1.1415655612945557,-0.47850558161735535,-0.003245219122618437,0.38993048667907715,-0.09575524181127548,-2.7880072593688965,0.0028914816211909056,-0.007369099650532007,-0.0536738783121109,2.8151731491088867,0.007915478199720383,0.007896539755165577,-0.27210259437561035,0.20190200209617615,1.0187361240386963,1.2923613786697388,0.6717708706855774,-0.13921688497066498,-0.3119933009147644,-0.8968725800514221,0.31108319759368896,-1.1707782745361328,0.10013868659734726,-0.6934228539466858,0.9539178609848022,-0.47139257192611694,1741522917.6923625,1741522916473,-4.2944775390625,0.21987750244140625,-2.2216367917792685,-0.48977032470703125,0.9800760498046875
1741522917.7501915,0.14373421669006348,0.0014545282575296572,0.06764267129181924,-0.9977085513154906,0.20456644892692566,-0.2552405893802643,-0.36518731713294983,0.17027471959590912,-3.4439704418182373,7.118525981903076,-0.06389713287353516,0.10471534729003906,-0.0032425422687083483,-1.221508264541626,0.005531395319849253,-0.9260318875312805,0.32978561520576477,1.2470670938491821,0.010490577667951584,0.9473945498466492,0.22030213475227356,-0.5617227554321289,0.164988175034523,-0.09517814964056015,0.7127870321273804,-0.38651931285858154,-0.11487135291099548,-0.6857023239135742,-0.11768520623445511,-0.2595941126346588,1.0992218255996704,-0.46562808752059937,0.005454348865896463,0.2859964966773987,-0.0376756452023983,-2.1198532581329346,-0.001982643036171794,-0.008436880074441433,-0.030328897759318352,2.6257901191711426,0.006331926211714745,0.004623034968972206,-0.18490801751613617,0.12748076021671295,0.583687961101532,1.05904221534729,0.5057747960090637,0.01904049701988697,-0.21073244512081146,-0.45352908968925476,1.0236854553222656,-0.8601784110069275,0.36052605509757996,-2.3307881355285645,0.5098646879196167,0.34868505597114563,1741522917.6923625,1741522916473,-4.2944775390625,0.21987750244140625,-2.2216367917792685,-0.48977032470703125,0.9800760498046875
1741522917.770275,0.1415698528289795,-4.057776458262769e-05,0.06461030397381937,-0.9979105706293805,0.14093108475208282,-0.036615412682294846,-0.09399738907814026,1.736201524734497,0.40514013171195984,6.9238691329956055,-0.056649208068847656,0.09823036193847656,-0.031090257689356804,-1.221508264541626,0.005149920005351305,-0.9267948269844055,0.36259251832962036,1.2478300333023071,0.010490577667951584,0.9451056718826294,0.2286945879459381,-0.5548561811447144,0.17643244564533234,-0.09327077120542526,0.7196536064147949,-0.388721764087677,-0.12026388198137283,-0.6578545570373535,-0.12989242374897003,-0.25196459889411926,1.0248340368270874,-0.4707123041152954,-0.002118129748851061,0.21688395738601685,-0.17815516889095306,-1.285150170326233,-0.006910884287208319,-0.014139451086521149,-0.056101277470588684,2.1820170879364014,0.011255409568548203,0.020452557131648064,-0.14017921686172485,0.5210662484169006,0.27336347103118896,0.5035102367401123,0.05044350028038025,0.4034390151500702,-0.14387263357639313,-0.2341630905866623,1.4348042011260986,-0.5274888277053833,0.35289353132247925,-4.029714107513428,-0.4025098383426666,-0.45502498745918274,1741522917.6923625,1741522916473,-4.2944775390625,0.21987750244140625,-2.2216367917792685,-0.48977032470703125,0.9800760498046875
1741522917.7905867,0.13027310371398926,0.00082302008544521,0.06256429309906476,-0.9980405963020509,0.12389252334833145,0.1152077242732048,-0.6300404667854309,1.6050739288330078,0.31047323346138,7.089905738830566,-0.042153358459472656,0.08373355865478516,-0.0555046908557415,-1.2203638553619385,0.005531395319849253,-0.9321355223655701,0.38357365131378174,1.2474485635757446,0.011635004542768002,0.9428167939186096,0.25196459889411926,-0.5567635893821716,0.16956588625907898,-0.10013733059167862,0.7360570430755615,-0.3930307626724243,-0.11889206618070602,-0.6219958662986755,-0.13065537810325623,-0.2588311731815338,0.9046692848205566,-0.4960370659828186,-0.01026328094303608,0.41213181614875793,-0.4526823163032532,-1.049108862876892,0.08280350267887115,0.00575535511597991,-0.3908448815345764,1.2329031229019165,-0.019833512604236603,0.07856129854917526,-0.18716025352478027,1.290428876876831,-0.19727033376693726,-0.5443608164787292,-0.4443923234939575,0.9437478184700012,-0.2194855660200119,0.11323140561580658,1.8896238803863525,0.02075575850903988,-0.4223771095275879,-6.328711032867432,-1.4046046733856201,-0.26011499762535095,1741522917.6923625,1741522916473,-4.2944775390625,0.21987750244140625,-2.2216367917792685,-0.48977032470703125,0.9800760498046875
1741522917.8102686,0.1124035120010376,0.0025280812834403642,0.05833412838055923,-0.9982939137704411,0.18409661948680878,0.1104506105184555,-1.0249927043914795,-17.710439682006836,4.090693950653076,25.284408569335938,-0.02765655517578125,0.07686710357666016,-0.06046387553215027,-1.219219446182251,0.005531395319849253,-0.9439612627029419,0.3908216953277588,1.2463041543960571,0.01125352829694748,0.9367132186889648,0.2805752754211426,-0.5617227554321289,0.1646067053079605,-0.11692225188016891,0.7661936283111572,-0.3972207009792328,-0.10964730381965637,-0.572022557258606,-0.1340886503458023,-0.290112167596817,0.8295185565948486,-0.49069201946258545,0.012304570525884628,0.41868412494659424,-0.26826298236846924,-0.0660683736205101,0.06823942810297012,0.03245139867067337,-0.5612706542015076,0.4550543427467346,-0.12786825001239777,-0.02516775019466877,-0.5691975951194763,1.5472439527511597,-0.05673861503601074,0.5669188499450684,-1.2515169382095337,1.5295190811157227,-0.21148794889450073,0.5039680600166321,2.4211385250091553,0.14555713534355164,-2.2653968334198,-1.4931117296218872,0.9761849641799927,0.9955024123191833,1741522917.9077427,1741522916773,-4.20028759765625,0.18590777587890625,-2.5259657062812484,-0.488356201171875,0.9809321899414063
1741522917.8303347,0.08084440231323242,0.0018102473704095959,0.06292717974402375,-0.9980164793498758,-0.249252051115036,-0.02499125711619854,-1.5237420797348022,17.534160614013672,5.494436264038086,2.814439296722412,-0.02384185791015625,0.07763004302978516,-0.040245670825242996,-1.219219446182251,0.00476844422519207,-0.952735185623169,0.3854810297489166,1.2463041543960571,0.01201647985726595,0.924124538898468,0.29888609051704407,-0.5449378490447998,0.15354390442371368,-0.15392538905143738,0.7867932915687561,-0.41433247923851013,-0.06384152919054031,-0.5678263306617737,-0.10852979123592377,-0.3061341345310211,0.8241779208183289,-0.46570679545402527,0.02601412683725357,0.07473310828208923,0.026195665821433067,1.3396661281585693,-0.006268611643463373,0.03616733476519585,-0.41520458459854126,-0.542021632194519,0.018798014149069786,0.03407585248351097,-0.6710582971572876,0.6121439933776855,0.8745888471603394,-0.7836001515388489,-1.8468036651611328,0.9350454807281494,-0.9106040596961975,2.635202169418335,-0.17647114396095276,0.6240194439888,-0.07788258790969849,-1.0417100191116333,1.03473699092865,0.4519709348678589,1741522917.9077427,1741522916773,-4.20028759765625,0.18590777587890625,-2.5259657062812484,-0.488356201171875,0.9809321899414063
1741522917.8503575,0.05137467384338379,-0.0005454324148238436,0.06937100436544737,-0.9975907809602143,-0.2669053077697754,0.2120663970708847,-1.405542016029358,4.558582305908203,12.596609115600586,11.32990837097168,-0.01049041748046875,0.07457828521728516,0.0009536888683214784,-1.219219446182251,0.005149920005351305,-0.952735185623169,0.36793315410614014,1.2508819103240967,0.01125352829694748,0.9187838435173035,0.29888609051704407,-0.5292973518371582,0.12836651504039764,-0.1970321238040924,0.810826301574707,-0.4403497278690338,-0.013254991732537746,-0.5262455344200134,-0.09632257372140884,-0.2645532786846161,0.7936598658561707,-0.4525892436504364,-0.00013255662634037435,0.37774354219436646,-0.1878647804260254,1.9722903966903687,-0.0017358844634145498,-0.017745301127433777,0.032256029546260834,-1.243264079093933,0.3512900173664093,-0.057338785380125046,-0.24618488550186157,-0.1324080377817154,0.6688662767410278,-1.3409899473190308,-2.3150863647460938,1.6112619638442993,-1.3545031547546387,2.4489998817443848,2.5024187564849854,1.2373874187469482,2.231600761413574,-1.4151350259780884,0.5601633787155151,-1.7519055604934692,1741522917.9077427,1741522916773,-4.20028759765625,0.18590777587890625,-2.5259657062812484,-0.488356201171875,0.9809321899414063
1741522917.8703682,0.025634050369262695,0.002975490675869609,0.06527208873139148,-0.9978630672030503,0.25682201981544495,0.1938600242137909,-1.1374046802520752,-1.653398036956787,2.622349262237549,11.51860237121582,0.00400543212890625,0.08106327056884766,0.04444190114736557,-1.23295259475708,0.00667582219466567,-0.9493018984794617,0.34542611241340637,1.2474485635757446,0.010872052982449532,0.9164950251579285,0.2637903392314911,-0.5243381261825562,0.09594109654426575,-0.23289081454277039,0.84592205286026,-0.47479528188705444,0.00643581710755825,-0.5140383243560791,-0.05130846053361893,-0.2450980395078659,0.7722972631454468,-0.4520983099937439,-0.020314322784543037,0.4089028835296631,0.1546119898557663,2.2149806022644043,-1.3822869062423706,0.08082716912031174,0.17502625286579132,-1.468361735343933,-0.33351680636405945,0.009152354672551155,-0.1491723358631134,-1.8954708576202393,0.2116108238697052,-1.7689851522445679,-1.515279769897461,1.6090370416641235,-1.7325007915496826,0.5708848834037781,-0.030775729566812515,2.082625150680542,1.0403831005096436,-1.0004576444625854,-0.20621664822101593,-0.8461486101150513,1741522917.9077427,1741522916773,-4.20028759765625,0.18590777587890625,-2.5259657062812484,-0.488356201171875,0.9809321899414063
1741522917.8903568,0.018390297889709473,0.007294795503678085,0.06109317424565511,-0.9981054102744608,0.19027097523212433,0.4113413095474243,-0.2728666365146637,-0.9628710746765137,-0.7441909313201904,12.456421852111816,0.00019073486328125,0.07915592193603516,0.0879301130771637,-1.2546966075897217,0.005149920005351305,-0.9485389590263367,0.3248264193534851,1.2405821084976196,0.010490577667951584,0.9149690866470337,0.21229113638401031,-0.5178530812263489,0.053215838968753815,-0.22755016386508942,0.8932250142097473,-0.50038743019104,-0.011546182446181774,-0.49153125286102295,-0.038719769567251205,-0.20122835040092468,0.7703898549079895,-0.4623003602027893,-0.02878316305577755,-0.12482867389917374,0.014300288632512093,2.1338794231414795,-1.1555660963058472,-0.02956596203148365,-0.05683379992842674,-1.5350701808929443,-0.44753116369247437,-0.041941218078136444,-0.008970610797405243,-2.6466751098632812,0.35386770963668823,-2.080873966217041,0.5575864315032959,2.5975563526153564,-1.1370022296905518,-0.8240976929664612,1.5488169193267822,0.5357693433761597,2.049041271209717,0.012664852663874626,-0.4362905025482178,-0.2324078530073166,1741522917.9077427,1741522916773,-4.20028759765625,0.18590777587890625,-2.5259657062812484,-0.488356201171875,0.9809321899414063
1741522917.9103503,0.02355325222015381,0.010867783131291426,0.054232430855024626,-0.9984691956857589,0.3897399604320526,-0.04317645728588104,0.3275688588619232,-7.416397571563721,-1.1608113050460815,10.341391563415527,0.02193450927734375,0.09250736236572266,0.13218127191066742,-1.2649965286254883,0.005912871100008488,-0.9496833682060242,0.29812315106391907,1.23447847366333,0.011635004542768002,0.9149690866470337,0.15888457000255585,-0.5464637279510498,0.00667582219466567,-0.1962691694498062,0.9786755442619324,-0.5173918604850769,0.004290485288947821,-0.4873350262641907,-0.027656977996230125,-0.17986571788787842,0.7532234787940979,-0.4703385829925537,-0.032827891409397125,0.5303152203559875,0.39020875096321106,2.2895686626434326,-0.8499755263328552,0.020978011190891266,-0.0029050055891275406,-1.6669467687606812,-0.3768528699874878,0.10725758224725723,-0.022437671199440956,-2.4712700843811035,-1.9222487211227417,-2.227745294570923,1.5130664110183716,4.54945707321167,-0.8315532803535461,1.0850026607513428,0.0725167840719223,0.5121821761131287,1.0085011720657349,-0.9087475538253784,-0.39875948429107666,-0.25392577052116394,1741522917.9077427,1741522916773,-4.20028759765625,0.18590777587890625,-2.5259657062812484,-0.488356201171875,0.9809321899414063
1741522917.9304252,0.03940129280090332,0.01626386869082362,0.051207362771998395,-0.9985556031454355,0.059708140790462494,0.34054258465766907,0.8132461905479431,3.186749219894409,-2.8063743114471436,4.302484512329102,0.02918243408203125,0.08525943756103516,0.1817730963230133,-1.2752963304519653,0.005149920005351305,-0.9481574892997742,0.2630273997783661,1.2340970039367676,0.010872052982449532,0.9153505563735962,0.12531471252441406,-0.6174181699752808,-0.03147173300385475,-0.16384375095367432,1.104943871498108,-0.5276127457618713,0.005394644569605589,-0.4537651538848877,-0.01506828423589468,-0.1684214472770691,0.7448310256004333,-0.47250571846961975,-0.030553355813026428,0.24585981667041779,-0.1685667634010315,2.4679548740386963,-0.4252946972846985,-0.03008365072309971,0.055512480437755585,-2.571420431137085,0.0026419952046126127,-0.011987925507128239,0.05995108559727669,-1.4742767810821533,-3.8588273525238037,-1.8920859098434448,1.679987907409668,6.638685703277588,-0.4791921377182007,-0.34459903836250305,1.742303490638733,0.6450182199478149,0.5351526737213135,-0.4400545656681061,-0.1253366321325302,0.09532307833433151,1741522917.9077427,1741522916773,-4.20028759765625,0.18590777587890625,-2.5259657062812484,-0.488356201171875,0.9809321899414063
1741522917.950414,0.062258243560791016,0.016433004065440758,0.05268908649439031,-0.9984757465966672,-0.05879223346710205,-0.18372893333435059,1.1336497068405151,-5.069741249084473,-3.1884605884552,7.344692230224609,0.036431312561035156,0.10662269592285156,0.23670557141304016,-1.2722445726394653,0.005531395319849253,-0.9481574892997742,0.22068360447883606,1.236767292022705,0.011635004542768002,0.9153505563735962,0.10509651154279709,-0.7242313027381897,-0.06198977679014206,-0.12798504531383514,1.2472343444824219,-0.5334178805351257,-0.009614857845008373,-0.44575417041778564,-0.00019073777366429567,-0.16918440163135529,0.726138710975647,-0.47786256670951843,-0.03257894888520241,0.18435786664485931,0.5850486159324646,2.8887665271759033,0.1490388959646225,-0.010893152095377445,0.01071606669574976,-2.7542002201080322,0.1358186900615692,0.04562709853053093,-0.016056982800364494,-0.8933802843093872,-5.469856262207031,-1.7197552919387817,1.906013011932373,7.066776752471924,-0.2592178285121918,-0.29571062326431274,0.3803721070289612,0.8947378993034363,-0.1030387207865715,-0.7850220203399658,-0.28536126017570496,-0.16743403673171997,1741522917.9077427,1741522916773,-4.20028759765625,0.18590777587890625,-2.5259657062812484,-0.488356201171875,0.9809321899414063
1741522917.9704263,0.08564925193786621,0.02043457393598323,0.06103987819044934,-0.9979261302614286,-0.5025272965431213,0.14969748258590698,1.1443053483963013,0.08649472892284393,0.7208337783813477,6.842835903167725,0.056267738342285156,0.10547828674316406,0.2946898639202118,-1.2661409378051758,0.005531395319849253,-0.9485389590263367,0.17185473442077637,1.23753023147583,0.010872052982449532,0.9157320261001587,0.09517814964056015,-0.8310444951057434,-0.09060044586658478,-0.08297093212604523,1.3643473386764526,-0.5313757658004761,-0.001950917299836874,-0.4171435236930847,0.01430533267557621,-0.1676585078239441,0.7215610146522522,-0.49085450172424316,-0.03660053387284279,0.5548722147941589,0.08263909816741943,2.7972209453582764,0.4984610080718994,-0.006109130103141069,-0.023530079051852226,-3.3582112789154053,0.06001637130975723,-0.01572532393038273,0.029072275385260582,-0.4124567210674286,-5.168949604034424,-1.281296968460083,2.090221643447876,5.466901779174805,0.17508207261562347,0.2955646812915802,1.5272597074508667,0.6976091265678406,0.16175444424152374,-0.22191675007343292,-0.668401837348938,-0.14906242489814758,1741522918.0021796,1741522916873,-4.13238232421875,0.16394598388671874,-2.5721444342612543,-0.46877853393554686,0.9732103271484375
1741522917.9904704,0.1061176061630249,0.023774110418901796,0.06997509767015378,-0.9972653996704399,-0.45014551281929016,0.013183833099901676,0.8913708925247192,8.272378921508789,1.7464096546173096,6.755601406097412,0.07114505767822266,0.10585975646972656,0.35229265689849854,-1.2558410167694092,0.005531395319849253,-0.9458686113357544,0.1184481605887413,1.2379117012023926,0.011635004542768002,0.9164950251579285,0.0875486359000206,-0.9069581031799316,-0.09441519528627396,-0.05741206929087639,1.4208056926727295,-0.5154725909233093,-0.011105751618742943,-0.41371023654937744,0.03643091395497322,-0.16193637251853943,0.7101167440414429,-0.5089051127433777,-0.04289202392101288,0.4683051109313965,0.0368342399597168,2.7958409786224365,0.6501331329345703,-0.001645873417146504,0.16883708536624908,-3.5422961711883545,0.018458640202879906,0.03160104900598526,-0.036592960357666016,-0.5747929811477661,-3.5747716426849365,-0.0681002289056778,1.0517436265945435,2.117135763168335,0.9187503457069397,-0.44452163577079773,-0.10553323477506638,1.2342844009399414,0.37151190638542175,-0.5719476342201233,-0.96419358253479,-0.4111286699771881,1741522918.0021796,1741522916873,-4.13238232421875,0.16394598388671874,-2.5721444342612543,-0.46877853393554686,0.9732103271484375
1741522918.0104578,0.10767114162445068,0.025777596759145913,0.07878633187490748,-0.9965581916852723,-0.4501242935657501,0.2642250061035156,-0.0022309955675154924,3.666558027267456,3.706214427947998,6.452071666717529,0.09632301330566406,0.10357093811035156,0.4018844962120056,-1.2524077892303467,0.005531395319849253,-0.9473945498466492,0.06656748056411743,1.2379117012023926,0.011635004542768002,0.9180209040641785,0.07305257022380829,-0.9409094452857971,-0.08144503086805344,-0.04253452271223068,1.3963912725448608,-0.489176869392395,-0.010337000712752342,-0.3934920132160187,0.06313420087099075,-0.14248111844062805,0.7101167440414429,-0.5297640562057495,-0.04953465610742569,0.7297289371490479,-0.19023433327674866,2.3404436111450195,0.18080030381679535,-0.01298547349870205,-0.06463894993066788,-3.400303602218628,0.01973595656454563,-0.03413248062133789,0.14885719120502472,-0.6452093720436096,-1.3803149461746216,0.7657371759414673,0.5682702660560608,-1.7830349206924438,1.3557443618774414,0.3400634825229645,1.184440016746521,1.2201523780822754,1.206039309501648,0.01554653886705637,-1.0418888330459595,-0.25309884548187256,1741522918.0021796,1741522916873,-4.13238232421875,0.16394598388671874,-2.5721444342612543,-0.46877853393554686,0.9732103271484375
1741522918.030561,0.1000133752822876,0.028148562879576282,0.08270767567146864,-0.9961762388216443,-0.0929441899061203,0.08238394558429718,-0.3385056257247925,-0.2470337152481079,0.7463076114654541,11.06845760345459,0.10891151428222656,0.10967445373535156,0.45796138048171997,-1.2554595470428467,0.005912871100008488,-0.9405279755592346,0.019645990803837776,1.238293170928955,0.01125352829694748,0.9199283123016357,0.04749370738863945,-0.9466315507888794,-0.048638131469488144,-0.04482337832450867,1.3048371076583862,-0.4598012864589691,-0.000980494194664061,-0.38166627287864685,0.08525978773832321,-0.12569619715213776,0.7032501697540283,-0.5512431263923645,-0.06253682076931,0.39276835322380066,0.15525196492671967,2.7124886512756348,-0.3357070982456207,0.0008093235082924366,0.4314291477203369,-3.029576063156128,-0.007970060221850872,-0.004237134009599686,0.17281337082386017,-1.5231192111968994,-0.11453144252300262,1.6990492343902588,-0.24972067773342133,-5.129461765289307,1.4120415449142456,0.14842432737350464,0.41232940554618835,1.1355037689208984,0.7194231748580933,-0.29105648398399353,-0.9988623261451721,-0.8650797605514526,1741522918.0021796,1741522916873,-4.13238232421875,0.16394598388671874,-2.5721444342612543,-0.46877853393554686,0.9732103271484375
1741522918.0505025,0.0997319221496582,0.03331450362057764,0.08163673280058197,-0.9961052091552182,0.027660125866532326,0.34304913878440857,0.03710431605577469,4.457840919494629,-1.9381097555160522,8.182655334472656,0.11997413635253906,0.10395240783691406,0.49496451020240784,-1.2562226057052612,0.005531395319849253,-0.9321355223655701,-0.021553369238972664,1.2371487617492676,0.01125352829694748,0.9283207654953003,0.009346150793135166,-0.9206912517547607,-0.009346150793135166,-0.040245670825242996,1.1625467538833618,-0.44025975465774536,-0.0009762981790117919,-0.3549630045890808,0.09288929402828217,-0.11539635062217712,0.7017242908477783,-0.562798798084259,-0.06240825355052948,0.30894163250923157,-0.13265635073184967,1.4366745948791504,0.04780450835824013,0.009323745965957642,0.3432456851005554,-2.697448253631592,-0.09292399883270264,-0.0018964024493470788,0.676180362701416,-1.8832652568817139,1.5644162893295288,1.983616590499878,0.4692794382572174,-7.334833145141602,0.8050504326820374,0.09523628652095795,1.4775196313858032,0.1807854026556015,0.5527642965316772,-0.15245111286640167,-0.4869982898235321,0.24415352940559387,1741522918.0021796,1741522916873,-4.13238232421875,0.16394598388671874,-2.5721444342612543,-0.46877853393554686,0.9732103271484375
1741522918.0705411,0.10806787014007568,0.035603481193197485,0.08218508054582101,-0.995980925852801,-0.033227432519197464,0.0038816407322883606,0.43268588185310364,3.9163849353790283,-5.405693054199219,10.82780933380127,0.12264442443847656,0.10280799865722656,0.5006866455078125,-1.2543151378631592,0.005531395319849253,-0.926413357257843,-0.045204851776361465,1.23295259475708,0.01125352829694748,0.9401465058326721,-0.026512550190091133,-0.8764400482177734,0.03643091395497322,-0.006294346414506435,1.0088120698928833,-0.4391098916530609,0.008081711828708649,-0.3274967670440674,0.09784847497940063,-0.1188296303153038,0.6860837936401367,-0.5646884441375732,-0.047456033527851105,0.07483188062906265,-0.019700931385159492,0.18201391398906708,-0.0031637949869036674,-0.027865095064044,0.3190755546092987,-1.2299095392227173,-0.28142374753952026,0.0034852258395403624,0.7584706544876099,-1.7668715715408325,2.266907215118408,2.295597553253174,1.7416778802871704,-7.568975925445557,-0.10558164864778519,0.42660802602767944,1.3591285943984985,0.49373599886894226,-0.32190266251564026,-0.8331366777420044,-0.045713745057582855,0.7038798332214355,1741522918.102271,1741522916973,-4.085837158203125,0.16058062744140625,-2.4519121479793022,-0.16924913024902344,0.9118366699218751
1741522918.0905554,0.12385392189025879,0.03722348463048756,0.08721841676593237,-0.9954935258296801,-0.35002583265304565,0.07555078715085983,0.8259601593017578,7.868360996246338,-2.0324642658233643,3.2978127002716064,0.12760353088378906,0.09861183166503906,0.49114975333213806,-1.2535521984100342,0.005531395319849253,-0.9203097820281982,-0.04329747334122658,1.2291377782821655,0.010490577667951584,0.9504463076591492,-0.04558632895350456,-0.8257037997245789,0.08182650804519653,0.04749370738863945,0.8768215179443359,-0.4562344551086426,0.0042770616710186005,-0.2756160795688629,0.1188296303153038,-0.12417028844356537,0.6673914790153503,-0.55484938621521,-0.026498187333345413,0.12956218421459198,-0.1185220256447792,-0.6954018473625183,0.1418524831533432,-0.00954654160887003,0.24327708780765533,0.3176708221435547,-0.24084919691085815,-0.031871866434812546,0.595974862575531,-0.6294617056846619,2.518984794616699,2.2711403369903564,2.7389729022979736,-6.148531436920166,-0.9423245191574097,-0.31411945819854736,2.6632039546966553,1.1119470596313477,-0.19499662518501282,-0.9944425225257874,0.6096730828285217,1.1998130083084106,1741522918.102271,1741522916973,-4.085837158203125,0.16058062744140625,-2.4519121479793022,-0.16924913024902344,0.9118366699218751
1741522918.1106315,0.142869234085083,0.030822729122957845,0.10091031815929716,-0.9944179539099252,-0.7061108350753784,-0.5986984372138977,0.8322493433952332,-19.43345832824707,24.168968200683594,23.34333610534668,0.12264442443847656,0.11425209045410156,0.4686427116394043,-1.2466856241226196,0.005531395319849253,-0.918402373790741,-0.020027466118335724,1.230282187461853,0.01125352829694748,0.953498125076294,-0.05054550990462303,-0.7825970649719238,0.11615930497646332,0.06656748056411743,0.8802548050880432,-0.4502145051956177,-0.0027752236928790808,-0.22411687672138214,0.13218127191066742,-0.12645913660526276,0.6460288166999817,-0.5226188898086548,-0.029941050335764885,-0.1548604816198349,0.43428105115890503,-1.0971345901489258,0.5482027530670166,0.021420836448669434,0.2386927604675293,1.610923409461975,0.27890273928642273,0.06255409121513367,0.05317610129714012,-0.2585230767726898,2.116783380508423,1.3666901588439941,0.5598627328872681,1.5958690643310547,0.1369398534297943,-0.04608624428510666,2.6187384128570557,0.27819785475730896,-0.08606625348329544,-1.0204275846481323,1.7758787870407104,-0.9474226832389832,1741522918.102271,1741522916973,-4.085837158203125,0.16058062744140625,-2.4519121479793022,-0.16924913024902344,0.9118366699218751
1741522918.1306214,0.16714775562286377,0.026022955172222643,0.09828470918013289,-0.9948180344894644,0.07190678268671036,-0.45414018630981445,1.106378436088562,-1.9699904918670654,-11.375948905944824,5.73878812789917,0.13561439514160156,0.11348915100097656,0.4228656589984894,-1.236767292022705,0.005531395319849253,-0.916113555431366,0.01888304017484188,1.23753023147583,0.01125352829694748,0.952735185623169,-0.031090257689356804,-0.7631418108940125,0.12684062123298645,0.04139009863138199,0.9100099205970764,-0.46796751022338867,0.00014216006093192846,-0.19245441257953644,0.1504921019077301,-0.12531471252441406,0.6631952524185181,-0.4836239218711853,-0.053033988922834396,0.3954479694366455,0.06708353012800217,-2.716521739959717,0.5938308835029602,-0.020011145621538162,0.020428800955414772,2.840019941329956,0.3450049161911011,-0.0014122227439656854,-0.035871054977178574,0.8642481565475464,0.7265711426734924,0.36048391461372375,-1.2599073648452759,0.9182724952697754,-0.9422463774681091,-0.3256089687347412,1.2689512968063354,1.1023993492126465,0.0680614560842514,1.5262397527694702,1.8962392807006836,-1.0761306285858154,1741522918.102271,1741522916973,-4.085837158203125,0.16058062744140625,-2.4519121479793022,-0.16924913024902344,0.9118366699218751
1741522918.1506348,0.17275428771972656,0.018083499349014084,0.09444669976096927,-0.9953656654494144,0.2116297036409378,-0.34714797139167786,0.41182419657707214,-10.510421752929688,-0.5546866059303284,12.29637336730957,0.11959266662597656,0.11005592346191406,0.35114824771881104,-1.2443968057632446,0.006294346414506435,-0.9142061471939087,0.05092698708176613,1.2348599433898926,0.01125352829694748,0.954261064529419,-0.013542382046580315,-0.7288090586662292,0.1039520874619484,0.025749599561095238,0.917639434337616,-0.4784250259399414,-0.029953043907880783,-0.21686884760856628,0.1504921019077301,-0.1031891331076622,0.7722972631454468,-0.4454234540462494,-0.06982029974460602,-0.4265882670879364,-0.040159229189157486,-3.6486690044403076,-0.5963066220283508,0.016941498965024948,0.14630857110023499,1.9976085424423218,-0.21346502006053925,-0.009693420492112637,0.18026548624038696,0.6405628323554993,1.868322491645813,-1.3285785913467407,-0.8811241388320923,0.3232831060886383,-0.3724393844604492,-1.04734468460083,-1.681321382522583,-0.22874709963798523,1.3247790336608887,6.196364402770996,1.99122154712677,-0.7288339138031006,1741522918.102271,1741522916973,-4.085837158203125,0.16058062744140625,-2.4519121479793022,-0.16924913024902344,0.9118366699218751
1741522918.170656,0.16897881031036377,0.01295159866787925,0.07992401487929947,-0.9967168143146375,0.7290476560592651,-0.2201174646615982,-0.2629333436489105,-7.807561874389648,-1.6974467039108276,12.076223373413086,0.13141822814941406,0.11463356018066406,0.2767605185508728,-1.2527892589569092,0.005531395319849253,-0.9092469811439514,0.08182650804519653,1.23447847366333,0.01125352829694748,0.953498125076294,-0.009346150793135166,-0.7055390477180481,0.08907453715801239,0.01430533267557621,0.916113555431366,-0.4770244061946869,-0.026895672082901,-0.3133821487426758,0.13790340721607208,-0.06923781335353851,0.9554055333137512,-0.4039257764816284,-0.06539653241634369,0.33141323924064636,0.33711493015289307,-3.8158743381500244,-0.5382887721061707,-0.017043577507138252,0.1953096240758896,2.1569840908050537,-0.020228823646903038,-0.0048963529989123344,-0.10250648856163025,0.08521761000156403,1.2834575176239014,-0.5412876009941101,-0.4057232141494751,-0.04916507750749588,0.07757106423377991,0.1086185947060585,-5.227919578552246,-0.4164181649684906,1.7325170040130615,9.477757453918457,1.9521266222000122,0.5956104397773743,1741522918.102271,1741522916973,-4.085837158203125,0.16058062744140625,-2.4519121479793022,-0.16924913024902344,0.9118366699218751
1741522918.1906528,0.15288174152374268,0.013312321877367325,0.06667332996160219,-0.9976860473906932,0.6354665756225586,0.12055648863315582,-0.8450804948806763,5.136203289031982,-0.6984370350837708,10.302846908569336,0.12302589416503906,0.10242652893066406,0.19550621509552002,-1.2562226057052612,0.005531395319849253,-0.9122987985610962,0.11348897218704224,1.239819049835205,0.011635004542768002,0.951972246170044,-0.013923857361078262,-0.6685358881950378,0.0883115902543068,0.03147173300385475,0.9096284508705139,-0.47760069370269775,-0.027366632595658302,-0.4377431869506836,0.14057374000549316,-0.04177157208323479,1.1579689979553223,-0.38563311100006104,-0.013329887762665749,-0.26208922266960144,-0.20574848353862762,-4.0810956954956055,-0.13302530348300934,-0.029962023720145226,-0.1634715050458908,2.1618075370788574,0.494239866733551,0.024741800501942635,-0.09039168059825897,-0.2074766755104065,1.8817968368530273,-0.005632752552628517,1.0606188774108887,-0.4747745990753174,-0.04283584654331207,-0.07225970178842545,-6.375115394592285,-0.0017613975796848536,1.300486445426941,9.826998710632324,0.6376855373382568,2.6285314559936523,1741522918.102271,1741522916973,-4.085837158203125,0.16058062744140625,-2.4519121479793022,-0.16924913024902344,0.9118366699218751
1741522918.2106855,0.13052785396575928,0.008522028324901319,0.05272136253639113,-0.9985728981729557,0.7438231110572815,-0.2028653472661972,-1.1129558086395264,-1.8995126485824585,-1.6606829166412354,12.974196434020996,0.11463356018066406,0.10051918029785156,0.1188296303153038,-1.2550780773162842,0.005531395319849253,-0.9126802682876587,0.15545128285884857,1.2489745616912842,0.011635004542768002,0.9515907764434814,-0.01926451548933983,-0.6288624405860901,0.09479667246341705,0.05054550990462303,0.8958953022956848,-0.4789183437824249,-0.02882692962884903,-0.5594338774681091,0.13141833245754242,-0.019645990803837776,1.3094148635864258,-0.41134724020957947,-0.006875475402921438,-0.26134005188941956,-0.029444660991430283,-3.761814594268799,0.05178282782435417,-0.008162432350218296,-0.010660194791853428,2.984726905822754,0.5823042392730713,-0.012998145073652267,-0.028488148003816605,-0.3258068859577179,2.1098744869232178,0.2818548381328583,0.9150598049163818,-0.7131409645080566,-0.10531001538038254,-0.1373288333415985,-5.784308910369873,-0.5729511976242065,1.0311466455459595,6.915019989013672,-1.5445448160171509,-0.0684598907828331,1741522918.317767,1741522917073,-4.0186708984375,0.16300230407714844,-2.747453805842216,0.08437212371826172,0.8587719116210938
1741522918.2307148,0.11015212535858154,0.002348728181125396,0.03749146328658851,-0.9992941877428095,0.7493438720703125,-0.2832310199737549,-0.9957382082939148,2.7755813598632812,-6.5006103515625,8.96496868133545,0.11196327209472656,0.10242652893066406,0.05054550990462303,-1.2535521984100342,0.005531395319849253,-0.9130617380142212,0.21038375794887543,1.2535521984100342,0.01125352829694748,0.951209306716919,-0.03452353551983833,-0.5781261920928955,0.09937438368797302,0.0711451917886734,0.8783474564552307,-0.48613473773002625,-0.038288865238428116,-0.6578545570373535,0.11730372905731201,-0.01583123579621315,1.3811322450637817,-0.45857009291648865,-0.002514229156076908,-0.1180826723575592,0.11294505000114441,-3.2336325645446777,0.06549733132123947,-0.007481878157705069,-0.017392989248037338,3.6809849739074707,0.18318548798561096,-0.0037133635487407446,-0.025950059294700623,-0.8010058403015137,2.5332841873168945,0.21456700563430786,1.0172359943389893,-0.9868454933166504,-0.4293208420276642,-0.5195667147636414,-4.62423849105835,-0.6245973110198975,0.15055975317955017,2.930237054824829,-2.397188663482666,0.42179980874061584,1741522918.317767,1741522917073,-4.0186708984375,0.16300230407714844,-2.747453805842216,0.08437212371826172,0.8587719116210938
1741522918.2508805,0.10258543491363525,-0.0036428112993958147,0.025671545885762728,-0.9996637943117037,0.5590569972991943,-0.2596108913421631,-0.28818580508232117,-0.2647034823894501,-0.28556710481643677,7.275398254394531,0.09784889221191406,0.09670448303222656,-0.006294346414506435,-1.2524077892303467,0.005531395319849253,-0.9138246774673462,0.27103838324546814,1.2543151378631592,0.01125352829694748,0.9515907764434814,-0.0555046908557415,-0.5323491096496582,0.10891126841306686,0.09479667246341705,0.8611810207366943,-0.4982703924179077,-0.05182749405503273,-0.7387273907661438,0.09327077120542526,0.004386968910694122,1.3830395936965942,-0.5048121809959412,0.00652169156819582,-0.39755779504776,-0.14017869532108307,-2.7981746196746826,0.03866254910826683,0.0016933134756982327,-0.08903767913579941,4.160497665405273,0.04925115779042244,-0.0036748317070305347,0.011260254308581352,-1.2514792680740356,2.087404727935791,0.38012680411338806,1.249338150024414,-0.805329442024231,-0.6795121431350708,-0.602932870388031,-3.690601110458374,-1.2452523708343506,1.1251858472824097,-0.28566062450408936,-2.234755039215088,0.31326913833618164,1741522918.317767,1741522917073,-4.0186708984375,0.16300230407714844,-2.747453805842216,0.08437212371826172,0.8587719116210938
1741522918.2707558,0.10352885723114014,-0.0058085414844804215,0.015263161709629493,-0.9998666394777099,0.5319648385047913,-0.047911155968904495,0.03497811406850815,-0.46473783254623413,-2.641904830932617,5.877659320831299,0.08525943756103516,0.08945560455322266,-0.06618601083755493,-1.2524077892303467,0.005912871100008488,-0.919165313243866,0.33093002438545227,1.2550780773162842,0.011635004542768002,0.9508277773857117,-0.08106355369091034,-0.5029755234718323,0.11463340371847153,0.11615930497646332,0.8562218546867371,-0.5160173773765564,-0.060248617082834244,-0.8012893795967102,0.071908138692379,0.03757534176111221,1.3284885883331299,-0.5285190343856812,0.008073653094470501,-0.3803466260433197,-0.1882588416337967,-3.172593116760254,-0.002551020821556449,0.02888678014278412,-0.3142412602901459,3.965008497238159,0.024573594331741333,0.03753677383065224,-0.06297442317008972,-1.0864450931549072,1.6086839437484741,0.34506160020828247,0.9363311529159546,-0.03335140645503998,-0.9097999930381775,-0.3985941410064697,-3.0407614707946777,-1.104326605796814,1.7051570415496826,-2.9978044033050537,-0.8988814949989319,0.14586879312992096,1741522918.317767,1741522917073,-4.0186708984375,0.16300230407714844,-2.747453805842216,0.08437212371826172,0.8587719116210938
1741522918.2907567,0.10772621631622314,0.0026101975864615437,0.005685993752574171,-0.9999804279802706,0.43428346514701843,0.43143120408058167,0.23891431093215942,0.5223472714424133,-4.01051664352417,4.659359931945801,0.07763004302978516,0.057412147521972656,-0.11768520623445511,-1.2505004405975342,0.005531395319849253,-0.9390020370483398,0.38357365131378174,1.2543151378631592,0.011635004542768002,0.951209306716919,-0.09212634712457657,-0.48962387442588806,0.1203555315732956,0.12760357558727264,0.8688105344772339,-0.5365137457847595,-0.06299663335084915,-0.8340963125228882,0.05207141116261482,0.0722896158695221,1.2186236381530762,-0.5271892547607422,0.009407119825482368,-0.23698976635932922,-0.7805978059768677,-2.501742124557495,0.17830124497413635,-0.0012081428430974483,-0.9639471173286438,3.357177495956421,-0.053216371685266495,0.005158007610589266,0.005396664142608643,-0.3114677369594574,0.5339922904968262,0.3205161690711975,0.5259208679199219,0.7186471223831177,-1.0519015789031982,-0.16716167330741882,-1.364684820175171,-1.0454983711242676,1.6613144874572754,-5.990593433380127,0.16663438081741333,0.06583087146282196,1741522918.317767,1741522917073,-4.0186708984375,0.16300230407714844,-2.747453805842216,0.08437212371826172,0.8587719116210938
1741522918.3107731,0.11195600032806396,0.014644719542886311,0.003199786085323719,-0.9998876404669268,0.11792271584272385,0.583931565284729,0.15684974193572998,3.516777515411377,1.489518404006958,3.8975560665130615,0.06923770904541016,0.046349525451660156,-0.14782176911830902,-1.2432523965835571,0.005149920005351305,-0.959220290184021,0.4327840209007263,1.2581299543380737,0.01201647985726595,0.9428167939186096,-0.07457847148180008,-0.49076828360557556,0.11005569249391556,0.12340734153985977,0.8978027105331421,-0.557584285736084,-0.05750701576471329,-0.8306630253791809,0.019645990803837776,0.08983749151229858,1.031700611114502,-0.5236003398895264,-0.00022112016449682415,-0.2595173716545105,-0.4142806828022003,-1.298798680305481,0.5237109065055847,0.0008355787140317261,-0.9609383940696716,3.317108154296875,0.3014849126338959,0.04244309291243553,-0.6865070462226868,1.1159310340881348,-0.15946125984191895,-0.7355483174324036,-0.26246699690818787,1.4992811679840088,-1.0810405015945435,0.492880254983902,0.5717884302139282,-1.770301342010498,0.5645195245742798,-9.950825691223145,0.12295258045196533,-0.5645446181297302,1741522918.317767,1741522917073,-4.0186708984375,0.16300230407714844,-2.747453805842216,0.08437212371826172,0.8587719116210938
1741522918.3308191,0.10946249961853027,0.018009026161873536,0.005315965747238041,-0.9998236922002175,-0.2502691447734833,-0.10778957605361938,-0.15937604010105133,1.8305472135543823,-4.77940559387207,8.885644912719727,0.061989784240722656,0.057030677795410156,-0.14858472347259521,-1.2340970039367676,0.005531395319849253,-0.9729533791542053,0.4655908942222595,1.2573670148849487,0.011635004542768002,0.9279392957687378,-0.026512550190091133,-0.4812313914299011,0.09822995215654373,0.09517814964056015,0.9348058104515076,-0.5773104429244995,-0.04278704151511192,-0.802815318107605,-0.024986648932099342,0.048256658017635345,0.9584572911262512,-0.4477170407772064,0.08064644783735275,-0.22408103942871094,0.1283693164587021,0.14791204035282135,0.5870081186294556,-0.010666665621101856,-0.5957947969436646,1.9519470930099487,-0.13238480687141418,0.0020614315290004015,-1.2766436338424683,2.56062912940979,0.826259970664978,0.2561892867088318,-1.934504508972168,1.7684293985366821,-0.936174750328064,0.7706901431083679,1.6386792659759521,-1.992868185043335,-2.651036024093628,0.05280199646949768,4.5040717124938965,4.103933334350586,1741522918.317767,1741522917073,-4.0186708984375,0.16300230407714844,-2.747453805842216,0.08437212371826172,0.8587719116210938
1741522918.353846,0.0929332971572876,0.02612588532569056,0.01539928915869576,-0.9995400442250204,-0.44911593198776245,0.3290134370326996,-0.716667890548706,6.805637836456299,-6.719226360321045,-4.911509990692139,0.053215980529785156,0.051690101623535156,-0.1192111074924469,-1.2268489599227905,0.004386968910694122,-0.9782940149307251,0.46292057633399963,1.2573670148849487,0.012779430486261845,0.9130617380142212,-0.007438773289322853,-0.4671168029308319,0.0722896158695221,0.06847485899925232,0.9386205673217773,-0.6022273898124695,0.0025876625441014767,-0.7570382356643677,-0.01926451548933983,0.01735713705420494,0.9611276388168335,-0.38714444637298584,0.09451837837696075,-0.2347888946533203,-0.17745067179203033,1.8175628185272217,0.415543794631958,0.008267992176115513,-0.2084708958864212,-0.5094146132469177,-0.11674265563488007,0.03094365820288658,-0.7173658013343811,0.5287704467773438,0.7774240970611572,-1.2550190687179565,-1.2750800848007202,-0.017091961577534676,-1.1317591667175293,2.421705961227417,1.6601250171661377,0.05367938429117203,-0.9914787411689758,-1.1395313739776611,2.303040027618408,0.06124681606888771,1741522918.317767,1741522917073,-4.0186708984375,0.16300230407714844,-2.747453805842216,0.08437212371826172,0.8587719116210938
1741522918.370843,0.08336174488067627,0.028261358892783407,0.022477763180592764,-0.999347810202199,-0.29420870542526245,0.1455811709165573,-0.4134491980075836,-0.004184103105217218,2.2937159538269043,11.259373664855957,0.054741859436035156,0.055504798889160156,-0.06237125024199486,-1.224560022354126,0.005912871100008488,-0.9729533791542053,0.4388876259326935,1.2527892589569092,0.010490577667951584,0.9115357995033264,-0.01506828423589468,-0.4327840209007263,0.0551232174038887,0.05245288833975792,0.9431982636451721,-0.5959880352020264,-0.0022625571582466364,-0.7089722752571106,-0.01888304017484188,0.039101243019104004,0.9279392957687378,-0.3496512174606323,0.034803155809640884,9.881501318886876e-05,-0.04087989404797554,2.765697717666626,0.07932806015014648,0.03346410393714905,0.26829251646995544,-1.4263511896133423,-0.3173154890537262,-0.15429019927978516,-0.20469437539577484,-0.5476328134536743,1.9767203330993652,-0.7130022048950195,-0.7759906053543091,0.5707314610481262,0.7810071706771851,-1.0331262350082397,3.2290151119232178,0.44883260130882263,1.191860318183899,-0.9592620134353638,1.9418498277664185,-3.5529346466064453,1741522918.4104497,1741522917173,-3.9477661132812503,0.15131210327148437,-2.6839840985431365,0.3020562744140625,0.815938720703125
1741522918.3909245,0.07524752616882324,0.029750778997139113,0.02523695359817513,-0.9992387038751787,-0.14351440966129303,-0.13282233476638794,-0.19759736955165863,2.3292009830474854,2.790968418121338,7.620591163635254,0.048256874084472656,0.061989784240722656,-0.0036240178160369396,-1.2356228828430176,0.00667582219466567,-0.9645609259605408,0.41485464572906494,1.2436338663101196,0.010490577667951584,0.9084840416908264,-0.05054550990462303,-0.41599908471107483,0.03757534176111221,0.07038223743438721,0.9840161800384521,-0.5585896968841553,-0.015080716460943222,-0.6761654019355774,0.02079041674733162,0.05664911866188049,0.9203097820281982,-0.3303866982460022,0.0029754089191555977,-0.19169418513774872,0.21365544199943542,3.1283226013183594,-0.9996263980865479,0.07462389022111893,0.40655824542045593,-1.7842626571655273,-0.658252477645874,0.02910498157143593,-0.15780368447303772,-2.045527219772339,0.08542981743812561,-0.8747717142105103,1.0566314458847046,2.1581649780273438,1.9293615818023682,-0.3442448675632477,1.1585801839828491,1.8519330024719238,1.1877541542053223,-0.4687468111515045,0.5896095633506775,-0.897341787815094,1741522918.4104497,1741522917173,-3.9477661132812503,0.15131210327148437,-2.6839840985431365,0.3020562744140625,0.815938720703125
1741522918.4109216,0.08419346809387207,0.030047453216647226,0.029221749842167924,-0.9991212338306874,-0.237921342253685,0.20399175584316254,0.46376198530197144,4.558148384094238,1.1485010385513306,10.25179386138916,0.036812782287597656,0.058175086975097656,0.057793546468019485,-1.2501189708709717,0.005149920005351305,-0.9569314122200012,0.38166627287864685,1.2333340644836426,0.010109102353453636,0.9084840416908264,-0.09098191559314728,-0.44193941354751587,0.021553369238972664,0.10738536715507507,1.0904479026794434,-0.5160631537437439,-0.011580917984247208,-0.6383993029594421,0.043678950518369675,0.08525978773832321,0.9225986003875732,-0.3481643795967102,0.0035777678713202477,-0.3208758533000946,-0.26454439759254456,2.9806904792785645,-0.7976343035697937,-0.017319686710834503,0.3835785388946533,-2.4462924003601074,-0.671183168888092,-0.04372071847319603,0.04887787997722626,-1.861501693725586,-1.5622386932373047,-0.8014723658561707,1.882549524307251,6.114256381988525,2.1074321269989014,0.186529740691185,2.0614309310913086,1.2567260265350342,1.0776607990264893,0.20456039905548096,-1.0994633436203003,-0.1475985199213028,1741522918.4105437,1741522917373,-3.7648566894531252,0.10608261871337892,-2.3439538166342815,0.6218927612304688,0.760457275390625
1741522918.4309282,0.10141003131866455,0.028873189173469375,0.038270851661865585,-0.9988501793862924,-0.5187997817993164,-0.16382759809494019,0.9317346215248108,-12.66201400756836,3.007138252258301,12.724125862121582,0.036049842834472656,0.07839298248291016,0.12417028844356537,-1.2581299543380737,0.005531395319849253,-0.953498125076294,0.32940414547920227,1.2283748388290405,0.01201647985726595,0.9084840416908264,-0.12264438718557358,-0.5296788215637207,0.024986648932099342,0.1356145590543747,1.2376973628997803,-0.4721614122390747,-0.008301323279738426,-0.6189440488815308,0.06084534898400307,0.09555962681770325,0.9157320261001587,-0.38660216331481934,-0.004310260526835918,-0.051173362880945206,0.5680766701698303,3.221911907196045,-0.6056671738624573,0.0027293674647808075,0.13692417740821838,-3.575343608856201,-0.19095279276371002,0.1467789113521576,0.04688787832856178,-1.5068038702011108,-4.714704990386963,0.5519735813140869,1.099251627922058,7.227537155151367,2.175696849822998,0.2735166847705841,0.9839957356452942,0.7249698042869568,0.3805430829524994,-0.39236778020858765,-1.9614406824111938,-0.19663003087043762,1741522918.4105437,1741522917373,-3.7648566894531252,0.10608261871337892,-2.3439538166342815,0.6218927612304688,0.760457275390625
1741522918.4509532,0.12320280075073242,0.03900635241068192,0.04961460040255503,-0.998006460850083,-0.6063275337219238,0.5392369627952576,1.0821747779846191,11.204716682434082,-1.175630807876587,4.016909599304199,0.033379554748535156,0.06656742095947266,0.18978407979011536,-1.2630890607833862,0.005531395319849253,-0.9508277773857117,0.266460657119751,1.231045126914978,0.010872052982449532,0.9107728600502014,-0.14782176911830902,-0.6242847442626953,0.02079041674733162,0.15697719156742096,1.3792248964309692,-0.4459611773490906,0.00440651411190629,-0.5724040865898132,0.07915617525577545,0.09937438368797302,0.9061951637268066,-0.42335841059684753,0.006606274750083685,-0.09451314061880112,-0.22801782190799713,3.426483392715454,-0.23275470733642578,-0.00966957863420248,0.1428258866071701,-4.431253910064697,0.11127972602844238,-0.07473335415124893,0.1662539541721344,-1.1400041580200195,-4.613546848297119,-0.2530362904071808,1.168331503868103,6.637857913970947,0.9426455497741699,0.7055127024650574,2.457104206085205,1.0409841537475586,0.13695287704467773,-0.704239010810852,-1.7453988790512085,0.598115086555481,1741522918.4105437,1741522917373,-3.7648566894531252,0.10608261871337892,-2.3439538166342815,0.6218927612304688,0.760457275390625
1741522918.4730275,0.14551901817321777,0.03876062079769339,0.0658703289511187,-0.9970750794394816,-0.8486839532852173,-0.19673627614974976,1.0207200050354004,-4.093047142028809,-2.8813421726226807,10.755867004394531,0.034523963928222656,0.07343387603759766,0.2607385218143463,-1.2604187726974487,0.005531395319849253,-0.9435797929763794,0.1989395022392273,1.231045126914978,0.01125352829694748,0.9107728600502014,-0.17147326469421387,-0.7143129706382751,0.023460745811462402,0.1680399775505066,1.4646753072738647,-0.45425328612327576,0.00504066189751029,-0.5304417610168457,0.09861142933368683,0.10013733059167862,0.8749141693115234,-0.45140957832336426,-0.004642639309167862,0.0053096795454621315,0.24509480595588684,3.5105717182159424,0.1878914088010788,-0.019237682223320007,0.46885946393013,-4.485261917114258,-0.01124673429876566,0.06428012996912003,0.018459061160683632,-1.1390022039413452,-4.390538215637207,0.2645677924156189,0.40895795822143555,3.659633159637451,-0.6187133193016052,-0.05586974322795868,2.1167099475860596,0.9935944080352783,0.002068279078230262,-1.592045783996582,-1.2906049489974976,-0.5943041443824768,1741522918.5225654,1741522917473,-3.68526318359375,0.1264258575439453,-2.2095153495268223,0.7579610595703126,0.7372134399414063
1741522918.4910226,0.16658294200897217,0.04172697302767527,0.0828592769658373,-0.9956873002818939,-0.8847410082817078,0.10344299674034119,1.0029228925704956,-0.0022256863303482533,1.6918201446533203,5.114492893218994,0.035668373107910156,0.06923770904541016,0.33283740282058716,-1.2577484846115112,0.005531395319849253,-0.9378576278686523,0.12989242374897003,1.23295259475708,0.010490577667951584,0.9138246774673462,-0.1825360506772995,-0.7841230034828186,0.043678950518369675,0.16269932687282562,1.492904543876648,-0.48226919770240784,-0.0026511787436902523,-0.4640650153160095,0.11768520623445511,0.10852979123592377,0.8470664620399475,-0.46773436665534973,0.0004189932078588754,0.025706155225634575,-0.10705903172492981,3.5877151489257812,0.21743033826351166,-0.005512495059520006,0.2912251651287079,-4.620712757110596,0.18580418825149536,-0.04813643544912338,0.24752572178840637,-0.5231842398643494,-3.4300689697265625,1.072959065437317,-0.4954608380794525,1.0448142290115356,-1.4223543405532837,-0.2586851119995117,3.268079996109009,1.0400930643081665,0.6173338294029236,-1.4743913412094116,-0.7402617335319519,0.46853145956993103,1741522918.5225654,1741522917473,-3.68526318359375,0.1264258575439453,-2.2095153495268223,0.7579610595703126,0.7372134399414063
1741522918.5110247,0.17211174964904785,0.041886510542415885,0.10219966711350399,-0.99388165707818,-0.975787878036499,-0.07655014842748642,0.21000656485557556,-5.007945537567139,4.4091386795043945,5.852553367614746,0.040627479553222656,0.07381534576416016,0.39387351274490356,-1.2531707286834717,0.005531395319849253,-0.9332799315452576,0.06542305648326874,1.2356228828430176,0.012397955171763897,0.9172579646110535,-0.19283588230609894,-0.8554589152336121,0.07839322835206985,0.1348516047000885,1.4799343347549438,-0.5070854425430298,-0.002872886136174202,-0.41523614525794983,0.14209964871406555,0.11692225188016891,0.8100633025169373,-0.4804479777812958,-0.0013848028611391783,0.1055666133761406,0.12108801305294037,2.827840566635132,0.31939107179641724,0.022906599566340446,0.19707995653152466,-4.215373516082764,0.1712188720703125,0.15677453577518463,0.25249019265174866,-0.42192697525024414,-3.782661199569702,1.8506097793579102,-1.5158629417419434,-0.952049195766449,-1.106528639793396,0.031955331563949585,2.2675564289093018,1.2015780210494995,0.3722929060459137,-1.7963918447494507,-0.6411359310150146,-0.39050960540771484,1741522918.5225654,1741522917473,-3.68526318359375,0.1264258575439453,-2.2095153495268223,0.7579610595703126,0.7372134399414063
1741522918.5310566,0.16963696479797363,0.046003446462831526,0.12105351509552166,-0.9915794115433013,-0.9099205136299133,0.2797040343284607,-0.10427865386009216,-1.8724395036697388,4.538403511047363,5.064446926116943,0.037575721740722656,0.06466007232666016,0.46101319789886475,-1.2554595470428467,0.005531395319849253,-0.9279392957687378,0.0078202486038208,1.2402005195617676,0.01125352829694748,0.9225986003875732,-0.20466163754463196,-0.924124538898468,0.13179980218410492,0.09632257372140884,1.4383535385131836,-0.5097373127937317,-0.00691819004714489,-0.36449989676475525,0.16231784224510193,0.11730372905731201,0.7852674126625061,-0.4914374351501465,-0.008442078717052937,-0.07354874163866043,-0.2508352994918823,3.4612860679626465,-0.20735904574394226,0.0006363270222209394,0.3210850954055786,-3.838696002960205,0.41524842381477356,-0.16669142246246338,0.3855443000793457,-0.7706109881401062,-3.4380576610565186,2.8248841762542725,-2.001634120941162,-2.267193078994751,0.08477545529603958,-0.1473243236541748,2.745551824569702,0.9509229063987732,0.020655333995819092,-1.1500574350357056,-0.47908034920692444,-0.02579035982489586,1741522918.5225654,1741522917473,-3.68526318359375,0.1264258575439453,-2.2095153495268223,0.7579610595703126,0.7372134399414063
1741522918.5510676,0.17291796207427979,0.052119374743326556,0.13671322045289214,-0.9892386295175516,-0.8288595080375671,0.21795868873596191,0.2520964741706848,5.778425216674805,-3.1508426666259766,8.454255104064941,0.037194252014160156,0.058556556701660156,0.5140383243560791,-1.2531707286834717,0.005531395319849253,-0.9214541912078857,-0.05054550990462303,1.2432523965835571,0.010490577667951584,0.9340428709983826,-0.23327229917049408,-0.9733348488807678,0.20351719856262207,0.06084534898400307,1.362821340560913,-0.4842269718647003,-0.010995697230100632,-0.33245593309402466,0.1806286722421646,0.11654078215360641,0.7581826448440552,-0.5072702169418335,-0.00435032369568944,-0.03938794881105423,-0.1986619532108307,2.3759591579437256,0.21976028382778168,-0.0066555095836520195,0.3261963725090027,-3.8053219318389893,0.06537644565105438,0.033548153936862946,0.8124977946281433,-1.63226318359375,-2.1675968170166016,3.5464861392974854,-1.6660761833190918,-4.0485100746154785,1.498353362083435,-0.11070035398006439,1.201378583908081,0.7976918816566467,-0.007673600688576698,-1.3892884254455566,-0.89907306432724,-0.09709128737449646,1741522918.5225654,1741522917473,-3.68526318359375,0.1264258575439453,-2.2095153495268223,0.7579610595703126,0.7372134399414063
1741522918.5711038,0.18947017192840576,0.05773810523451296,0.1542095252634753,-0.9863497014355213,-0.9090826511383057,0.2695128321647644,0.8306841254234314,4.36081600189209,1.311840295791626,8.626213073730469,0.034142494201660156,0.047112464904785156,0.5315861701965332,-1.2466856241226196,0.005531395319849253,-0.919165313243866,-0.08373387902975082,1.23905611038208,0.009727626107633114,0.9462500810623169,-0.2752346098423004,-0.9809643626213074,0.26989394426345825,0.06237125024199486,1.2373158931732178,-0.44083428382873535,-0.008587711490690708,-0.28400853276252747,0.18902114033699036,0.11463340371847153,0.7368200421333313,-0.527290940284729,-0.011574975214898586,-0.09871075302362442,-0.39379769563674927,0.6526925563812256,0.46707168221473694,-0.00909428671002388,0.07666783779859543,-1.8768203258514404,-0.3158285617828369,-0.11422157287597656,0.8758260011672974,-2.03975510597229,0.008709552697837353,3.0303666591644287,0.4602019786834717,-6.636720657348633,2.193927764892578,0.3056566119194031,3.096578359603882,0.21322263777256012,-0.12986081838607788,-0.9893444180488586,-0.9093508124351501,-0.06171468645334244,1741522918.5225654,1741522917473,-3.68526318359375,0.1264258575439453,-2.2095153495268223,0.7579610595703126,0.7372134399414063
1741522918.5911262,0.21679139137268066,0.05999318858423153,0.16710680949338613,-0.9841118491027523,-0.6522535085678101,-0.25058767199516296,1.406136393547058,-3.751563549041748,1.8186856508255005,9.436156272888184,0.032235145568847656,0.050927162170410156,0.5289158225059509,-1.2409635782241821,0.005531395319849253,-0.916113555431366,-0.08411535620689392,1.231045126914978,0.009727626107633114,0.955024003982544,-0.29850462079048157,-0.9489204287528992,0.30384528636932373,0.08907453715801239,1.054970622062683,-0.4064396321773529,0.0077259051613509655,-0.22182802855968475,0.18749523162841797,0.11158160120248795,0.700579822063446,-0.5467294454574585,-0.0040204934775829315,-0.0836060419678688,0.07815814018249512,-0.24878628551959991,0.3714408278465271,-0.012123936787247658,0.17111295461654663,0.3398061692714691,-0.5009772181510925,0.038604509085416794,0.49952301383018494,-0.9768702387809753,1.6666442155838013,1.759801983833313,1.4629030227661133,-9.767435073852539,1.4896413087844849,0.755889356136322,3.141594886779785,-0.05397089570760727,-0.2267499566078186,-1.8837271928787231,-0.9444411396980286,0.24420715868473053,1741522918.5225654,1741522917473,-3.68526318359375,0.1264258575439453,-2.2095153495268223,0.7579610595703126,0.7372134399414063
1741522918.6112375,0.24691331386566162,0.05576997106801905,0.17155252709267182,-0.9835951610165589,-0.31102174520492554,-0.4930269718170166,1.3671542406082153,-27.282133102416992,28.010095596313477,17.496509552001953,0.034905433654785156,0.06694889068603516,0.5014495849609375,-1.2405821084976196,0.005149920005351305,-0.9122987985610962,-0.06542305648326874,1.2241785526275635,0.009727626107633114,0.9573128819465637,-0.309567391872406,-0.8855955004692078,0.3084229826927185,0.1031891331076622,0.9596017599105835,-0.3477293848991394,-0.004540105350315571,-0.14133669435977936,0.1806286722421646,0.09937438368797302,0.6849393248558044,-0.5473323464393616,-0.003544633276760578,0.06683731824159622,0.2572624981403351,-1.4758555889129639,0.016851115971803665,-0.0037795589305460453,0.3464137017726898,1.213693380355835,-0.43527066707611084,-0.0026476047933101654,0.09518611431121826,-0.5613673329353333,3.822429895401001,-0.2665296792984009,0.5344591736793518,-1.102931261062622,3.567673444747925,-0.8147428631782532,4.218358039855957,-0.7769498229026794,-0.5442991256713867,-0.5512163639068604,0.18066997826099396,0.031145062297582626,1741522918.5225654,1741522917473,-3.68526318359375,0.1264258575439453,-2.2095153495268223,0.7579610595703126,0.7372134399414063
1741522918.6312313,0.27262163162231445,0.04483631927329063,0.15702490985409082,-0.9865763438068734,0.6290168762207031,-0.8545848727226257,0.9965779185295105,-8.408422470092773,-4.297515392303467,10.30447769165039,0.037194252014160156,0.07534122467041016,0.4510948359966278,-1.2535521984100342,0.005531395319849253,-0.9081025123596191,-0.039101243019104004,1.2218897342681885,0.010490577667951584,0.9569314122200012,-0.28439003229141235,-0.8337147831916809,0.266460657119751,0.11043716967105865,0.9912642240524292,-0.29026663303375244,-0.015374299138784409,-0.10585946589708328,0.17223620414733887,0.10204470902681351,0.6876096725463867,-0.5167831778526306,-0.008670606650412083,0.120390884578228,0.14918750524520874,-2.904069423675537,-1.1657474040985107,-0.12200115621089935,0.010018272325396538,1.890425682067871,-0.115020751953125,0.07780847698450089,-0.0005803531967103481,1.2707170248031616,1.764423131942749,-2.1658644676208496,0.5419750213623047,0.3421523869037628,2.3579866886138916,0.07839880138635635,1.3169840574264526,-0.39969754219055176,0.23699378967285156,0.5804179310798645,1.712451457977295,-0.2081378847360611,1741522918.7189238,1741522917673,-3.501563232421875,0.16321250915527344,-2.599560445430318,1.028635009765625,0.6981402587890625
1741522918.651278,0.2736278772354126,0.0437417678988939,0.1432012071957775,-0.9887264899853504,0.6473290920257568,0.24690407514572144,-0.050977468490600586,-5.660680770874023,-2.002105236053467,9.877820014953613,0.02460479736328125,0.045586585998535156,0.3889143168926239,-1.2695741653442383,0.00476844422519207,-0.9134432077407837,-0.028038453310728073,1.222271203994751,0.01125352829694748,0.959983229637146,-0.2458609938621521,-0.7860303521156311,0.23861294984817505,0.086785688996315,0.9565499424934387,-0.2769945561885834,-0.006024984642863274,-0.11577782779932022,0.17643244564533234,0.11615930497646332,0.7726787328720093,-0.4772739112377167,-0.021241221576929092,-0.2877984046936035,-1.0755375623703003,-2.914743661880493,-0.8551338315010071,-0.0504024475812912,-0.20963798463344574,0.6110473275184631,-0.006262726616114378,0.005696381442248821,0.3041733503341675,2.0294365882873535,2.4897501468658447,-1.108111023902893,-1.4318363666534424,-1.4845110177993774,0.3856188654899597,0.368614137172699,-0.8087121844291687,-0.07362280040979385,0.7180218696594238,5.1827616691589355,1.9443672895431519,-0.8259745240211487,1741522918.7189238,1741522917673,-3.501563232421875,0.16321250915527344,-2.599560445430318,1.028635009765625,0.6981402587890625
1741522918.671283,0.2571026086807251,0.04189344838834602,0.1329248277659068,-0.9902403390821529,0.508209764957428,-0.054417334496974945,-0.8982559442520142,3.1029818058013916,6.473706245422363,8.446261405944824,0.02727508544921875,0.046730995178222656,0.33131152391433716,-1.2672853469848633,0.005531395319849253,-0.9138246774673462,-0.013160906732082367,1.2253230810165405,0.01125352829694748,0.961509108543396,-0.20389868319034576,-0.7833600640296936,0.1977950781583786,0.07915617525577545,0.9611276388168335,-0.2843793034553528,-0.0033458948601037264,-0.20847637951374054,0.17719538509845734,0.14133669435977936,0.9393835067749023,-0.4332544505596161,-0.03369259089231491,0.051495011895895004,-0.08762004226446152,-2.749976396560669,0.23675958812236786,-0.005696354899555445,-0.025502504780888557,1.0701849460601807,0.36396273970603943,0.0015330209862440825,0.02729841135442257,1.8703135251998901,-0.04448999837040901,-1.791527271270752,-0.4090772569179535,0.40441009402275085,-0.550898551940918,0.32552453875541687,-5.136206150054932,-0.007303759455680847,1.2462323904037476,8.829204559326172,2.248007297515869,-0.5051710605621338,1741522918.7189238,1741522917673,-3.501563232421875,0.16321250915527344,-2.599560445430318,1.028635009765625,0.6981402587890625
1741522918.6913273,0.23338782787322998,0.05354863212938404,0.12272866675608242,-0.9909945602037109,0.5521878600120544,0.8749229311943054,-1.200451135635376,3.219771385192871,-7.604641914367676,9.539976119995117,0.02040863037109375,0.02574920654296875,0.2573052644729614,-1.2611817121505737,0.005531395319849253,-0.9153505563735962,0.012397955171763897,1.2405821084976196,0.011635004542768002,0.9630350470542908,-0.17986571788787842,-0.7612344622612,0.17948424816131592,0.07991912961006165,0.9729533791542053,-0.3147490620613098,0.0036120209842920303,-0.33131152391433716,0.1989395022392273,0.15926603972911835,1.1369879245758057,-0.3893953561782837,-0.024922069162130356,-0.16925770044326782,-0.6186303496360779,-3.86714243888855,0.33324989676475525,0.00428635161370039,-0.12628553807735443,1.8098162412643433,1.0728063583374023,-0.0005098602268844843,0.15816298127174377,1.0837098360061646,1.2798454761505127,-0.8992739319801331,0.27181732654571533,0.434583455324173,-1.6238675117492676,0.24742141366004944,-6.261341571807861,1.342015266418457,0.7721635103225708,9.767430305480957,1.993950605392456,0.9195646643638611,1741522918.7189238,1741522917673,-3.501563232421875,0.16321250915527344,-2.599560445430318,1.028635009765625,0.6981402587890625
1741522918.711339,0.20941400527954102,0.05750051045466252,0.1138371014290595,-0.9918340615423951,0.5202139616012573,0.2273970991373062,-1.1093825101852417,0.8491230607032776,-3.9519500732421875,12.006733894348145,0.00858306884765625,0.037194252014160156,0.17338064312934875,-1.2554595470428467,0.005531395319849253,-0.9145876169204712,0.05359731614589691,1.2527892589569092,0.01125352829694748,0.962272047996521,-0.17795833945274353,-0.7501716613769531,0.17185473442077637,0.09632257372140884,0.9744792580604553,-0.34800541400909424,0.009294543415307999,-0.465209424495697,0.22144655883312225,0.1646067053079605,1.2911039590835571,-0.3760702908039093,-0.0007146826828829944,-0.3487020432949066,0.2320622205734253,-4.240366458892822,0.4008975028991699,-0.049680858850479126,0.01477815955877304,2.985518455505371,0.7593729496002197,-0.011727694422006607,-0.10046113282442093,-0.05782422795891762,0.6687728762626648,-0.32208001613616943,0.6584253907203674,0.07398205250501633,-1.6718623638153076,0.4050605595111847,-6.443515777587891,1.0091801881790161,0.22887758910655975,7.223250865936279,0.26289090514183044,0.8161652684211731,1741522918.7189238,1741522917673,-3.501563232421875,0.16321250915527344,-2.599560445430318,1.028635009765625,0.6981402587890625
1741522918.7313826,0.200982928276062,0.06309466958242281,0.10235505415199617,-0.9927449347943443,0.5985937714576721,0.380016952753067,-0.21412350237369537,5.617703914642334,-4.461143970489502,10.099397659301758,-0.00858306884765625,0.045586585998535156,0.09021896868944168,-1.2485930919647217,0.005531395319849253,-0.9149690866470337,0.11654078215360641,1.2630890607833862,0.010872052982449532,0.961509108543396,-0.1806286722421646,-0.7051575779914856,0.16994735598564148,0.10624094307422638,0.969520092010498,-0.3823189437389374,0.004766831174492836,-0.5754558444023132,0.23250934481620789,0.15392538905143738,1.3746471405029297,-0.4051104187965393,-0.013455941341817379,-0.5172337293624878,0.2508239448070526,-4.124373912811279,0.44433146715164185,0.004232759587466717,-0.049594633281230927,4.4558210372924805,0.6027296781539917,-0.05378377437591553,-0.029550781473517418,-0.17092396318912506,2.241889715194702,-0.15287546813488007,0.5519923567771912,-0.41034847497940063,-1.7597720623016357,-0.2859004735946655,-5.22351598739624,0.5469680428504944,-0.6489518880844116,3.5864996910095215,-1.6760382652282715,-0.6090618371963501,1741522918.7189238,1741522917673,-3.501563232421875,0.16321250915527344,-2.599560445430318,1.028635009765625,0.6981402587890625
1741522918.7514832,0.20310187339782715,0.06202498438394336,0.09449196948808501,-0.9935915503940412,0.3563169538974762,-0.16046802699565887,0.19841642677783966,-0.8828126788139343,-2.537647247314453,10.973108291625977,-0.01811981201171875,0.058938026428222656,0.013160906732082367,-1.2428709268569946,0.005531395319849253,-0.916876494884491,0.1974135935306549,1.2657594680786133,0.011635004542768002,0.9588387608528137,-0.19550621509552002,-0.6612878441810608,0.17185473442077637,0.11730372905731201,0.952735185623169,-0.41655027866363525,-0.00390593521296978,-0.6765468716621399,0.230601966381073,0.13141833245754242,1.3876173496246338,-0.4519331753253937,-0.011463258415460587,-0.31853020191192627,0.410877525806427,-3.80519700050354,0.33798620104789734,-0.01671355403959751,-0.09374780207872391,5.412805557250977,0.21107745170593262,0.08485177904367447,-0.18647001683712006,-0.7364381551742554,2.2096240520477295,0.15049996972084045,0.4559027850627899,-0.7984641790390015,-1.6777681112289429,-0.42963457107543945,-4.791898727416992,-0.2331998199224472,-1.1148723363876343,0.21340085566043854,-2.3462650775909424,0.33669430017471313,1741522918.7189238,1741522917673,-3.501563232421875,0.16321250915527344,-2.599560445430318,1.028635009765625,0.6981402587890625
1741522918.7714977,0.2100362777709961,0.06295818606479492,0.08914214054095082,-0.9940271352368646,0.2173241525888443,0.07355484366416931,0.3029264211654663,2.2076728343963623,-3.4858877658843994,7.073619842529297,-0.02994537353515625,0.052834510803222656,-0.06542305648326874,-1.2417265176773071,0.005531395319849253,-0.924887478351593,0.2782863974571228,1.2730075120925903,0.012397955171763897,0.9504463076591492,-0.20695048570632935,-0.6052109599113464,0.17566949129104614,0.12340734153985977,0.9374761581420898,-0.4502783715724945,-0.015199451707303524,-0.7616159319877625,0.21686884760856628,0.09746700525283813,1.356717824935913,-0.48865801095962524,0.008781683631241322,-0.33232855796813965,-0.14105865359306335,-3.7455356121063232,0.06929666548967361,-0.02278796397149563,-0.5398833155632019,5.343845367431641,0.5005220770835876,0.03952368348836899,-0.5744615793228149,-0.49251899123191833,2.8311591148376465,0.17078320682048798,0.32985958456993103,-0.8142005205154419,-1.6937744617462158,-0.6580196619033813,-4.335616111755371,-0.8636201620101929,-1.8630833625793457,-1.7394758462905884,-1.6161621809005737,0.924919843673706,1741522918.7189238,1741522917673,-3.501563232421875,0.16321250915527344,-2.599560445430318,1.028635009765625,0.6981402587890625
1741522918.7915425,0.21205151081085205,0.06133334761768597,0.08859148820242356,-0.9941779361301919,-0.004743390716612339,-0.15091626346111298,0.03669317811727524,-1.1761174201965332,-1.4637850522994995,7.402804851531982,-0.039101600646972656,0.053978919982910156,-0.11730372905731201,-1.239819049835205,0.005531395319849253,-0.9416723847389221,0.35114824771881104,1.2787295579910278,0.012397955171763897,0.9412909150123596,-0.20580606162548065,-0.5609598159790039,0.17566949129104614,0.1356145590543747,0.9157320261001587,-0.48352667689323425,-0.027240920811891556,-0.839436948299408,0.19512474536895752,0.05703059583902359,1.3075073957443237,-0.49313652515411377,0.00925697386264801,-0.2702730596065521,0.021320579573512077,-2.4398081302642822,0.13924716413021088,0.014956987462937832,-0.8364807367324829,4.698446750640869,0.27319273352622986,0.017279569059610367,-0.6472417116165161,0.25974589586257935,2.05368709564209,0.002110122935846448,0.5088377594947815,-1.0309150218963623,-1.6572282314300537,-0.5410279035568237,-3.7968902587890625,-1.1619282960891724,-1.941701054573059,-2.5641956329345703,0.12265492230653763,-0.082798071205616,1741522918.7189238,1741522917673,-3.501563232421875,0.16321250915527344,-2.599560445430318,1.028635009765625,0.6981402587890625
1741522918.8115606,0.20334279537200928,0.05909570370584958,0.08893926320198951,-0.9942824071985774,0.06092669814825058,-0.054788656532764435,-0.470058798789978,-1.5916693210601807,-0.8005601763725281,7.935800075531006,-0.047875404357910156,0.050545692443847656,-0.14286258816719055,-1.232571005821228,0.005149920005351305,-0.9565499424934387,0.4076066315174103,1.2794926166534424,0.01201647985726595,0.9344243407249451,-0.182917520403862,-0.5281528830528259,0.16994735598564148,0.1337071806192398,0.8981841802597046,-0.5127505660057068,-0.03711673989892006,-0.8932250142097473,0.1684214472770691,0.022697795182466507,1.2376973628997803,-0.4604123830795288,0.011380384676158428,-0.27480995655059814,-0.10522125661373138,-1.0695363283157349,0.5704683065414429,0.004217701498419046,-0.7183892130851746,3.5392749309539795,-0.023258084431290627,-0.030622391030192375,-0.37271326780319214,1.27922523021698,1.7427150011062622,-0.37689208984375,-0.28039708733558655,-0.7963005900382996,-1.4409863948822021,-0.3297422230243683,-2.503063678741455,-1.34212327003479,-1.6330649852752686,-3.6711220741271973,1.8417168855667114,0.21438992023468018,1741522918.7189238,1741522917673,-3.501563232421875,0.16321250915527344,-2.599560445430318,1.028635009765625,0.6981402587890625
1741522918.8315735,0.19311070442199707,0.05986321254035674,0.08675856034310936,-0.9944291568490633,0.11718489974737167,0.08902067691087723,-0.48681679368019104,1.32746160030365,-7.832094192504883,7.830334663391113,-0.054741859436035156,0.043297767639160156,-0.14744029939174652,-1.222271203994751,0.005531395319849253,-0.967994213104248,0.44308385252952576,1.2726260423660278,0.011635004542768002,0.9302281141281128,-0.1489662081003189,-0.49114975333213806,0.15812161564826965,0.1180666834115982,0.8871213793754578,-0.5394048094749451,-0.03629380092024803,-0.9214541912078857,0.13981078565120697,-0.000572213320992887,1.1385138034820557,-0.4150674343109131,0.009053816087543964,-0.2138899713754654,-0.17302730679512024,-0.11275825649499893,0.6552421450614929,0.0027595472056418657,-0.5226988792419434,2.171428918838501,-0.5234158039093018,0.009213337674736977,-0.34372571110725403,1.7358918190002441,1.808811902999878,-0.6133156418800354,-0.8817339539527893,-0.6320109367370605,-1.3351458311080933,0.03775417059659958,-1.3141862154006958,-1.4032225608825684,-1.1302669048309326,-5.195524215698242,2.2613654136657715,-0.2915681004524231,1741522918.922239,1741522917773,-3.404408203125,0.15447755432128907,-2.371416571533991,1.1568529052734375,0.6811421508789063
1741522918.851582,0.1830376386642456,0.05832069600627663,0.08567775204195661,-0.9946145078483324,0.10136761516332626,-0.035355888307094574,-0.5015557408332825,1.1299272775650024,-2.0312039852142334,6.402164936065674,-0.06427860260009766,0.042534828186035156,-0.13179980218410492,-1.215023159980774,0.005531395319849253,-0.9737163186073303,0.482375830411911,1.2707185745239258,0.01125352829694748,0.9210727214813232,-0.10929274559020996,-0.4484245181083679,0.13981078565120697,0.09632257372140884,0.8737697601318359,-0.5654235482215881,-0.03358261659741402,-0.9203097820281982,0.10776684433221817,-0.02040894143283367,0.9977492690086365,-0.3707132637500763,0.0012873136438429356,-0.2855319380760193,-0.031766489148139954,0.9572664499282837,0.45273563265800476,0.006051783449947834,-0.21621088683605194,2.4229729175567627,-0.16662970185279846,-0.03274485841393471,-0.59175705909729,1.9577412605285645,2.1537647247314453,-0.8670400381088257,-1.0681754350662231,-0.6475265622138977,-1.286208152770996,0.16297872364521027,0.4439331591129303,-1.6423712968826294,-1.0206060409545898,-7.379317760467529,2.0675597190856934,-0.39007169008255005,1741522918.922239,1741522917773,-3.404408203125,0.15447755432128907,-2.371416571533991,1.1568529052734375,0.6811421508789063
1741522918.8715966,0.17841601371765137,0.05480708028123558,0.08251800613772867,-0.995081384919897,0.1849009394645691,-0.1931905895471573,-0.1887826919555664,2.0704150199890137,-3.1221601963043213,1.4602168798446655,-0.06961917877197266,0.039101600646972656,-0.10090028494596481,-1.212734341621399,0.005149920005351305,-0.9733348488807678,0.4991607666015625,1.2630890607833862,0.01125352829694748,0.9138246774673462,-0.07877469807863235,-0.4011215269565582,0.10547798871994019,0.09212634712457657,0.8630884289741516,-0.5890051126480103,-0.012038073502480984,-0.881780743598938,0.07381551712751389,-0.03833829239010811,0.8321889042854309,-0.35067275166511536,-0.00866797473281622,-0.1510448157787323,-0.09166669100522995,1.5676099061965942,0.11708833277225494,-0.010043302550911903,0.006443175487220287,1.017690658569336,-0.5613586902618408,0.03368544578552246,-0.47288501262664795,1.4212989807128906,2.3704833984375,-1.9431196451187134,0.1607779562473297,-0.4778948426246643,-1.1212928295135498,1.2399026155471802,2.143857717514038,-1.706652283668518,-1.0200095176696777,-8.180840492248535,0.6676943302154541,-0.40040695667266846,1741522918.922239,1741522917773,-3.404408203125,0.15447755432128907,-2.371416571533991,1.1568529052734375,0.6811421508789063
