Freshhhhh-LC/Legged_odom/data/5/segments/booster_seg_9.85s.csv
time,yaw,projected_gravity_x,projected_gravity_y,projected_gravity_z,ang_vel_x,ang_vel_y,ang_vel_z,lin_acc_x,lin_acc_y,lin_acc_z,q_0,q_1,q_2,q_3,q_4,q_5,q_6,q_7,q_8,q_9,q_10,q_11,q_12,q_13,q_14,q_15,q_16,q_17,q_18,q_19,q_20,q_21,q_22,dq_0,dq_1,dq_2,dq_3,dq_4,dq_5,dq_6,dq_7,dq_8,dq_9,dq_10,dq_11,dq_12,dq_13,dq_14,dq_15,dq_16,dq_17,dq_18,dq_19,dq_20,dq_21,dq_22,mocap_time,mocap_timestamp,robot_x,robot_y,robot_yaw,ball_x,ball_y
1741523176.277709,1.9550402164459229,0.05337846988978816,0.000458809972631347,-0.9985742478382036,-0.0736379399895668,-0.23442038893699646,-0.5944697260856628,3.579867124557495,0.3346085250377655,7.140501499176025,-0.6158924102783203,0.8939876556396484,0.14553292095661163,-1.311918020248413,0.005149920005351305,-0.5865186452865601,0.2294575423002243,1.36837637424469,0.01125352829694748,0.5796520709991455,0.28744181990623474,-0.5556191205978394,0.07343403995037079,-0.1199740618467331,0.6872282028198242,-0.21100793778896332,-0.028411049395799637,-0.7299534678459167,-0.1371404528617859,-0.308804452419281,1.0782406330108643,-0.37330248951911926,0.0038535897620022297,0.0854886919260025,0.2869666814804077,-0.8518995642662048,-0.04760226607322693,-0.020752685144543648,0.027728460729122162,0.9668731093406677,0.008408344350755215,0.0015087617794051766,-0.34158197045326233,0.8655714392662048,0.5630739331245422,1.1933649778366089,0.31298163533210754,0.002199625363573432,-1.132587194442749,-0.7251337766647339,1.0052282810211182,-0.18129689991474152,-0.4129251539707184,-2.204033851623535,0.9186187982559204,0.052671682089567184,1741523176.261051,1741523175153,1.096586181640625,0.13068992614746094,-0.3336799007827405,-0.08677670288085938,0.25399844360351564
1741523176.2798784,1.9345377683639526,0.047063155595425794,0.005115630711717241,-0.9988788163274972,-0.19422601163387299,-0.3182958960533142,-0.9760420322418213,8.026610374450684,-1.1789902448654175,1.3718198537826538,-0.6170368194580078,0.8913173675537109,0.13828489184379578,-1.311918020248413,0.005149920005351305,-0.5872815847396851,0.23899443447589874,1.3679949045181274,0.01125352829694748,0.5746929049491882,0.3057526648044586,-0.5334935784339905,0.09098191559314728,-0.12417028844356537,0.6937133073806763,-0.2279980629682541,-0.032739732414484024,-0.7051575779914856,-0.14476996660232544,-0.31986725330352783,1.0099564790725708,-0.35440748929977417,0.002038203179836273,-0.02983512543141842,-0.0440780371427536,-0.24294348061084747,-0.006844181101769209,-0.004358121193945408,-0.035815220326185226,0.579521656036377,0.010990978218615055,-0.02118021994829178,-0.2804311215877533,1.2347265481948853,0.9607522487640381,0.7403876781463623,-0.17299039661884308,0.35984984040260315,-0.8742213845252991,-0.06601287424564362,1.3285161256790161,-0.3971257209777832,-0.5538991093635559,-3.5635969638824463,0.9592581391334534,-0.09346076101064682,1741523176.261051,1741523175153,1.096586181640625,0.13068992614746094,-0.3336799007827405,-0.08677670288085938,0.25399844360351564
1741523176.2821002,1.7660350799560547,0.061369660268668975,-0.03598070265234526,-0.997466367270171,0.06874322891235352,-0.1951010525226593,0.4301646947860718,4.2772536277771,-1.2841339111328125,3.7908337116241455,0.9603643417358398,0.7097349166870117,0.20885786414146423,-1.376387357711792,0.005531395319849253,-0.536926805973053,0.14057374000549316,1.3309917449951172,0.01125352829694748,0.5525673031806946,-0.25387197732925415,-0.6414511203765869,0.086785688996315,0.28439003229141235,0.7944228053092957,-0.3219301998615265,-0.004630675073713064,-0.4869535267353058,-0.059319447726011276,0.09899290651082993,0.7124055624008179,-0.1802767962217331,0.028665166348218918,0.09301533550024033,-0.8338540196418762,-0.1576608568429947,0.0763000100851059,-0.0009689818834885955,-0.09349257498979568,-0.1643066108226776,-0.009281652048230171,0.004982323385775089,-0.09645184129476547,-0.9860854744911194,2.384979009628296,0.0078098657540977,0.6739845275878906,-5.5047101974487305,2.0171244144439697,0.10814521461725235,0.07222955673933029,0.014122461900115013,0.34680503606796265,0.933872401714325,-0.9245700836181641,-0.08438529074192047,1741523176.261051,1741523175153,1.096586181640625,0.13068992614746094,-0.3336799007827405,-0.08677670288085938,0.25399844360351564
1741523176.3001826,1.7752052545547485,0.05744832358999547,-0.03498062835171979,-0.9977354588049971,-0.1123587116599083,-0.12673568725585938,0.4504654109477997,-0.79728764295578,4.275667667388916,3.7202727794647217,0.9630346298217773,0.6822690963745117,0.20275425910949707,-1.3744800090789795,0.005149920005351305,-0.5384527444839478,0.14133669435977936,1.3309917449951172,0.01125352829694748,0.5529488325119019,-0.2817196846008301,-0.5952925682067871,0.07991912961006165,0.30117493867874146,0.6811245679855347,-0.2783121168613434,0.0021393466740846634,-0.5025940537452698,-0.05092698708176613,0.10776684433221817,0.7272831201553345,-0.2092520296573639,0.024923205375671387,0.08136855065822601,-0.8056862950325012,-0.32775384187698364,0.14815863966941833,-0.012072821147739887,-0.07437878847122192,0.015827147290110588,0.017590489238500595,-0.0021527656354010105,0.054242026060819626,-1.5141189098358154,2.2496871948242188,-0.3703419864177704,1.007389783859253,-5.563411712646484,2.3027632236480713,0.3720442056655884,-0.7289866805076599,0.5160242319107056,0.4338470995426178,0.8163694739341736,-1.5312539339065552,0.026021085679531097,1741523176.261051,1741523175153,1.096586181640625,0.13068992614746094,-0.3336799007827405,-0.08677670288085938,0.25399844360351564
1741523176.320207,1.7909511923789978,0.0581119984454117,-0.031701001149193796,-0.997806615613877,-0.15833133459091187,0.08302589505910873,0.8670151233673096,1.0841484069824219,5.749794960021973,10.149691581726074,0.9634160995483398,0.6521320343017578,0.1970321238040924,-1.3695207834243774,0.005531395319849253,-0.5357823967933655,0.14171816408634186,1.3317546844482422,0.01125352829694748,0.5521858334541321,-0.3065156042575836,-0.5727855563163757,0.07534141838550568,0.33474478125572205,0.6410696506500244,-0.21356768906116486,0.03393475338816643,-0.5041199326515198,-0.05130846053361893,0.11043716967105865,0.7475013136863708,-0.2436780035495758,0.034334518015384674,-0.013406113721430302,-0.9331555962562561,-0.31565865874290466,0.30298295617103577,0.01291236374527216,0.22674617171287537,0.07796274125576019,0.07029200345277786,0.001614998560398817,-0.09643492847681046,-0.9156485199928284,0.8373569250106812,-0.4333496689796448,1.4129564762115479,-1.4601155519485474,3.200119972229004,1.9570872783660889,0.05784836784005165,-0.21906328201293945,0.21237121522426605,1.017025351524353,-1.7764215469360352,0.5711697936058044,1741523176.261051,1741523175153,1.096586181640625,0.13068992614746094,-0.3336799007827405,-0.08677670288085938,0.25399844360351564
1741523176.3402386,1.8105372786521912,0.057291516589385215,-0.034844125110835907,-0.9977492516018985,0.06743049621582031,-0.08179187029600143,0.9678314924240112,7.045291900634766,1.5971460342407227,4.4561638832092285,0.9699020385742188,0.6490802764892578,0.18711376190185547,-1.370665192604065,0.005531395319849253,-0.536163866519928,0.14858472347259521,1.3340435028076172,0.01125352829694748,0.5514228940010071,-0.32024872303009033,-0.5773632526397705,0.06847485899925232,0.3110933005809784,0.6177996397018433,-0.1599181443452835,0.047752801328897476,-0.5018310546875,-0.04482337832450867,0.12684062123298645,0.7608529925346375,-0.2696138918399811,0.02505129761993885,0.1890600472688675,-0.20896880328655243,-0.509553849697113,-0.04446812719106674,-0.011287049390375614,-0.11350322514772415,0.5143918395042419,0.13294722139835358,0.011467216536402702,-0.06561147421598434,-0.8066177368164062,-0.2776850461959839,-0.10308391600847244,-1.679213047027588,-1.4310200214385986,2.426823377609253,0.07179401814937592,0.12153439968824387,0.38468870520591736,0.9557813405990601,0.5772517919540405,-1.1581391096115112,-0.6884239912033081,1741523176.261051,1741523175153,1.096586181640625,0.13068992614746094,-0.3336799007827405,-0.08677670288085938,0.25399844360351564
1741523176.360236,1.828619658946991,0.05655526504909166,-0.03302710206103868,-0.9978530515685546,-0.22626866400241852,0.09706781059503555,0.8506048917770386,-8.351970672607422,-2.1707353591918945,15.08372688293457,0.9710464477539062,0.6288623809814453,0.17872129380702972,-1.3672319650650024,0.005531395319849253,-0.5403600931167603,0.15888457000255585,1.3367139101028442,0.01125352829694748,0.5502784848213196,-0.32940414547920227,-0.5594338774681091,0.056267641484737396,0.2782863974571228,0.6040665507316589,-0.11719650030136108,0.03578682988882065,-0.508316159248352,-0.02536812424659729,0.15659570693969727,0.778019368648529,-0.28031399846076965,0.013447814621031284,0.045201823115348816,-0.6063376069068909,-0.3821624517440796,0.2517511248588562,-0.008977035991847515,-0.17715953290462494,0.6314083933830261,0.1685381382703781,-0.000135918176965788,-0.08175072073936462,-0.11279601603746414,1.2626901865005493,-0.7301583290100098,-1.4187554121017456,-0.3899766802787781,2.0315654277801514,-0.2940973937511444,-0.4601738154888153,0.9996787309646606,1.746932029724121,1.1380817890167236,-0.4277418553829193,-0.3965741991996765,1741523176.261051,1741523175153,1.096586181640625,0.13068992614746094,-0.3336799007827405,-0.08677670288085938,0.25399844360351564
1741523176.380239,1.8418129086494446,0.05707986841216883,-0.02126399129290417,-0.9981431416867746,-0.6562524437904358,-0.1115940734744072,0.5100273489952087,-1.3006737232208252,-2.7064225673675537,12.456011772155762,0.9748611450195312,0.6151294708251953,0.17376211285591125,-1.3615097999572754,0.005531395319849253,-0.5407415628433228,0.15774014592170715,1.3504470586776733,0.01201647985726595,0.5495155453681946,-0.3248264193534851,-0.5567635893821716,0.05054550990462303,0.25120165944099426,0.5899519324302673,-0.09445668011903763,0.04831905663013458,-0.5357823967933655,0.0013351644156500697,0.20695048570632935,0.8215075731277466,-0.28820323944091797,0.005196037702262402,0.1460561603307724,-0.4558209776878357,-0.22103136777877808,0.38746345043182373,0.014805207028985023,0.007618999108672142,-0.1851816028356552,1.1781033277511597,0.10340315103530884,-0.051261112093925476,-0.011667182669043541,-0.31132370233535767,-0.2655475437641144,-1.5107965469360352,-0.8611854910850525,0.9575443863868713,0.620208203792572,-1.4726248979568481,1.4012969732284546,2.5068864822387695,2.2917122840881348,-0.5363947749137878,-0.62188321352005,1741523176.261051,1741523175153,1.096586181640625,0.13068992614746094,-0.3336799007827405,-0.08677670288085938,0.25399844360351564
1741523176.4002693,1.8491624593734741,0.059724150845605284,-0.009050045397493149,-0.998173893910312,-0.6380603909492493,0.2871164083480835,0.3217712938785553,0.7543960213661194,4.058355331420898,6.214330673217773,0.9748611450195312,0.6052112579345703,0.1665140837430954,-1.3531173467636108,0.005149920005351305,-0.5399786233901978,0.1527809500694275,1.37142813205719,0.01125352829694748,0.5502784848213196,-0.3091859221458435,-0.5567635893821716,0.03795681521296501,0.22602425515651703,0.5865186452865601,-0.08139081299304962,0.05068504065275192,-0.5766003131866455,0.04329747334122658,0.23556114733219147,0.9027618765830994,-0.3107764422893524,-0.012499046511948109,0.02906225249171257,-0.28439295291900635,-0.4312182068824768,0.5515098571777344,-0.0020377463661134243,0.0010600835084915161,-0.31053426861763,1.2952595949172974,-0.07497941702604294,0.04712945967912674,1.2069088220596313,0.15908700227737427,-0.5684323310852051,-1.11455500125885,-0.11587637662887573,0.6509804725646973,-0.006266427226364613,-2.149622678756714,2.109607219696045,1.2262470722198486,4.6023454666137695,-1.3414616584777832,-0.7505488991737366,1741523176.261051,1741523175153,1.096586181640625,0.13068992614746094,-0.3336799007827405,-0.08677670288085938,0.25399844360351564
1741523176.4202752,1.8542778491973877,0.0624307485764025,0.00038847071954578827,-0.9980492225951033,-0.48198744654655457,0.051902156323194504,0.24393458664417267,-2.645115613937378,-3.295668601989746,10.466018676757812,0.9859237670898438,0.6052112579345703,0.16193637251853943,-1.3470137119293213,0.005149920005351305,-0.5392156839370728,0.1508735716342926,1.3817280530929565,0.01125352829694748,0.5502784848213196,-0.290875107049942,-0.5735484957695007,0.035667963325977325,0.20428015291690826,0.5766003131866455,-0.07254719734191895,0.045644503086805344,-0.6422140598297119,0.07915617525577545,0.23785001039505005,1.0191118717193604,-0.3468550145626068,-0.005029546096920967,0.26391324400901794,0.01804967224597931,-0.16403917968273163,0.42760249972343445,-0.014104528352618217,0.029008498415350914,-0.07932781428098679,0.5188133716583252,0.04185313731431961,0.005836011841893196,0.42396318912506104,-1.0367281436920166,-0.1427510380744934,-1.1673946380615234,-0.5240952372550964,0.3640548288822174,-0.131409153342247,-3.74880051612854,1.6670937538146973,-0.08029723167419434,5.918221473693848,-1.8635162115097046,0.7093331217765808,1741523176.261051,1741523175153,1.096586181640625,0.13068992614746094,-0.3336799007827405,-0.08677670288085938,0.25399844360351564
1741523176.4403145,1.8711990714073181,0.06799823157265204,0.004730891205065645,-0.997674224970956,-0.2214713841676712,0.35967016220092773,0.9148131608963013,0.7588586807250977,-1.1554608345031738,6.648906230926514,0.9824905395507812,0.5998706817626953,0.15468832850456238,-1.3420546054840088,0.005149920005351305,-0.5384527444839478,0.152399480342865,1.3870686292648315,0.010872052982449532,0.5525673031806946,-0.28515297174453735,-0.5823224186897278,0.030708782374858856,0.18596932291984558,0.5781261920928955,-0.06956197321414948,0.046101152896881104,-0.7196536064147949,0.1028076633810997,0.230601966381073,1.1316472291946411,-0.38453033566474915,0.005535011645406485,-0.08240880817174911,-0.12183411419391632,-0.4672449827194214,0.3105454444885254,-0.019530395045876503,0.01989501528441906,0.18727262318134308,0.3047401010990143,-0.01504384446889162,0.19874098896980286,0.34682708978652954,-0.2521263062953949,-0.20577013492584229,-0.8934617042541504,0.1141771599650383,0.08203112334012985,0.0890788733959198,-3.728639602661133,1.164238691329956,-0.37389394640922546,5.376070499420166,-1.8100776672363281,0.47744643688201904,1741523176.261051,1741523175153,1.096586181640625,0.13068992614746094,-0.3336799007827405,-0.08677670288085938,0.25399844360351564
1741523176.4603333,1.8890520930290222,0.06947940434152454,0.006655108861053972,-0.9975611870448823,-0.16770757734775543,-0.04591565206646919,0.9271597266197205,-2.752068519592285,-1.2305012941360474,10.465588569641113,0.9805831909179688,0.6013965606689453,0.15468832850456238,-1.3416730165481567,0.005149920005351305,-0.5388342142105103,0.15735866129398346,1.3840168714523315,0.011635004542768002,0.5525673031806946,-0.28629741072654724,-0.5968185067176819,0.02841992862522602,0.17643244564533234,0.5766003131866455,-0.07372529804706573,0.05008740723133087,-0.778782308101654,0.12111848592758179,0.2161058932542801,1.196879506111145,-0.4085078537464142,0.002372860675677657,-0.04227949678897858,0.08596966415643692,0.1151801124215126,-0.013007920235395432,-0.004226660821586847,-0.006091661285609007,0.3377581834793091,-0.24007868766784668,0.021612852811813354,-0.06959868222475052,-0.20071293413639069,-0.9331201314926147,-0.12336748093366623,-0.42479613423347473,-0.12454840540885925,-0.26687824726104736,0.28725647926330566,-2.734954833984375,0.9465439915657043,-0.8631883263587952,2.8326194286346436,-1.0213712453842163,-0.1340416669845581,1741523176.261051,1741523175153,1.096586181640625,0.13068992614746094,-0.3336799007827405,-0.08677670288085938,0.25399844360351564
1741523176.480337,1.9101282358169556,0.06681073803097552,0.008495946662871111,-0.9977294944893921,-0.16461534798145294,-0.13709715008735657,1.0409964323043823,1.4141854047775269,-2.3753907680511475,8.696450233459473,0.9752426147460938,0.5968189239501953,0.15621423721313477,-1.3428175449371338,0.005149920005351305,-0.5384527444839478,0.16002899408340454,1.3840168714523315,0.01125352829694748,0.5510414242744446,-0.28515297174453735,-0.6044480204582214,0.02536812424659729,0.1684214472770691,0.5796520709991455,-0.08456504344940186,0.05807560682296753,-0.7993820309638977,0.134470134973526,0.20389868319034576,1.1972609758377075,-0.40947678685188293,0.0027531813830137253,-0.10733626037836075,-0.07621952891349792,0.07425446808338165,-0.05930532515048981,-0.0021275465842336416,0.012543566524982452,0.15918076038360596,-0.04597141593694687,0.009979481808841228,-0.06999415159225464,0.1922764778137207,-0.11631576716899872,-0.11334741115570068,-0.4116920232772827,0.218369722366333,-0.5926291346549988,0.3212832808494568,-0.7542856335639954,0.45554277300834656,-0.532760739326477,-0.5316137075424194,0.1422647088766098,0.1121096983551979,1741523176.261051,1741523175153,1.096586181640625,0.13068992614746094,-0.3336799007827405,-0.08677670288085938,0.25399844360351564
1741523176.5004349,1.930159568786621,0.06368208917174531,0.01328986968656374,-0.9978817419325979,-0.3377995789051056,-0.18609237670898438,0.9980010986328125,-1.0187181234359741,-0.6721530556678772,9.989136695861816,0.9798202514648438,0.5891885757446289,0.16308079659938812,-1.3428175449371338,0.005149920005351305,-0.5380712747573853,0.16384375095367432,1.3817280530929565,0.01125352829694748,0.5491340756416321,-0.2756160795688629,-0.6059738993644714,0.024223696440458298,0.15774014592170715,0.5819409489631653,-0.09950173646211624,0.0639491155743599,-0.7856488823890686,0.1329442262649536,0.20122835040092468,1.1331731081008911,-0.3931543827056885,0.005574570968747139,0.07849343866109848,-0.22795309126377106,0.4160057306289673,-0.0037578928750008345,-0.0026238092686980963,0.035273198038339615,0.3215786814689636,-0.14046365022659302,-0.018546564504504204,-0.14725017547607422,0.4214234948158264,-0.3694571256637573,-0.04605994373559952,-0.4718528985977173,0.03779357671737671,-0.7496192455291748,0.3647434413433075,1.0266801118850708,-0.10720830410718918,-0.03690537437796593,-3.8229222297668457,0.8461450338363647,0.12887977063655853,1741523176.261051,1741523175153,1.096586181640625,0.13068992614746094,-0.3336799007827405,-0.08677670288085938,0.25399844360351564
1741523176.520383,1.9482559561729431,0.057373974144760226,0.021874245392142493,-0.9981130920288346,-0.49664562940597534,-0.35612058639526367,0.8595656156539917,-6.262109756469727,-2.1272425651550293,7.865801811218262,0.9786758422851562,0.5807962417602539,0.17566949129104614,-1.3428175449371338,0.005149920005351305,-0.536926805973053,0.16880293190479279,1.381346583366394,0.01125352829694748,0.5472266674041748,-0.26722362637519836,-0.6250476837158203,0.019645990803837776,0.1512550562620163,0.5895704627037048,-0.11364328116178513,0.07527098804712296,-0.7402533292770386,0.12760357558727264,0.19512474536895752,1.0114823579788208,-0.3718373775482178,0.002113577676936984,-0.03695615008473396,-0.25141939520835876,0.6857135891914368,-0.0037279129028320312,-0.005346975289285183,0.034247610718011856,0.3415607511997223,-0.02705151028931141,0.004545002710074186,-0.1639985591173172,0.4854936897754669,-0.7266732454299927,-0.2975456416606903,-0.4176712930202484,0.5324949026107788,-0.7119039297103882,0.6434373259544373,2.353013753890991,-0.13519378006458282,-0.5158538222312927,-6.4871625900268555,1.0675064325332642,-0.1921788454055786,1741523176.7760713,1741523175653,1.047341552734375,0.03237130737304687,-0.5125640570315456,-0.5365635375976563,0.08329512786865234
1741523176.540454,1.9669360518455505,0.05344661978712468,0.03088598146675675,-0.99809293905035,-0.4683416485786438,-0.2407453954219818,0.9050337076187134,-1.2977371215820312,-4.966785907745361,5.470173358917236,0.9817276000976562,0.5701150894165039,0.18825818598270416,-1.3428175449371338,0.005149920005351305,-0.5376898050308228,0.17223620414733887,1.380964994430542,0.01125352829694748,0.5457007884979248,-0.25272753834724426,-0.6357290148735046,0.009346150793135166,0.14591439068317413,0.6021591424942017,-0.13250070810317993,0.08514105528593063,-0.6822690367698669,0.12607766687870026,0.18635080754756927,0.8577477931976318,-0.35480985045433044,-0.0021773630287498236,0.09124781936407089,-0.2702772617340088,0.5991343259811401,-0.01382653322070837,-0.0037000938318669796,-0.033553093671798706,0.22205401957035065,-0.07456720620393753,-0.001673547551035881,-0.06329793483018875,0.7294823527336121,-0.7290436029434204,-0.5662349462509155,-0.23917600512504578,0.5562490224838257,-0.9894593358039856,0.5407332181930542,2.976405620574951,-0.21881887316703796,-0.29086199402809143,-7.818482875823975,0.7300696969032288,-0.1950826346874237,1741523176.7760713,1741523175653,1.047341552734375,0.03237130737304687,-0.5125640570315456,-0.5365635375976563,0.08329512786865234
1741523176.560465,1.9874951839447021,0.051158724893353234,0.03382579295018767,-0.9981175284497198,-0.11899977177381516,-0.11228286474943161,1.0198347568511963,-1.4340752363204956,1.497130036354065,6.477830410003662,0.9924087524414062,0.5655374526977539,0.1966506391763687,-1.3435804843902588,0.005531395319849253,-0.536926805973053,0.17643244564533234,1.375624418258667,0.01125352829694748,0.5457007884979248,-0.2443350851535797,-0.6506065726280212,-0.0013351644156500697,0.14438849687576294,0.6174181699752808,-0.14700891077518463,0.1066346988081932,-0.6326771974563599,0.1039520874619484,0.19130998849868774,0.7051575779914856,-0.3481815755367279,-0.0005671877879649401,0.32192742824554443,-0.0966297835111618,0.3619518280029297,-0.01393277570605278,0.0005250668036751449,0.019922886043787003,0.3257727026939392,-0.4016745388507843,-0.010733143426477909,0.003193800337612629,0.45262977480888367,-0.800981342792511,-0.6717303395271301,-0.08344078063964844,0.8463499546051025,-0.6443859934806824,1.2080872058868408,2.2625412940979004,-1.3040456771850586,0.37322452664375305,-7.386626243591309,0.48167651891708374,0.41077813506126404,1741523176.7760713,1741523175653,1.047341552734375,0.03237130737304687,-0.5125640570315456,-0.5365635375976563,0.08329512786865234
1741523176.5804486,2.0102145075798035,0.047092597411594786,0.027074502795803798,-0.9985235393156184,0.2699713408946991,-0.2615092992782593,1.2125344276428223,-1.1252444982528687,-5.062995910644531,9.91396427154541,0.9912643432617188,0.5697336196899414,0.1997024416923523,-1.3458693027496338,0.005531395319849253,-0.5350194573402405,0.1813916265964508,1.3653244972229004,0.010872052982449532,0.543411910533905,-0.2290760725736618,-0.6670100092887878,-0.01735713705420494,0.13942931592464447,0.6277180314064026,-0.1564542055130005,0.12799975275993347,-0.620088517665863,0.09403372555971146,0.200083926320076,0.6677729487419128,-0.31003537774086,0.05591629073023796,-0.042548876255750656,0.08212422579526901,0.09037131071090698,-0.2591429352760315,0.024717027321457863,0.08107538521289825,0.2923891842365265,-0.7006310820579529,-0.009408579207956791,-0.22547556459903717,0.7941976189613342,-0.7420107126235962,-0.7331861853599548,-0.17829883098602295,0.20853674411773682,-0.5023335814476013,0.9548845291137695,0.45266827940940857,-0.4312422573566437,0.04409050568938255,-0.943683385848999,1.8724796772003174,2.5938806533813477,1741523176.7760713,1741523175653,1.047341552734375,0.03237130737304687,-0.5125640570315456,-0.5365635375976563,0.08329512786865234
1741523176.6005013,2.0306164026260376,0.052293063917632145,0.02437480966816051,-0.998334264722867,0.10583721101284027,0.19657647609710693,0.9762747287750244,3.127424955368042,-0.5263251066207886,9.158777236938477,0.9935531616210938,0.5487527847290039,0.1997024416923523,-1.3557876348495483,0.005531395319849253,-0.5384527444839478,0.182917520403862,1.3565505743026733,0.01125352829694748,0.5399786233901978,-0.2283131182193756,-0.6708247661590576,-0.04329747334122658,0.1665140837430954,0.6113145351409912,-0.17554840445518494,0.12144949287176132,-0.6284809708595276,0.051689937710762024,0.1825360506772995,0.6612878441810608,-0.2898154854774475,0.03133785352110863,0.05740834027528763,-0.5528923869132996,-0.00017763939104042947,-0.6813174486160278,-0.005250717047601938,-0.17987069487571716,0.08980535715818405,-0.5351486206054688,0.02077464573085308,-0.22520679235458374,0.001385678187943995,-0.19321782886981964,-1.4998282194137573,1.6025025844573975,-0.8534350395202637,-1.0263150930404663,-0.429390549659729,-0.5112624168395996,-2.433098793029785,-0.8276098370552063,-0.6511470079421997,0.9425771832466125,-1.751596212387085,1741523176.7760713,1741523175653,1.047341552734375,0.03237130737304687,-0.5125640570315456,-0.5365635375976563,0.08329512786865234
1741523176.6204906,2.0508390069007874,0.05442746325965134,0.01362683878741374,-0.9984247395311181,0.581791877746582,0.09362546354532242,1.0378257036209106,-4.0070319175720215,0.531250536441803,10.884674072265625,0.9962234497070312,0.5487527847290039,0.1997024416923523,-1.3653244972229004,0.005531395319849253,-0.5392156839370728,0.1817730963230133,1.3500655889511108,0.010872052982449532,0.5388342142105103,-0.21801327168941498,-0.6692988276481628,-0.05130846053361893,0.19512474536895752,0.6197070479393005,-0.19763058423995972,0.1202952116727829,-0.6330586671829224,-0.0024795911740511656,0.1680399775505066,0.6342030763626099,-0.2628466784954071,0.027035078033804893,0.0705123096704483,-0.012719704769551754,-0.008358159102499485,-0.7195730209350586,-0.009122014977037907,-0.006169809028506279,-0.07574980705976486,-0.44461655616760254,-0.026760313659906387,-0.027559932321310043,0.662561297416687,0.06756436079740524,-0.1169862449169159,1.4904170036315918,0.9590436816215515,-1.128451943397522,-0.13532625138759613,-0.04420171305537224,-2.7617366313934326,-0.6610920429229736,-1.3212621212005615,1.5385291576385498,0.8028229475021362,1741523176.7760713,1741523175653,1.047341552734375,0.03237130737304687,-0.5125640570315456,-0.5365635375976563,0.08329512786865234
1741523176.6405995,2.0678173303604126,0.05786819057155561,-0.004613353317368234,-0.9983135727270982,0.8738332390785217,0.18869008123874664,0.8357043862342834,12.66645622253418,-7.935947418212891,0.6803588271141052,1.0011825561523438,0.5388345718383789,0.1993209719657898,-1.377150297164917,0.005149920005351305,-0.5342565178871155,0.1817730963230133,1.3439619541168213,0.010872052982449532,0.5395971536636353,-0.22144655883312225,-0.690280020236969,-0.03490501269698143,0.23250934481620789,0.6986724734306335,-0.22770832479000092,0.07511880248785019,-0.6204699873924255,-0.03604944050312042,0.15926603972911835,0.6013962030410767,-0.2286861091852188,0.06973038613796234,0.12619799375534058,-0.26776015758514404,0.0068400087766349316,-0.6813364624977112,-0.024624478071928024,0.19269682466983795,0.011682738550007343,-0.36636191606521606,0.01412966474890709,0.0024727301206439734,-0.47774383425712585,-1.7315154075622559,1.1646978855133057,1.7820794582366943,4.533963680267334,-1.497418999671936,-2.933925151824951,0.7519196271896362,-1.3946595191955566,-0.3767208456993103,-1.6588157415390015,1.671434760093689,1.7232084274291992,1741523176.7760713,1741523175653,1.047341552734375,0.03237130737304687,-0.5125640570315456,-0.5365635375976563,0.08329512786865234
1741523176.6657891,2.086262047290802,0.052947215159307774,-0.01809309301066407,-0.9984333890611738,0.5690214037895203,-0.17577418684959412,0.9301662445068359,-1.6046793460845947,2.6842799186706543,9.346070289611816,0.9828720092773438,0.516326904296875,0.1989395022392273,-1.379439115524292,0.005149920005351305,-0.536926805973053,0.1817730963230133,1.3409100770950317,0.010872052982449532,0.5392156839370728,-0.22793163359165192,-0.7459754347801208,0.0078202486038208,0.264934778213501,0.8485923409461975,-0.2664691209793091,-0.0017314570723101497,-0.6067368388175964,-0.06198977679014206,0.1646067053079605,0.5807965397834778,-0.18818295001983643,0.06729226559400558,-0.5680285692214966,-0.6981777548789978,-0.02805778756737709,-0.14134806394577026,-0.01864267699420452,-0.17934556305408478,0.015823373571038246,-0.21628305315971375,-0.010564454831182957,-0.025780193507671356,-0.038996029645204544,-2.7242956161499023,2.193774700164795,1.3936326503753662,7.564528465270996,-2.013538360595703,-3.5903286933898926,0.8616310954093933,-1.2891026735305786,0.24769431352615356,-0.6331998705863953,2.0815393924713135,-0.1984226256608963,1741523176.7760713,1741523175653,1.047341552734375,0.03237130737304687,-0.5125640570315456,-0.5365635375976563,0.08329512786865234
1741523176.6807652,2.0949933528900146,0.0456986586246757,-0.023714394642726615,-0.9986737505745479,0.21270987391471863,-0.48607945442199707,0.39221620559692383,0.7028183937072754,1.893498420715332,5.800274848937988,0.9786758422851562,0.49267578125,0.1985580176115036,-1.3790576457977295,0.005149920005351305,-0.5388342142105103,0.1810101419687271,1.3355695009231567,0.010872052982449532,0.5384527444839478,-0.2302204966545105,-0.7921339869499207,0.03604944050312042,0.2775234580039978,1.0126268863677979,-0.31686851382255554,-0.013949061743915081,-0.6006332635879517,-0.07457847148180008,0.15430685877799988,0.5735484957695007,-0.14555618166923523,0.05495159700512886,-0.196384996175766,-0.709729790687561,-0.012100321240723133,0.08616464585065842,0.012260268442332745,-0.06213630735874176,-0.04915488138794899,-0.4216272234916687,0.029478205367922783,-0.05157865956425667,-0.19451265037059784,-2.117020845413208,1.359686255455017,0.5843313932418823,7.759108066558838,-2.5093071460723877,0.006496141664683819,0.07859224826097488,-0.47779518365859985,-0.8077244758605957,-0.5501208901405334,1.980657696723938,-0.6033249497413635,1741523176.7760713,1741523175653,1.047341552734375,0.03237130737304687,-0.5125640570315456,-0.5365635375976563,0.08329512786865234
1741523176.7007637,2.1037935614585876,0.03241759209935528,-0.02360315168645266,-0.999195672004711,-0.07845789939165115,-0.6563314199447632,0.4504067599773407,-1.2775788307189941,6.873850345611572,9.156625747680664,0.9782943725585938,0.4713134765625,0.1989395022392273,-1.374861478805542,0.005149920005351305,-0.5357823967933655,0.1806286722421646,1.3306102752685547,0.010872052982449532,0.5407415628433228,-0.23823148012161255,-0.8031967878341675,0.06389715522527695,0.2748531401157379,1.116388201713562,-0.35819682478904724,0.013248858973383904,-0.5907148718833923,-0.09212634712457657,0.14209964871406555,0.569733738899231,-0.11504318565130234,0.04136873409152031,-0.013216030783951283,-0.6419873237609863,0.008775844238698483,0.3098401725292206,0.004994428250938654,0.17835772037506104,-0.017315274104475975,-0.31840085983276367,-0.009708615019917488,0.12528666853904724,-0.4169338643550873,-0.11781609803438187,1.348763346672058,-0.15604408085346222,4.690349578857422,-1.8676613569259644,1.1639524698257446,0.692661702632904,-1.1399132013320923,-0.3892717659473419,0.07009314000606537,1.4330195188522339,-0.5157762765884399,1741523176.7760713,1741523175653,1.047341552734375,0.03237130737304687,-0.5125640570315456,-0.5365635375976563,0.08329512786865234
1741523176.7207816,2.1182331442832947,0.014207915114888654,-0.020527713191031617,-0.9996883254991201,-0.20693790912628174,-0.9404045939445496,0.7495031356811523,2.5017800331115723,3.9224276542663574,8.800456047058105,0.9752426147460938,0.4587240219116211,0.1997024416923523,-1.3710466623306274,0.005149920005351305,-0.5334935784339905,0.182154580950737,1.3313732147216797,0.010490577667951584,0.5395971536636353,-0.2466239482164383,-0.7631418108940125,0.08030059933662415,0.2637903392314911,1.1381323337554932,-0.3813176155090332,-0.003481569467112422,-0.5846112966537476,-0.1203555315732956,0.13904783129692078,0.5693522691726685,-0.09911516308784485,0.04242228716611862,-0.10874498635530472,-0.354713499546051,0.029479550197720528,0.22330209612846375,0.0007850303081795573,0.05599741265177727,0.1482161581516266,0.06760340183973312,-0.0007883823709562421,-0.05539916083216667,-0.5066019296646118,2.4070684909820557,0.7412532567977905,-0.6326939463615417,0.42835962772369385,-1.0407108068466187,-1.2396962642669678,-0.02339651621878147,-1.386421799659729,-0.514477014541626,-0.13695062696933746,0.582160472869873,0.24853046238422394,1741523176.7760713,1741523175653,1.047341552734375,0.03237130737304687,-0.5125640570315456,-0.5365635375976563,0.08329512786865234
1741523176.740805,2.1364137530326843,-0.006241139950338912,-0.017009350894874903,-0.9998358516047797,-0.17024514079093933,-0.9311114549636841,0.9456962943077087,0.215010404586792,4.708313465118408,7.800416469573975,0.9714279174804688,0.4449911117553711,0.200083926320076,-1.3695207834243774,0.005149920005351305,-0.535400927066803,0.18558785319328308,1.3344250917434692,0.010490577667951584,0.5392156839370728,-0.2588311731815338,-0.693331778049469,0.09288929402828217,0.2447165697813034,1.0938811302185059,-0.39530590176582336,-0.009228688664734364,-0.5876630544662476,-0.1501106321811676,0.11959258466959,0.5807965397834778,-0.10303398966789246,0.06095477193593979,-0.11237537115812302,-0.380533903837204,-0.028934255242347717,0.07203977555036545,-0.012217407114803791,-0.13346415758132935,0.23526278138160706,0.20153915882110596,-0.0010813216213136911,-0.0075793215073645115,-0.5482378602027893,3.4184646606445312,0.5842373371124268,-0.8899452090263367,-2.631664514541626,-0.7109106779098511,0.24520619213581085,0.1680787205696106,-1.4914708137512207,-0.7359430193901062,0.931804358959198,-0.3058617115020752,0.9749745726585388,1741523176.7760713,1741523175653,1.047341552734375,0.03237130737304687,-0.5125640570315456,-0.5365635375976563,0.08329512786865234
1741523176.760846,2.1502662897109985,-0.02051370672521885,-0.012165386491042788,-0.9997155551495213,-0.28428202867507935,-0.7323019504547119,0.5739361643791199,-5.202341079711914,2.7618236541748047,7.191068649291992,0.9824905395507812,0.4282064437866211,0.1974135935306549,-1.369139313697815,0.005149920005351305,-0.5388342142105103,0.19245441257953644,1.3374768495559692,0.010872052982449532,0.5388342142105103,-0.27027541399002075,-0.6185625791549683,0.09441519528627396,0.22068360447883606,1.0103379487991333,-0.4095360338687897,0.010596300475299358,-0.6017776727676392,-0.17185473442077637,0.11043716967105865,0.6105515956878662,-0.11856319010257721,0.08686105906963348,0.31304752826690674,-0.4823230504989624,-0.1199270486831665,0.028157604858279228,-0.0064632706344127655,-0.134102925658226,0.47556284070014954,0.17227967083454132,0.012545397505164146,-0.06926579028367996,-0.5668442249298096,3.6279947757720947,-0.025397202000021935,-1.1693615913391113,-4.483343124389648,-0.7595351934432983,0.9144008159637451,-0.9809261560440063,-0.9691610932350159,-0.5620270371437073,1.505155086517334,-0.836158812046051,1.4073984622955322,1741523176.7760713,1741523175653,1.047341552734375,0.03237130737304687,-0.5125640570315456,-0.5365635375976563,0.08329512786865234
1741523176.7808416,2.153397798538208,-0.027155718862027677,-0.00688110463890267,-0.9996075316503147,-0.2526450753211975,-0.24852409958839417,0.1402546465396881,2.3080718517303467,-2.5268685817718506,24.96402359008789,0.9832534790039062,0.4087514877319336,0.1974135935306549,-1.3687578439712524,0.005149920005351305,-0.5376898050308228,0.1970321238040924,1.3363324403762817,0.010872052982449532,0.5380712747573853,-0.2813382148742676,-0.5521858334541321,0.08220797777175903,0.21000228822231293,0.9138246774673462,-0.4198154807090759,0.005483286455273628,-0.6292439103126526,-0.17719538509845734,0.10509651154279709,0.6586175560951233,-0.13850755989551544,0.11162005364894867,0.05220162123441696,-0.5592784285545349,-0.007847464643418789,0.03344229236245155,-0.00035985989961773157,0.08147500455379486,0.19948603212833405,-0.10048352181911469,-0.003250107867643237,-0.011584064923226833,-0.5492083430290222,3.082869529724121,-0.803588330745697,-0.005604884121567011,-4.501719951629639,-0.17265348136425018,-0.28645551204681396,-1.397496223449707,0.039439648389816284,-0.12030190229415894,2.76633358001709,-0.9842985272407532,1.0848037004470825,1741523176.7760713,1741523175653,1.047341552734375,0.03237130737304687,-0.5125640570315456,-0.5365635375976563,0.08329512786865234
1741523176.8008869,2.160086452960968,-0.040623711118715884,-0.01066770776804752,-0.9991175677095857,0.5131968855857849,-0.9914382100105286,0.36306479573249817,14.01970386505127,-14.566947937011719,10.316258430480957,0.9664678573608398,0.4346914291381836,0.1974135935306549,-1.36990225315094,0.005912871100008488,-0.5254825949668884,0.19054703414440155,1.3374768495559692,0.010109102353453636,0.536926805973053,-0.30384528636932373,-0.569733738899231,0.06580453366041183,0.2470054179430008,0.9134432077407837,-0.394057959318161,0.07713694870471954,-0.6525139212608337,-0.19169145822525024,0.12531471252441406,0.7310978770256042,-0.1630128026008606,0.10554441064596176,-0.4511193335056305,0.8999034762382507,-0.012603145092725754,-0.2408377081155777,0.041670702397823334,0.7288216948509216,-0.40255770087242126,0.09941453486680984,-0.026686890050768852,-0.12541905045509338,-1.3998258113861084,-1.3068475723266602,-0.9284478425979614,0.7852814197540283,-0.33563491702079773,1.3987053632736206,4.211187839508057,-1.2709167003631592,-0.026015760377049446,1.269333004951477,3.5708813667297363,-1.342454433441162,-0.9289264678955078,1741523176.7760713,1741523175653,1.047341552734375,0.03237130737304687,-0.5125640570315456,-0.5365635375976563,0.08329512786865234
1741523176.8209128,2.1746875643730164,-0.05645534502306733,-0.025706418187155407,-0.9980741325584555,0.6936838030815125,-0.4823146462440491,0.7405668497085571,-0.5609213709831238,-12.006735801696777,11.387503623962402,0.9718093872070312,0.4350728988647461,0.1970321238040924,-1.379439115524292,0.005149920005351305,-0.5182345509529114,0.18863965570926666,1.3370953798294067,0.010109102353453636,0.5376898050308228,-0.35114824771881104,-0.5495155453681946,0.03795681521296501,0.2317463904619217,0.8802548050880432,-0.3427988886833191,0.09860410541296005,-0.7078278660774231,-0.15659570693969727,0.1653696447610855,0.8146410584449768,-0.19997692108154297,0.038775503635406494,0.08558931201696396,0.15684621036052704,-0.012590555474162102,-0.4972172975540161,-0.002155737020075321,0.17668572068214417,0.036141276359558105,-0.042223721742630005,-0.04884437471628189,0.11098257452249527,-2.208076238632202,1.2329347133636475,-1.5802123546600342,-0.6020857095718384,-1.818312644958496,2.625241756439209,-0.10427111387252808,-2.9755828380584717,1.919464349746704,2.2907261848449707,4.625410556793213,-1.8568181991577148,-3.722390651702881,1741523176.7760713,1741523175653,1.047341552734375,0.03237130737304687,-0.5125640570315456,-0.5365635375976563,0.08329512786865234
1741523176.8409047,2.1920154094696045,-0.061090367566330094,-0.02159683169674486,-0.9978985639088139,-0.27229130268096924,-0.23360273241996765,0.9422886371612549,-5.210317134857178,7.618687629699707,14.437142372131348,0.9714279174804688,0.4194326400756836,0.19512474536895752,-1.377150297164917,0.005149920005351305,-0.5193789601325989,0.19092851877212524,1.3401471376419067,0.010872052982449532,0.5365453362464905,-0.3854810297489166,-0.5537117719650269,0.005149920005351305,0.230601966381073,0.848210871219635,-0.3046567440032959,0.07325349003076553,-0.768482506275177,-0.10662241280078888,0.21114671230316162,0.9229800701141357,-0.24709822237491608,-0.026005534455180168,-0.08310799300670624,-0.3531014621257782,-0.18311364948749542,0.2454674392938614,-0.008444832637906075,-0.07009602338075638,0.09135277569293976,0.3549756109714508,0.06327449530363083,-0.1450054943561554,-1.6460089683532715,-0.5865604877471924,-1.4543180465698242,-0.10820328444242477,-1.3235806226730347,1.7907145023345947,-0.9648443460464478,-2.764805555343628,2.470409631729126,2.026837110519409,5.302621364593506,-2.4365813732147217,-3.019951820373535,1741523176.7760713,1741523175653,1.047341552734375,0.03237130737304687,-0.5125640570315456,-0.5365635375976563,0.08329512786865234
1741523176.8693438,2.209562659263611,-0.05896304315655119,-0.017503945545141116,-0.9981066934111159,-0.08307521045207977,0.16716144979000092,0.8640332818031311,-2.2017250061035156,-3.9875314235687256,15.556640625,0.9691390991210938,0.4072256088256836,0.17795833945274353,-1.3637986183166504,0.005149920005351305,-0.5228122472763062,0.18978407979011536,1.3653244972229004,0.011635004542768002,0.5350194573402405,-0.3774700462818146,-0.5525673031806946,-0.005912871100008488,0.20656901597976685,0.8226520419120789,-0.28820133209228516,0.08558794856071472,-0.7974746227264404,-0.05664911866188049,0.21763180196285248,1.0099564790725708,-0.29960253834724426,-0.021380528807640076,-0.05015416070818901,-0.42576462030410767,-0.9267838597297668,0.9515047073364258,-0.017641860991716385,-0.2551578879356384,-0.03287121653556824,1.6878553628921509,0.04037092626094818,-0.0547090508043766,0.8187103867530823,0.09834319353103638,-0.5565491318702698,-1.174831748008728,-1.5364842414855957,0.70328289270401,0.8000964522361755,-1.1880465745925903,2.3841798305511475,0.05214579030871391,4.3997087478637695,-2.53977370262146,0.7396311163902283,1741523176.7760713,1741523175653,1.047341552734375,0.03237130737304687,-0.5125640570315456,-0.5365635375976563,0.08329512786865234
1741523176.8809464,2.225877285003662,-0.05712630277018865,-0.011787185680189638,-0.9982973744258519,-0.2823721170425415,0.055192697793245316,0.8648643493652344,0.4031789004802704,0.3376757502555847,10.8816499710083,0.9668493270874023,0.4121847152709961,0.1668955534696579,-1.3500655889511108,0.005149920005351305,-0.5289158225059509,0.18940261006355286,1.382872462272644,0.01125352829694748,0.5327305793762207,-0.34504464268684387,-0.5464637279510498,-0.021553369238972664,0.18673227727413177,0.7887006998062134,-0.2773033380508423,0.09943245351314545,-0.80663001537323,-0.027656977996230125,0.20351719856262207,1.0755703449249268,-0.34098073840141296,0.01841704174876213,-0.13766220211982727,0.05803430825471878,-0.45970091223716736,0.8749598264694214,0.006569020915776491,-0.25388237833976746,-0.010417194105684757,1.0660691261291504,-0.013827376067638397,-0.14554335176944733,1.7306880950927734,0.2523447573184967,-0.7479683756828308,-1.080246925354004,-1.619449257850647,0.49882155656814575,0.49008890986442566,-0.43601614236831665,1.4429491758346558,-0.7408878207206726,3.1297061443328857,-2.0446836948394775,1.9373968839645386,1741523176.7760713,1741523175653,1.047341552734375,0.03237130737304687,-0.5125640570315456,-0.5365635375976563,0.08329512786865234
1741523176.900987,2.2415789365768433,-0.05659951011776659,-0.003788993878887559,-0.9983897730745315,-0.34608209133148193,0.0668899267911911,0.8018407821655273,2.562488317489624,-0.4141627252101898,10.441411972045898,0.9538793563842773,0.4228658676147461,0.1665140837430954,-1.3397656679153442,0.005149920005351305,-0.5304417610168457,0.18902114033699036,1.3966054916381836,0.01125352829694748,0.5319676399230957,-0.30079346895217896,-0.5403600931167603,-0.03376058489084244,0.15774014592170715,0.7558938264846802,-0.2716657221317291,0.09367608278989792,-0.8077744841575623,-0.007057297509163618,0.182917520403862,1.1255435943603516,-0.36984914541244507,0.006571467965841293,-0.3804764747619629,0.31458356976509094,-0.013470298610627651,0.6803250312805176,0.006918914616107941,-0.07481876760721207,-0.016368817538022995,0.866107165813446,-0.03103570081293583,-0.06885088235139847,2.3011744022369385,0.38542988896369934,-0.5334793925285339,-1.4606797695159912,-1.5029690265655518,0.2737221419811249,-0.41683638095855713,0.04304397851228714,1.0464848279953003,-1.0736513137817383,2.4179069995880127,-1.3490442037582397,-1.046683669090271,1741523177.0040894,1741523175833,1.027375244140625,-0.06205305480957032,-0.6846714360304884,-0.6755206909179687,0.027105815887451173
1741523176.9210093,2.256482720375061,-0.055191327737999556,0.004204513063126253,-0.998466944576744,-0.36059969663619995,0.06254114955663681,0.8180810213088989,1.1906179189682007,0.34613037109375,8.428365707397461,0.9523534774780273,0.4266805648803711,0.16918440163135529,-1.3336620330810547,0.005149920005351305,-0.5300602912902832,0.18940261006355286,1.3992758989334106,0.01125352829694748,0.5319676399230957,-0.2588311731815338,-0.536926805973053,-0.04444190114736557,0.1348516047000885,0.7272831201553345,-0.2703027129173279,0.08664888888597488,-0.804341197013855,0.024605173617601395,0.16956588625907898,1.1552987098693848,-0.3804435431957245,-0.0064568365924060345,-0.08800595998764038,0.10015060752630234,0.16295915842056274,0.42619284987449646,-0.004246117547154427,0.007796682417392731,0.038042858242988586,0.0065258643589913845,0.0022577084600925446,-0.015190417878329754,2.019958734512329,0.03334692493081093,-0.46368464827537537,-1.0150021314620972,-1.4622788429260254,0.0041450513526797295,-0.20172102749347687,0.12813057005405426,1.6070342063903809,-0.5332599878311157,1.2993299961090088,-0.40365806221961975,-0.24847382307052612,1741523177.0040894,1741523175833,1.027375244140625,-0.06205305480957032,-0.6846714360304884,-0.6755206909179687,0.027105815887451173
1741523176.9410102,2.2753653526306152,-0.052865124308787266,0.01053506210165225,-0.9985460886200149,-0.24363967776298523,0.13356976211071014,0.9785482287406921,-1.720479130744934,-0.46789252758026123,7.688274383544922,0.9504461288452148,0.4266805648803711,0.17032882571220398,-1.3309917449951172,0.005149920005351305,-0.5300602912902832,0.18940261006355286,1.3969870805740356,0.01125352829694748,0.5315861701965332,-0.2313649207353592,-0.5453193187713623,-0.04596780240535736,0.12645913660526276,0.7040131092071533,-0.27194827795028687,0.08821304887533188,-0.80510413646698,0.05054550990462303,0.1680399775505066,1.1659799814224243,-0.3803809881210327,0.009793395176529884,-0.05017099902033806,0.026951001957058907,0.03403057903051376,0.08587540686130524,-0.003274570219218731,0.000725742254871875,0.0051322500221431255,-0.1323699802160263,-6.12641015322879e-05,-0.038686055690050125,1.2866541147232056,-0.3755686581134796,-0.07096686959266663,-0.4426504373550415,-1.0225348472595215,-0.08422376960515976,-0.0024365331046283245,-0.13006086647510529,1.2134002447128296,-0.05095551162958145,0.48992156982421875,0.0357992984354496,0.7369726896286011,1741523177.0040894,1741523175833,1.027375244140625,-0.06205305480957032,-0.6846714360304884,-0.6755206909179687,0.027105815887451173
1741523176.9610488,2.3004236221313477,-0.0466627212638904,0.01470073446737526,-0.9988025224489414,-0.14187900722026825,0.30190151929855347,1.276347041130066,-0.1527010053396225,0.31257542967796326,7.786943435668945,0.9447240829467773,0.4251546859741211,0.16994735598564148,-1.3317546844482422,0.005149920005351305,-0.5300602912902832,0.18940261006355286,1.3927907943725586,0.01125352829694748,0.5304417610168457,-0.21229113638401031,-0.5609598159790039,-0.04482337832450867,0.13065537810325623,0.6853207945823669,-0.2738617956638336,0.08430982381105423,-0.8127336502075195,0.06847485899925232,0.1668955534696579,1.1755168437957764,-0.3767770528793335,0.004442453384399414,-0.17638547718524933,-0.03221755474805832,-0.006447715684771538,-0.057315655052661896,0.0021728938445448875,-0.022126788273453712,0.005459584761410952,-0.37293341755867004,-0.0075513338670134544,-0.07556886225938797,0.9962902069091797,-0.9602631330490112,0.09139951318502426,0.34057196974754333,-0.9811243414878845,-0.0786079540848732,-0.13766007125377655,-0.3628278374671936,0.8528525829315186,-0.07052794098854065,0.5200095176696777,0.19111761450767517,-0.42368656396865845,1741523177.0040894,1741523175833,1.027375244140625,-0.06205305480957032,-0.6846714360304884,-0.6755206909179687,0.027105815887451173
1741523176.9811215,2.324595808982849,-0.0350527765168125,0.017981522694561533,-0.9992236825156054,-0.12514039874076843,0.6179494261741638,1.1975756883621216,0.7081807255744934,1.367823600769043,7.285614490509033,0.9420537948608398,0.4221029281616211,0.17071031033992767,-1.3325176239013672,0.005149920005351305,-0.5312047004699707,0.18940261006355286,1.3824909925460815,0.01125352829694748,0.5292973518371582,-0.19398032128810883,-0.5827038884162903,-0.040245670825242996,0.14286258816719055,0.6715877056121826,-0.2747465670108795,0.08744259923696518,-0.8222705721855164,0.07610437273979187,0.1672770231962204,1.1900129318237305,-0.3710283041000366,-0.0011085831793025136,-0.07222864031791687,-0.09481141716241837,0.04206172749400139,-0.04975656047463417,-0.009616539813578129,-0.07398256659507751,0.017898624762892723,-0.6610695719718933,-0.0027834137436002493,-0.08528123050928116,0.8725521564483643,-1.161452054977417,0.22376649081707,0.6852961182594299,-0.6000227928161621,-0.05058211460709572,0.16377678513526917,-0.4564734995365143,0.321036696434021,0.056029628962278366,0.5724348425865173,0.3199878931045532,-0.15822778642177582,1741523177.0040894,1741523175833,1.027375244140625,-0.06205305480957032,-0.6846714360304884,-0.6755206909179687,0.027105815887451173
1741523177.0010786,2.3480546474456787,-0.019907403630563196,0.02005308674727965,-0.9996007047779608,-0.057373300194740295,0.7146337628364563,1.1922578811645508,0.2765529751777649,-0.18459533154964447,8.022856712341309,0.9317541122436523,0.4232473373413086,0.17376211285591125,-1.3328990936279297,0.005149920005351305,-0.533875048160553,0.18940261006355286,1.3737170696258545,0.01125352829694748,0.5289158225059509,-0.17757686972618103,-0.6109330654144287,-0.03223468363285065,0.1672770231962204,0.6624323129653931,-0.2763025760650635,0.09411769360303879,-0.8291370868682861,0.07763027399778366,0.1668955534696579,1.1957350969314575,-0.3678796589374542,0.0034716688096523285,-0.30954301357269287,0.03514055162668228,0.15910162031650543,-0.01034609880298376,0.0016027158126235008,-0.15409943461418152,0.014202805235981941,-0.600496232509613,0.007853860035538673,-0.028351549059152603,0.8460837006568909,-1.4311360120773315,0.4070720076560974,1.352277398109436,-0.4993860423564911,-0.08671065419912338,0.43540823459625244,-0.16898328065872192,0.10047823190689087,0.020640838891267776,0.22513222694396973,0.08489605039358139,0.2725614011287689,1741523177.0040894,1741523175833,1.027375244140625,-0.06205305480957032,-0.6846714360304884,-0.6755206909179687,0.027105815887451173
1741523177.021109,2.371346354484558,-0.005441564288566466,0.020864598868874196,-0.9997675019183883,-0.02875693142414093,0.6721533536911011,1.1582958698272705,3.481337308883667,-0.7987261414527893,8.24386978149414,0.9237432479858398,0.4308767318725586,0.17757686972618103,-1.3328990936279297,0.005149920005351305,-0.5380712747573853,0.18940261006355286,1.364943027496338,0.01125352829694748,0.5285343527793884,-0.16308079659938812,-0.6280995011329651,-0.023460745811462402,0.1958876997232437,0.655184268951416,-0.27865535020828247,0.10483481734991074,-0.8264667987823486,0.07801175117492676,0.16918440163135529,1.1846723556518555,-0.37227770686149597,0.0011201981687918305,-0.2387087345123291,0.18373189866542816,0.20568963885307312,-0.002106199273839593,-0.008671041578054428,-0.16097305715084076,0.027466831728816032,-0.5738154053688049,0.006615307182073593,-0.029116734862327576,0.727069079875946,-0.7225714921951294,0.45252132415771484,1.428167462348938,-0.3661413788795471,-0.08938907086849213,0.4615862965583801,0.21745476126670837,-0.019398722797632217,0.1582312285900116,-0.7468967437744141,-0.28275835514068604,-0.24786891043186188,1741523177.0040894,1741523175833,1.027375244140625,-0.06205305480957032,-0.6846714360304884,-0.6755206909179687,0.027105815887451173
1741523177.0411527,2.3961764574050903,0.0032676428147792387,0.021289185476481013,-0.9997680196386475,-0.014534987509250641,0.39717185497283936,1.2553309202194214,-1.498861312866211,-0.4763350486755371,10.271964073181152,0.9042873382568359,0.4388875961303711,0.1848248988389969,-1.3328990936279297,0.005149920005351305,-0.5357823967933655,0.18940261006355286,1.3569320440292358,0.01125352829694748,0.5285343527793884,-0.1501106321811676,-0.6284809708595276,-0.02040894143283367,0.22297245264053345,0.6456473469734192,-0.27704447507858276,0.10237358510494232,-0.8047226667404175,0.07495994865894318,0.17147326469421387,1.1301213502883911,-0.38358861207962036,-0.0068342057056725025,-0.5857688188552856,0.24214982986450195,0.36958566308021545,-0.03529433161020279,-0.007534664589911699,0.11435043811798096,0.0024397564120590687,-0.49390101432800293,0.0056975954212248325,-0.007011920213699341,0.7371042370796204,0.1495344042778015,0.05630829185247421,1.2934236526489258,-0.4833810031414032,0.06362715363502502,-0.12323112040758133,1.3127573728561401,-0.19186103343963623,0.05966341868042946,-3.1067066192626953,-0.6286484599113464,-0.2386045753955841,1741523177.0040894,1741523175833,1.027375244140625,-0.06205305480957032,-0.6846714360304884,-0.6755206909179687,0.027105815887451173
1741523177.0611765,2.4208117723464966,0.0027078489742890046,0.020536525968732906,-0.9997854363087452,0.023722203448414803,-0.16929076611995697,1.2290490865707397,-3.638841390609741,1.2589340209960938,11.813948631286621,0.8855953216552734,0.4491872787475586,0.19398032128810883,-1.3382397890090942,0.005531395319849253,-0.5334935784339905,0.19016556441783905,1.3523544073104858,0.01125352829694748,0.5258640646934509,-0.1333257108926773,-0.6292439103126526,-0.023460745811462402,0.24929426610469818,0.6296253800392151,-0.27662912011146545,0.10400040447711945,-0.7578011751174927,0.06961929053068161,0.17109178006649017,1.0236896276474,-0.401832640171051,-0.002242045244202018,-0.5647197365760803,0.3080920875072479,0.45059025287628174,-0.40146178007125854,0.004790072795003653,0.10684286803007126,0.049899112433195114,-0.25052160024642944,0.0035688881762325764,-0.22293807566165924,0.7816450595855713,-0.01584373041987419,-0.2522788941860199,1.3509658575057983,-0.9322080016136169,0.010260077193379402,0.09485246241092682,2.7107090950012207,-0.4270879030227661,-0.01271159015595913,-5.761280536651611,-0.9477136135101318,0.27480462193489075,1741523177.1064098,1741523175953,1.0250113525390625,-0.10994028472900391,-0.7342657090770816,-0.7611569213867188,-0.010878885269165039
1741523177.0811985,2.442340612411499,-0.0003853689318132979,0.020293537976350636,-0.9997939906836752,0.019460339099168777,-0.12915992736816406,1.0076195001602173,2.0114541053771973,2.6701223850250244,6.022956371307373,0.8749141693115234,0.4488058090209961,0.20084688067436218,-1.3447248935699463,0.005149920005351305,-0.5323491096496582,0.19016556441783905,1.3493025302886963,0.01125352829694748,0.5224307775497437,-0.12264438718557358,-0.6246662139892578,-0.034142062067985535,0.28515297174453735,0.6090257167816162,-0.27578026056289673,0.10084343701601028,-0.6857023239135742,0.03681239113211632,0.17185473442077637,0.8741512298583984,-0.4241451621055603,-0.0005220613675191998,-0.34616589546203613,-0.0025090344715863466,0.3103316128253937,-0.40426114201545715,-0.008191116154193878,0.05497369170188904,0.0013296909164637327,-0.20150761306285858,0.001103998045437038,-0.2843465507030487,0.4296380579471588,0.2594115436077118,-0.6124579310417175,1.8076618909835815,-1.0269525051116943,0.05596104636788368,-0.1483241617679596,3.5468218326568604,-1.8563640117645264,0.08477230370044708,-7.809269428253174,-1.1599434614181519,-0.013124523684382439,1741523177.1064098,1741523175953,1.0250113525390625,-0.10994028472900391,-0.7342657090770816,-0.7611569213867188,-0.010878885269165039
1741523177.1012585,2.4531784057617188,-0.0011466591201665227,0.010697768390140298,-0.999942119787107,0.5886451601982117,-0.009249318391084671,0.4821881651878357,0.7834317684173584,15.460611343383789,16.691635131835938,0.8802547454833984,0.4522390365600586,0.20809490978717804,-1.3523544073104858,0.005531395319849253,-0.5262455344200134,0.19016556441783905,1.3485395908355713,0.01125352829694748,0.5155642032623291,-0.11654078215360641,-0.6239032745361328,-0.056267641484737396,0.31986725330352783,0.5884260535240173,-0.2759547531604767,0.10130427777767181,-0.6292439103126526,-0.0009536888683214784,0.17338064312934875,0.7200350761413574,-0.43621620535850525,0.018313422799110413,0.10791188478469849,0.10336965322494507,0.40568166971206665,-0.5651851892471313,-0.005768394097685814,0.38677355647087097,-0.0062775746919214725,-0.027283264324069023,0.005967556498944759,-0.4608249366283417,0.3225298523902893,-0.02363073267042637,-1.2011460065841675,1.7296364307403564,-1.0115885734558105,-0.009641350246965885,0.04568455368280411,2.4610400199890137,-1.7260931730270386,0.11000790446996689,-7.253335952758789,-0.04938788339495659,1.8043938875198364,1741523177.1064098,1741523175953,1.0250113525390625,-0.10994028472900391,-0.7342657090770816,-0.7611569213867188,-0.010878885269165039
1741523177.1212664,2.46553373336792,0.0016312651319203015,-0.007077613789867124,-0.9999736228306779,0.7631821632385254,0.25060486793518066,0.6517415046691895,-2.3346214294433594,3.8952152729034424,9.34994125366211,0.8546962738037109,0.4491872787475586,0.2157244235277176,-1.372191071510315,0.005149920005351305,-0.5117494463920593,0.18863965570926666,1.3466322422027588,0.010872052982449532,0.509079098701477,-0.11348897218704224,-0.6212329268455505,-0.07801175117492676,0.33550775051116943,0.5773632526397705,-0.278510719537735,0.09538957476615906,-0.615129292011261,-0.03757534176111221,0.18902114033699036,0.699053943157196,-0.3782932460308075,0.1383121907711029,-0.6934309005737305,-0.1280120462179184,0.27857768535614014,-1.3423147201538086,-0.023938292637467384,0.6394965648651123,-0.12186232209205627,-0.11549506336450577,-0.06297584623098373,-0.41331416368484497,-0.19413523375988007,0.3943142890930176,-1.1124675273895264,0.630731999874115,-0.46064287424087524,-0.21679571270942688,-0.5660585165023804,0.03732658550143242,-2.6603751182556152,0.7983482480049133,-0.7664375901222229,3.093229293823242,5.073724269866943,1741523177.1064098,1741523175953,1.0250113525390625,-0.10994028472900391,-0.7342657090770816,-0.7611569213867188,-0.010878885269165039
1741523177.1412756,2.4815655946731567,0.004142921208016392,-0.016333957668289913,-0.9998580089346459,0.5210158824920654,0.06567345559597015,0.8958016633987427,-9.36801815032959,4.454214572906494,3.582245111465454,0.816166877746582,0.4400320053100586,0.2157244235277176,-1.378676176071167,0.005531395319849253,-0.5086976289749146,0.18558785319328308,1.3466322422027588,0.010872052982449532,0.509079098701477,-0.12722209095954895,-0.6445029377937317,-0.1039520874619484,0.34504464268684387,0.6036850810050964,-0.2933681309223175,0.03323805704712868,-0.6273365616798401,-0.10509651154279709,0.1993209719657898,0.6540398001670837,-0.3263051211833954,0.1496606022119522,-1.2153652906417847,-0.19812913239002228,-0.02742106467485428,-0.25126492977142334,3.407951589906588e-05,-0.008508781902492046,-0.171310693025589,-0.008380389772355556,0.024454809725284576,0.17099076509475708,-0.5013159513473511,-1.6417243480682373,-0.874220609664917,0.3953712582588196,1.9372791051864624,-0.7209362387657166,-3.6102445125579834,-0.10069184005260468,-2.900073528289795,0.19283145666122437,-2.5154645442962646,2.486992835998535,0.3436066508293152,1741523177.1064098,1741523175953,1.0250113525390625,-0.10994028472900391,-0.7342657090770816,-0.7611569213867188,-0.010878885269165039
1741523177.1613657,2.5016602277755737,0.00931237402719248,-0.03309160313597858,-0.999408938068831,0.8285596370697021,0.3004831075668335,0.9797876477241516,-0.3479550778865814,-9.155970573425293,5.712179183959961,0.815403938293457,0.4270620346069336,0.212672621011734,-1.380964994430542,0.005531395319849253,-0.5186160206794739,0.18558785319328308,1.3412915468215942,0.010490577667951584,0.5201418995857239,-0.13141833245754242,-0.7024872303009033,-0.09174486994743347,0.325970858335495,0.724612832069397,-0.3196721374988556,-0.02666136808693409,-0.6212329268455505,-0.13904783129692078,0.1958876997232437,0.6067368388175964,-0.28620433807373047,0.1411861777305603,-0.10666638612747192,-0.3253796100616455,-0.19891415536403656,-0.3343873620033264,-0.0036947696935385466,-0.49185025691986084,-0.033434826880693436,-0.5302895307540894,-0.042861539870500565,0.8222386240959167,-0.45427483320236206,-3.115607976913452,0.8572689294815063,-1.1096588373184204,6.77979040145874,-1.3864599466323853,-2.2049131393432617,0.17828427255153656,-1.266922116279602,-0.06565356254577637,-1.9091603755950928,2.0600037574768066,-0.08952052146196365,1741523177.2001028,1741523176033,1.0267381591796876,-0.14221519470214844,-0.6897522372012832,-0.8144783935546875,-0.036278396606445315
1741523177.1814516,2.512471914291382,0.011371427067230766,-0.03341027876367889,-0.9993770279125832,-0.05727337300777435,0.061072152107954025,0.5009077191352844,4.985408782958984,4.503929615020752,7.7619147300720215,0.7795448303222656,0.4011211395263672,0.21229113638401031,-1.380202054977417,0.005149920005351305,-0.535400927066803,0.1802472025156021,1.3287029266357422,0.01125352829694748,0.5334935784339905,-0.15583276748657227,-0.7822155952453613,-0.07000076025724411,0.290112167596817,0.9267948269844055,-0.35811886191368103,-0.001196694909594953,-0.6383993029594421,-0.15545128285884857,0.1985580176115036,0.5888075232505798,-0.2405792623758316,0.1464417427778244,-0.9818355441093445,-0.8198636770248413,0.013766068033874035,0.2055373191833496,-0.0018702790839597583,-0.9062010049819946,-0.4686862826347351,-0.7810962796211243,0.08393783122301102,0.9780120849609375,-1.0857731103897095,-4.009147644042969,1.400534987449646,-1.8987370729446411,10.432169914245605,-1.9354513883590698,1.6521618366241455,-0.9380083084106445,-0.7009197473526001,-0.11303232610225677,-0.8852106928825378,2.1826937198638916,0.13020853698253632,1741523177.2001028,1741523176033,1.0267381591796876,-0.14221519470214844,-0.6897522372012832,-0.8144783935546875,-0.036278396606445315
1741523177.201415,2.5123941898345947,0.007876677945180998,-0.02916730917913931,-0.9995435088177985,-0.23801465332508087,-0.18977749347686768,-0.11997772753238678,2.2407147884368896,-1.739439845085144,6.306488513946533,0.7551307678222656,0.3946361541748047,0.21725031733512878,-1.37295401096344,0.005149920005351305,-0.5598153471946716,0.16880293190479279,1.3210734128952026,0.01125352829694748,0.5514228940010071,-0.17757686972618103,-0.8329518437385559,-0.029182879254221916,0.248531311750412,1.128213882446289,-0.40209388732910156,0.01697240024805069,-0.6448844075202942,-0.16956588625907898,0.17452506721019745,0.576218843460083,-0.20152121782302856,0.13285543024539948,-0.7400748133659363,-0.25036537647247314,0.27859944105148315,0.4508040249347687,-0.0006448416970670223,-1.2656570672988892,-0.8485842943191528,-0.4542982578277588,0.011150849983096123,1.217405080795288,-1.114564299583435,-2.085526704788208,2.0565924644470215,-1.9381718635559082,9.610237121582031,-2.2805168628692627,0.33454379439353943,-0.13256603479385376,-0.6746841073036194,-1.338478684425354,-0.5786173343658447,1.895216703414917,-0.8202220797538757,1741523177.2001028,1741523176033,1.0267381591796876,-0.14221519470214844,-0.6897522372012832,-0.8144783935546875,-0.036278396606445315
1741523177.2214398,2.5075007677078247,-0.0029206909624037852,-0.020167620289033187,-0.9997923467681575,-0.4748326241970062,-0.6215629577636719,-0.2723787724971771,4.501884460449219,1.217797875404358,7.2348456382751465,0.7280464172363281,0.3816661834716797,0.230601966381073,-1.3672319650650024,0.005531395319849253,-0.5823224186897278,0.15697719156742096,1.3199290037155151,0.01125352829694748,0.5724040865898132,-0.20847637951374054,-0.8211261034011841,0.023460745811462402,0.20733195543289185,1.256771206855774,-0.44980868697166443,-0.002828052267432213,-0.6548027992248535,-0.1985580176115036,0.14782176911830902,0.571259617805481,-0.16905423998832703,0.11664104461669922,-0.819761335849762,-0.326046347618103,0.7567029595375061,0.3341904282569885,0.0074930512346327305,-1.0387526750564575,-0.7098685503005981,0.013700216077268124,0.003480735933408141,1.3921213150024414,-1.6878421306610107,1.0501158237457275,2.6600990295410156,-2.218869924545288,5.656160354614258,-2.4515910148620605,-0.9449187517166138,-0.5692614912986755,-1.64676833152771,-1.3827788829803467,-0.12700651586055756,1.5730329751968384,-0.5625924468040466,1741523177.2001028,1741523176033,1.0267381591796876,-0.14221519470214844,-0.6897522372012832,-0.8144783935546875,-0.036278396606445315
1741523177.249061,2.502131700515747,-0.024155651210110877,-0.011001242071953422,-0.9996476765278303,-0.4440249800682068,-1.0848256349563599,-0.243058443069458,1.1947426795959473,1.7817615270614624,6.40582799911499,0.7043943405151367,0.3881511688232422,0.25158312916755676,-1.361891269683838,0.005531395319849253,-0.6010147333145142,0.1493476778268814,1.3245066404342651,0.01125352829694748,0.5945296287536621,-0.2576867341995239,-0.7406347990036011,0.06351567804813385,0.1646067053079605,1.2842373847961426,-0.4985376000404358,-0.017824828624725342,-0.6681544184684753,-0.23708705604076385,0.11730372905731201,0.5869001150131226,-0.15351605415344238,0.10516426712274551,-0.7248058319091797,0.1429060846567154,1.0475300550460815,0.3878445327281952,-0.003464256878942251,-0.9454998970031738,-0.49638697504997253,0.3446100056171417,0.016002515330910683,1.5031423568725586,-2.6310579776763916,4.564243316650391,1.909363865852356,-2.1283390522003174,0.42541617155075073,-2.420306444168091,-0.6917566657066345,-0.6747207641601562,-1.9992387294769287,-1.5969057083129883,1.0316563844680786,0.5583751201629639,-0.6154981255531311,1741523177.286415,1741523176133,1.0336063232421875,-0.18675703430175783,0.024469515707336534,-0.8789141845703126,-0.0685605697631836
1741523177.2614877,2.49821674823761,-0.04823104717916044,-0.003514964815694645,-0.9988300211298947,-0.3785437047481537,-1.2196840047836304,-0.15548820793628693,14.04196834564209,2.17228102684021,-2.7433083057403564,0.6841764450073242,0.3843364715576172,0.26836803555488586,-1.3546432256698608,0.005531395319849253,-0.6204699873924255,0.14629587531089783,1.3264141082763672,0.01125352829694748,0.6185625791549683,-0.3229190409183502,-0.6162737607955933,0.08297093212604523,0.12760357558727264,1.190394401550293,-0.5430949330329895,-0.02660982310771942,-0.7001983523368835,-0.27027541399002075,0.08106355369091034,0.6300068497657776,-0.1605197638273239,0.08960971981287003,-0.6362030506134033,-0.09848358482122421,0.8109378218650818,0.47463458776474,-0.004756812006235123,-0.9534010291099548,-0.19087164103984833,0.046249911189079285,0.009316453710198402,1.574649453163147,-3.255164861679077,6.406769752502441,0.7786133289337158,-1.6286876201629639,-5.5950212478637695,-2.2427468299865723,-0.4169612526893616,-1.917643666267395,-1.4283632040023804,-1.768973708152771,2.390841245651245,-0.4826302230358124,-0.877714216709137,1741523177.286415,1741523176133,1.0336063232421875,-0.18675703430175783,0.024469515707336534,-0.8789141845703126,-0.0685605697631836
1741523177.2815502,2.498548746109009,-0.06320897873261977,7.480496993339113e-05,-0.9980003103265027,-0.2001926153898239,-0.4780915677547455,0.05670485273003578,40.885189056396484,14.268467903137207,58.8209114074707,0.6757841110229492,0.3679332733154297,0.2786678969860077,-1.3481581211090088,0.00476844422519207,-0.6406881809234619,0.14400701224803925,1.3229807615280151,0.010872052982449532,0.6422140598297119,-0.39387351274490356,-0.49267566204071045,0.07381551712751389,0.1371404528617859,1.0801479816436768,-0.5673669576644897,-0.01907084323465824,-0.7528420090675354,-0.28667888045310974,0.07610437273979187,0.7131685614585876,-0.18549220263957977,0.05725660175085068,-0.2102137804031372,-0.5414872169494629,0.42985957860946655,0.45525509119033813,-0.06070319563150406,-1.0361902713775635,-0.14389117062091827,-0.3015993535518646,-0.06414126604795456,1.6011536121368408,-3.5196566581726074,5.0164690017700195,-0.7274675369262695,1.9080802202224731,-2.8421084880828857,-0.6757603287696838,0.8451314568519592,-2.435936212539673,-1.4296756982803345,0.6435900926589966,4.557160377502441,-1.3910272121429443,-1.824049472808838,1741523177.286415,1741523176133,1.0336063232421875,-0.18675703430175783,0.024469515707336534,-0.8789141845703126,-0.0685605697631836
1741523177.301559,2.507941246032715,-0.10514524231617449,-0.011310281228066063,-0.9943925560646635,0.7405487895011902,-2.5300843715667725,0.1761469691991806,-34.03029251098633,-16.830236434936523,10.025311470031738,0.6368732452392578,0.4274435043334961,0.2813382148742676,-1.3458693027496338,0.005912871100008488,-0.6464102864265442,0.14362554252147675,1.3225992918014526,0.004386968910694122,0.6582360863685608,-0.4667353332042694,-0.5128938555717468,0.040627144277095795,0.17795833945274353,1.10837721824646,-0.5784786343574524,0.041023872792720795,-0.7951858043670654,-0.28629741072654724,0.13179980218410492,0.7978560924530029,-0.22730335593223572,0.010720686987042427,-1.1519927978515625,1.6374489068984985,0.07606576383113861,0.08448238670825958,-0.059363264590501785,-0.5883476734161377,-0.031098434701561928,0.04693729057908058,-0.3949677050113678,1.0965380668640137,-3.7993009090423584,-0.03558243438601494,-1.6472227573394775,0.3400622010231018,0.2829972505569458,-0.8225327134132385,2.8132100105285645,-2.5969648361206055,1.214645266532898,2.281296491622925,4.191004753112793,-2.207202196121216,-2.4780185222625732,1741523177.286415,1741523176133,1.0336063232421875,-0.18675703430175783,0.024469515707336534,-0.8789141845703126,-0.0685605697631836
1741523177.3215783,2.513707160949707,-0.12291437391694128,-0.014562086991515271,-0.9923104364598097,-0.047666508704423904,-0.8428754806518555,0.19119592010974884,-7.369050979614258,-3.297727584838867,16.73021697998047,0.6364917755126953,0.3976879119873047,0.2771419882774353,-1.3458693027496338,0.004005493130534887,-0.6696802973747253,0.14782176911830902,1.3153512477874756,0.0013351644156500697,0.6792172193527222,-0.5159456729888916,-0.5052643418312073,-0.014686808921396732,0.1684214472770691,1.0992218255996704,-0.5718628168106079,0.015049940906465054,-0.8657587766647339,-0.24166475236415863,0.1836804747581482,0.9107728600502014,-0.2732711136341095,-0.020734507590532303,-0.002015607664361596,-0.6609958410263062,-0.23430584371089935,0.27468734979629517,0.0032574692741036415,-1.1914269924163818,0.2176787406206131,-0.597775399684906,-0.19845406711101532,1.2958747148513794,-1.892660140991211,0.1679134964942932,-2.8082449436187744,-0.37566623091697693,-0.5366255044937134,0.5173823833465576,-1.4525270462036133,-3.637077808380127,1.6979204416275024,2.9915194511413574,6.080134391784668,-2.2025692462921143,-1.1980080604553223,1741523177.286415,1741523176133,1.0336063232421875,-0.18675703430175783,0.024469515707336534,-0.8789141845703126,-0.0685605697631836
1741523177.3416083,2.507370948791504,-0.12534085357213645,-0.006481014547992009,-0.9920925697112326,-0.36767446994781494,-0.08543270826339722,-0.4253106713294983,-2.5906620025634766,-4.111137866973877,18.9860782623291,0.6239032745361328,0.3545818328857422,0.26989394426345825,-1.3199290037155151,0.00476844422519207,-0.6929503083229065,0.1493476778268814,1.305432915687561,-0.0009536888683214784,0.6921873688697815,-0.5266270041465759,-0.5212863087654114,-0.06008239835500717,0.14782176911830902,1.0904479026794434,-0.5559461116790771,0.0525260791182518,-0.9306095838546753,-0.17948424816131592,0.20809490978717804,1.0606927871704102,-0.30459803342819214,0.003455521073192358,-0.35237157344818115,-1.04155433177948,-0.3989652097225189,1.8586597442626953,0.002754773246124387,-1.0327129364013672,0.11887013167142868,-0.6476165056228638,-0.1587693989276886,0.7683746218681335,-0.40512484312057495,-1.2730634212493896,-1.910028338432312,-1.007241129875183,-0.18766288459300995,0.847811222076416,2.645090103149414,-2.7894954681396484,3.3040339946746826,0.566935122013092,7.564493179321289,-1.4314013719558716,1.4692484140396118,1741523177.286415,1741523176133,1.0336063232421875,-0.18675703430175783,0.024469515707336534,-0.8789141845703126,-0.0685605697631836
1741523177.3616486,2.4867218732833862,-0.11839787499875869,-0.0017827383030955281,-0.9929646343349399,-0.4089377522468567,0.38085681200027466,-1.1075191497802734,6.2999043464660645,-2.8368594646453857,13.994510650634766,0.6239032745361328,0.3469524383544922,0.2584496736526489,-1.2890294790267944,0.004386968910694122,-0.7013428211212158,0.14705882966518402,1.3035255670547485,-0.0013351644156500697,0.6979095339775085,-0.4980163276195526,-0.5460822582244873,-0.0864042118191719,0.11234454810619354,1.101892113685608,-0.5295572280883789,0.0779535099864006,-0.9760051965713501,-0.11692225188016891,0.19283588230609894,1.2022202014923096,-0.32263419032096863,0.01261586882174015,-0.0668303519487381,-0.2204977124929428,-0.6310842633247375,1.9527488946914673,-0.026432372629642487,-0.3440636396408081,-0.35526588559150696,0.11182524263858795,-0.050433121621608734,0.2645609974861145,1.7473602294921875,-1.0850210189819336,-1.4397966861724854,-1.756790280342102,0.3883192241191864,1.6043822765350342,0.7123229503631592,-2.2178261280059814,2.7946865558624268,-0.9649965763092041,6.845773696899414,-0.8173268437385559,-0.060934945940971375,1741523177.4161785,1741523176233,1.031058349609375,-0.26242312622070313,-0.20745938279013018,-0.9396785888671875,-0.09726688385009766
1741523177.3816226,2.4592310190200806,-0.1136592721824933,0.005557519681800062,-0.9935042444911508,-0.49155038595199585,0.22595307230949402,-1.2721028327941895,8.205713272094727,-4.500462532043457,13.968398094177246,0.6063556671142578,0.3465709686279297,0.25120165944099426,-1.2691926956176758,0.005149920005351305,-0.6929503083229065,0.12645913660526276,1.3168771266937256,0.0009536888683214784,0.6971465349197388,-0.44537270069122314,-0.5537117719650269,-0.12455176562070847,0.06084534898400307,1.0843442678451538,-0.48625341057777405,0.1045195460319519,-0.9794384837150574,-0.09861142933368683,0.16422522068023682,1.3017853498458862,-0.33707770705223083,-0.00946564506739378,-0.4844079613685608,0.005939998663961887,-0.2552974820137024,1.160697340965271,0.011128784157335758,0.6276084780693054,-1.2297207117080688,0.8247849941253662,0.15877853333950043,-0.054962318390607834,2.8189380168914795,-0.1600181609392166,-1.832137942314148,-2.629944324493408,-1.0149877071380615,1.9688823223114014,0.8442050218582153,0.45417168736457825,0.49746304750442505,-1.2130417823791504,4.581543445587158,-0.8056318163871765,-0.9313598275184631,1741523177.4161785,1741523176233,1.031058349609375,-0.26242312622070313,-0.20745938279013018,-0.9396785888671875,-0.09726688385009766
1741523177.4070947,2.436647415161133,-0.12360161718764867,0.010820444674975819,-0.9922729252608044,-0.35856515169143677,-0.6145087480545044,-1.0624253749847412,12.386080741882324,-10.741645812988281,9.621066093444824,0.5926218032836914,0.3896770477294922,0.24891279637813568,-1.2623261213302612,0.005149920005351305,-0.6677729487419128,0.12264438718557358,1.3256510496139526,0.00019073777366429567,0.6891355514526367,-0.3866254687309265,-0.5357823967933655,-0.1646067053079605,0.0078202486038208,1.0503928661346436,-0.45697569847106934,0.09223608672618866,-0.9302281141281128,-0.09021896868944168,0.13141833245754242,1.3319218158721924,-0.36158668994903564,-0.002434502588585019,-0.43394389748573303,1.0913350582122803,-0.16604216396808624,0.3443244695663452,-0.010928964242339134,1.4169901609420776,-0.06014353036880493,0.6139949560165405,-0.04958070442080498,-0.697056770324707,2.8805365562438965,1.1261029243469238,-2.1298987865448,-2.598479747772217,-1.8965691328048706,1.338457465171814,-0.3291577994823456,2.5339622497558594,0.6326134204864502,-1.671124815940857,0.7759230732917786,-1.4323216676712036,0.5243659019470215,1741523177.4161785,1741523176233,1.031058349609375,-0.26242312622070313,-0.20745938279013018,-0.9396785888671875,-0.09726688385009766
1741523177.4216633,2.431709051132202,-0.1453509305425521,0.009992642154434498,-0.9893296993890296,0.0660608559846878,-1.055113673210144,-0.16537904739379883,3.8818347454071045,-3.1906230449676514,11.954397201538086,0.5865182876586914,0.4079885482788086,0.23937590420246124,-1.2653779983520508,0.005531395319849253,-0.6364919543266296,0.135233074426651,1.3336620330810547,0.00019073777366429567,0.6731135845184326,-0.3397039771080017,-0.4953460097312927,-0.20923933386802673,-0.03795681521296501,0.9939345121383667,-0.4398454427719116,0.1102866604924202,-0.848210871219635,-0.07801175117492676,0.1188296303153038,1.2983520030975342,-0.40516260266304016,0.005712585058063269,-0.15489758551120758,0.6097532510757446,-0.5824815630912781,-0.27302971482276917,-0.00901563186198473,1.6358153820037842,0.9806380271911621,0.4887455701828003,0.0039109415374696255,-1.1311068534851074,2.004040002822876,2.174083948135376,-2.3516223430633545,-2.0696825981140137,-2.9387686252593994,0.8367409706115723,0.8185178637504578,4.391963481903076,0.5335213541984558,-0.46620216965675354,-1.8630911111831665,-2.269131660461426,0.21017302572727203,1741523177.4161785,1741523176233,1.031058349609375,-0.26242312622070313,-0.20745938279013018,-0.9396785888671875,-0.09726688385009766
1741523177.4416716,2.4449033737182617,-0.16546115896293298,0.00448800000676606,-0.9862060954641185,0.4313364624977112,-1.0112299919128418,0.7001779675483704,-4.875532627105713,0.08429482579231262,13.543729782104492,0.5884256362915039,0.4133291244506836,0.2153429538011551,-1.2775851488113403,0.005531395319849253,-0.6071183085441589,0.16002899408340454,1.3382397890090942,-0.00019073777366429567,0.650225043296814,-0.32024872303009033,-0.45910581946372986,-0.25196459889411926,-0.07495994865894318,0.926413357257843,-0.42734721302986145,0.11878859996795654,-0.7761120200157166,-0.06885633617639542,0.12912946939468384,1.2376973628997803,-0.4549025595188141,0.008929643779993057,0.016581028699874878,0.23059314489364624,-1.3050670623779297,-0.8940534591674805,0.023682601749897003,1.3946013450622559,1.7473669052124023,0.28793856501579285,-0.0029591782949864864,-1.5591055154800415,0.9146026968955994,1.6442407369613647,-1.9534181356430054,-1.9179667234420776,-3.211853265762329,0.6152898669242859,0.5374569296836853,3.4218649864196777,0.3880530297756195,0.6546261310577393,-3.1021552085876465,-2.500645637512207,0.18077032268047333,1741523177.4161785,1741523176233,1.031058349609375,-0.26242312622070313,-0.20745938279013018,-0.9396785888671875,-0.09726688385009766
1741523177.4616845,2.464721918106079,-0.16727311663401018,-0.0077223928111334016,-0.9858803523251771,0.8086836934089661,0.052509550005197525,0.9045963883399963,-2.5784225463867188,-2.1025643348693848,9.99027156829834,0.5968189239501953,0.4007396697998047,0.1825360506772995,-1.294751524925232,0.005149920005351305,-0.5857557058334351,0.18978407979011536,1.3390027284622192,0.00019073777366429567,0.6242847442626953,-0.29926756024360657,-0.4491874575614929,-0.28515297174453735,-0.1028076633810997,0.8764400482177734,-0.4195103645324707,0.1202620416879654,-0.7295719981193542,-0.06580453366041183,0.152399480342865,1.1820019483566284,-0.5007596015930176,0.015340420417487621,0.2087683081626892,-0.3656257092952728,-1.598019003868103,-1.1632354259490967,-0.02860940992832184,1.0108788013458252,1.9298033714294434,0.03645055741071701,0.007950032129883766,-1.7627462148666382,1.1161128282546997,0.24059399962425232,-1.6240298748016357,-1.3289638757705688,-2.478719472885132,0.2891559898853302,0.050028134137392044,2.0965161323547363,-0.06519529223442078,1.2831963300704956,-2.5853383541107178,-2.2567009925842285,0.304595947265625,1741523177.5018642,1741523176353,1.0355203857421875,-0.33315945434570315,-0.33600288724874483,-1.0104585571289062,-0.130316650390625
1741523177.4817452,2.488225221633911,-0.15302496867004173,-0.026548288109104742,-0.9878656524862116,1.1903105974197388,0.866442084312439,0.995207667350769,3.0215401649475098,-3.580457925796509,5.792951583862305,0.5975818634033203,0.3858623504638672,0.1493476778268814,-1.317258596420288,0.005531395319849253,-0.570496678352356,0.21648737788200378,1.3409100770950317,0.00019073777366429567,0.5968185067176819,-0.2660791873931885,-0.4732204079627991,-0.31757840514183044,-0.12531471252441406,0.8436331748962402,-0.42091041803359985,0.12012650817632675,-0.7097352743148804,-0.06885633617639542,0.17872129380702972,1.1530098915100098,-0.5413470268249512,0.009561979211866856,0.05266943201422691,-0.45840588212013245,-1.6243079900741577,-1.6662901639938354,0.0026918190997093916,0.772416889667511,1.7072447538375854,0.16511280834674835,0.006984865292906761,-1.7902835607528687,1.7801398038864136,-1.4720158576965332,-1.5663312673568726,-0.932447075843811,-1.436809778213501,-0.07954692840576172,-0.10972600430250168,0.7653902173042297,-0.16192153096199036,1.283077597618103,-1.2121199369430542,-1.9752031564712524,-0.5630573630332947,1741523177.5018642,1741523176353,1.0355203857421875,-0.33315945434570315,-0.33600288724874483,-1.0104585571289062,-0.130316650390625
1741523177.5019336,2.516267776489258,-0.12706396375210718,-0.049170577454186626,-0.9906750241266936,1.3060308694839478,1.4157646894454956,1.2916887998580933,-1.5588403940200806,-3.057932138442993,6.176705360412598,0.5952930450439453,0.3835735321044922,0.1188296303153038,-1.3412915468215942,0.005531395319849253,-0.5613412857055664,0.23746852576732635,1.3435804843902588,0.00019073777366429567,0.569733738899231,-0.23365376889705658,-0.5178530812263489,-0.33436331152915955,-0.135233074426651,0.8306630253791809,-0.4233066439628601,0.11418227106332779,-0.7112611532211304,-0.07381551712751389,0.20160982012748718,1.1545357704162598,-0.5765716433525085,-0.011757776141166687,-0.07444785535335541,-0.13278688490390778,-1.4532666206359863,-1.4864799976348877,-0.01878918893635273,0.41318121552467346,1.3661082983016968,0.1591905802488327,0.002306472510099411,-1.753251314163208,1.4896726608276367,-2.195305347442627,-0.6574776768684387,-0.40517324209213257,-0.6346155405044556,-0.12096480280160904,-0.3628632128238678,-0.02560935914516449,-0.2506003975868225,1.1350198984146118,0.22719153761863708,-1.7212461233139038,-0.8227342963218689,1741523177.5018642,1741523176353,1.0355203857421875,-0.33315945434570315,-0.33600288724874483,-1.0104585571289062,-0.130316650390625
1741523177.5217538,2.5510162115097046,-0.0996841193748322,-0.066091957512517,-0.9928217007583123,0.9436126351356506,1.405579686164856,1.6766033172607422,-2.0457358360290527,-4.920609951019287,6.567410469055176,0.5846109390258789,0.3744182586669922,0.09327077120542526,-1.3561691045761108,0.005149920005351305,-0.5548561811447144,0.25234606862068176,1.3500655889511108,0.00019073777366429567,0.5422675013542175,-0.20733195543289185,-0.5701152086257935,-0.33360037207603455,-0.10891126841306686,0.8253223299980164,-0.4265423119068146,0.09675884991884232,-0.7116426229476929,-0.07305257022380829,0.20885786414146423,1.1404211521148682,-0.6094245910644531,-0.0014603532617911696,-0.3305233418941498,-0.29586392641067505,-1.148720145225525,-0.8766623139381409,-0.017142707481980324,0.2732851505279541,0.9546107053756714,0.5462292432785034,0.004080068785697222,-1.8492684364318848,1.2585395574569702,-2.825716733932495,0.13391882181167603,1.81825852394104,-0.18732988834381104,-0.15809743106365204,-1.0269794464111328,0.1058121994137764,0.0268295556306839,0.18059034645557404,-1.3516470193862915,-1.748390793800354,0.5337976813316345,1741523177.5018642,1741523176353,1.0355203857421875,-0.33315945434570315,-0.33600288724874483,-1.0104585571289062,-0.130316650390625
1741523177.541763,2.5878673791885376,-0.07455568969425161,-0.07417281402809493,-0.9944545453631192,0.5244238376617432,1.3680014610290527,1.8381774425506592,5.197298526763916,-2.8317689895629883,4.5871453285217285,0.5827035903930664,0.3732738494873047,0.08335240930318832,-1.360365390777588,0.005149920005351305,-0.5464637279510498,0.2615014910697937,1.363417148590088,0.00019073777366429567,0.5132753252983093,-0.18863965570926666,-0.6342030763626099,-0.30079346895217896,-0.027656977996230125,0.8287556171417236,-0.42524123191833496,0.05151344835758209,-0.6906614899635315,-0.07343403995037079,0.1985580176115036,1.050011396408081,-0.647667646408081,-0.009147989563643932,-0.02835170552134514,-0.0643760934472084,-0.3996533751487732,-0.2372070997953415,-0.010041712783277035,0.4558087885379791,0.5948171019554138,0.9375524520874023,0.0005991841899231076,-1.9740239381790161,0.868188202381134,-3.15617299079895,1.9876577854156494,4.8541131019592285,0.16616907715797424,0.2494315356016159,-2.6882455348968506,1.3269877433776855,-0.10922065377235413,-0.6960068345069885,-5.104589462280273,-1.9061279296875,-0.40600550174713135,1741523177.5018642,1741523176353,1.0355203857421875,-0.33315945434570315,-0.33600288724874483,-1.0104585571289062,-0.130316650390625
1741523177.5639942,2.6217079162597656,-0.049026958903513586,-0.0782615827602499,-0.9957266100514407,0.32611459493637085,1.4177812337875366,1.6204913854599,2.975965976715088,-3.7968554496765137,24.92101287841797,0.5849924087524414,0.3686962127685547,0.08564125746488571,-1.3592209815979004,0.005149920005351305,-0.5415045619010925,0.2660791873931885,1.3744800090789795,0.00019073777366429567,0.49191272258758545,-0.1802472025156021,-0.6868467330932617,-0.2309834510087967,0.08525978773832321,0.8283741474151611,-0.4082328677177429,0.017332637682557106,-0.6639581918716431,-0.09136339277029037,0.19550621509552002,0.9279392957687378,-0.6520681381225586,0.0582333579659462,0.048916757106781006,-0.10395247489213943,0.21316075325012207,0.12186267971992493,-0.005483093671500683,0.2565567195415497,0.14674608409404755,0.5968003869056702,0.002467626705765724,-1.3054273128509521,0.626746654510498,-2.386643409729004,4.032552242279053,5.789371013641357,-0.03053412027657032,1.066085696220398,-1.181207537651062,0.9460265636444092,-0.6873962879180908,0.5870690941810608,-4.9885663986206055,0.8532581329345703,5.61193323135376,1741523177.611633,1741523176453,1.05837890625,-0.36231863403320314,-0.17918104553261036,-1.0679998779296875,-0.15756378173828126
1741523177.5818222,2.6575103998184204,-0.020341401444456432,-0.07711979538277916,-0.9968143079567997,-0.13018865883350372,1.5729883909225464,1.7569537162780762,8.333487510681152,-12.545345306396484,3.216783285140991,0.5754556655883789,0.3561077117919922,0.09632257372140884,-1.3630356788635254,0.005531395319849253,-0.5357823967933655,0.2634088695049286,1.3752429485321045,0.000572213320992887,0.4808499217033386,-0.17185473442077637,-0.6971465349197388,-0.14400701224803925,0.17032882571220398,0.8077744841575623,-0.3700302243232727,0.018470147624611855,-0.697528064250946,-0.1356145590543747,0.1970321238040924,0.9206912517547607,-0.5846700072288513,0.19422315061092377,-0.28077882528305054,-0.35693714022636414,0.6442102193832397,-0.2483537346124649,0.004830963909626007,0.22863228619098663,-0.24259847402572632,0.07578443735837936,0.039311811327934265,-0.6302241683006287,0.10447130352258682,-0.3000018894672394,4.070007801055908,4.4492692947387695,-1.23235023021698,2.0170764923095703,-0.2058340460062027,-2.1940479278564453,-2.8530468940734863,-0.5685001015663147,-0.7732065916061401,3.3580894470214844,4.498950481414795,1741523177.611633,1741523176453,1.05837890625,-0.36231863403320314,-0.17918104553261036,-1.0679998779296875,-0.15756378173828126
1741523177.601821,2.6884398460388184,-0.004085672828241717,-0.07175595608863236,-0.9974138509381885,-0.17737716436386108,0.8458499908447266,1.5202062129974365,-3.6923794746398926,3.230207681655884,0.6076174974441528,0.5666818618774414,0.3736553192138672,0.12455176562070847,-1.362654209136963,0.005149920005351305,-0.535400927066803,0.2580682039260864,1.3775317668914795,0.000572213320992887,0.4812313914299011,-0.17452506721019745,-0.6994354128837585,-0.09098191559314728,0.247768372297287,0.7703898549079895,-0.3199469745159149,0.005446095485240221,-0.7082093358039856,-0.17376211285591125,0.16346226632595062,0.8718623518943787,-0.5517655611038208,0.18324151635169983,-0.22698505222797394,0.5399377346038818,1.5913619995117188,0.01795671507716179,-0.012980123050510883,-0.011304673738777637,-0.32467931509017944,0.05794137343764305,0.006799645721912384,0.10123024135828018,0.18266601860523224,0.20629844069480896,2.698138952255249,3.6372060775756836,-1.7372392416000366,2.4813265800476074,-0.5654285550117493,0.10832896828651428,-1.3883390426635742,-1.5885263681411743,-2.5944664478302,1.520042896270752,-0.7260349988937378,1741523177.611633,1741523176453,1.05837890625,-0.36231863403320314,-0.17918104553261036,-1.0679998779296875,-0.15756378173828126
1741523177.6218839,2.7161238193511963,0.002995980146843585,-0.06717339393349074,-0.9977368186302518,-0.3644385039806366,0.35863712430000305,1.3792364597320557,-3.000056743621826,-3.638178825378418,7.849503040313721,0.5624856948852539,0.3950176239013672,0.15926603972911835,-1.362654209136963,0.005149920005351305,-0.533875048160553,0.25349050760269165,1.3710466623306274,0.000572213320992887,0.482375830411911,-0.1802472025156021,-0.6960021257400513,-0.049782559275627136,0.290875107049942,0.7307164072990417,-0.2781241536140442,0.006370058283209801,-0.6952391862869263,-0.1653696447610855,0.14782176911830902,0.8520256280899048,-0.5286014676094055,0.17075620591640472,-0.1352311670780182,0.7828599810600281,1.791549801826477,0.024242227897047997,-0.0046881092712283134,0.09353974461555481,-0.288155198097229,-0.4773131310939789,0.004387809429317713,0.012292932718992233,-0.8687835931777954,0.0022160036023706198,1.7287462949752808,1.788189172744751,-2.457435369491577,1.864235758781433,0.38040685653686523,0.2990531325340271,0.8031561970710754,-0.6426319479942322,-0.3303554058074951,1.0996613502502441,-0.6038863658905029,1741523177.611633,1741523176453,1.05837890625,-0.36231863403320314,-0.17918104553261036,-1.0679998779296875,-0.15756378173828126
1741523177.6418633,2.7528746128082275,0.0052706974526493455,-0.050101890868991236,-0.9987302039488514,-0.8607898354530334,0.19925709068775177,1.9588727951049805,-1.9361504316329956,-3.445589065551758,10.403488159179688,0.52777099609375,0.3988323211669922,0.19054703414440155,-1.3592209815979004,0.005149920005351305,-0.5315861701965332,0.2473868876695633,1.3653244972229004,0.000572213320992887,0.4846646785736084,-0.2157244235277176,-0.6914244294166565,-0.0558861680328846,0.30498969554901123,0.6818875670433044,-0.2602676451206207,0.04067390039563179,-0.7078278660774231,-0.11577782779932022,0.17071031033992767,0.8760585784912109,-0.521016538143158,0.1150459349155426,-0.9156535863876343,0.24000860750675201,1.4154114723205566,0.2643224000930786,-0.02161587029695511,0.17389698326587677,-0.3091371953487396,-0.28510093688964844,-0.013345014303922653,0.17115812003612518,-1.6715922355651855,0.38105547428131104,-0.5348541736602783,0.633202075958252,-2.1998682022094727,0.7519842982292175,2.232666254043579,-0.7241049408912659,2.5836710929870605,1.622868537902832,1.240012288093567,0.38411492109298706,-3.1081674098968506,1741523177.611633,1741523176453,1.05837890625,-0.36231863403320314,-0.17918104553261036,-1.0679998779296875,-0.15756378173828126
1741523177.6619146,2.7985459566116333,0.004259117109275353,-0.03261731301728508,-0.9994588389788656,-0.8601806163787842,-0.031316518783569336,2.288043975830078,-1.192496657371521,1.8490090370178223,13.421183586120605,0.5167083740234375,0.4156179428100586,0.21000228822231293,-1.3538802862167358,0.005149920005351305,-0.5243381261825562,0.24357213079929352,1.361891269683838,0.000572213320992887,0.4854276478290558,-0.2645532786846161,-0.6857023239135742,-0.08983749151229858,0.2927824854850769,0.6368734240531921,-0.2570815980434418,0.12740933895111084,-0.732623815536499,-0.05855649709701538,0.2134355753660202,0.9050507545471191,-0.5153653621673584,0.032913122326135635,-0.41473209857940674,0.5041245818138123,0.872682511806488,0.3851028382778168,-0.00629573967307806,0.38490232825279236,-0.3141896724700928,-0.25137123465538025,0.008861725218594074,0.07943245023488998,-2.603062152862549,0.12127440422773361,-1.7726662158966064,-0.762772798538208,-2.6180834770202637,0.23599791526794434,4.50558614730835,-1.291917324066162,2.8066201210021973,1.9925512075424194,1.4692283868789673,0.4334934949874878,-3.9949793815612793,1741523177.611633,1741523176453,1.05837890625,-0.36231863403320314,-0.17918104553261036,-1.0679998779296875,-0.15756378173828126
1741523177.6820126,2.847841262817383,0.0006146826394251661,-0.0259662760939913,-0.9996626304264171,-0.21935205161571503,-0.09251946210861206,2.4278600215911865,2.5730414390563965,13.333227157592773,9.563393592834473,0.51556396484375,0.4362173080444336,0.21992065012454987,-1.3489210605621338,0.005149920005351305,-0.5151827335357666,0.23632410168647766,1.3592209815979004,0.00019073777366429567,0.49191272258758545,-0.2969787120819092,-0.6673914790153503,-0.14744029939174652,0.291638046503067,0.5548561811447144,-0.20780330896377563,0.2524488568305969,-0.7597085237503052,-0.026512550190091133,0.23441672325134277,0.918402373790741,-0.4988918900489807,0.005720664747059345,-0.024245917797088623,0.5917616486549377,0.42528441548347473,0.284353643655777,-0.00015778493252582848,0.3925071060657501,-0.48201221227645874,-0.18505845963954926,-0.005326213780790567,0.5088317394256592,-1.1111830472946167,1.2542946338653564,-3.2607524394989014,0.42405498027801514,-4.630128383636475,3.1783640384674072,5.927539825439453,-1.3792157173156738,1.2633570432662964,0.7727630734443665,0.38348111510276794,0.9007614850997925,-0.6381155848503113,1741523177.611633,1741523176453,1.05837890625,-0.36231863403320314,-0.17918104553261036,-1.0679998779296875,-0.15756378173828126
1741523177.7019608,2.8716061115264893,-0.0014917981167073336,-0.035128902479671945,-0.9993816762123232,0.5758870840072632,-0.023690786212682724,0.9355694055557251,-8.269316673278809,2.0998120307922363,4.786753177642822,0.513275146484375,0.4419393539428711,0.22449836134910583,-1.3473951816558838,0.005149920005351305,-0.5144197940826416,0.2290760725736618,1.3554061651229858,0.000572213320992887,0.50030517578125,-0.2927824854850769,-0.6185625791549683,-0.23670557141304016,0.29850462079048157,0.4205767810344696,-0.13372258841991425,0.299799382686615,-0.7799267768859863,-0.06008239835500717,0.24128328263759613,0.8741512298583984,-0.48811066150665283,0.01102193258702755,-0.11612362414598465,0.21230517327785492,0.2957511842250824,-0.05370870977640152,0.02336992509663105,-0.05148589611053467,-0.5365000367164612,-0.270124614238739,0.03984885290265083,0.5752630233764648,0.7050362229347229,2.4766767024993896,-4.1854705810546875,0.3237828016281128,-6.8526458740234375,3.2638912200927734,1.3801037073135376,-0.9644597172737122,-2.3152577877044678,0.7274898290634155,-3.1822497844696045,0.35208842158317566,-0.04490150511264801,1741523177.611633,1741523176453,1.05837890625,-0.36231863403320314,-0.17918104553261036,-1.0679998779296875,-0.15756378173828126
1741523177.7220392,2.8755921125411987,0.008928768903893313,-0.0630330351986389,-0.9979714993723559,1.5586165189743042,0.6466470956802368,0.1523934006690979,-19.03655242919922,16.733768463134766,4.716471195220947,0.510223388671875,0.4335470199584961,0.2508201599121094,-1.3687578439712524,0.005531395319849253,-0.5155642032623291,0.2145799994468689,1.3412915468215942,-0.00019073777366429567,0.5178530812263489,-0.21877622604370117,-0.5724040865898132,-0.30460822582244873,0.2794308364391327,0.36449989676475525,-0.07658853381872177,0.295465886592865,-0.768482506275177,-0.13027389347553253,0.2798123061656952,0.8012893795967102,-0.47408080101013184,0.07466105371713638,-0.09264682978391647,-0.1418190449476242,1.356757402420044,-1.5496079921722412,-0.005944248754531145,-0.032977402210235596,-1.0108178853988647,-1.2738628387451172,-0.09823232889175415,1.2731748819351196,4.270656108856201,1.6145751476287842,-3.020364761352539,-1.3024604320526123,-1.711670160293579,2.6678006649017334,-0.5743251442909241,1.135122299194336,-3.788419485092163,1.934502363204956,-3.123955726623535,0.950958788394928,4.6896209716796875,1741523177.8255882,1741523176653,1.06727978515625,-0.44629742431640623,-0.014429566039846251,-1.172101318359375,-0.20830049133300782
1741523177.742008,2.8650373220443726,0.028376202630794142,-0.08708002345264716,-0.9957970981277976,1.0502073764801025,0.8928042650222778,-0.5010214447975159,1.1529426574707031,14.949647903442383,8.500161170959473,0.4636831283569336,0.4079885482788086,0.2725642919540405,-1.384398341178894,0.005149920005351305,-0.5285343527793884,0.17299915850162506,1.3016180992126465,-0.0013351644156500697,0.5422675013542175,-0.12417028844356537,-0.5971999764442444,-0.34771496057510376,0.21877622604370117,0.4247730076313019,-0.05044081062078476,0.22660809755325317,-0.7475013136863708,-0.22487983107566833,0.25234606862068176,0.7536049485206604,-0.41127562522888184,0.2112506777048111,-1.400836706161499,-0.7427350282669067,0.9949072599411011,-0.7241684794425964,-0.005566933657974005,-0.7979682087898254,-3.0767524242401123,-2.503950595855713,-0.01859990321099758,1.6847548484802246,4.4931793212890625,-1.296722173690796,-2.49590802192688,-3.091765880584717,4.178995132446289,1.0954614877700806,-3.881807804107666,1.0174843072891235,-4.684473991394043,-2.013593912124634,-2.733419179916382,3.377143621444702,5.114487171173096,1741523177.8255882,1741523176653,1.06727978515625,-0.44629742431640623,-0.014429566039846251,-1.172101318359375,-0.20830049133300782
1741523177.7620761,2.8553035259246826,0.05132884371680162,-0.09283623687107857,-0.9943574724043226,0.12128224223852158,1.096009373664856,-0.4533732235431671,-0.47915390133857727,-7.049569606781006,6.790883541107178,0.4247732162475586,0.3801403045654297,0.28782328963279724,-1.381346583366394,0.005149920005351305,-0.5510414242744446,0.12760357558727264,1.2787295579910278,-0.0009536888683214784,0.5724040865898132,-0.028038453310728073,-0.6700618267059326,-0.386243999004364,0.12684062123298645,0.6078813076019287,-0.045657914131879807,0.11590640246868134,-0.7059205174446106,-0.31490805745124817,0.19016556441783905,0.7055390477180481,-0.33797603845596313,0.26848000288009644,-1.2049678564071655,-0.9226729869842529,0.781132698059082,0.2854161262512207,-0.014854516834020615,-1.2080589532852173,-2.8331050872802734,-1.2722618579864502,0.00832340493798256,1.9761412143707275,4.95725154876709,-4.446732521057129,-1.568286657333374,-4.852110385894775,9.993834495544434,0.2689579725265503,-5.361640930175781,2.5344343185424805,-4.327713489532471,-2.946023464202881,-2.1401824951171875,3.541177988052368,2.6475448608398438,1741523177.8255882,1741523176653,1.06727978515625,-0.44629742431640623,-0.014429566039846251,-1.172101318359375,-0.20830049133300782
1741523177.7820382,2.8589210510253906,0.07496434716082631,-0.07763460266609604,-0.9941595521462481,-0.9187890291213989,1.2005751132965088,0.24636952579021454,7.408027172088623,-6.709387302398682,6.785548210144043,0.3835735321044922,0.3542003631591797,0.2943083941936493,-1.3679949045181274,0.005149920005351305,-0.5796520709991455,0.10051880776882172,1.2791110277175903,-0.0009536888683214784,0.5998703241348267,0.03185320645570755,-0.7608529925346375,-0.3759441375732422,0.05741206929087639,0.8924620151519775,-0.07538408786058426,0.05828343331813812,-0.6692988276481628,-0.3725108802318573,0.14858472347259521,0.6746395230293274,-0.2819344103336334,0.3056371808052063,-1.2336933612823486,-0.7905608415603638,0.22437171638011932,0.9170773029327393,-0.020780736580491066,-1.3726351261138916,-1.5958839654922485,0.21875089406967163,0.021226145327091217,1.7933379411697388,2.379140853881836,-4.025888442993164,0.7608464360237122,-3.834580898284912,14.841525077819824,-1.8527313470840454,-2.1989176273345947,1.398928165435791,-2.463855743408203,-1.736318588256836,-1.5368072986602783,3.0076491832733154,2.2981605529785156,1741523177.8255882,1741523176653,1.06727978515625,-0.44629742431640623,-0.014429566039846251,-1.172101318359375,-0.20830049133300782
