Freshhhhh-LC/Legged_odom/data/4/segments/booster_seg_9.85s.csv
time,yaw,projected_gravity_x,projected_gravity_y,projected_gravity_z,ang_vel_x,ang_vel_y,ang_vel_z,lin_acc_x,lin_acc_y,lin_acc_z,q_0,q_1,q_2,q_3,q_4,q_5,q_6,q_7,q_8,q_9,q_10,q_11,q_12,q_13,q_14,q_15,q_16,q_17,q_18,q_19,q_20,q_21,q_22,dq_0,dq_1,dq_2,dq_3,dq_4,dq_5,dq_6,dq_7,dq_8,dq_9,dq_10,dq_11,dq_12,dq_13,dq_14,dq_15,dq_16,dq_17,dq_18,dq_19,dq_20,dq_21,dq_22,mocap_time,mocap_timestamp,robot_x,robot_y,robot_yaw,ball_x,ball_y
1741516821.845167,0.4907680153846741,0.018821132076011413,-0.009888606851438237,-0.9997739646749735,-0.3105382025241852,-0.14096349477767944,1.8659701347351074,1.0726243257522583,4.289783477783203,11.901511192321777,0.06809329986572266,0.14057350158691406,0.2733272314071655,-1.2646150588989258,0.005912871100008488,-0.9435797929763794,0.21725031733512878,1.2268489599227905,0.0020981156267225742,0.9103913903236389,-0.15583276748657227,-0.6689173579216003,0.02079041674733162,0.19054703414440155,1.361295461654663,-0.4570482075214386,0.004390716087073088,-0.5655375123023987,-0.0013351644156500697,0.07495994865894318,0.8684290647506714,-0.37312817573547363,0.01998329907655716,-0.10933783650398254,0.2179703414440155,3.0992486476898193,-0.034004032611846924,0.023393703624606133,0.04554057866334915,-3.68808913230896,0.00660591060295701,0.015833869576454163,0.015324203297495842,-1.1261630058288574,-3.8070015907287598,0.05628110095858574,1.8159290552139282,4.951171398162842,0.18594804406166077,-0.051968201994895935,1.63468599319458,0.261330783367157,-0.20527797937393188,-0.2586558759212494,-0.5784142017364502,0.1658748835325241,1741516821.8488748,1741516820973,2.52811572265625,-1.47658935546875,-1.7883835027387345,4.5038520507812505,0.789714111328125
1741516821.8474264,0.5479873418807983,0.015187661165040953,0.007733439417476165,-0.9998547538833389,-0.36518144607543945,-0.007917981594800949,0.08630605787038803,-0.13369467854499817,-0.7175711989402771,8.903181076049805,0.08945560455322266,0.13103675842285156,0.4243915379047394,-1.2634705305099487,0.005531395319849253,-0.9443427324295044,0.05207141116261482,1.223797082901001,0.0032425422687083483,0.9119172692298889,-0.15888457000255585,-0.8020523190498352,0.03337911143898964,0.20428015291690826,1.350232720375061,-0.47481080889701843,-0.004754410590976477,-0.46177613735198975,0.0032425422687083483,0.06923781335353851,0.8321889042854309,-0.4330975413322449,0.03388620540499687,0.11515577137470245,-0.026691867038607597,2.8812129497528076,-0.06330213695764542,-0.013583317399024963,0.2669874429702759,-4.028018951416016,0.053930576890707016,0.032488804310560226,0.10146217048168182,0.8442627787590027,-1.6725093126296997,0.4270854890346527,-0.3647466003894806,-2.498382568359375,-0.08068715035915375,-0.27706483006477356,2.4619548320770264,0.10897141695022583,-0.1050056591629982,-0.9320802092552185,-1.180654525756836,0.02246345765888691,1741516821.8488748,1741516820973,2.52811572265625,-1.47658935546875,-1.7883835027387345,4.5038520507812505,0.789714111328125
1741516821.849518,0.5581603646278381,0.02962969527351016,0.01700307774038726,-0.9994163179102857,-0.11060380190610886,0.2726030945777893,0.5220872759819031,4.819349765777588,-0.646811306476593,9.178677558898926,0.09098148345947266,0.10738563537597656,0.5296788215637207,-1.2649965286254883,0.005912871100008488,-0.918402373790741,-0.09365224838256836,1.224560022354126,0.0013351644156500697,0.9462500810623169,-0.21229113638401031,-0.8310444951057434,0.1501106321811676,0.21763180196285248,1.0938811302185059,-0.40947678685188293,-0.0027531813830137253,-0.3553444743156433,0.004005493130534887,0.06771191209554672,0.770008385181427,-0.49747616052627563,0.034926705062389374,-0.06294238567352295,-0.1839255541563034,0.24285517632961273,0.032067567110061646,0.0019325345056131482,0.38365572690963745,-1.501434564590454,-0.31723305583000183,-0.08635952323675156,0.9701817035675049,-1.7545799016952515,0.5619664788246155,2.6062498092651367,1.0665208101272583,-4.98063850402832,1.57970130443573,0.08912596851587296,1.7882577180862427,-0.059000033885240555,0.2839503586292267,-1.172711730003357,-0.9344965219497681,0.10899876058101654,1741516821.8490887,1741516821073,2.58883642578125,-1.409579345703125,-1.7142077524453667,4.33714453125,0.9459200439453125
1741516821.8594577,0.736476719379425,0.03524290209478946,0.04004377515126958,-0.9985762033633546,-0.12899050116539001,-0.38910093903541565,0.32597360014915466,-5.421118259429932,0.9504216313362122,14.146063804626465,0.09021854400634766,0.22831344604492188,0.3133821487426758,-1.2451597452163696,0.005531395319849253,-0.9218356609344482,0.06656748056411743,1.2241785526275635,0.002861066721379757,0.9653238654136658,0.02994582988321781,-0.6944762468338013,0.0398641936480999,0.06427863240242004,0.8363851308822632,-0.35742852091789246,0.030376264825463295,-0.3881513774394989,0.045204851776361465,-0.05283436179161072,0.9328984618186951,-0.39353275299072266,-0.019693637266755104,0.27893632650375366,0.27629581093788147,-3.509084939956665,-0.42009344696998596,-0.051412586122751236,-0.10769712179899216,4.113370895385742,0.4078966975212097,0.01781025528907776,-0.20026353001594543,-0.1754845529794693,1.6624751091003418,-0.8705922365188599,-0.7308633923530579,0.850679337978363,0.17604245245456696,0.1522333323955536,-1.55496346950531,-0.2318444699048996,0.7598433494567871,5.517251014709473,1.9453917741775513,-0.7897318601608276,1741516821.8490887,1741516821073,2.58883642578125,-1.409579345703125,-1.7142077524453667,4.33714453125,0.9459200439453125
1741516821.879516,0.7332339286804199,0.03251256299059486,0.03605057473698845,-0.9988209495745047,0.2645471394062042,-0.18053391575813293,-0.313407301902771,3.0263123512268066,-2.1069741249084473,11.960723876953125,0.10776710510253906,0.23670578002929688,0.23594263195991516,-1.2493560314178467,0.005531395319849253,-0.9225986003875732,0.12607766687870026,1.236767292022705,0.0032425422687083483,0.9596017599105835,0.024986648932099342,-0.6624323129653931,0.030708782374858856,0.05245288833975792,0.8478294014930725,-0.3567523956298828,0.0340060293674469,-0.46368351578712463,0.04253452271223068,-0.03528648987412453,1.0820554494857788,-0.36561572551727295,-0.005691132042557001,0.5221835374832153,0.3515591621398926,-3.826281785964966,-0.30144041776657104,0.013129676692187786,-0.004838126711547375,3.930917263031006,0.7868329882621765,0.04864300787448883,-0.40593308210372925,-0.18061870336532593,1.396822452545166,-0.3723113238811493,-0.45293501019477844,0.5387206673622131,-0.008429467678070068,0.05825888365507126,-4.325404167175293,0.03801768645644188,0.8463436365127563,7.852285385131836,1.1160918474197388,0.8414266705513,1741516821.8490887,1741516821073,2.58883642578125,-1.409579345703125,-1.7142077524453667,4.33714453125,0.9459200439453125
1741516821.899509,0.7175540924072266,0.029476650857293268,0.03187336522740391,-0.9990571633511858,0.1976526528596878,-0.07283914089202881,-0.8187875747680664,0.22534595429897308,0.021651864051818848,10.671759605407715,0.11692237854003906,0.23289108276367188,0.16422522068023682,-1.2505004405975342,0.005531395319849253,-0.9229800701141357,0.17872129380702972,1.2478300333023071,0.0032425422687083483,0.954261064529419,0.02231631986796856,-0.6280995011329651,0.027656977996230125,0.05436026677489281,0.8535515666007996,-0.359162837266922,0.030153073370456696,-0.5575265288352966,0.04444190114736557,-0.031090257689356804,1.2392233610153198,-0.3778252899646759,-0.004721318371593952,0.22800162434577942,-0.06292232871055603,-3.4794018268585205,0.05095475912094116,-0.011913245543837547,-0.015255743637681007,3.4537770748138428,0.7412379384040833,0.003634610679000616,-0.33153843879699707,-0.06064346805214882,1.8479260206222534,-0.14219924807548523,0.12055613845586777,0.21959596872329712,-0.15080486238002777,-0.17036493122577667,-4.803894519805908,-0.0005676068249158561,0.1866561323404312,7.506725311279297,-0.9499146342277527,-0.2619701623916626,1741516821.9482815,1741516821173,2.6396005859375,-1.3342657470703125,-1.9979380273536789,4.2016943359375,1.071649169921875
1741516821.9195693,0.697708249092102,0.02577739379828991,0.029550007628392286,-0.9992308657252986,0.13827992975711823,-0.18343698978424072,-0.9870474338531494,-0.08233294636011124,-0.41542696952819824,13.084464073181152,0.12226295471191406,0.23708724975585938,0.09327077120542526,-1.2443968057632446,0.005531395319849253,-0.9233615398406982,0.23365376889705658,1.2566040754318237,0.0032425422687083483,0.9504463076591492,0.02079041674733162,-0.5975814461708069,0.03185320645570755,0.0558861680328846,0.8535515666007996,-0.3687398135662079,0.032923828810453415,-0.6509880423545837,0.043678950518369675,-0.03337911143898964,1.348706841468811,-0.420536607503891,-0.012584391981363297,0.15049192309379578,0.11918356269598007,-3.6758835315704346,0.41184794902801514,0.008614025078713894,-0.03611183166503906,3.7086026668548584,0.5374399423599243,0.004343479871749878,-0.24796101450920105,-0.11753402650356293,1.456449270248413,0.2303876429796219,0.0776006206870079,0.06663894653320312,-0.5332793593406677,0.18757395446300507,-4.395117282867432,-0.013323272578418255,-0.1515875607728958,4.78652286529541,-2.2679288387298584,-0.22618551552295685,1741516821.9482815,1741516821173,2.6396005859375,-1.3342657470703125,-1.9979380273536789,4.2016943359375,1.071649169921875
1741516821.9395447,0.6785988807678223,0.025407433502584228,0.029346208679691774,-0.9992463471831858,0.01183560211211443,0.05238905921578407,-0.8777238130569458,0.7609904408454895,-1.0942192077636719,10.504083633422852,0.12722206115722656,0.23289108276367188,0.029564354568719864,-1.2402005195617676,0.005531395319849253,-0.924124538898468,0.28591591119766235,1.2642335891723633,0.0032425422687083483,0.9447242021560669,0.010872052982449532,-0.5586709380149841,0.040245670825242996,0.06275273114442825,0.8546959757804871,-0.3861117660999298,0.03311784565448761,-0.727664589881897,0.04711223021149635,-0.04940108209848404,1.3879988193511963,-0.46814340353012085,0.0003621573850978166,0.13324804604053497,-0.1082683727145195,-2.901277542114258,0.2508064806461334,-0.0019805722404271364,-0.025266028940677643,3.433016300201416,0.4762888252735138,0.0016410315874963999,-0.4444220960140228,-0.37165698409080505,2.014631509780884,0.3945939838886261,0.4391794800758362,-0.011279268190264702,-0.9493736624717712,0.03371488302946091,-3.7301838397979736,0.20234139263629913,-0.7054417729377747,1.4093077182769775,-2.3416929244995117,0.8867247700691223,1741516821.9482815,1741516821173,2.6396005859375,-1.3342657470703125,-1.9979380273536789,4.2016943359375,1.071649169921875
1741516821.9595623,0.6762369871139526,0.02530615308336227,0.03141521814785965,-0.9991860100526048,-0.11631453782320023,-0.013047798536717892,-0.07913646101951599,2.1667332649230957,-2.2963502407073975,10.238306999206543,0.13218116760253906,0.23022079467773438,-0.01926451548933983,-1.2371487617492676,0.005531395319849253,-0.924124538898468,0.33588922023773193,1.2684297561645508,0.002861066721379757,0.9393835067749023,-0.008201723918318748,-0.5281528830528259,0.04558632895350456,0.06504157930612564,0.8493552803993225,-0.41151922941207886,0.032660309225320816,-0.7871748208999634,0.04711223021149635,-0.05893797054886818,1.3643473386764526,-0.49793121218681335,0.008047756738960743,0.12275263667106628,-0.07007743418216705,-2.308265209197998,0.16380658745765686,-0.03243443742394447,-0.029364189133048058,3.328195810317993,0.29128310084342957,0.005990553647279739,-0.40799248218536377,-1.024572491645813,1.3358827829360962,0.14719611406326294,0.06715648621320724,-0.3225114345550537,-1.2771779298782349,-0.048450056463479996,-2.7882049083709717,-0.004226155113428831,-0.5000550150871277,-1.616286277770996,-1.2656112909317017,0.18358483910560608,1741516821.9482815,1741516821173,2.6396005859375,-1.3342657470703125,-1.9979380273536789,4.2016943359375,1.071649169921875
1741516821.979618,0.67857426404953,0.026730344609752186,0.033694088072000014,-0.9990746704356187,-0.1121630072593689,0.14556774497032166,0.039229344576597214,3.3898873329162598,-0.5019043684005737,8.51237964630127,0.14209938049316406,0.22602462768554688,-0.07305257022380829,-1.23753023147583,0.005912871100008488,-0.9290837049484253,0.3904402256011963,1.2745333909988403,0.004386968910694122,0.9317540526390076,-0.023079270496964455,-0.49038681387901306,0.04482337832450867,0.06389715522527695,0.8413442969322205,-0.43976420164108276,0.03018268384039402,-0.8279926776885986,0.04444190114736557,-0.06885633617639542,1.2937743663787842,-0.49627408385276794,0.0082787424325943,0.2861561179161072,-0.09644431620836258,-2.558255195617676,0.006551104597747326,-0.0019519717898219824,-0.37596943974494934,3.8470888137817383,0.4012545645236969,0.08887561410665512,-0.6029151678085327,-0.6053943634033203,2.1742146015167236,-0.02274412475526333,-0.0844825953245163,-0.3587483763694763,-1.4369237422943115,-0.13875724375247955,-1.9153542518615723,-0.1776338666677475,-0.5683029890060425,-3.5926826000213623,0.3791733384132385,0.2790333330631256,1741516821.9482815,1741516821173,2.6396005859375,-1.3342657470703125,-1.9979380273536789,4.2016943359375,1.071649169921875
1741516821.9996216,0.6784678101539612,0.030044081489223495,0.035631535402646304,-0.9989132829491852,-0.11233961582183838,0.14459346234798431,0.03517798334360123,0.0202556811273098,1.1944576501846313,11.754363059997559,0.15316200256347656,0.21801280975341797,-0.10738536715507507,-1.23447847366333,0.005531395319849253,-0.9424353241920471,0.439269095659256,1.2737704515457153,0.004005493130534887,0.9233615398406982,-0.029564354568719864,-0.4549095928668976,0.04253452271223068,0.06351567804813385,0.8276112079620361,-0.46931737661361694,0.026285549625754356,-0.8451590538024902,0.03223468363285065,-0.08144503086805344,1.195353627204895,-0.46259257197380066,0.015313548967242241,0.3472531735897064,-0.2273218333721161,-1.4761319160461426,0.22291125357151031,0.042753372341394424,-0.6428682208061218,3.033029794692993,-0.12938804924488068,-0.0030044419690966606,-0.5535703897476196,-0.22367417812347412,1.7557742595672607,-0.11190030723810196,-0.028043927624821663,-0.6984776258468628,-1.467458963394165,-0.2885819673538208,-0.6711590886116028,-0.6755390167236328,-0.6145495772361755,-5.105544567108154,1.8606512546539307,0.22781816124916077,1741516821.9482815,1741516821173,2.6396005859375,-1.3342657470703125,-1.9979380273536789,4.2016943359375,1.071649169921875
1741516822.01967,0.6796443462371826,0.039486559500198075,0.03544298701463323,-0.9985913109427289,0.04163631796836853,0.508927047252655,0.05183768644928932,3.9574244022369385,-0.46674174070358276,7.136110305786133,0.16460704803466797,0.20618724822998047,-0.11959258466959,-1.2314265966415405,0.005531395319849253,-0.9538795948028564,0.4678797721862793,1.2726260423660278,0.004005493130534887,0.9180209040641785,-0.02727550081908703,-0.41561761498451233,0.03757534176111221,0.056267641484737396,0.8161669373512268,-0.4976033568382263,0.02310681715607643,-0.8421072959899902,0.014686808921396732,-0.09975585341453552,1.0790035724639893,-0.4175160825252533,0.011272899806499481,0.33116990327835083,-0.4138478636741638,-0.3677001893520355,0.19841670989990234,-0.0009830432245507836,-0.6039830446243286,1.695862054824829,-0.03755704686045647,-0.010584013536572456,-0.32341673970222473,0.15946821868419647,1.9548321962356567,-0.32257458567619324,-0.3704257309436798,-0.6476062536239624,-1.433833360671997,-0.09165780246257782,0.1633651852607727,-0.945824921131134,-0.9088408350944519,-5.995626449584961,2.2724452018737793,-0.2699754536151886,1741516822.0526314,1741516821273,2.706676025390625,-1.276717529296875,-2.038934856827947,4.09303564453125,1.174816650390625
1741516822.0396833,0.6818060874938965,0.043923759510643756,0.03149991248211065,-0.9985381609453244,0.21624214947223663,0.14713315665721893,0.0964561477303505,1.2955423593521118,0.05837446078658104,7.160878658294678,0.17719554901123047,0.20695018768310547,-0.10929274559020996,-1.231045126914978,0.005531395319849253,-0.9634165167808533,0.4819943606853485,1.2703371047973633,0.0036240178160369396,0.9134432077407837,-0.02193484455347061,-0.3706035017967224,0.023079270496964455,0.04749370738863945,0.7970931529998779,-0.5222140550613403,0.00957849808037281,-0.8356221914291382,-0.0078202486038208,-0.13103684782981873,0.959220290184021,-0.37323158979415894,0.0014916695654392242,0.35681408643722534,-0.01238049753010273,0.7259008884429932,0.0033277925103902817,0.0008285827352665365,-0.4046735167503357,0.7706916928291321,-0.20671580731868744,-0.007565063424408436,-0.27910470962524414,0.22807440161705017,2.332332134246826,-0.8101741075515747,-0.508915901184082,-0.9663700461387634,-1.1383835077285767,-0.5761828422546387,0.49840110540390015,-1.140773892402649,-1.61988365650177,-5.834531307220459,2.1408026218414307,-0.4739677309989929,1741516822.0526314,1741516821273,2.706676025390625,-1.276717529296875,-2.038934856827947,4.09303564453125,1.174816650390625
1741516822.059689,0.6850860118865967,0.04442999740773763,0.022487321106619076,-0.9987593782887829,0.4623543620109558,-0.012623066082596779,0.18128623068332672,3.910404920578003,-1.2604948282241821,2.7157416343688965,0.19512462615966797,0.21381664276123047,-0.07801175117492676,-1.231808066368103,0.005531395319849253,-0.9653238654136658,0.4800869822502136,1.2638521194458008,0.0032425422687083483,0.9111543297767639,-0.01888304017484188,-0.31376364827156067,-0.0024795911740511656,0.040245670825242996,0.7822155952453613,-0.5189360976219177,-0.0016329397913068533,-0.8093003630638123,-0.03185320645570755,-0.15735866129398346,0.8543145060539246,-0.3468970060348511,-0.005953367333859205,0.5493913888931274,0.2199162393808365,1.6166436672210693,-0.045937277376651764,-0.0010626554721966386,-0.06939799338579178,-0.18835414946079254,-0.4864683151245117,-0.0042741186916828156,-0.1683865487575531,0.11840081959962845,2.781569480895996,-1.4137825965881348,-0.34310877323150635,-0.7493894100189209,0.4142654538154602,-0.5374738574028015,1.3776549100875854,-1.2313240766525269,-1.2125083208084106,-5.130592346191406,1.0412882566452026,-0.2821287512779236,1741516822.0526314,1741516821273,2.706676025390625,-1.276717529296875,-2.038934856827947,4.09303564453125,1.174816650390625
1741516822.0797377,0.6884816288948059,0.03774714173864792,0.012495898615823403,-0.9992091902141139,0.5123727321624756,-0.3488478660583496,0.23041976988315582,3.574260950088501,4.270628452301025,5.036365509033203,0.20504283905029297,0.22220993041992188,-0.02841992862522602,-1.231045126914978,0.005531395319849253,-0.962272047996521,0.46292057633399963,1.2569855451583862,0.0032425422687083483,0.9107728600502014,-0.021171892061829567,-0.27218279242515564,-0.03528648987412453,0.04711223021149635,0.7875562906265259,-0.49393749237060547,0.013742699287831783,-0.7761120200157166,-0.050164032727479935,-0.15697719156742096,0.7581826448440552,-0.3562731444835663,-0.008837786503136158,0.27587011456489563,0.284442275762558,2.6437904834747314,0.04537159949541092,-0.004273504484444857,0.1589183211326599,-1.306078314781189,-0.3505765497684479,0.0046761552803218365,-0.015774322673678398,-0.08676066994667053,1.8480480909347534,-1.4706467390060425,0.3532441556453705,0.6672603487968445,1.2528525590896606,0.8441883325576782,1.6570826768875122,-0.9366593360900879,0.29711389541625977,-4.719776153564453,-0.6862567067146301,-0.1434776335954666,1741516822.0526314,1741516821273,2.706676025390625,-1.276717529296875,-2.038934856827947,4.09303564453125,1.174816650390625
1741516822.099741,0.6938799023628235,0.027942817828915577,-0.005931112822785708,-0.9995919271545081,0.9373462796211243,-0.5574159026145935,0.37246599793434143,-20.253379821777344,-2.804821252822876,15.957544326782227,0.22182846069335938,0.23556137084960938,0.03185320645570755,-1.2340970039367676,0.005912871100008488,-0.9573128819465637,0.4327840209007263,1.2508819103240967,0.0032425422687083483,0.9084840416908264,-0.031090257689356804,-0.265697717666626,-0.03643091395497322,0.048256658017635345,0.8642328381538391,-0.4743310213088989,0.030344292521476746,-0.7486457824707031,-0.051689937710762024,-0.12645913660526276,0.7555122971534729,-0.3465636968612671,-0.02797786146402359,0.46955567598342896,0.39854946732521057,2.7377963066101074,-0.3054700791835785,0.029055340215563774,0.2388625293970108,-2.177424907684326,-0.49945884943008423,-0.011037496849894524,-0.2910919189453125,-0.6141865253448486,-0.10716088116168976,0.18518204987049103,0.09226416796445847,4.499195098876953,0.9810159802436829,0.7807325720787048,1.4385285377502441,0.44066473841667175,1.38662588596344,1.4482380151748657,0.8146843910217285,-0.9025478363037109,1741516822.0526314,1741516821273,2.706676025390625,-1.276717529296875,-2.038934856827947,4.09303564453125,1.174816650390625
1741516822.120418,0.6992865204811096,0.025972487101971233,-0.013769681524854019,-0.9995678195022297,0.24179740250110626,-0.05723818391561508,0.45821815729141235,1.2231279611587524,6.235269546508789,8.399085998535156,0.22220993041992188,0.22564315795898438,0.09861142933368683,-1.2409635782241821,0.006294346414506435,-0.9573128819465637,0.3759441375732422,1.2424894571304321,0.0036240178160369396,0.9058136940002441,-0.05054550990462303,-0.3133821487426758,-0.04100862145423889,0.05359731614589691,0.9981307983398438,-0.4361773133277893,0.038263630121946335,-0.7379644513130188,-0.03299763426184654,-0.08144503086805344,0.8005264401435852,-0.331236869096756,-0.0725778341293335,-0.08453585207462311,-0.25740665197372437,3.4843244552612305,-0.2854098081588745,0.10101751238107681,-0.0246170274913311,-4.074375629425049,-0.4520391523838043,0.025163250043988228,-0.09647903591394424,-0.7437522411346436,-2.8904409408569336,-0.254090815782547,0.10441217571496964,6.928956031799316,2.060460329055786,0.34307861328125,0.24998147785663605,0.5449470281600952,2.3855371475219727,1.4567333459854126,0.9913043975830078,-2.6375951766967773,1741516822.1607747,1741516821373,2.793615478515625,-1.2103741455078125,-1.9534134594964496,3.984691650390625,1.274759765625
1741516822.1397538,0.7147940397262573,0.024125662052215172,-0.018814853319200187,-0.9995318672884419,0.27182239294052124,-0.04322444647550583,0.860721230506897,-3.1662800312042236,3.4371373653411865,13.277749061584473,0.23861312866210938,0.22640609741210938,0.1646067053079605,-1.2409635782241821,0.005531395319849253,-0.9584572911262512,0.2969787120819092,1.2432523965835571,0.0036240178160369396,0.9103913903236389,-0.06389715522527695,-0.3999771177768707,-0.04787518084049225,0.045204851776361465,1.1575875282287598,-0.4007628858089447,0.018257519230246544,-0.7101167440414429,-0.011635004542768002,-0.06809338182210922,0.7978560924530029,-0.3071136474609375,-0.07235632836818695,0.4951424300670624,-0.004618220962584019,3.21152663230896,-0.07113221287727356,0.015200777910649776,-0.04358237236738205,-5.221456527709961,0.08206484466791153,-0.0034781661815941334,0.30362775921821594,-0.5370254516601562,-4.4193339347839355,-0.3732278347015381,-0.33263924717903137,7.810512542724609,1.5525391101837158,-1.390727162361145,1.6863666772842407,1.1806561946868896,0.39520588517189026,-0.0535384863615036,1.1985623836517334,0.8981990814208984,1741516822.1607747,1741516821373,2.793615478515625,-1.2103741455078125,-1.9534134594964496,3.984691650390625,1.274759765625
1741516822.1597793,0.7399666905403137,0.02385305486628427,-0.018024400710529135,-0.9995529764612641,-0.19681663811206818,-0.09860759228467941,1.2609925270080566,-0.4224811792373657,-0.24648568034172058,13.239645957946777,0.2538719177246094,0.22373580932617188,0.2283131182193756,-1.2459226846694946,0.005531395319849253,-0.9580758213996887,0.22411687672138214,1.2440153360366821,0.0036240178160369396,0.9084840416908264,-0.07648584991693497,-0.49420157074928284,-0.04787518084049225,0.04596780240535736,1.2903410196304321,-0.4083663523197174,0.0025454172864556313,-0.6876096725463867,-0.023460745811462402,-0.05703059583902359,0.8012893795967102,-0.28684043884277344,-0.043611377477645874,0.4460122287273407,-0.04830802604556084,3.3289525508880615,-0.23196019232273102,-0.027752388268709183,0.03594883903861046,-4.862856388092041,0.013981051743030548,0.014641061425209045,-0.1563989520072937,-0.7282878756523132,-4.740921497344971,-0.04848967492580414,0.32948222756385803,6.110501766204834,-0.8167276978492737,-0.2660135328769684,0.9679166674613953,-0.8367931246757507,0.43568339943885803,0.2326953411102295,0.8612968921661377,1.0001918077468872,1741516822.1607747,1741516821373,2.793615478515625,-1.2103741455078125,-1.9534134594964496,3.984691650390625,1.274759765625
1741516822.1798568,0.7673466205596924,0.021110437863269372,-0.015426424713886297,-0.9996581289789864,-0.09061028808355331,-0.08649726957082748,1.3307515382766724,-0.8324389457702637,0.5858531594276428,11.17447566986084,0.2595939636230469,0.23022079467773438,0.290112167596817,-1.2470670938491821,0.005912871100008488,-0.951209306716919,0.1516365259885788,1.2447782754898071,0.0032425422687083483,0.9081025123596191,-0.08564125746488571,-0.5727855563163757,-0.03833829239010811,0.05741206929087639,1.3647288084030151,-0.45138344168663025,0.008269945159554482,-0.6528953909873962,-0.03681239113211632,-0.07000076025724411,0.8089188933372498,-0.2812829315662384,-0.035631194710731506,0.279878705739975,0.1488194316625595,3.3377230167388916,-0.15230423212051392,0.013841494917869568,0.41131067276000977,-4.817119598388672,0.02388785220682621,-0.0038672753144055605,-0.03820737823843956,-0.29832151532173157,-3.850532293319702,0.5183603167533875,0.47240257263183594,3.321359634399414,-2.229722738265991,0.12163183093070984,1.7403209209442139,-0.6072198152542114,-0.5723505616188049,0.2803463935852051,0.1579197347164154,0.4458211362361908,1741516822.1607747,1741516821373,2.793615478515625,-1.2103741455078125,-1.9534134594964496,3.984691650390625,1.274759765625
1741516822.1998997,0.7911909520626068,0.017331490494667794,-0.016373063492035794,-0.9997157307100449,0.0013413464184850454,-0.20429690182209015,1.0659726858139038,0.31675630807876587,0.002802185947075486,11.039203643798828,0.2840089797973633,0.23823165893554688,0.34733349084854126,-1.2516448497772217,0.005531395319849253,-0.9363317489624023,0.08411535620689392,1.2436338663101196,0.0032425422687083483,0.9069581031799316,-0.09555962681770325,-0.6437399983406067,-0.031090257689356804,0.07991912961006165,1.3796063661575317,-0.49920517206192017,-0.00019263998547103256,-0.6227588057518005,-0.045204851776361465,-0.07686731964349747,0.8062485456466675,-0.2889768183231354,-0.029694225639104843,0.6848050355911255,0.18748648464679718,2.7167816162109375,-0.25312963128089905,-0.03178322687745094,0.7501014471054077,-4.379380702972412,-0.10891911387443542,0.008388523012399673,-0.1048496887087822,-0.5784029960632324,-3.40588116645813,0.3768155872821808,1.3889110088348389,0.2615860402584076,-2.395049571990967,-0.4919547438621521,1.3888156414031982,-0.42469537258148193,-0.46656930446624756,-0.07853557914495468,-0.4459070563316345,0.3960557281970978,1741516822.1607747,1741516821373,2.793615478515625,-1.2103741455078125,-1.9534134594964496,3.984691650390625,1.274759765625
1741516822.2198908,0.8083274066448212,0.017307233180533874,-0.017106564737943974,-0.9997038687143814,0.0432768315076828,0.060376737266778946,0.7803078889846802,0.860605001449585,2.4562230110168457,8.931028366088867,0.2916383743286133,0.23289108276367188,0.3923476040363312,-1.2527892589569092,0.005531395319849253,-0.9172579646110535,0.02727550081908703,1.2424894571304321,0.0032425422687083483,0.9061951637268066,-0.09708552807569504,-0.7001983523368835,-0.02231631986796856,0.10852979123592377,1.3441290855407715,-0.5367766618728638,-0.0022332684602588415,-0.5952925682067871,-0.05245288833975792,-0.07991912961006165,0.810826301574707,-0.3052973747253418,-0.029467524960637093,0.2664031386375427,-0.16158731281757355,2.1592397689819336,-0.11833875626325607,-0.006890600081533194,0.9924982190132141,-3.65462064743042,-0.05222699046134949,-0.019940637052059174,-0.04984895512461662,0.03578760474920273,-2.7465107440948486,0.4799517095088959,1.3691153526306152,-2.039010763168335,-1.6797599792480469,-0.0366782583296299,1.4239128828048706,-0.3604696989059448,-0.10322580486536026,0.2671005427837372,-0.8920345902442932,0.027628885582089424,1741516822.2574723,1741516821473,2.859771728515625,-1.1652373046875,-1.7250652675707512,3.880290283203125,1.3707618408203126
1741516822.2398944,0.8226483166217804,0.018451181878994256,-0.020937027991816116,-0.9996105215263285,0.1827661395072937,0.045885082334280014,0.8232455849647522,-5.2830963134765625,-1.2120720148086548,12.116087913513184,0.3034639358520508,0.23441696166992188,0.42744335532188416,-1.2585114240646362,0.005912871100008488,-0.8928435444831848,-0.032616160809993744,1.2428709268569946,0.0024795911740511656,0.9058136940002441,-0.09975585341453552,-0.7433050870895386,-0.010109102353453636,0.12874799966812134,1.276607871055603,-0.5408934950828552,-0.0067527033388614655,-0.5807965397834778,-0.0558861680328846,-0.09288929402828217,0.8104447722434998,-0.32857856154441833,-0.028367890045046806,0.3237820267677307,0.03332596272230148,1.7661141157150269,-0.362035870552063,0.005604714620858431,1.2426148653030396,-4.080099582672119,0.011684692464768887,-0.013813420198857784,-0.04616983234882355,-0.2882717549800873,-2.0886502265930176,0.5876612663269043,1.014775037765503,-3.459655523300171,0.1353078931570053,-0.4679378867149353,0.6972895264625549,-0.18973852694034576,-0.7131382822990417,-0.02562287636101246,-1.1946262121200562,-0.04118789732456207,1741516822.2574723,1741516821473,2.859771728515625,-1.1652373046875,-1.7250652675707512,3.880290283203125,1.3707618408203126
1741516822.2599394,0.8452852666378021,0.027703311091048868,-0.02196841790266553,-0.999374762123522,0.016500717028975487,0.5474051237106323,1.1182801723480225,-1.487399697303772,-1.1171081066131592,9.7601900100708,0.3130006790161133,0.22068405151367188,0.4491874575614929,-1.2619446516036987,0.005149920005351305,-0.8684290647506714,-0.07305257022380829,1.2432523965835571,0.0020981156267225742,0.9050507545471191,-0.10814831405878067,-0.7646677494049072,0.004386968910694122,0.14591439068317413,1.1827648878097534,-0.5086039900779724,-0.018168190494179726,-0.5518043637275696,-0.06313420087099075,-0.09899290651082993,0.813878059387207,-0.35367754101753235,-0.027543194591999054,0.2939263582229614,-0.4144504964351654,0.9843267202377319,-0.08854231238365173,-0.0006733509944751859,1.209610104560852,-2.3542535305023193,0.00554180983453989,-0.06301717460155487,-0.04584323242306709,-0.42270201444625854,-0.9130001068115234,0.8398012518882751,0.6965746879577637,-4.9769206047058105,1.813428521156311,-0.368609219789505,1.390173316001892,-0.2659625709056854,-0.2831176817417145,0.08402018994092941,-1.3042340278625488,0.12779057025909424,1741516822.2574723,1741516821473,2.859771728515625,-1.1652373046875,-1.7250652675707512,3.880290283203125,1.3707618408203126
1741516822.279959,0.866174727678299,0.03494070652150524,-0.022591659086940132,-0.9991340070118109,-0.006461773533374071,0.28669998049736023,1.088663101196289,-1.5112659931182861,-0.6981241703033447,9.742609977722168,0.3179597854614258,0.22488021850585938,0.45910581946372986,-1.2608002424240112,0.005531395319849253,-0.8428702354431152,-0.09441519528627396,1.2432523965835571,0.0024795911740511656,0.9004730582237244,-0.12531471252441406,-0.7768749594688416,0.02727550081908703,0.16308079659938812,1.0599298477172852,-0.46490412950515747,-0.01714308187365532,-0.5247195959091187,-0.06275273114442825,-0.10814831405878067,0.811589241027832,-0.38185229897499084,-0.021944060921669006,0.14093881845474243,0.10828114300966263,0.3327501714229584,0.03408439829945564,-0.004146758932620287,1.2654807567596436,-1.2088321447372437,0.034229379147291183,0.0513831190764904,-0.3810158371925354,-0.8984186053276062,-0.35720500349998474,1.2552305459976196,0.7468650341033936,-6.280585765838623,2.1602394580841064,0.14008170366287231,1.3607474565505981,0.014836527407169342,-0.35532939434051514,-0.15373434126377106,-1.4013251066207886,0.1337241530418396,1741516822.2574723,1741516821473,2.859771728515625,-1.1652373046875,-1.7250652675707512,3.880290283203125,1.3707618408203126
1741516822.2999902,0.8873335421085358,0.04063659742412462,-0.020361780214037613,-0.998966498365338,-0.18425001204013824,0.2986309826374054,1.0226764678955078,3.537405490875244,0.3565414249897003,5.022120475769043,0.3213930130004883,0.21763134002685547,0.4518577754497528,-1.2611817121505737,0.005531395319849253,-0.8203631639480591,-0.09365224838256836,1.2451597452163696,0.0020981156267225742,0.8894102573394775,-0.13904783129692078,-0.763523280620575,0.05092698708176613,0.1848248988389969,0.9348058104515076,-0.41991665959358215,-0.011007812805473804,-0.47932401299476624,-0.05436026677489281,-0.10776684433221817,0.8089188933372498,-0.4082975387573242,-0.009445492178201675,0.10875830799341202,-0.198150172829628,-0.395847350358963,-0.04942148178815842,-0.004316050559282303,1.12166428565979,0.16543255746364594,0.13870415091514587,-0.0021587046794593334,-0.7976242899894714,-0.6013500094413757,0.7752870321273804,1.1978785991668701,1.0517679452896118,-6.154175281524658,2.24615478515625,0.34500938653945923,2.349914073944092,0.5309957265853882,0.038816552609205246,-0.24603833258152008,-1.2489267587661743,0.7625451683998108,1741516822.2574723,1741516821473,2.859771728515625,-1.1652373046875,-1.7250652675707512,3.880290283203125,1.3707618408203126
1741516822.3199568,0.9051803648471832,0.03769393033519858,-0.014451939498566092,-0.9991848222729441,-0.3498438000679016,-0.19289067387580872,0.8778454661369324,2.7985119819641113,-1.349827527999878,6.794925689697266,0.3206300735473633,0.23479843139648438,0.4358358085155487,-1.2615631818771362,0.005531395319849253,-0.7993820309638977,-0.07267109304666519,1.2489745616912842,0.0020981156267225742,0.8691920638084412,-0.14744029939174652,-0.7406347990036011,0.06847485899925232,0.2157244235277176,0.8211261034011841,-0.372668981552124,-0.0010782316094264388,-0.43011367321014404,-0.03528648987412453,-0.10814831405878067,0.7944228053092957,-0.4157188832759857,-0.0029641289729624987,-0.02974454127252102,0.4895797073841095,-0.9369592666625977,-0.02129635401070118,-0.009373285807669163,1.0619868040084839,1.6361514329910278,0.27333682775497437,0.006178840063512325,-1.363171100616455,-0.37208792567253113,1.2157840728759766,0.7086435556411743,1.614463448524475,-5.5054826736450195,2.392540216445923,0.5715193152427673,2.4383797645568848,1.000227689743042,-0.013614088296890259,-0.783200740814209,-0.13322781026363373,0.21510609984397888,1741516822.359966,1741516821573,2.91734619140625,-1.1071656494140625,-0.8547015513230601,3.77933544921875,1.4636717529296874
1741516822.3399856,0.921180933713913,0.03164172558921697,-0.004200831063929042,-0.9994904472880713,-0.5547655820846558,-0.26809847354888916,0.7705324292182922,3.662044048309326,1.8277435302734375,8.594986915588379,0.3248262405395508,0.23708724975585938,0.4083695709705353,-1.2619446516036987,0.005531395319849253,-0.7795453071594238,-0.03757534176111221,1.2524077892303467,0.0020981156267225742,0.8451590538024902,-0.1520180106163025,-0.7101167440414429,0.08487831056118011,0.24013885855674744,0.7288090586662292,-0.3216265141963959,0.009183645248413086,-0.3713664412498474,-0.008964675478637218,-0.10662241280078888,0.7970931529998779,-0.3936590552330017,-0.01291744876652956,0.10171905159950256,0.07399553805589676,-1.4068430662155151,-0.006391372997313738,-0.001965336501598358,0.9951303601264954,2.4466428756713867,0.19077153503894806,0.0052445074543356895,-1.6844688653945923,-0.16953842341899872,1.4228142499923706,0.9280433654785156,1.0764222145080566,-4.3205437660217285,2.5864384174346924,0.6867242455482483,3.020125150680542,1.3135895729064941,0.17105361819267273,0.3486274182796478,1.145857810974121,-0.8853957056999207,1741516822.359966,1741516821573,2.91734619140625,-1.1071656494140625,-0.8547015513230601,3.77933544921875,1.4636717529296874
1741516822.3600826,0.9342556297779083,0.01905045893655115,0.005677299817556203,-0.9998024046185767,-0.47563162446022034,-0.6454560160636902,0.6501064896583557,-3.7896201610565186,1.025831699371338,14.853398323059082,0.3263521194458008,0.24853134155273438,0.369840532541275,-1.2646150588989258,0.005531395319849253,-0.7616159319877625,0.008964675478637218,1.2573670148849487,0.0024795911740511656,0.8196002244949341,-0.15697719156742096,-0.6696802973747253,0.09212634712457657,0.22678720951080322,0.7116426229476929,-0.2722446620464325,0.030333712697029114,-0.344663143157959,0.0078202486038208,-0.08106355369091034,0.8329518437385559,-0.37838539481163025,-0.029579441994428635,0.018633177503943443,0.26642540097236633,-2.049578905105591,-0.27498579025268555,0.005440844222903252,0.8481640219688416,3.179213762283325,0.4535457193851471,0.008623290807008743,-1.6286314725875854,-0.14595001935958862,2.2468903064727783,0.1673610508441925,-0.9185768365859985,-0.36873188614845276,2.4147326946258545,1.1591501235961914,0.7706791162490845,0.8499488234519958,1.457369327545166,2.1685986518859863,0.7468934059143066,-0.638964831829071,1741516822.359966,1741516821573,2.91734619140625,-1.1071656494140625,-0.8547015513230601,3.77933544921875,1.4636717529296874
1741516822.3800647,0.9459983706474304,0.012570968328290098,0.014280648818653438,-0.9998190005319,-0.436337947845459,-0.14389736950397491,0.5216550230979919,6.845395565032959,1.2860621213912964,5.9998087882995605,0.3328371047973633,0.24242782592773438,0.3133821487426758,-1.2741519212722778,0.005531395319849253,-0.7570382356643677,0.06389715522527695,1.2714815139770508,0.0024795911740511656,0.802815318107605,-0.15697719156742096,-0.6204699873924255,0.07381551712751389,0.18711376190185547,0.7051575779914856,-0.24888218939304352,0.031522851437330246,-0.36488136649131775,0.026131074875593185,-0.02841992862522602,0.9260318875312805,-0.3528529405593872,-0.032526690512895584,0.16637490689754486,-0.19035260379314423,-3.063732385635376,-0.6289779543876648,-0.008747211657464504,0.05442572012543678,3.676717519760132,0.9824249744415283,0.006040819454938173,-0.9876307249069214,-0.08361376076936722,2.0553677082061768,-1.149052619934082,-1.9919005632400513,-0.4909624457359314,0.9864727258682251,-0.0768027976155281,-1.0242079496383667,0.971376895904541,3.009319543838501,5.185491561889648,1.5346087217330933,-0.15443155169487,1741516822.359966,1741516821573,2.91734619140625,-1.1071656494140625,-0.8547015513230601,3.77933544921875,1.4636717529296874
1741516822.4000983,0.9517236948013306,0.010451911630320302,0.016296505376534067,-0.9998125731634828,-0.04696786776185036,-0.14291830360889435,0.27043506503105164,-9.406889915466309,0.2861555814743042,11.124642372131348,0.3461894989013672,0.24090194702148438,0.2504386901855469,-1.2840702533721924,0.005531395319849253,-0.76276034116745,0.11730372905731201,1.2806370258331299,0.0024795911740511656,0.7940413355827332,-0.15392538905143738,-0.6013962030410767,0.04329747334122658,0.1359960287809372,0.7047760486602783,-0.24131175875663757,0.03642795607447624,-0.4327840209007263,0.04901960864663124,0.045204851776361465,1.056496500968933,-0.30865514278411865,-0.028117965906858444,0.3647582530975342,-0.03716043382883072,-3.3746862411499023,-0.7628831267356873,-0.029101518914103508,-0.3105044364929199,3.5288798809051514,0.5317555665969849,-0.0007189307943917811,-0.5176597237586975,0.06252233684062958,0.9621617794036865,-1.5576893091201782,-2.42939829826355,0.15709665417671204,0.34625789523124695,0.3884716331958771,-3.4205758571624756,1.3295214176177979,3.492460012435913,6.575830459594727,2.201502799987793,0.4487439692020416,1741516822.359966,1741516821573,2.91734619140625,-1.1071656494140625,-0.8547015513230601,3.77933544921875,1.4636717529296874
1741516822.420062,0.9498778283596039,0.015412860264118375,0.010927502514138049,-0.9998215007826557,0.29221484065055847,0.24944467842578888,-0.07832116633653641,4.57159423828125,-0.9188781976699829,8.812841415405273,0.3442821502685547,0.23746871948242188,0.18558785319328308,-1.2928441762924194,0.005912871100008488,-0.768482506275177,0.16422522068023682,1.2840702533721924,0.0024795911740511656,0.7925154566764832,-0.15583276748657227,-0.577744722366333,0.01735713705420494,0.10547798871994019,0.7143129706382751,-0.24032264947891235,0.03265770524740219,-0.5155642032623291,0.08068207651376724,0.09098191559314728,1.195353627204895,-0.28511133790016174,-0.0044156210497021675,-0.018838796764612198,-0.0962306410074234,-3.2363474369049072,-0.5009081363677979,0.006064681801944971,-0.2497057020664215,3.1026077270507812,0.2413274198770523,-0.0023751286789774895,-0.0956452339887619,-0.1499003916978836,1.2243094444274902,-1.1724997758865356,-1.420634150505066,0.3499901592731476,0.006283740047365427,-0.29366758465766907,-4.073051929473877,1.5230441093444824,2.1493308544158936,6.727952480316162,0.7409694790840149,1.121712327003479,1741516822.4678414,1741516821673,2.9578151855468753,-1.0439753417968751,-1.3826007115705832,3.6824765625,1.559207763671875
1741516822.4400904,0.9460698664188385,0.016615564926532784,0.0045206903241904305,-0.9998517321889105,0.2942391037940979,0.02092267945408821,-0.207398921251297,1.1069951057434082,-3.4938547611236572,10.448212623596191,0.3416109085083008,0.24967575073242188,0.12264438718557358,-1.2970404624938965,0.005531395319849253,-0.7753490209579468,0.21114671230316162,1.288648009300232,0.0024795911740511656,0.7932783961296082,-0.1680399775505066,-0.5567635893821716,0.011635004542768002,0.08602273464202881,0.7146944403648376,-0.24011291563510895,0.031417116522789,-0.6036850810050964,0.09822995215654373,0.10624094307422638,1.2960631847381592,-0.31175103783607483,-0.004213189706206322,-0.08033360540866852,0.35461851954460144,-2.8489489555358887,-0.26129239797592163,-0.00669891620054841,-0.35279425978660583,3.1101462841033936,0.30783435702323914,0.006970563903450966,0.04629646986722946,-0.6496663689613342,0.9814533591270447,-0.2456701099872589,-0.82464998960495,0.07442661374807358,0.017833519726991653,-0.021775275468826294,-4.398918151855469,0.8660387396812439,0.5223714113235474,4.508935451507568,-1.6655652523040771,-0.20399975776672363,1741516822.4678414,1741516821673,2.9578151855468753,-1.0439753417968751,-1.3826007115705832,3.6824765625,1.559207763671875
1741516822.4600973,0.94490185379982,0.019606481275056677,-0.00013511889493246206,-0.9998077653403653,0.18535076081752777,0.181614488363266,0.059230461716651917,2.8020503520965576,-2.3224587440490723,8.714948654174805,0.3362703323364258,0.24738693237304688,0.06885633617639542,-1.2962775230407715,0.005912871100008488,-0.7841230034828186,0.25501641631126404,1.294751524925232,0.0024795911740511656,0.7944228053092957,-0.17605096101760864,-0.5304417610168457,0.01430533267557621,0.07419699430465698,0.7211795449256897,-0.24050931632518768,0.025358011946082115,-0.6799801588058472,0.10967422276735306,0.09327077120542526,1.3391698598861694,-0.36522582173347473,-0.005647135898470879,-0.17540591955184937,-0.02081906422972679,-2.559030771255493,-0.0040255701169371605,0.009691589511930943,-0.484921395778656,2.9035162925720215,0.4053019881248474,0.0011709390673786402,0.09854565560817719,-0.3160061538219452,1.302453875541687,0.11242535710334778,-0.6189582943916321,0.31529754400253296,-0.05158953368663788,-0.3801645338535309,-3.6702842712402344,0.5452778935432434,-0.7386122345924377,1.7177274227142334,-2.8517088890075684,0.18053780496120453,1741516822.4678414,1741516821673,2.9578151855468753,-1.0439753417968751,-1.3826007115705832,3.6824765625,1.559207763671875
1741516822.4812229,0.9508868455886841,0.02162920201220619,0.0019391978613432887,-0.9997641807606281,-0.1712590903043747,0.08646658062934875,0.3897574245929718,-1.0292103290557861,-2.860750675201416,10.4564790725708,0.3316926956176758,0.24700546264648438,0.024986648932099342,-1.293225646018982,0.005531395319849253,-0.7986190319061279,0.2969787120819092,1.3023810386657715,0.002861066721379757,0.7978560924530029,-0.18673227727413177,-0.5182345509529114,0.01773861236870289,0.06008239835500717,0.7272831201553345,-0.2544883191585541,0.016008952632546425,-0.7486457824707031,0.10891126841306686,0.07305257022380829,1.3277256488800049,-0.4208862781524658,0.0008862101822160184,-0.16081005334854126,0.009069486521184444,-2.187544584274292,0.25843876600265503,-0.022281628102064133,-0.7458966374397278,2.7891147136688232,0.5618144273757935,0.04517851397395134,0.2648880183696747,-0.5376389026641846,0.5131971836090088,0.11854712665081024,-0.7306039333343506,0.3933187425136566,-0.8413544297218323,-0.43990033864974976,-3.331403970718384,-0.11385800689458847,-1.0105339288711548,-0.9684649705886841,-2.775165319442749,0.352873831987381,1741516822.4678414,1741516821673,2.9578151855468753,-1.0439753417968751,-1.3826007115705832,3.6824765625,1.559207763671875
1741516822.5001438,0.9591024518013,0.028347710038723335,0.007875506518188032,-0.9995670981643215,-0.2871339023113251,0.38331282138824463,0.38795948028564453,-0.02887021005153656,-2.1020278930664062,8.596577644348145,0.3286409378051758,0.24052047729492188,-0.02193484455347061,-1.2859776020050049,0.005531395319849253,-0.8222705721855164,0.33588922023773193,1.3103920221328735,0.0032425422687083483,0.8039597272872925,-0.18787670135498047,-0.507553219795227,0.01926451548933983,0.04596780240535736,0.7444495558738708,-0.289581835269928,0.013410934247076511,-0.7997635006904602,0.10700388997793198,0.050164032727479935,1.2739375829696655,-0.4549025595188141,0.008929643779993057,-0.09289012104272842,-0.18197953701019287,-2.2408130168914795,0.486327201128006,-0.015735723078250885,-1.271255373954773,2.5395140647888184,0.4403730630874634,0.019200025126338005,0.5087148547172546,0.05496292561292648,0.5667605996131897,0.10772240906953812,-0.7205629944801331,0.8817007541656494,-1.9223086833953857,-0.0658411905169487,-2.399498462677002,-0.09320659190416336,-1.0474412441253662,-2.9666004180908203,-1.3898178339004517,0.4341568946838379,1741516822.4678414,1741516821673,2.9578151855468753,-1.0439753417968751,-1.3826007115705832,3.6824765625,1.559207763671875
1741516822.5202103,0.9678936004638672,0.03647436849223767,0.013443156214180766,-0.9992441653540408,-0.30867597460746765,0.37469932436943054,0.4151167571544647,1.8074647188186646,-0.09485059231519699,8.868072509765625,0.3324556350708008,0.23632431030273438,-0.05397878959774971,-1.2775851488113403,0.005912871100008488,-0.8520256280899048,0.3732738196849823,1.3115365505218506,0.0032425422687083483,0.8134965896606445,-0.182154580950737,-0.5125123858451843,0.018501564860343933,0.02841992862522602,0.7631418108940125,-0.33240944147109985,0.012129392474889755,-0.8268482685089111,0.1039520874619484,0.03833829239010811,1.1869611740112305,-0.45188507437705994,0.008784672245383263,0.11841078847646713,-0.12313809990882874,-1.4401772022247314,0.521302342414856,0.012765560299158096,-1.5213944911956787,2.5418221950531006,-0.010332366451621056,0.012966156005859375,0.6753174662590027,0.3795199394226074,-0.49103686213493347,-0.04303699731826782,-0.8830990195274353,0.8731414079666138,-2.116320848464966,-0.09712584316730499,-1.126039743423462,-0.1773274838924408,-0.47472891211509705,-4.622012615203857,0.3997027575969696,-0.09747334569692612,1741516822.5702202,1741516821773,3.01288232421875,-0.9876400146484375,-1.2383115585576587,3.584653076171875,1.6500662841796876
1741516822.5401993,0.9788763523101807,0.0461803027220689,0.01571530214117373,-0.9988094958094409,-0.11757176369428635,0.5765208601951599,0.5434202551841736,6.00941276550293,-1.6957712173461914,4.1642069816589355,0.3286409378051758,0.23289108276367188,-0.06847485899925232,-1.2714815139770508,0.005531395319849253,-0.8813992738723755,0.4045548141002655,1.3081032037734985,0.0032425422687083483,0.8279926776885986,-0.1680399775505066,-0.5037384629249573,0.014686808921396732,0.0020981156267225742,0.7890821695327759,-0.3710762858390808,0.01056874729692936,-0.8276112079620361,0.09327077120542526,0.02727550081908703,1.0690852403640747,-0.42232730984687805,0.007228370290249586,-0.1127057746052742,-0.16170062124729156,-0.6353691220283508,0.43020960688591003,0.008291835896670818,-1.4434164762496948,1.8493436574935913,-0.2802000343799591,-0.00016881944611668587,1.051747441291809,0.6822535395622253,0.5212805271148682,-0.2945578098297119,-1.3877439498901367,1.2600566148757935,-2.008948802947998,-0.11516016721725464,0.10024087131023407,-0.7235447764396667,-0.548163890838623,-6.142641067504883,1.5596017837524414,0.07055766880512238,1741516822.5702202,1741516821773,3.01288232421875,-0.9876400146484375,-1.2383115585576587,3.584653076171875,1.6500662841796876
1741516822.5602322,0.9920507669448853,0.05194725394239516,0.01534186060937585,-0.9985319775154359,0.003270717803388834,0.19519174098968506,0.6727030873298645,-2.140794277191162,1.3910620212554932,6.109241962432861,0.3290224075317383,0.23785018920898438,-0.06504157930612564,-1.2646150588989258,0.005531395319849253,-0.9069581031799316,0.422102689743042,1.300473690032959,0.0032425422687083483,0.8436331748962402,-0.1512550562620163,-0.5014495849609375,-0.004005493130534887,-0.018120087683200836,0.8077744841575623,-0.41019803285598755,0.007716787979006767,-0.8134965896606445,0.06809338182210922,0.01201647985726595,0.9187838435173035,-0.3916119635105133,0.001385330455377698,-0.009669030085206032,0.1258411705493927,0.3395783603191376,0.45381566882133484,-0.003991532605141401,-1.2011027336120605,1.133018136024475,-0.5305873155593872,8.622738823760301e-05,0.9966613054275513,0.8565995097160339,0.16472405195236206,-1.0003116130828857,-0.9570268392562866,1.004092812538147,-1.932357668876648,-0.017138240858912468,0.8409104347229004,-1.355171799659729,-0.7764344215393066,-7.6074113845825195,1.4006145000457764,-0.31389501690864563,1741516822.5702202,1741516821773,3.01288232421875,-0.9876400146484375,-1.2383115585576587,3.584653076171875,1.6500662841796876
1741516822.5802264,1.0069538354873657,0.05748804765654478,0.00821613073667693,-0.9983123857652757,0.36610034108161926,0.299022376537323,0.7885539531707764,6.050579071044922,0.8147413730621338,1.5855982303619385,0.3301668167114258,0.24624252319335938,-0.046730753034353256,-1.2596558332443237,0.005531395319849253,-0.9229800701141357,0.42706188559532166,1.2897924184799194,0.0032425422687083483,0.8577477931976318,-0.13790340721607208,-0.49038681387901306,-0.03490501269698143,-0.016212711110711098,0.838674008846283,-0.4451247453689575,0.007896589115262032,-0.770008385181427,0.03147173300385475,0.007057297509163618,0.7566567659378052,-0.3786992132663727,-0.006730080582201481,0.01390757691115141,0.21428248286247253,0.983867883682251,0.30754905939102173,-0.009869653731584549,-0.7140703201293945,0.16253314912319183,-0.8014109134674072,0.0025281633716076612,0.8095296621322632,0.6110193729400635,0.6143654584884644,-1.4927197694778442,0.38227999210357666,1.5933917760849,-1.6645302772521973,-0.060340382158756256,2.2443759441375732,-1.8707047700881958,-0.2929915189743042,-7.853446960449219,0.4980253577232361,-0.22306714951992035,1741516822.5702202,1741516821773,3.01288232421875,-0.9876400146484375,-1.2383115585576587,3.584653076171875,1.6500662841796876
1741516822.6002605,1.0242445766925812,0.050996663066734255,-0.007027347813057571,-0.9986740993631368,0.7523776888847351,-0.4952892065048218,0.9064440727233887,-19.223522186279297,-2.6387667655944824,14.046597480773926,0.3366518020629883,0.2668418884277344,-0.014686808921396732,-1.2592743635177612,0.005531395319849253,-0.9214541912078857,0.42553597688674927,1.2749148607254028,0.0032425422687083483,0.8615625500679016,-0.1356145590543747,-0.47894254326820374,-0.02841992862522602,-0.00858320016413927,0.8695735335350037,-0.46109724044799805,0.008637849241495132,-0.7406347990036011,0.00476844422519207,-0.0032425422687083483,0.7089722752571106,-0.34059569239616394,0.01844681240618229,0.18254251778125763,0.6616736054420471,1.7273808717727661,-0.05579637363553047,-0.00450710766017437,0.2344954013824463,-0.17985796928405762,-0.9986016750335693,0.0034985484089702368,0.03990832343697548,-0.009878217242658138,0.5139643549919128,0.843188464641571,0.3267342448234558,1.4292676448822021,-0.5436347126960754,0.09956956654787064,1.594460129737854,-0.7354816794395447,-0.7319788336753845,-0.23383541405200958,2.3988561630249023,1.488602638244629,1741516822.5702202,1741516821773,3.01288232421875,-0.9876400146484375,-1.2383115585576587,3.584653076171875,1.6500662841796876
1741516822.6202781,1.0330304503440857,0.054486994336381774,-0.014285058213477721,-0.9984122918714616,0.23162229359149933,0.14454498887062073,0.45667189359664917,6.944095134735107,4.911403179168701,5.390960693359375,0.3229188919067383,0.2512016296386719,0.03376058489084244,-1.2619446516036987,0.005149920005351305,-0.9096284508705139,0.39883267879486084,1.2608002424240112,0.0032425422687083483,0.8520256280899048,-0.15430685877799988,-0.4640650153160095,-0.029564354568719864,0.031090257689356804,0.9004730582237244,-0.4450015425682068,-0.0024181343615055084,-0.725375771522522,0.000572213320992887,0.019645990803837776,0.7558938264846802,-0.29029202461242676,0.04511573538184166,-0.3910481929779053,-0.3995814919471741,2.7211785316467285,-0.03782964125275612,-0.001989539945498109,0.6186891794204712,-2.074380397796631,-0.9107810258865356,0.023975836113095284,-0.6305327415466309,-0.971947431564331,0.4059687554836273,-0.2055806666612625,2.3253164291381836,1.6888614892959595,1.1186847686767578,-0.7048050761222839,0.3064807951450348,-0.7795738577842712,1.7396152019500732,1.5276991128921509,2.3632164001464844,1.1966544389724731,1741516822.5702202,1741516821773,3.01288232421875,-0.9876400146484375,-1.2383115585576587,3.584653076171875,1.6500662841796876
1741516822.6403246,1.0460893213748932,0.04643329861854592,-0.023421590919970776,-0.9986467733178627,0.5491527915000916,-0.3707630932331085,0.7663736939430237,-7.376770973205566,5.655585765838623,14.986466407775879,0.3294038772583008,0.2607383728027344,0.08945601433515549,-1.2592743635177612,0.005531395319849253,-0.8863584399223328,0.34504464268684387,1.2539336681365967,0.0032425422687083483,0.8424887657165527,-0.15659570693969727,-0.49038681387901306,-0.02231631986796856,0.08030059933662415,0.9725719094276428,-0.4154941141605377,0.002438083291053772,-0.6948577165603638,-0.009346150793135166,0.03223468363285065,0.7455939650535583,-0.24895258247852325,0.03458843007683754,0.13788069784641266,0.1105244979262352,2.6040282249450684,0.1200735792517662,-0.032704561948776245,1.223914623260498,-3.7535347938537598,-0.43841931223869324,-0.01917390711605549,-0.5824600458145142,0.07935547828674316,-1.514849305152893,0.40987929701805115,2.3918051719665527,4.151539325714111,1.3690136671066284,0.36790281534194946,2.0521249771118164,-0.09632434695959091,-0.02911458909511566,-0.6898182034492493,2.0662472248077393,-1.1807618141174316,1741516822.6725633,1741516821873,3.076651611328125,-0.92987548828125,-1.055277955521323,3.491841552734375,1.740741943359375
1741516822.6603367,1.069896474480629,0.03964030842016353,-0.035121582741027266,-0.9985965753867372,0.39195409417152405,-0.3719492256641388,1.3371597528457642,-3.533569812774658,0.0882018506526947,11.84934139251709,0.3347444534301758,0.2634086608886719,0.13904783129692078,-1.2691926956176758,0.005531395319849253,-0.8558403849601746,0.28439003229141235,1.2501189708709717,0.000572213320992887,0.8287556171417236,-0.15926603972911835,-0.5407415628433228,-0.0024795911740511656,0.1199740618467331,1.0915923118591309,-0.4048909842967987,0.012934881262481213,-0.6616693139076233,-0.016212711110711098,0.03147173300385475,0.7475013136863708,-0.2030421644449234,-0.004885980859398842,0.13584041595458984,0.008695151656866074,2.6199958324432373,-0.6893770694732666,-0.014131204225122929,1.5313174724578857,-3.781663417816162,-0.29378241300582886,-0.1412418633699417,-1.1514256000518799,-0.3107398450374603,-2.7327072620391846,0.9846495985984802,2.042722702026367,5.982158660888672,0.2414006143808365,0.3769894540309906,1.294986605644226,-0.45760366320610046,0.20329448580741882,0.37460097670555115,2.333623170852661,-1.5505865812301636,1741516822.6725633,1741516821873,3.076651611328125,-0.92987548828125,-1.055277955521323,3.491841552734375,1.740741943359375
1741516822.680397,1.106027141213417,0.03305382479330708,-0.04000711783780403,-0.998652529756394,0.20126625895500183,-0.2750808298587799,1.7879942655563354,1.4267102479934692,8.06429386138916,9.935787200927734,0.3179597854614258,0.2588310241699219,0.18558785319328308,-1.2733889818191528,0.005531395319849253,-0.8226520419120789,0.23670557141304016,1.2485930919647217,0.000572213320992887,0.8070115447044373,-0.1657511293888092,-0.6086442470550537,0.005531395319849253,0.15850308537483215,1.2006943225860596,-0.41846662759780884,0.002312627388164401,-0.6376363635063171,-0.024223696440458298,0.028038453310728073,0.7570382356643677,-0.16502180695533752,0.005020021926611662,-0.4472028613090515,-0.18454381823539734,2.2903711795806885,-0.21532964706420898,-0.007033750414848328,1.6998991966247559,-3.1762075424194336,-0.0602688230574131,-0.02644357457756996,-1.4467934370040894,-0.22444428503513336,-3.33296537399292,0.21564553678035736,1.7543834447860718,5.274272441864014,-0.7745652794837952,-0.5678207874298096,1.3059186935424805,-0.3585895001888275,-0.2869065999984741,0.3163662850856781,1.762363076210022,0.6897669434547424,1741516822.6725633,1741516821873,3.076651611328125,-0.92987548828125,-1.055277955521323,3.491841552734375,1.740741943359375
1741516822.7003858,1.1392924636602402,0.02436317633046223,-0.0452557121491109,-0.9986783046391703,0.18625061213970184,-0.3401574492454529,1.7221952676773071,-1.7000011205673218,3.1091902256011963,18.643983840942383,0.3274965286254883,0.2588310241699219,0.23441672325134277,-1.2741519212722778,0.005149920005351305,-0.7890821695327759,0.18787670135498047,1.2463041543960571,0.0013351644156500697,0.7825970649719238,-0.15812161564826965,-0.6635767221450806,0.009346150793135166,0.18902114033699036,1.269741415977478,-0.44141659140586853,-0.0018520788289606571,-0.6158922910690308,-0.03681239113211632,0.011635004542768002,0.7616159319877625,-0.1497195065021515,0.008868444710969925,0.21070873737335205,-0.012360763736069202,2.429243564605713,-0.09994976967573166,-0.0055829300545156,1.6209362745285034,-3.2656967639923096,-0.17053502798080444,0.042073506861925125,-1.6589741706848145,0.5224300622940063,-2.681316614151001,0.0852104127407074,1.5283403396606445,2.920285940170288,-1.1617968082427979,-0.052822940051555634,1.0218217372894287,-0.45438703894615173,-0.9739593267440796,0.49222883582115173,0.47696173191070557,-0.11264200508594513,1741516822.6725633,1741516821873,3.076651611328125,-0.92987548828125,-1.055277955521323,3.491841552734375,1.740741943359375
1741516822.720434,1.1653891652822495,0.021177917583534125,-0.042672666530772986,-0.9988646251309427,-0.20299392938613892,-0.05179113149642944,1.156631350517273,-0.0033027573954313993,5.074604034423828,11.230842590332031,0.3244447708129883,0.24929428100585938,0.2809567451477051,-1.2791110277175903,0.005531395319849253,-0.7589455842971802,0.14209964871406555,1.2470670938491821,0.0013351644156500697,0.7570382356643677,-0.15697719156742096,-0.7040131092071533,0.010109102353453636,0.20389868319034576,1.2747005224227905,-0.45537909865379333,-0.0005317245377227664,-0.5975814461708069,-0.049782559275627136,-0.00476844422519207,0.7806897163391113,-0.17316338419914246,-0.005836104042828083,-0.04751286283135414,-0.2765805125236511,2.2566583156585693,-0.3582455813884735,0.0026077318470925093,1.4132664203643799,-2.9942336082458496,0.14276322722434998,0.013253710232675076,-1.6769081354141235,0.0994798094034195,-1.8676269054412842,0.04119057580828667,0.6718217134475708,-0.23921990394592285,-0.553240180015564,0.032209135591983795,0.8975147604942322,-0.7558668851852417,-0.7713908553123474,0.7955315709114075,-1.4740632772445679,-0.5830973982810974,1741516822.6725633,1741516821873,3.076651611328125,-0.92987548828125,-1.055277955521323,3.491841552734375,1.740741943359375
1741516822.7404208,1.1802044734358788,0.020867831498784215,-0.038816156008654484,-0.9990284478638484,-0.20523212850093842,0.006094733718782663,0.6664345860481262,-5.513224124908447,3.6808226108551025,8.472769737243652,0.3255891799926758,0.24128341674804688,0.31795987486839294,-1.2840702533721924,0.005531395319849253,-0.7322422862052917,0.0875486359000206,1.2543151378631592,0.0013351644156500697,0.7383459210395813,-0.14820325374603271,-0.727664589881897,0.005912871100008488,0.20809490978717804,1.2335011959075928,-0.448648065328598,-0.005563882179558277,-0.5834668278694153,-0.0551232174038887,-0.01430533267557621,0.7791637778282166,-0.22186237573623657,0.0038307448849081993,0.03281009942293167,-0.23259373009204865,1.7889598608016968,-0.3403482139110565,-0.006544879637658596,1.2959567308425903,-3.9873948097229004,0.48061877489089966,0.001242769998498261,-1.1213245391845703,0.3587852120399475,-1.0895252227783203,-0.22324638068675995,0.14588148891925812,-2.288238763809204,0.44200557470321655,-0.2328552007675171,0.9345916509628296,-0.1631259024143219,-0.5318358540534973,-0.07693237066268921,-2.571610689163208,0.9916927218437195,1741516822.6725633,1741516821873,3.076651611328125,-0.92987548828125,-1.055277955521323,3.491841552734375,1.740741943359375
1741516822.7604635,1.195432461798191,0.029774910045845492,-0.038878170463952574,-0.9988002515984553,-0.0043466053903102875,0.46407055854797363,0.7869214415550232,0.5116664171218872,2.9121243953704834,7.979886531829834,0.3301668167114258,0.22411727905273438,0.3534370958805084,-1.2928441762924194,0.005531395319849253,-0.7097352743148804,0.02727550081908703,1.2623261213302612,0.0013351644156500697,0.7318608164787292,-0.152399480342865,-0.7391088604927063,0.010109102353453636,0.21000228822231293,1.1694133281707764,-0.4263963997364044,-0.0057444097474217415,-0.5571450591087341,-0.056267641484737396,-0.022697795182466507,0.7803082466125488,-0.27290043234825134,0.02278122864663601,0.12217818200588226,-0.5189773440361023,1.896317958831787,-0.6594355702400208,-0.0035944050177931786,1.1115951538085938,-3.667417049407959,0.5360329151153564,-0.007339017931371927,-0.2530209422111511,-0.3078548014163971,-0.5671942234039307,0.33836686611175537,0.15029899775981903,-3.2947521209716797,1.2420378923416138,0.12834013998508453,1.1262376308441162,-0.08905666321516037,-0.4793352782726288,0.08268845081329346,-2.500772714614868,0.8704284429550171,1741516822.6725633,1741516821873,3.076651611328125,-0.92987548828125,-1.055277955521323,3.491841552734375,1.740741943359375
1741516822.7804964,1.2116198912262917,0.03439713738129336,-0.04001262449662743,-0.9986069431066782,0.04034192115068436,0.23871302604675293,0.8257836699485779,1.970776081085205,-0.6706193089485168,7.790354251861572,0.3267335891723633,0.22259140014648438,0.38357365131378174,-1.2993292808532715,0.005531395319849253,-0.698291003704071,-0.00476844422519207,1.2684297561645508,0.0009536888683214784,0.7345311641693115,-0.17566949129104614,-0.7417792081832886,0.03147173300385475,0.22487983107566833,1.0900664329528809,-0.3938274681568146,-0.004045532550662756,-0.5392156839370728,-0.0558861680328846,-0.024605173617601395,0.7864118218421936,-0.3090570271015167,0.024207843467593193,-0.12595096230506897,-0.09303601086139679,1.3523194789886475,-0.34330275654792786,-0.0014948522439226508,0.45286163687705994,-1.9651825428009033,0.33837026357650757,0.002299319254234433,0.19535884261131287,-1.241991639137268,-0.012827474623918533,1.1867467164993286,0.88739013671875,-4.208158493041992,1.6421117782592773,0.05931384861469269,0.9100067615509033,0.06123623624444008,-0.027195151895284653,0.3411931097507477,-1.7502704858779907,0.007837274111807346,1741516822.8718925,1741516822073,3.16903076171875,-0.8404520874023438,-1.914940511879237,3.324546630859375,1.9176417236328125
1741516822.8005595,1.231474544852972,0.03529590233237404,-0.04057177911933733,-0.9985530181305524,-0.0016477468889206648,0.04872903227806091,1.0109410285949707,-0.9906446933746338,1.1875500679016113,9.267016410827637,0.3152894973754883,0.22297286987304688,0.39883267879486084,-1.301999568939209,0.005531395319849253,-0.7001983523368835,-0.021553369238972664,1.2703371047973633,0.0009536888683214784,0.7436865568161011,-0.20771344006061554,-0.7330052852630615,0.061226826161146164,0.24929426610469818,1.0011825561523438,-0.3574642241001129,-0.002659764839336276,-0.5079346895217896,-0.0555046908557415,-0.02231631986796856,0.7902265787124634,-0.3339006304740906,0.015331150963902473,-0.3692089319229126,0.0639396384358406,0.7110051512718201,-0.17254623770713806,-0.004833380691707134,-0.1588723361492157,-0.9721105694770813,0.11147815734148026,0.007030175533145666,0.646133542060852,-1.521336317062378,0.5308488607406616,1.5316827297210693,1.2465871572494507,-4.434576034545898,1.800266146659851,0.047901540994644165,1.762809157371521,0.037373319268226624,0.11988918483257294,0.15269844233989716,-1.1948295831680298,-0.3810519278049469,1741516822.8718925,1741516822073,3.16903076171875,-0.8404520874023438,-1.914940511879237,3.324546630859375,1.9176417236328125
1741516822.8205507,1.2533333972096443,0.0327769176297266,-0.041360859029775696,-0.9986065055921742,-0.025781523436307907,-0.1254911720752716,1.1083117723464966,1.5861858129501343,-0.7935854196548462,8.839948654174805,0.3152894973754883,0.22907638549804688,0.4030289053916931,-1.301999568939209,0.005531395319849253,-0.7116426229476929,-0.021171892061829567,1.2703371047973633,0.0009536888683214784,0.7585641145706177,-0.2317463904619217,-0.7063019871711731,0.09441519528627396,0.2782863974571228,0.9134432077407837,-0.32079824805259705,-0.0007146967109292746,-0.47817960381507874,-0.04901960864663124,-0.023460745811462402,0.7894636392593384,-0.3524557054042816,0.009636052884161472,-0.01674743741750717,0.22272922098636627,0.07307305186986923,0.004725345876067877,-0.0006390726193785667,-0.6539809107780457,0.18226537108421326,-0.006029984448105097,0.015079115517437458,0.9815002679824829,-1.1398847103118896,1.3637267351150513,1.6753370761871338,1.524339199066162,-4.489475250244141,1.8342921733856201,0.10471794009208679,1.3536993265151978,0.3455387353897095,-0.01738937571644783,-0.06681247055530548,-0.9168195128440857,-0.28141844272613525,1741516822.8718925,1741516822073,3.16903076171875,-0.8404520874023438,-1.914940511879237,3.324546630859375,1.9176417236328125
1741516822.840593,1.2772315023466945,0.026522971645207033,-0.03741100570370351,-0.9989479208784335,-0.2716084122657776,-0.2540595829486847,1.1869480609893799,1.5754904747009277,0.705941379070282,8.897621154785156,0.3068971633911133,0.23022079467773438,0.39730677008628845,-1.299710750579834,0.005531395319849253,-0.7337682247161865,-0.0024795911740511656,1.2695741653442383,0.0009536888683214784,0.7745860815048218,-0.24891279637813568,-0.6765468716621399,0.1199740618467331,0.31567102670669556,0.8272297382354736,-0.28849536180496216,0.0008425609557889402,-0.44270238280296326,-0.03757534176111221,-0.024986648932099342,0.7887006998062134,-0.3636148273944855,0.010467946529388428,-0.24645845592021942,0.06023280695080757,-0.37987080216407776,0.18422164022922516,-0.0004819677851628512,-1.1780462265014648,1.4201650619506836,-0.044794607907533646,0.013003558851778507,1.102623701095581,-0.7867945432662964,1.5006927251815796,1.067037582397461,2.0949900150299072,-4.248226642608643,1.5546709299087524,0.03118457831442356,1.9775501489639282,0.6592733263969421,-0.08463271707296371,-0.06606707721948624,-0.5171027779579163,0.08054526895284653,1741516822.8718925,1741516822073,3.16903076171875,-0.8404520874023438,-1.914940511879237,3.324546630859375,1.9176417236328125
1741516822.8606055,1.300415949895978,0.019932251973415617,-0.028096644442677406,-0.9994064658097475,-0.5414336919784546,-0.31392738223075867,1.1417371034622192,-2.7145044803619385,4.327370643615723,12.755085945129395,0.2954530715942383,0.22640609741210938,0.38204777240753174,-1.2962775230407715,0.005531395319849253,-0.761997401714325,0.02536812424659729,1.2722445726394653,0.0013351644156500697,0.7936598658561707,-0.2576867341995239,-0.6429770588874817,0.12951095402240753,0.3538185656070709,0.7478827834129333,-0.26707637310028076,0.007955332286655903,-0.39692530035972595,-0.02536812424659729,-0.026512550190091133,0.7803082466125488,-0.364228218793869,0.013224553316831589,-0.3277174234390259,-0.1150805801153183,-0.7716279029846191,0.21952974796295166,-0.006040684413164854,-1.4392716884613037,1.871997594833374,0.2300771176815033,0.04186396673321724,1.265934944152832,-0.32291191816329956,1.6755174398422241,0.6970659494400024,1.5785824060440063,-3.8303236961364746,1.0065699815750122,0.539413332939148,2.2275989055633545,0.42384693026542664,-0.11065875738859177,-0.46459469199180603,0.08126392215490341,0.30748414993286133,1741516822.8718925,1741516822073,3.16903076171875,-0.8404520874023438,-1.914940511879237,3.324546630859375,1.9176417236328125
1741516822.8805842,1.3182285819202662,0.008472246273943164,-0.018298964909980373,-0.9997966637903414,-0.4577755331993103,-0.6338245272636414,0.821808934211731,-4.503050327301025,0.49126940965652466,15.143186569213867,0.2950716018676758,0.23250961303710938,0.3599221706390381,-1.295133113861084,0.005531395319849253,-0.7887006998062134,0.05893797054886818,1.2791110277175903,0.0024795911740511656,0.813115119934082,-0.2626459002494812,-0.6052109599113464,0.14476996660232544,0.3561074137687683,0.7162203192710876,-0.2545703053474426,0.03172275796532631,-0.3553444743156433,-0.02193484455347061,-0.024986648932099342,0.778782308101654,-0.3572264313697815,0.013849180191755295,-0.04824089631438255,0.17207659780979156,-1.1916108131408691,-0.02885492518544197,0.00501682423055172,-1.3330588340759277,2.3192529678344727,0.37070930004119873,0.07848101109266281,1.2284961938858032,-0.30110806226730347,2.0789549350738525,0.39006415009498596,-0.1464426964521408,-0.8278549909591675,0.5232309699058533,1.2007691860198975,2.1166367530822754,0.17599162459373474,0.22648312151432037,0.06471721082925797,0.43307071924209595,0.040398843586444855,1741516822.8718925,1741516822073,3.16903076171875,-0.8404520874023438,-1.914940511879237,3.324546630859375,1.9176417236328125
1741516822.900632,1.3330582082271576,0.002972053645105476,-0.010664496903444686,-0.9999387158235884,-0.4081322252750397,-0.24546587467193604,0.7412452101707458,-1.889771819114685,3.4716336727142334,12.325926780700684,0.2954530715942383,0.22983932495117188,0.32101166248321533,-1.2962775230407715,0.005531395319849253,-0.8165484070777893,0.09708552807569504,1.2821629047393799,0.0024795911740511656,0.8329518437385559,-0.2637903392314911,-0.5651560425758362,0.12722209095954895,0.3412298858165741,0.7074463963508606,-0.2660450339317322,0.04431333392858505,-0.3282597064971924,0.0013351644156500697,0.0078202486038208,0.7967116832733154,-0.33620429039001465,0.015148723497986794,0.018007922917604446,-0.06754299998283386,-2.1801598072052,-0.0009865658357739449,-0.00731107359752059,-1.3964347839355469,2.6032607555389404,0.12934549152851105,0.0019912924617528915,1.322588324546814,-0.009642240591347218,1.6611640453338623,-1.0646781921386719,-0.7799094915390015,-0.7172051072120667,-0.7545353770256042,0.5977378487586975,1.0319684743881226,1.28640615940094,1.9352951049804688,1.1120766401290894,1.15122652053833,0.0540536604821682,1741516822.8718925,1741516822073,3.16903076171875,-0.8404520874023438,-1.914940511879237,3.324546630859375,1.9176417236328125
1741516822.9206548,1.3471567295491695,-0.0008589587049430922,-0.005348942702029524,-0.9999853253932848,-0.19832926988601685,-0.13418933749198914,0.7243450880050659,-20.344316482543945,7.338072776794434,12.634632110595703,0.2878236770629883,0.23174667358398438,0.26760509610176086,-1.2962775230407715,0.005531395319849253,-0.8424887657165527,0.13942931592464447,1.2817814350128174,0.0024795911740511656,0.8539330363273621,-0.26951247453689575,-0.534637987613678,0.09327077120542526,0.2969787120819092,0.6937133073806763,-0.28513672947883606,0.07342331111431122,-0.343900203704834,0.02727550081908703,0.07763027399778366,0.8596551418304443,-0.3057408034801483,0.010374545119702816,-0.22311042249202728,0.05839153751730919,-2.643580198287964,-0.004083214793354273,-0.0035947472788393497,-1.2759227752685547,2.8742899894714355,-0.04782005771994591,0.004163318779319525,1.4152452945709229,-0.3959604799747467,1.7507625818252563,-1.7754656076431274,-2.4673378467559814,-0.6388267278671265,-0.9067405462265015,1.5305583477020264,-0.8809109330177307,1.2237517833709717,4.019132614135742,3.622753858566284,1.5673221349716187,-0.3592689335346222,1741516822.8718925,1741516822073,3.16903076171875,-0.8404520874023438,-1.914940511879237,3.324546630859375,1.9176417236328125
1741516822.9407556,1.3592068403959274,0.005593929136126741,-0.008404458461057534,-0.9999490352186937,0.18458899855613708,0.26130515336990356,0.4828735589981079,6.089170455932617,3.5176985263824463,2.404536008834839,0.2927827835083008,0.22716903686523438,0.20122835040092468,-1.2955145835876465,0.005531395319849253,-0.8680475950241089,0.1817730963230133,1.2775851488113403,0.0020981156267225742,0.8760585784912109,-0.2744716703891754,-0.5071717500686646,0.06847485899925232,0.24242770671844482,0.6815060377120972,-0.2971934378147125,0.08637065440416336,-0.4079881012439728,0.04940108209848404,0.16269932687282562,0.9786755442619324,-0.2617848515510559,0.0033214217983186245,0.10650992393493652,-0.10096869617700577,-3.290771961212158,0.0641617551445961,-0.002905453322455287,-1.2137762308120728,2.8051226139068604,-0.276937872171402,-0.022802574560046196,1.5170692205429077,-0.26911282539367676,0.8415175080299377,-1.2776472568511963,-2.5900492668151855,-0.7290876507759094,-0.4998963475227356,0.4131181240081787,-3.5137999057769775,1.1642674207687378,4.346599102020264,6.348927021026611,2.165867328643799,-0.2288280576467514,1741516822.8718925,1741516822073,3.16903076171875,-0.8404520874023438,-1.914940511879237,3.324546630859375,1.9176417236328125
1741516822.9607499,1.3587151393294334,0.01218459405863175,-0.016824532544337488,-0.9997842121039373,0.439449280500412,0.4543684124946594,-0.02848520129919052,13.130765914916992,0.3311522901058197,8.716401100158691,0.2828645706176758,0.22869491577148438,0.13752193748950958,-1.292462706565857,0.005531395319849253,-0.8916990756988525,0.2153429538011551,1.2676668167114258,0.002861066721379757,0.8985656499862671,-0.2904936373233795,-0.49191272258758545,0.032616160809993744,0.2141985148191452,0.6731135845184326,-0.29654914140701294,0.0757918655872345,-0.5121309161186218,0.09327077120542526,0.21915769577026367,1.1381323337554932,-0.2464689314365387,-0.007110591046512127,-0.2690070867538452,-0.03952130675315857,-3.3845694065093994,0.3096260726451874,-0.018625065684318542,-1.205246090888977,2.067812919616699,-0.6656162142753601,0.028060076758265495,1.5160406827926636,-0.9202685952186584,0.7993435263633728,-1.6380813121795654,-1.044697880744934,-0.3084704577922821,0.026816416531801224,-0.606078028678894,-5.205820560455322,2.0356903076171875,2.4330062866210938,8.2434720993042,0.3265010714530945,-0.5198047161102295,1741516822.8718925,1741516822073,3.16903076171875,-0.8404520874023438,-1.914940511879237,3.324546630859375,1.9176417236328125
1741516822.9807749,1.355953261256218,0.018696919231012743,-0.02756212242549083,-0.9994452234208092,0.5198168754577637,0.26225546002388,-0.1815032958984375,-0.5773835778236389,-1.4382420778274536,11.920448303222656,0.2775230407714844,0.23479843139648438,0.07686731964349747,-1.2813999652862549,0.005531395319849253,-0.9130617380142212,0.248531311750412,1.2573670148849487,0.002861066721379757,0.9214541912078857,-0.30498969554901123,-0.4835202693939209,0.016594186425209045,0.19321736693382263,0.6677729487419128,-0.30090048909187317,0.0691082626581192,-0.6311513185501099,0.12645913660526276,0.23441672325134277,1.2922483682632446,-0.2808965742588043,-0.015556823462247849,-0.18351827561855316,0.1130654364824295,-3.2868523597717285,0.731478750705719,0.0022690489422529936,-1.0332106351852417,2.300045967102051,-0.6413110494613647,-0.016419576480984688,1.4337844848632812,-0.7162356376647949,0.25496330857276917,-0.7198578119277954,-0.9713671207427979,-0.22095122933387756,-0.24117834866046906,-0.2447289377450943,-6.0267720222473145,1.4881598949432373,0.3814401626586914,7.3501362800598145,-2.0347044467926025,-0.3007664680480957,1741516823.0767689,1741516822273,3.1994619140625002,-0.7353980712890625,-1.7560084441531103,3.1704570312500002,2.089992431640625
1741516823.000798,1.3496753461658955,0.025215754242962515,-0.03536215567465308,-0.9990563966483573,0.3699010908603668,0.35980066657066345,-0.30542436242103577,-0.4164365530014038,-7.630289554595947,10.217549324035645,0.2603569030761719,0.23823165893554688,0.023079270496964455,-1.2711000442504883,0.005531395319849253,-0.9313725233078003,0.28400853276252747,1.2524077892303467,0.002861066721379757,0.9374761581420898,-0.31834134459495544,-0.4736018776893616,0.01125352829694748,0.17261768877506256,0.6754024624824524,-0.30541154742240906,0.061075642704963684,-0.733386754989624,0.14438849687576294,0.2138170450925827,1.3834210634231567,-0.3390466272830963,-0.015602138824760914,-0.4809843599796295,0.06594446301460266,-2.5616071224212646,0.7458048462867737,-0.013036513701081276,-0.8699458837509155,2.3708014488220215,-0.2752506136894226,0.011706809513270855,1.0127522945404053,-0.5879015922546387,0.618903636932373,-0.2401532232761383,-1.1168431043624878,0.4691441059112549,-0.24379970133304596,-0.5061536431312561,-4.699899196624756,0.7824708223342896,-1.141021966934204,3.874955654144287,-2.940155029296875,0.0329047292470932,1741516823.0767689,1741516822273,3.1994619140625002,-0.7353980712890625,-1.7560084441531103,3.1704570312500002,2.089992431640625
1741516823.0208125,1.353396363556385,0.029592242733866823,-0.03368808433134814,-0.9989942002554688,-0.17966292798519135,0.1841159462928772,0.22889307141304016,1.571166753768921,-5.048647880554199,9.97472095489502,0.24013900756835938,0.24052047729492188,-0.01506828423589468,-1.2558410167694092,0.005912871100008488,-0.9431982636451721,0.31757840514183044,1.2520263195037842,0.002861066721379757,0.9462500810623169,-0.31834134459495544,-0.4709315598011017,0.010109102353453636,0.1501106321811676,0.6837949156761169,-0.31832560896873474,0.046671733260154724,-0.8073930144309998,0.14667734503746033,0.18787670135498047,1.3895246982574463,-0.3980185091495514,-0.009100524708628654,-0.6193901896476746,0.10178564488887787,-1.747049331665039,1.0237386226654053,0.010384248569607735,-0.5474452972412109,2.2225534915924072,0.0379025973379612,-0.0025233966298401356,0.5358679890632629,0.006926169153302908,0.08357742428779602,-0.05670616403222084,-1.125089168548584,0.4253256618976593,-0.7160363793373108,-0.6497666835784912,-3.3715386390686035,-0.012661689892411232,-1.2577053308486938,-0.3171588182449341,-3.0256423950195312,0.6617130041122437,1741516823.0767689,1741516822273,3.1994619140625002,-0.7353980712890625,-1.7560084441531103,3.1704570312500002,2.089992431640625
1741516823.0408146,1.362372986972332,0.03494910192042346,-0.02486792563452062,-0.9990796497525068,-0.4571516811847687,0.28891217708587646,0.44725409150123596,1.8606170415878296,-0.039284221827983856,8.588017463684082,0.23632431030273438,0.23746871948242188,-0.05436026677489281,-1.2413450479507446,0.005912871100008488,-0.9523537158966064,0.34809643030166626,1.2562226057052612,0.0032425422687083483,0.9470130205154419,-0.3133821487426758,-0.4648279547691345,0.008201723918318748,0.1199740618467331,0.7043945789337158,-0.34137341380119324,0.04420933127403259,-0.839436948299408,0.14667734503746033,0.15850308537483215,1.3174258470535278,-0.4493449628353119,0.0039232526905834675,-0.13838043808937073,-0.031214790418744087,-2.1469132900238037,0.8522297143936157,0.08929450809955597,-0.45287516713142395,2.0287060737609863,0.30149534344673157,0.037353795021772385,-0.03237536922097206,0.38253870606422424,0.3945469558238983,-0.03294183313846588,-1.5942997932434082,1.1127148866653442,-1.2355663776397705,-0.12815828621387482,-1.2573766708374023,-0.02323191426694393,-1.3325086832046509,-4.19089937210083,-2.4860708713531494,0.6958104372024536,1741516823.0767689,1741516822273,3.1994619140625002,-0.7353980712890625,-1.7560084441531103,3.1704570312500002,2.089992431640625
1741516823.0608277,1.3755543157458305,0.03887961366462164,-0.014443306993487007,-0.9991395130432895,-0.5821915864944458,0.15966679155826569,0.6840744614601135,12.813169479370117,-1.184252142906189,4.3766021728515625,0.22602462768554688,0.23594284057617188,-0.086785688996315,-1.232571005821228,0.005149920005351305,-0.9634165167808533,0.3725108802318573,1.2608002424240112,0.0032425422687083483,0.9443427324295044,-0.3057526648044586,-0.4732204079627991,0.00019073777366429567,0.09212634712457657,0.7265201807022095,-0.372988224029541,0.05061984062194824,-0.8356221914291382,0.14362554252147675,0.13828489184379578,1.1804760694503784,-0.4790920913219452,0.004703341983258724,-0.3055852949619293,-0.04469819366931915,-1.4532196521759033,0.5758524537086487,-0.0349549762904644,-0.5054839253425598,1.5528448820114136,0.30250880122184753,-0.009330312721431255,-0.18549363315105438,0.3712213933467865,-0.7582573890686035,-0.4622063636779785,-1.3973597288131714,1.033873200416565,-1.5963177680969238,0.5422139763832092,0.3837398290634155,-0.23764623701572418,-0.929656445980072,-7.257880210876465,-1.281227946281433,-0.04575250670313835,1741516823.0767689,1741516822273,3.1994619140625002,-0.7353980712890625,-1.7560084441531103,3.1704570312500002,2.089992431640625
1741516823.080875,1.3895329609513283,0.04401672726063754,-0.0036608143932564245,-0.999024086876408,-0.5078348517417908,0.412617027759552,0.6558256149291992,5.4822540283203125,2.2559070587158203,3.045576572418213,0.21763134002685547,0.23365402221679688,-0.09937438368797302,-1.2253230810165405,0.005531395319849253,-0.9691386222839355,0.39425498247146606,1.2627075910568237,0.0036240178160369396,0.9420538544654846,-0.2927824854850769,-0.47474631667137146,-0.014686808921396732,0.0715266615152359,0.7593270540237427,-0.4024495482444763,0.053812362253665924,-0.7982375621795654,0.12569619715213776,0.12798504531383514,1.0072861909866333,-0.48738935589790344,0.0024646634701639414,-0.26417189836502075,-0.05986194312572479,-0.5390947461128235,0.42307448387145996,-0.007072690408676863,-0.2851296663284302,1.549578070640564,0.036894362419843674,0.010253706015646458,-0.1677844524383545,0.6532161235809326,0.05899367481470108,-0.8520980477333069,-0.9935346245765686,1.727146863937378,-1.434691071510315,0.024312244728207588,2.0580310821533203,-1.0384408235549927,-0.6131812930107117,-8.87057113647461,-0.29707083106040955,-0.04980698972940445,1741516823.0767689,1741516822273,3.1994619140625002,-0.7353980712890625,-1.7560084441531103,3.1704570312500002,2.089992431640625
1741516823.1009946,1.3992628008127213,0.05022281056503673,-0.00038602166347261876,-0.9987379637753958,-0.11883854866027832,0.28574419021606445,0.5416116714477539,4.273923873901367,0.16200047731399536,3.255009889602661,0.21610546112060547,0.23289108276367188,-0.08907453715801239,-1.219982385635376,0.005531395319849253,-0.9725719094276428,0.41142138838768005,1.2573670148849487,0.0032425422687083483,0.9374761581420898,-0.28286412358283997,-0.4854276478290558,-0.03681239113211632,0.07267109304666519,0.7932783961296082,-0.42701923847198486,0.0503285750746727,-0.7558938264846802,0.09975585341453552,0.11539635062217712,0.8161669373512268,-0.49275824427604675,0.0016885411459952593,-0.10636302083730698,-0.033331867307424545,0.6675782799720764,0.31558671593666077,-0.0006551592377945781,-0.09956458956003189,0.992074728012085,-0.33968913555145264,-0.0018865993479266763,-0.26609981060028076,0.48918765783309937,-0.4724535048007965,-1.04508638381958,0.3415014147758484,1.749749779701233,-1.1278702020645142,-0.20976072549819946,1.8901194334030151,-1.2806893587112427,-0.500816822052002,-9.535200119018555,-0.4143228232860565,0.023819081485271454,1741516823.0767689,1741516822273,3.1994619140625002,-0.7353980712890625,-1.7560084441531103,3.1704570312500002,2.089992431640625
1741516823.1210086,1.412125363945961,0.053200810272118086,-0.010992122819654379,-0.998523333238792,0.6241128444671631,0.04846031591296196,0.6828247308731079,-3.6475534439086914,8.980810165405273,24.8454532623291,0.21839427947998047,0.24547958374023438,-0.06198977679014206,-1.217693567276001,0.005531395319849253,-0.9718089699745178,0.4190509021282196,1.2497375011444092,0.0032425422687083483,0.9321355223655701,-0.28362706303596497,-0.483138769865036,-0.03147173300385475,0.07991912961006165,0.8375295400619507,-0.4380013346672058,0.03909195959568024,-0.7303349375724792,0.07000076025724411,0.11234454810619354,0.7330052852630615,-0.4612174928188324,0.0369923934340477,0.056078698486089706,0.3715539574623108,1.584241271018982,0.08919662982225418,0.006311218719929457,0.052134837955236435,0.4563450217247009,-0.5978856086730957,-0.0017997275572270155,-0.4077356159687042,0.005412998143583536,0.16970643401145935,0.6952573657035828,0.23832759261131287,2.1889660358428955,-0.4269304573535919,-0.603736937046051,1.1543611288070679,-1.096542239189148,-0.2648327946662903,-1.5643616914749146,2.1420793533325195,1.9491283893585205,1741516823.0767689,1741516822273,3.1994619140625002,-0.7353980712890625,-1.7560084441531103,3.1704570312500002,2.089992431640625
1741516823.1410673,1.4203792959451675,0.05471207168454755,-0.01882399162612873,-0.998324719994073,0.2956373989582062,0.2771011292934418,0.3436242640018463,5.402952194213867,-4.82184362411499,5.4995036125183105,0.19779491424560547,0.24319076538085938,-0.014686808921396732,-1.2218897342681885,0.005149920005351305,-0.9699015617370605,0.4072251319885254,1.23905611038208,0.0036240178160369396,0.9199283123016357,-0.30422675609588623,-0.47512778639793396,-0.024605173617601395,0.11730372905731201,0.8607995510101318,-0.4349047541618347,0.01258806511759758,-0.7177462577819824,0.05664911866188049,0.12722209095954895,0.7902265787124634,-0.4027487337589264,0.08011656254529953,-0.6425495743751526,-0.0947701632976532,2.6384403705596924,-0.29757624864578247,-0.004866653122007847,0.10883325338363647,-1.115765929222107,-0.7189249992370605,0.041934385895729065,-0.743330180644989,-1.1501967906951904,0.393728643655777,-0.004848151002079248,2.307406187057495,1.1197196245193481,0.2936100959777832,-1.5578149557113647,0.09127158671617508,-1.0802891254425049,1.1275068521499634,2.139658212661743,2.6721479892730713,1.3997007608413696,1741516823.1792524,1741516822373,3.22011279296875,-0.67797802734375,-2.432196142391312,3.10097216796875,2.174470458984375
1741516823.1610467,1.4254745095968246,0.05128253237582771,-0.024883187105643197,-0.9983741427303633,0.382636159658432,-0.2725008726119995,0.3651592433452606,-4.356581211090088,5.051797866821289,10.578324317932129,0.19779491424560547,0.2576866149902344,0.05664911866188049,-1.228756308555603,0.005912871100008488,-0.9653238654136658,0.361829549074173,1.2291377782821655,0.0036240178160369396,0.916876494884491,-0.30498969554901123,-0.4877164959907532,-0.014686808921396732,0.17681391537189484,0.9004730582237244,-0.42738375067710876,0.005471694283187389,-0.7024872303009033,0.02880140393972397,0.14476996660232544,0.7646677494049072,-0.3615116775035858,0.05699140578508377,-0.03908499330282211,0.35730862617492676,3.648118734359741,-0.5262477993965149,0.022636136040091515,0.2559385597705841,-3.2907814979553223,-0.6312370300292969,-0.020079998299479485,-0.09172944724559784,0.4712204933166504,-0.8508788347244263,0.5900402665138245,2.988064765930176,2.5562760829925537,0.3148103356361389,0.022083012387156487,1.3263332843780518,-1.1065075397491455,0.4517538249492645,-1.6587557792663574,1.9366191625595093,-1.2476370334625244,1741516823.1792524,1741516822373,3.22011279296875,-0.67797802734375,-2.432196142391312,3.10097216796875,2.174470458984375
1741516823.1811092,1.43456269800663,0.04487836151554787,-0.03694036446527931,-0.998309241738677,0.5155114531517029,-0.24353933334350586,0.6203890442848206,0.20132067799568176,-7.159397602081299,12.448343276977539,0.19741344451904297,0.2531089782714844,0.13179980218410492,-1.2451597452163696,0.005912871100008488,-0.9584572911262512,0.31414511799812317,1.2218897342681885,0.0020981156267225742,0.9138246774673462,-0.2962157726287842,-0.5262455344200134,0.023460745811462402,0.2290760725736618,0.995841920375824,-0.433427631855011,0.01085309125483036,-0.657473087310791,0.02536812424659729,0.14286258816719055,0.7547493577003479,-0.3119294047355652,0.0536554679274559,-0.08837953209877014,-0.1352713704109192,3.739393711090088,-1.1152383089065552,0.0314081609249115,0.3754030168056488,-2.8629913330078125,-0.47135281562805176,-0.09612011164426804,-0.3888591229915619,0.3023025393486023,-2.0762670040130615,2.1139416694641113,2.4592905044555664,5.084055423736572,-0.4619309604167938,0.10196753591299057,1.6744816303253174,-0.14197087287902832,0.2846004366874695,-0.14097929000854492,2.3932247161865234,-0.03223395720124245,1741516823.1792524,1741516822373,3.22011279296875,-0.67797802734375,-2.432196142391312,3.10097216796875,2.174470458984375
1741516823.2010896,1.4599664807319641,0.03619741226013979,-0.03717042214501675,-0.998653146524473,-0.039667610079050064,-0.37105879187583923,1.3615273237228394,-5.842013359069824,-0.22767868638038635,10.337882995605469,0.16575145721435547,0.2550163269042969,0.1993209719657898,-1.2508819103240967,0.005149920005351305,-0.954261064529419,0.26913100481033325,1.219982385635376,0.0020981156267225742,0.9103913903236389,-0.2969787120819092,-0.5937666893005371,0.054741740226745605,0.27141985297203064,1.1095216274261475,-0.4553789794445038,-0.0005327689577825367,-0.6387808322906494,0.016594186425209045,0.14400701224803925,0.7516975402832031,-0.27943986654281616,0.05267811566591263,-0.9693586826324463,-0.04693913459777832,3.182663917541504,-0.24100470542907715,-0.04285072535276413,0.16358979046344757,-3.2517952919006348,-0.047110415995121,0.018706772476434708,-0.10833883285522461,-0.07180193811655045,-3.4747555255889893,1.3523571491241455,2.1469967365264893,5.621859073638916,-1.1966201066970825,-0.6094462871551514,1.2280151844024658,-0.3527125120162964,-0.2526615262031555,-0.2593894600868225,1.4137109518051147,-0.1475450098514557,1741516823.1792524,1741516822373,3.22011279296875,-0.67797802734375,-2.432196142391312,3.10097216796875,2.174470458984375
1741516823.2211459,1.495035007596016,0.03257462323959911,-0.0350031706248316,-0.9988561818234931,-0.16518229246139526,-0.10556007921695709,1.741242527961731,4.002194881439209,-2.2351725101470947,11.247756004333496,0.17566967010498047,0.24395370483398438,0.2615014910697937,-1.2516448497772217,0.005531395319849253,-0.9496833682060242,0.2149614691734314,1.2234156131744385,0.0020981156267225742,0.9096284508705139,-0.29888609051704407,-0.6643396615982056,0.07648584991693497,0.2962157726287842,1.2090867757797241,-0.4808015525341034,0.0003627113183028996,-0.6063553690910339,-0.002861066721379757,0.11577782779932022,0.7444495558738708,-0.2658970355987549,0.05752365291118622,0.166038379073143,-0.28076818585395813,2.8557567596435547,-0.10407869517803192,-0.0025733483489602804,0.2690710425376892,-3.5293831825256348,0.24877269566059113,0.01996878907084465,-0.05427900329232216,-0.08806789666414261,-3.5124449729919434,1.1133108139038086,0.9911056160926819,4.495473861694336,-1.2325783967971802,0.21526725590229034,1.603857398033142,-0.847750723361969,-1.5004651546478271,-0.2772528827190399,0.584934413433075,0.3516845703125,1741516823.1792524,1741516822373,3.22011279296875,-0.67797802734375,-2.432196142391312,3.10097216796875,2.174470458984375
1741516823.2413566,1.532282292842865,0.028287851874306293,-0.028323419641524353,-0.9991984694424564,-0.4373749792575836,-0.1373278796672821,1.8473045825958252,3.5671465396881104,-0.12103629857301712,11.005988121032715,0.16308116912841797,0.23517990112304688,0.3213931620121002,-1.2524077892303467,0.005531395319849253,-0.9374761581420898,0.15926603972911835,1.225704550743103,0.0020981156267225742,0.9081025123596191,-0.30270084738731384,-0.7173647880554199,0.09899290651082993,0.30384528636932373,1.259060025215149,-0.49405884742736816,-0.0004111608723178506,-0.5884260535240173,-0.03223468363285065,0.08411535620689392,0.7448310256004333,-0.26728472113609314,0.06677131354808807,-0.31361791491508484,-0.2208014577627182,3.078744649887085,-0.009419120848178864,0.0049291797913610935,0.6503252387046814,-3.6245055198669434,0.0855925902724266,0.011593027971684933,-0.06928560882806778,-0.2020389437675476,-2.3917980194091797,1.0460939407348633,0.4241003692150116,1.9595195055007935,-0.5110020041465759,-0.22498087584972382,0.7299410700798035,-1.348110556602478,-1.4484453201293945,0.024116406217217445,-0.1282290369272232,0.4190424680709839,1741516823.2816339,1741516822473,3.241411865234375,-0.6241690673828125,-1.9055979554473927,3.033362548828125,2.256437255859375
1741516823.2614672,1.5688060224056244,0.023969706909140524,-0.01958865542922015,-0.9995207540262309,-0.4401702880859375,-0.1323574036359787,1.7699906826019287,-0.20281676948070526,3.3811259269714355,9.190295219421387,0.16079235076904297,0.22755050659179688,0.3713664412498474,-1.2501189708709717,0.005531395319849253,-0.924887478351593,0.1028076633810997,1.226467490196228,0.0020981156267225742,0.9103913903236389,-0.3068970739841461,-0.7513160705566406,0.11730372905731201,0.3091859221458435,1.2537193298339844,-0.49026644229888916,-0.005848095752298832,-0.5590524077415466,-0.05054550990462303,0.06504157930612564,0.7452124953269958,-0.27695900201797485,0.08125827461481094,-0.08428381383419037,-0.18571610748767853,2.467085838317871,0.14555875957012177,0.004943547770380974,0.5750715732574463,-3.767904281616211,0.057388730347156525,0.0085236094892025,0.18975377082824707,-0.3682223856449127,-1.5517160892486572,0.982022225856781,0.2395881563425064,-0.596704363822937,0.2609100639820099,-0.15175962448120117,1.7380409240722656,-0.9457977414131165,-0.8818621039390564,-0.004944895394146442,-0.5249767899513245,0.7704964280128479,1741516823.2816339,1741516822473,3.241411865234375,-0.6241690673828125,-1.9055979554473927,3.033362548828125,2.256437255859375
1741516823.2814553,1.590931087732315,0.022044737262986776,-0.01412575913038888,-0.9996571874837874,-0.29294732213020325,-0.06267359852790833,1.0678108930587769,-3.6255972385406494,2.6206846237182617,9.757497787475586,0.16498851776123047,0.22220993041992188,0.41294726729393005,-1.2505004405975342,0.005912871100008488,-0.917639434337616,0.05054550990462303,1.223797082901001,0.002861066721379757,0.9130617380142212,-0.3130006790161133,-0.7597085237503052,0.14515145123004913,0.3107118308544159,1.2155718803405762,-0.47399020195007324,-0.004866060335189104,-0.5315861701965332,-0.054741740226745605,0.059319447726011276,0.7402533292770386,-0.2900458574295044,0.09920110553503036,0.09642217308282852,-0.12919625639915466,2.09545636177063,-0.05236711725592613,0.046885501593351364,0.27559882402420044,-3.388465404510498,-0.1952025443315506,0.025541312992572784,0.1922467052936554,-0.2407992035150528,-0.18660271167755127,1.4130734205245972,0.15510837733745575,-2.0073487758636475,0.8788246512413025,-0.002389925764873624,1.2910791635513306,-0.09626743197441101,-0.19417154788970947,-0.20434951782226562,-0.66082364320755,0.9050977230072021,1741516823.2816339,1741516822473,3.241411865234375,-0.6241690673828125,-1.9055979554473927,3.033362548828125,2.256437255859375
1741516823.3014657,1.6052465438842773,0.026361803043295343,-0.008339123983453102,-0.9996176840930212,-0.2843109369277954,0.21815894544124603,0.7390263676643372,2.9119937419891357,3.62857985496521,8.094380378723145,0.16041088104248047,0.20847606658935547,0.464446485042572,-1.2546966075897217,0.005531395319849253,-0.9115357995033264,0.005912871100008488,1.2241785526275635,0.0020981156267225742,0.9164950251579285,-0.3244449496269226,-0.7608529925346375,0.1806286722421646,0.31567102670669556,1.1606394052505493,-0.4482424855232239,-0.0056151216849684715,-0.5045014023780823,-0.054741740226745605,0.05855649709701538,0.7383459210395813,-0.3031940162181854,0.10354942083358765,-0.12517884373664856,-0.3710033893585205,2.6017088890075684,-0.2291516214609146,-0.007461355999112129,0.312049001455307,-2.8917815685272217,0.11941445618867874,-0.05356917902827263,0.23805679380893707,-0.6994516849517822,-0.13200706243515015,1.77285897731781,0.18842746317386627,-2.842494249343872,1.3595807552337646,0.004844235721975565,1.2318108081817627,-0.011151885613799095,-0.06945796310901642,-0.1697051078081131,-0.6532248854637146,0.13978411257266998,1741516823.2816339,1741516822473,3.241411865234375,-0.6241690673828125,-1.9055979554473927,3.033362548828125,2.256437255859375
1741516823.321543,1.6195034384727478,0.027802430811375584,-0.004745699279347009,-0.999602172456287,-0.22416147589683533,0.09783075749874115,0.7179672122001648,2.7994565963745117,0.815549373626709,10.549304962158203,0.15430641174316406,0.20466136932373047,0.4964904189109802,-1.2546966075897217,0.005531395319849253,-0.9092469811439514,-0.0398641936480999,1.224560022354126,0.0020981156267225742,0.9267948269844055,-0.3381780683994293,-0.7547493577003479,0.21686884760856628,0.31910428404808044,1.0831998586654663,-0.41865816712379456,-0.001658405177295208,-0.47512778639793396,-0.057793546468019485,0.05741206929087639,0.7322422862052917,-0.31676340103149414,0.10663945972919464,-0.16873420774936676,-0.1416185051202774,1.3970165252685547,-0.031638700515031815,-0.0028367689810693264,0.04626840353012085,-3.078587293624878,-0.06410645693540573,0.01294998824596405,0.7690726518630981,-0.671492338180542,0.4379764497280121,1.643587589263916,0.22442281246185303,-4.057620525360107,1.4921461343765259,0.3077326714992523,1.5647051334381104,-0.24219703674316406,-0.011102786287665367,-0.2813345491886139,-0.6773563027381897,0.26928022503852844,1741516823.2816339,1741516822473,3.241411865234375,-0.6241690673828125,-1.9055979554473927,3.033362548828125,2.256437255859375
1741516823.3414702,1.6365973949432373,0.02746528300709539,0.00015871721314153348,-0.999622745358561,-0.26817813515663147,-0.05607083439826965,0.8709245324134827,2.8078575134277344,1.6655385494232178,8.764511108398438,0.13904762268066406,0.20389842987060547,0.5094605684280396,-1.2562226057052612,0.005531395319849253,-0.9100099205970764,-0.06694895774126053,1.222271203994751,0.0020981156267225742,0.9390020370483398,-0.3530556261539459,-0.734912633895874,0.2439536154270172,0.33398184180259705,0.9905012845993042,-0.3909223973751068,0.000471401319373399,-0.4396505653858185,-0.06046387553215027,0.0558861680328846,0.7238498330116272,-0.33168652653694153,0.11025755107402802,-0.4421018362045288,-0.003431478515267372,0.4889529347419739,-0.08057422190904617,-0.004227280616760254,-0.031890030950307846,-1.450116515159607,-0.10816581547260284,-0.027018630877137184,0.8630462884902954,-0.7017643451690674,1.123503565788269,1.2741025686264038,0.9351927042007446,-4.748359203338623,1.3372560739517212,0.04074455797672272,1.8572958707809448,-0.15043136477470398,-0.06527327746152878,-0.5047613978385925,-0.763755202293396,0.14252124726772308,1741516823.3838263,1741516822573,3.232245849609375,-0.5805802612304688,-0.12854022328641004,2.9684394531250002,2.335336181640625
