Freshhhhh-LC/Legged_odom/data/4/segments/booster_seg_9.84s.csv
time,yaw,projected_gravity_x,projected_gravity_y,projected_gravity_z,ang_vel_x,ang_vel_y,ang_vel_z,lin_acc_x,lin_acc_y,lin_acc_z,q_0,q_1,q_2,q_3,q_4,q_5,q_6,q_7,q_8,q_9,q_10,q_11,q_12,q_13,q_14,q_15,q_16,q_17,q_18,q_19,q_20,q_21,q_22,dq_0,dq_1,dq_2,dq_3,dq_4,dq_5,dq_6,dq_7,dq_8,dq_9,dq_10,dq_11,dq_12,dq_13,dq_14,dq_15,dq_16,dq_17,dq_18,dq_19,dq_20,dq_21,dq_22,mocap_time,mocap_timestamp,robot_x,robot_y,robot_yaw,ball_x,ball_y
1741516703.4092317,2.632990837097168,0.011119923478871242,-0.09848401904285513,-0.9950765022323613,-0.060516782104969025,0.01625019870698452,0.3628677427768707,11.405073165893555,-6.0350542068481445,9.375601768493652,-0.12378883361816406,0.17795848846435547,0.15812161564826965,-1.2443968057632446,0.00476844422519207,-0.9706645011901855,0.290112167596817,1.2432523965835571,0.013923857361078262,0.9096284508705139,-0.007438773289322853,-0.3576333224773407,-0.14286258816719055,0.09098191559314728,1.1835278272628784,-0.37770941853523254,0.08581606298685074,-0.7871748208999634,-0.029564354568719864,0.06046387553215027,0.8299000263214111,-0.26735982298851013,0.053303252905607224,0.9741076231002808,-0.17164801061153412,3.040611505508423,0.3318201005458832,0.013838624581694603,0.008258330635726452,-5.68806791305542,0.2450089454650879,-0.06225151568651199,0.3617786169052124,0.6618662476539612,-5.960822105407715,-0.42400309443473816,-2.746750593185425,9.659475326538086,1.6511955261230469,-1.5628254413604736,2.39520525932312,0.5604682564735413,1.2239187955856323,-0.2419932633638382,1.0805784463882446,-1.4650100469589233,1741516703.3776286,1741516702633,-1.7512298583984376,2.19485546875,1.4260049899548735,-3.6839580078125,0.5476484985351563
1741516703.4118476,2.6808019876480103,-0.018948462138779324,-0.08164081395182601,-0.996481677342769,-0.20806750655174255,-0.15092891454696655,0.00017726806981954724,-3.6599035263061523,6.56978178024292,9.0872220993042,-0.07114505767822266,0.20237255096435547,0.3843366205692291,-1.2569855451583862,0.005531395319849253,-0.9496833682060242,0.010490577667951584,1.236767292022705,0.013542382046580315,0.9126802682876587,0.058175019919872284,-0.7448310256004333,-0.11730372905731201,0.09632257372140884,1.3651102781295776,-0.48281896114349365,-0.010642963461577892,-0.6727321147918701,-0.07610437273979187,0.06466010212898254,0.8520256280899048,-0.2747889459133148,0.07144389301538467,0.428777277469635,0.041356757283210754,2.72269606590271,-0.13329973816871643,-0.011509177275002003,0.4659675657749176,-4.05062198638916,-0.14711125195026398,0.042158421128988266,0.06752964109182358,0.8613110184669495,-3.4281857013702393,0.7152782678604126,0.23647038638591766,-2.6888248920440674,-1.6026428937911987,-1.4092345237731934,1.150114893913269,-0.6363810896873474,-0.13599351048469543,0.4647470712661743,-1.011345386505127,0.7302173376083374,1741516703.3776286,1741516702633,-1.7512298583984376,2.19485546875,1.4260049899548735,-3.6839580078125,0.5476484985351563
1741516703.417676,3.7231401205062866,-0.005024349597945716,-0.08101594350216676,-0.9967001418729563,-0.2753143608570099,0.30648234486579895,0.296380877494812,-1.3599351644515991,0.13744528591632843,8.33317756652832,0.11463356018066406,0.18863964080810547,-0.051689937710762024,-1.239819049835205,0.005531395319849253,-0.9340428709983826,0.309567391872406,1.2566040754318237,0.013923857361078262,0.951972246170044,-0.22602425515651703,-0.44422826170921326,-0.048256658017635345,0.25501641631126404,0.6837949156761169,-0.41954362392425537,0.0444595105946064,-0.8680475950241089,0.17338064312934875,0.22373540699481964,1.4574273824691772,-0.5128294825553894,0.007022895384579897,-0.4797007441520691,-0.09755425900220871,-2.447582483291626,0.023714935407042503,-0.0036876671947538853,-0.49549344182014465,3.592972993850708,0.20156516134738922,0.03872676566243172,-0.21649104356765747,0.3877493441104889,0.19788068532943726,-0.4508756995201111,-0.7963479161262512,0.19728150963783264,-1.4019854068756104,0.7211712598800659,-4.171632766723633,-0.13417120277881622,-1.6799609661102295,-3.7899084091186523,-1.145492672920227,0.03177010267972946,1741516703.3776286,1741516702633,-1.7512298583984376,2.19485546875,1.4260049899548735,-3.6839580078125,0.5476484985351563
1741516703.4377835,3.7332974672317505,0.0022698712135449687,-0.07506771479043693,-0.9971758550430389,-0.29599493741989136,0.42820674180984497,0.5393931865692139,-1.43704354763031,-0.49623793363571167,8.28073501586914,0.09708595275878906,0.18406200408935547,-0.08907453715801239,-1.2379117012023926,0.005531395319849253,-0.9515907764434814,0.3587777614593506,1.2619446516036987,0.013923857361078262,0.9451056718826294,-0.22526131570339203,-0.4404135048389435,-0.04634927958250046,0.25387197732925415,0.6956206560134888,-0.44841468334198,0.06268765032291412,-0.9206912517547607,0.15964750945568085,0.1985580176115036,1.338788390159607,-0.508557915687561,0.012631047517061234,-0.5027035474777222,-0.09848640859127045,-1.83396577835083,0.1306150108575821,-0.009242295287549496,-0.8131192922592163,3.1570639610290527,0.4143353998661041,0.00590386101976037,-0.4758099913597107,0.12287778407335281,0.395851731300354,0.1045457124710083,-0.02183389849960804,0.7085211277008057,-1.4089230298995972,0.7759034633636475,-2.4604380130767822,-0.7394165992736816,-1.172208309173584,-6.198615550994873,0.4832887351512909,0.4120926260948181,1741516703.4714756,1741516702733,-1.819484619140625,2.14870263671875,1.7830902578311536,-3.7159423828125,0.45498974609375004
1741516703.4577372,3.7417839765548706,0.015064097179036706,-0.06948730550718198,-0.9974690909243915,-0.26343265175819397,0.6661141514778137,0.41005900502204895,-3.0824780464172363,-3.1613357067108154,6.819119930267334,0.08907413482666016,0.17833995819091797,-0.10624094307422638,-1.235241413116455,0.005531395319849253,-0.9653238654136658,0.39768826961517334,1.2646150588989258,0.013923857361078262,0.9382390975952148,-0.22144655883312225,-0.4354543387889862,-0.04444190114736557,0.25387197732925415,0.7108796834945679,-0.473721444606781,0.0611497163772583,-0.9359502792358398,0.13752193748950958,0.17566949129104614,1.1854352951049805,-0.4788084030151367,0.012774142436683178,-0.2673197388648987,-0.09023234248161316,-0.6429699659347534,0.21755585074424744,-0.003943937364965677,-0.6420285701751709,2.5839614868164062,0.09064996987581253,-0.005644014570862055,-0.509075939655304,0.13828960061073303,0.20514565706253052,0.006382470019161701,-0.030571093782782555,0.7103996276855469,-1.2739406824111938,-0.08171368390321732,-0.5440384149551392,-1.1807308197021484,-1.2490839958190918,-7.976041316986084,1.5508296489715576,-0.13795870542526245,1741516703.4714756,1741516702733,-1.819484619140625,2.14870263671875,1.7830902578311536,-3.7159423828125,0.45498974609375004
1741516703.4777765,3.747662663459778,0.02773155283797042,-0.06604636857623776,-0.9974311195140677,-0.13981802761554718,0.5791714191436768,0.22201743721961975,1.8054113388061523,0.4535461664199829,7.527033805847168,0.07572269439697266,0.17643260955810547,-0.10128175467252731,-1.233715534210205,0.005531395319849253,-0.9733348488807678,0.4331654906272888,1.2623261213302612,0.013542382046580315,0.9283207654953003,-0.212672621011734,-0.4186694025993347,-0.0551232174038887,0.25463491678237915,0.726138710975647,-0.49758753180503845,0.05487770214676857,-0.9290837049484253,0.10967422276735306,0.1489662081003189,0.9882124066352844,-0.4503159821033478,-0.0029364528600126505,-0.38988548517227173,-0.021909812465310097,0.47006937861442566,0.11090020835399628,-0.005824004299938679,-0.3363947570323944,2.1472413539886475,-0.2698932886123657,0.004703249782323837,-0.5995388627052307,0.47038501501083374,0.8190155029296875,-0.4763275682926178,0.07642892748117447,0.599632203578949,-1.2680554389953613,-0.4026080369949341,0.7474285364151001,-1.5015828609466553,-1.2979601621627808,-9.910699844360352,1.3037294149398804,-0.8173575401306152,1741516703.4714756,1741516702733,-1.819484619140625,2.14870263671875,1.7830902578311536,-3.7159423828125,0.45498974609375004
1741516703.4977634,3.749266028404236,0.03272030497291795,-0.06811976899398114,-0.9971404508466627,0.1531921625137329,0.17645466327667236,0.05180392786860466,6.331398963928223,2.4396913051605225,9.765764236450195,0.07305240631103516,0.19245433807373047,-0.06961929053068161,-1.23295259475708,0.005531395319849253,-0.9721904397010803,0.44613564014434814,1.2535521984100342,0.013542382046580315,0.9195467829704285,-0.21114671230316162,-0.3858625292778015,-0.07267109304666519,0.26722362637519836,0.7375829815864563,-0.5162469148635864,0.03880034759640694,-0.9031433463096619,0.06466010212898254,0.13065537810325623,0.8222705721855164,-0.42255666851997375,0.0067000482231378555,-0.07812418788671494,0.4842914640903473,1.712228536605835,0.04382796585559845,-0.012083728797733784,0.11340441554784775,0.7421227097511292,-0.5970401763916016,-0.005849277134984732,-0.5674946308135986,0.04095250368118286,1.8575302362442017,-0.9519227743148804,0.6688190698623657,0.5945463180541992,-0.8220017552375793,-0.763071596622467,1.0839308500289917,-2.2393746376037598,-0.7607741951942444,-7.214056491851807,1.882520079612732,1.3180031776428223,1741516703.4714756,1741516702733,-1.819484619140625,2.14870263671875,1.7830902578311536,-3.7159423828125,0.45498974609375004
1741516703.5178478,3.7488683462142944,0.023511180303695093,-0.07377067221337538,-0.9969980503099862,0.16618220508098602,-0.3121394217014313,-0.12334196269512177,-2.5004560947418213,0.8047652840614319,14.169398307800293,0.062371253967285156,0.21229076385498047,-0.02040894143283367,-1.2421079874038696,0.00476844422519207,-0.967994213104248,0.44346532225608826,1.2432523965835571,0.013542382046580315,0.9061951637268066,-0.2141985148191452,-0.34924086928367615,-0.07877469807863235,0.28439003229141235,0.7574197053909302,-0.5157145261764526,0.05324500426650047,-0.8539330363273621,0.051689937710762024,0.12912946939468384,0.8600366115570068,-0.360460489988327,0.05141783133149147,-0.31979432702064514,0.4794147312641144,2.5967438220977783,-0.6919900178909302,-0.09093833714723587,0.14111687242984772,-0.5165006518363953,-0.6587464213371277,0.021329790353775024,-0.8878142833709717,-0.5449898838996887,1.7496556043624878,-0.2668726444244385,1.1704150438308716,0.9428314566612244,0.33554163575172424,0.7690017223358154,3.0437088012695312,-0.8757188320159912,0.12800587713718414,2.3158726692199707,2.9039056301116943,2.034742832183838,1741516703.4714756,1741516702733,-1.819484619140625,2.14870263671875,1.7830902578311536,-3.7159423828125,0.45498974609375004
1741516703.5378423,3.745123505592346,0.021593684078588204,-0.07323090890333457,-0.997081213737931,-6.48030691081658e-05,-0.38065576553344727,-0.00807920005172491,-10.553292274475098,6.812267780303955,7.80789852142334,0.045586585998535156,0.22182846069335938,0.04749370738863945,-1.2447782754898071,0.00667582219466567,-0.9618905782699585,0.4053177833557129,1.2371487617492676,0.013923857361078262,0.9039062857627869,-0.23250934481620789,-0.33398184180259705,-0.08297093212604523,0.31834134459495544,0.8134965896606445,-0.48389124870300293,0.05794540047645569,-0.8310444951057434,0.03604944050312042,0.1646067053079605,0.8512626886367798,-0.3234213888645172,0.06273335963487625,-0.3959515690803528,0.3988533020019531,3.5265910625457764,-0.1336212158203125,0.15227428078651428,0.4037728011608124,-2.7666075229644775,-0.3682563304901123,0.037168990820646286,-0.07906343787908554,-0.7334095239639282,0.43055012822151184,-0.058665771037340164,1.6074981689453125,3.2631351947784424,1.7415190935134888,0.3364030718803406,1.1668322086334229,-0.4670462906360626,1.7771493196487427,-1.2712732553482056,1.6568408012390137,0.39486512541770935,1741516703.5744257,1741516702833,-1.8969453125,2.091326904296875,2.1446051194156714,-3.749373046875,0.36624075317382815
1741516703.5580287,3.7496899366378784,0.013601607311979092,-0.08102662420709875,-0.9966191260698002,0.3717934787273407,-0.20293386280536652,0.32195040583610535,-0.604445219039917,-7.18735408782959,4.076381206512451,0.053215980529785156,0.21801280975341797,0.11577782779932022,-1.2520263195037842,0.005912871100008488,-0.953498125076294,0.3564889132976532,1.233715534210205,0.012779430486261845,0.9054322242736816,-0.24280919134616852,-0.36297398805618286,-0.06008239835500717,0.3419928252696991,0.9313725233078003,-0.4409983456134796,0.06888207048177719,-0.7726787328720093,0.040245670825242996,0.1802472025156021,0.846684992313385,-0.2941073477268219,0.04412839934229851,0.18252278864383698,-0.024430396035313606,3.3996028900146484,-0.7251697182655334,0.04245861992239952,0.34342217445373535,-3.1045329570770264,-0.21868783235549927,-0.09758683294057846,0.007673230487853289,-0.5478173494338989,-1.7440333366394043,1.3695781230926514,0.9357572793960571,6.5629754066467285,2.1723685264587402,0.46330317854881287,2.8855535984039307,0.3349904417991638,0.9021041393280029,0.3748767077922821,1.5330084562301636,-1.0588927268981934,1741516703.5744257,1741516702833,-1.8969453125,2.091326904296875,2.1446051194156714,-3.749373046875,0.36624075317382815
1741516703.5779884,3.7711275815963745,0.0049837709844549926,-0.08177836321046485,-0.9966380794136815,0.03524389863014221,-0.42229029536247253,1.1803604364395142,-8.468146324157715,-5.466634750366211,9.49069881439209,0.02613067626953125,0.22793197631835938,0.17490653693675995,-1.2615631818771362,0.005149920005351305,-0.9489204287528992,0.3084229826927185,1.231045126914978,0.012779430486261845,0.9050507545471191,-0.25387197732925415,-0.44499123096466064,-0.02727550081908703,0.34847790002822876,1.0908293724060059,-0.40646570920944214,0.045171525329351425,-0.7509346008300781,0.04406042397022247,0.20809490978717804,0.8470664620399475,-0.2764762043952942,0.03319983556866646,-0.8238636255264282,0.49602916836738586,2.838078260421753,-0.3860659897327423,-0.07593299448490143,0.20581290125846863,-3.327223777770996,-0.17465481162071228,0.03621632605791092,0.045171357691287994,-0.5696243643760681,-4.5521416664123535,1.4183706045150757,0.10130000114440918,7.711690902709961,1.4830044507980347,-1.6622260808944702,1.1061582565307617,0.25609686970710754,1.2838793992996216,-0.08168000727891922,0.7101163268089294,-0.25249120593070984,1741516703.5744257,1741516702833,-1.8969453125,2.091326904296875,2.1446051194156714,-3.749373046875,0.36624075317382815
1741516703.598043,3.8010259866714478,0.004596785751514115,-0.08336212394381314,-0.9965087184025692,0.11640875786542892,0.2169599086046219,1.5177149772644043,6.83272123336792,-1.5415587425231934,7.689169406890869,0.031853675842285156,0.20923900604248047,0.2286945879459381,-1.2611817121505737,0.005531395319849253,-0.9462500810623169,0.247768372297287,1.2299007177352905,0.012779430486261845,0.9077210426330566,-0.2637903392314911,-0.5380712747573853,-0.008201723918318748,0.34580758213996887,1.2464714050292969,-0.40000101923942566,-0.006286459509283304,-0.7104982137680054,0.03757534176111221,0.2145799994468689,0.8508812189102173,-0.27453315258026123,0.037087805569171906,0.11812792718410492,-0.43791449069976807,2.654954195022583,-0.10262610763311386,0.027588609606027603,0.06239541620016098,-4.218358039855957,-0.06074877083301544,-0.014488176442682743,0.20149004459381104,-0.4164198935031891,-4.84468412399292,1.1096349954605103,-0.03191034123301506,7.294321537017822,-0.015536685474216938,-2.063326358795166,1.9887771606445312,-0.39008310437202454,0.09140347689390182,0.22075992822647095,-0.007890982553362846,0.07240092754364014,1741516703.5744257,1741516702833,-1.8969453125,2.091326904296875,2.1446051194156714,-3.749373046875,0.36624075317382815
1741516703.6180363,3.832661271095276,-0.0004812503862695012,-0.08057950782104462,-0.9967480681282428,-0.17823520302772522,-0.11767864227294922,1.5163702964782715,2.4109580516815186,2.4289357662200928,13.346675872802734,0.02536773681640625,0.20771312713623047,0.28324559330940247,-1.2611817121505737,0.00476844422519207,-0.9458686113357544,0.182154580950737,1.228756308555603,0.013160906732082367,0.9096284508705139,-0.266460657119751,-0.6227588057518005,0.012779430486261845,0.34771496057510376,1.3353551626205444,-0.4287327826023102,0.00868240837007761,-0.6883726119995117,0.01773861236870289,0.21076524257659912,0.8485923409461975,-0.28822559118270874,0.04044489562511444,-0.21353042125701904,-0.050218578428030014,2.869068145751953,0.062426019459962845,-0.09420882910490036,0.12407156825065613,-4.324146747589111,-0.10268525034189224,0.031249690800905228,0.16196675598621368,0.03028644062578678,-4.1409592628479,1.0543278455734253,0.13124361634254456,3.8399620056152344,-1.523313283920288,1.0558135509490967,1.1211963891983032,-1.0727792978286743,-0.21186919510364532,-0.1049107015132904,-0.889226496219635,0.3159339129924774,1741516703.5744257,1741516702833,-1.8969453125,2.091326904296875,2.1446051194156714,-3.749373046875,0.36624075317382815
1741516703.6380575,3.855087161064148,-0.0021804809986919103,-0.07660882334345606,-0.9970588416380176,-0.1795138567686081,0.03418480604887009,0.9310667514801025,-2.8076670169830322,3.844170570373535,10.855566024780273,0.02727508544921875,0.20084667205810547,0.3385595381259918,-1.2596558332443237,0.005149920005351305,-0.9458686113357544,0.11425192654132843,1.2253230810165405,0.013160906732082367,0.9119172692298889,-0.26684215664863586,-0.6830319762229919,0.034142062067985535,0.34657052159309387,1.3456549644470215,-0.4620411992073059,0.007201381027698517,-0.6422140598297119,-0.004005493130534887,0.20313572883605957,0.8440146446228027,-0.32049795985221863,0.05519139766693115,0.0734676793217659,-0.16520608961582184,2.778205633163452,0.04383199289441109,-0.006723974831402302,-0.04856831207871437,-4.441243648529053,-0.2697977125644684,0.020262461155653,0.08635949343442917,-0.0663343220949173,-2.83200740814209,1.0666145086288452,-0.23370361328125,-0.06295912712812424,-1.5551081895828247,-0.6294242143630981,2.6270251274108887,-1.0959371328353882,-0.3877725601196289,-0.34962496161460876,-1.6840635538101196,0.7927353978157043,1741516703.6767404,1741516702933,-1.9529364013671875,2.0335006103515627,1.696991200916212,-3.781544677734375,0.2792422485351563
1741516703.6589732,3.86190927028656,-0.001926220926464134,-0.07440391510416572,-0.9972263269138628,-0.11485051363706589,-0.0051395222544670105,0.1869577020406723,1.6301807165145874,-0.3572562336921692,10.221879959106445,0.02956390380859375,0.19474315643310547,0.3912031650543213,-1.2600373029708862,0.005531395319849253,-0.9458686113357544,0.05054550990462303,1.2218897342681885,0.013160906732082367,0.9122987985610962,-0.25272753834724426,-0.7188906669616699,0.06389715522527695,0.3393225073814392,1.2949187755584717,-0.47901037335395813,-0.015960808843374252,-0.5998703241348267,-0.021553369238972664,0.1985580176115036,0.8237964510917664,-0.35826200246810913,0.06879564374685287,0.0799100250005722,-0.1774986982345581,2.572012186050415,-0.10329979658126831,0.0007971577579155564,0.002523273229598999,-4.315600872039795,-0.1488228291273117,0.009249581024050713,-0.01802891492843628,0.8572221398353577,-1.662566065788269,1.516738772392273,-0.38032612204551697,-2.789250373840332,-0.6421200633049011,-0.8288934230804443,1.8676341772079468,-0.8173971176147461,-0.1880519688129425,-1.1211183071136475,-1.8992919921875,0.6166775226593018,1741516703.6767404,1741516702933,-1.9529364013671875,2.0335006103515627,1.696991200916212,-3.781544677734375,0.2792422485351563
1741516703.6781173,3.861702799797058,-0.0003399660279679885,-0.07048989740195703,-0.9975124354048731,-0.19112317264080048,0.14461690187454224,0.04483078420162201,0.6795490980148315,0.33432647585868835,8.468347549438477,0.02613067626953125,0.18406200408935547,0.44804301857948303,-1.2630890607833862,0.005531395319849253,-0.9428167939186096,-0.01583123579621315,1.2299007177352905,0.013160906732082367,0.9157320261001587,-0.24090181291103363,-0.7478827834129333,0.09708552807569504,0.33474478125572205,1.2102311849594116,-0.47187817096710205,-0.006213817745447159,-0.5506599545478821,-0.0394827201962471,0.18635080754756927,0.8020523190498352,-0.38855382800102234,0.07125908136367798,-0.08842440694570541,-0.3340592384338379,2.711369276046753,-0.12753072381019592,0.0013195215724408627,0.163963183760643,-4.559402942657471,0.585137665271759,-0.007784794084727764,0.3604447543621063,0.42358487844467163,-1.4814263582229614,1.731926441192627,-0.1580180525779724,-4.447052001953125,0.5939018726348877,0.58573317527771,2.817187547683716,-0.9778984785079956,-0.6447036266326904,-1.0002589225769043,-1.4685636758804321,0.04581731930375099,1741516703.6767404,1741516702933,-1.9529364013671875,2.0335006103515627,1.696991200916212,-3.781544677734375,0.2792422485351563
1741516703.6981459,3.867575764656067,0.004252621193146609,-0.0671435464999841,-0.9977342629059063,-0.15969040989875793,0.23417572677135468,0.2768597900867462,4.738837718963623,0.03526225686073303,7.965294361114502,0.02460479736328125,0.17643260955810547,0.4869535267353058,-1.2596558332443237,0.005531395319849253,-0.9405279755592346,-0.0722896158695221,1.23295259475708,0.013160906732082367,0.9298466444015503,-0.23861294984817505,-0.7608529925346375,0.1359960287809372,0.33054855465888977,1.11295485496521,-0.43691638112068176,-0.0070160189643502235,-0.5025940537452698,-0.05855649709701538,0.1684214472770691,0.7734416723251343,-0.4157758355140686,0.06726333498954773,-0.054637644439935684,-0.22261834144592285,1.6588956117630005,0.22178401052951813,0.015587893314659595,0.14493626356124878,-3.5185351371765137,0.09468317776918411,-0.00861815270036459,1.061747431755066,0.14321129024028778,-0.4288864731788635,1.99363112449646,-0.21155905723571777,-4.945126533508301,1.8688420057296753,-0.13550132513046265,1.960444688796997,-0.8517147302627563,-0.8341617584228516,-1.4924497604370117,-1.337107539176941,-0.14247694611549377,1741516703.6767404,1741516702933,-1.9529364013671875,2.0335006103515627,1.696991200916212,-3.781544677734375,0.2792422485351563
1741516703.71813,3.8771740198135376,0.008919605985976029,-0.0632482361923314,-0.997957965671708,-0.1998077780008316,0.38925233483314514,0.530245840549469,5.142801284790039,3.6524646282196045,7.465480804443359,0.02117156982421875,0.16079235076904297,0.5037384629249573,-1.2592743635177612,0.005531395319849253,-0.9336614012718201,-0.10585946589708328,1.231808066368103,0.013160906732082367,0.9466315507888794,-0.2508201599121094,-0.7524605393409729,0.17566949129104614,0.33588922023773193,1.0030899047851562,-0.39089053869247437,-0.003884914331138134,-0.45796138048171997,-0.06771191209554672,0.16231784224510193,0.7482643127441406,-0.43987706303596497,0.06760697066783905,-0.09801743924617767,-0.43151968717575073,0.6133596301078796,0.05729711428284645,-0.009502679109573364,0.33835306763648987,-1.9619723558425903,-0.03429612144827843,-0.01629236899316311,1.1190285682678223,-0.810539960861206,0.4214734733104706,2.0007760524749756,0.38298219442367554,-5.632908821105957,2.300670862197876,0.32390308380126953,2.708399534225464,-0.5187898874282837,-0.15279340744018555,-1.1378419399261475,-1.1463744640350342,-0.05327596142888069,1741516703.6767404,1741516702933,-1.9529364013671875,2.0335006103515627,1.696991200916212,-3.781544677734375,0.2792422485351563
1741516703.7382505,3.8949486017227173,0.010887399349384824,-0.05910555447478877,-0.9981923652110521,-0.23540230095386505,0.052102334797382355,0.9269886612892151,1.3714138269424438,3.048739433288574,4.964303493499756,0.01506805419921875,0.15735912322998047,0.4991607666015625,-1.2550780773162842,0.005531395319849253,-0.9279392957687378,-0.11043716967105865,1.231045126914978,0.013160906732082367,0.959220290184021,-0.2752346098423004,-0.7387273907661438,0.20313572883605957,0.361066609621048,0.884069561958313,-0.3495185375213623,0.004391907714307308,-0.4072251319885254,-0.06733043491840363,0.16994735598564148,0.7162203192710876,-0.4615858793258667,0.06007210537791252,-0.1806214153766632,-0.10621954500675201,-0.3695412278175354,0.2605174481868744,-0.0019164461409673095,0.2664536237716675,0.013745610602200031,-0.0784417986869812,0.0020673214457929134,0.7696221470832825,-1.2655364274978638,0.9413456916809082,1.1237692832946777,1.4900273084640503,-6.075525760650635,1.8858526945114136,0.34958726167678833,2.3550047874450684,0.12136869877576828,0.4470870792865753,-1.6701897382736206,-1.0547223091125488,-0.31685641407966614,1741516703.7777774,1741516703033,-2.0067286376953124,1.9531712646484376,1.765445001217778,-3.79092724609375,0.2025933837890625
1741516703.7581856,3.9153181314468384,0.007598027122493775,-0.0534416882364434,-0.9985420651841788,-0.27332115173339844,-0.094925656914711,1.0337295532226562,-5.723486423492432,2.089022159576416,8.95170783996582,0.00667572021484375,0.15468788146972656,0.4797055125236511,-1.2527892589569092,0.005531395319849253,-0.9225986003875732,-0.09288929402828217,1.2276118993759155,0.013160906732082367,0.9660868048667908,-0.30193790793418884,-0.7017242908477783,0.22602425515651703,0.39921414852142334,0.7543678879737854,-0.3295762538909912,0.008214933797717094,-0.3385595381259918,-0.06542305648326874,0.1825360506772995,0.6986724734306335,-0.47703301906585693,0.044535115361213684,-0.256945937871933,-0.09160172939300537,-1.1339738368988037,0.1410108357667923,-0.011903395876288414,0.2991562485694885,1.3303492069244385,-0.2836016118526459,-0.00384588073939085,0.3943886160850525,-1.2566351890563965,2.0547478199005127,1.2090091705322266,1.7703464031219482,-6.3150529861450195,0.9039785861968994,0.1769803911447525,3.5623879432678223,-0.027071263641119003,0.6457932591438293,-0.7540881633758545,-0.7172515392303467,-0.9993808269500732,1741516703.7777774,1741516703033,-2.0067286376953124,1.9531712646484376,1.765445001217778,-3.79092724609375,0.2025933837890625
1741516703.778252,3.935768485069275,-0.004915473280078722,-0.05126972870197414,-0.9986727457186658,-0.05575043708086014,-0.6530613899230957,0.9961182475090027,4.427640914916992,0.26421111822128296,11.854979515075684,0.00133514404296875,0.17795848846435547,0.44346532225608826,-1.2531707286834717,0.005531395319849253,-0.916113555431366,-0.057793546468019485,1.217693567276001,0.012779430486261845,0.9660868048667908,-0.3213931620121002,-0.6528953909873962,0.21648737788200378,0.44728007912635803,0.7352941036224365,-0.30989745259284973,0.01945647969841957,-0.2790493667125702,-0.07534141838550568,0.20580606162548065,0.691805899143219,-0.4752572178840637,0.04149411618709564,-0.15246817469596863,0.6939669251441956,-1.8539752960205078,-0.11027665436267853,0.006321207620203495,0.3067268133163452,2.474294424057007,-0.6176257133483887,-3.547471351339482e-05,-0.045218855142593384,-0.8086121678352356,2.567687511444092,-1.1073839664459229,2.42937970161438,0.10260877758264542,0.8207083940505981,0.7749494314193726,2.597072124481201,-0.42619502544403076,1.388230323791504,-0.3018878996372223,0.3287276327610016,0.31186172366142273,1741516703.7777774,1741516703033,-2.0067286376953124,1.9531712646484376,1.765445001217778,-3.79092724609375,0.2025933837890625
1741516703.7982953,3.9554678201675415,-0.014128317376771414,-0.05549911408779995,-0.9983587726782244,0.23483671247959137,-0.2121533453464508,0.918940544128418,1.7230473756790161,1.6119189262390137,8.970258712768555,0.00133514404296875,0.17261791229248047,0.3881513774394989,-1.2615631818771362,0.005531395319849253,-0.9142061471939087,-0.0078202486038208,1.2123528718948364,0.012779430486261845,0.9657053351402283,-0.31948578357696533,-0.6006332635879517,0.19054703414440155,0.4488059878349304,0.7398717999458313,-0.32303541898727417,0.03482750803232193,-0.2466239482164383,-0.07724879682064056,0.24280919134616852,0.7230868935585022,-0.45023226737976074,0.03800233080983162,-0.0452381856739521,-0.1445273607969284,-3.050323963165283,-0.5692587494850159,-0.008188024163246155,0.029828807339072227,3.2952933311462402,-0.34703660011291504,0.016202740371227264,0.0174164529889822,0.13697239756584167,2.4813389778137207,-1.249398112297058,-0.385873943567276,0.03799990564584732,-0.8306082487106323,0.6965087056159973,1.662348747253418,-0.1465577632188797,1.8798809051513672,2.255495548248291,1.3242295980453491,-0.33479246497154236,1741516703.7777774,1741516703033,-2.0067286376953124,1.9531712646484376,1.765445001217778,-3.79092724609375,0.2025933837890625
1741516703.8182833,3.9680525064468384,-0.014364482399415452,-0.059515346335661724,-0.9981240329718263,0.1623150259256363,0.03888382762670517,0.5292196273803711,3.014153480529785,-0.30837443470954895,10.052989959716797,-0.00629425048828125,0.16041088104248047,0.31567102670669556,-1.2653779983520508,0.005149920005351305,-0.9142061471939087,0.04100862145423889,1.2108269929885864,0.013160906732082367,0.9649423956871033,-0.30537116527557373,-0.5682078003883362,0.14705882966518402,0.41142138838768005,0.7322422862052917,-0.3442842960357666,0.04602441564202309,-0.26874953508377075,-0.07877469807863235,0.28667888045310974,0.8390554785728455,-0.41550934314727783,0.020947689190506935,-0.21071839332580566,-0.24280989170074463,-3.6288280487060547,-0.2721772789955139,-0.05377383902668953,-0.022863201797008514,3.2428786754608154,-0.013577202335000038,0.02885735221207142,-0.08474182337522507,0.7632185816764832,1.5405017137527466,-2.2571861743927,-1.949568510055542,-0.5303981900215149,-0.9888333082199097,0.5462177395820618,-1.8785673379898071,-0.028443684801459312,2.2750651836395264,6.327487945556641,1.8088774681091309,-0.7926812767982483,1741516703.7777774,1741516703033,-2.0067286376953124,1.9531712646484376,1.765445001217778,-3.79092724609375,0.2025933837890625
1741516703.8382864,3.9700173139572144,-0.010765460981108713,-0.0698358696962644,-0.9975004040869511,0.6203209757804871,0.21855278313159943,-0.03619653359055519,-0.28077784180641174,-1.299821376800537,6.889730453491211,-0.00743865966796875,0.15392494201660156,0.24166475236415863,-1.2672853469848633,0.005531395319849253,-0.9126802682876587,0.0879301130771637,1.2180750370025635,0.013160906732082367,0.9637979865074158,-0.2801937758922577,-0.5415045619010925,0.10013733059167862,0.3740367889404297,0.7238498330116272,-0.3560304045677185,0.045529771596193314,-0.34580758213996887,-0.05741206929087639,0.3229190409183502,1.0393301248550415,-0.36902132630348206,0.010898645967245102,-0.02294352650642395,-0.17996977269649506,-3.791476011276245,-0.17809177935123444,-0.008464697748422623,0.03903099521994591,3.1426050662994385,0.5265349745750427,0.00739395571872592,-0.04408806562423706,1.1993188858032227,1.4446715116500854,-2.19877290725708,-1.9025737047195435,-0.37771910429000854,-0.5439640283584595,-0.01447545737028122,-4.2080793380737305,1.3387373685836792,1.6500641107559204,10.529840469360352,2.4008257389068604,-0.49377891421318054,1741516703.7777774,1741516703033,-2.0067286376953124,1.9531712646484376,1.765445001217778,-3.79092724609375,0.2025933837890625
1741516703.8583355,3.96098792552948,-0.0087092600535346,-0.08572187632599669,-0.9962810390188455,0.7644075751304626,0.024359235540032387,-0.5321156978607178,-4.791942119598389,-0.7311170697212219,9.108711242675781,-0.01354217529296875,0.15888500213623047,0.16231784224510193,-1.2680482864379883,0.005531395319849253,-0.9130617380142212,0.1348516047000885,1.227230429649353,0.013160906732082367,0.9603646993637085,-0.2622644305229187,-0.5163271427154541,0.058175019919872284,0.3542000353336334,0.7101167440414429,-0.36177757382392883,0.03379480540752411,-0.46330204606056213,-0.013542382046580315,0.3442816734313965,1.267071008682251,-0.33069488406181335,-0.0033691914286464453,-0.19875267148017883,0.125572070479393,-3.8724429607391357,0.014708729460835457,-0.010544665157794952,-0.02829168178141117,3.202540636062622,0.6465405821800232,0.004109628032892942,-0.26786795258522034,0.8051033020019531,1.3542317152023315,-2.0593349933624268,-0.7104893922805786,-0.726780116558075,-0.22694939374923706,-0.6283997893333435,-6.2526373863220215,2.2716400623321533,0.947554886341095,11.210426330566406,1.5202925205230713,-0.7818315625190735,1741516703.7777774,1741516703033,-2.0067286376953124,1.9531712646484376,1.765445001217778,-3.79092724609375,0.2025933837890625
1741516703.8783188,3.9453717470169067,-0.004927477417025898,-0.10218524463579978,-0.9947531833299286,0.844876229763031,0.15628217160701752,-0.8263880610466003,5.560238838195801,-3.1317739486694336,11.975226402282715,-0.02651214599609375,0.16575145721435547,0.0871671661734581,-1.2649965286254883,0.005149920005351305,-0.9145876169204712,0.1840619444847107,1.236767292022705,0.013160906732082367,0.9557870030403137,-0.24967575073242188,-0.47436484694480896,0.04253452271223068,0.35114824771881104,0.6986724734306335,-0.35857412219047546,0.023546112701296806,-0.5849927663803101,0.04253452271223068,0.3408484160900116,1.4700160026550293,-0.3385874032974243,-0.018736453726887703,-0.41772088408470154,0.26955869793891907,-3.7804555892944336,0.2017945945262909,-0.014779181219637394,-0.11835432797670364,3.3503684997558594,0.5968995690345764,-0.014361197128891945,-0.30608946084976196,0.6189004778862,2.1798200607299805,-0.5988165140151978,-0.12236137688159943,-0.5826680660247803,0.25691843032836914,-0.5397435426712036,-5.9104743003845215,2.9127309322357178,-0.4427245855331421,9.672433853149414,-0.7664201259613037,-0.6336182951927185,1741516703.7777774,1741516703033,-2.0067286376953124,1.9531712646484376,1.765445001217778,-3.79092724609375,0.2025933837890625
1741516703.8983636,3.9252318143844604,-0.005976485365421623,-0.11155319694739362,-0.9937404922179095,0.34641140699386597,-0.21498191356658936,-0.988058865070343,-6.691288471221924,-2.9884543418884277,11.892611503601074,-0.036812782287597656,0.18368053436279297,0.024986648932099342,-1.2573670148849487,0.005531395319849253,-0.9164950251579285,0.23441672325134277,1.2451597452163696,0.013542382046580315,0.951209306716919,-0.23899443447589874,-0.4365987777709961,0.03032730519771576,0.35114824771881104,0.6883726119995117,-0.3522219657897949,0.008843722753226757,-0.6979095339775085,0.09250781685113907,0.30117493867874146,1.590562343597412,-0.38332077860832214,-0.019268356263637543,-0.334384948015213,0.5473063588142395,-2.8162784576416016,0.6033558249473572,-0.004728035535663366,-0.13554546236991882,3.3636488914489746,0.6191750764846802,0.04484033212065697,-0.3197309076786041,0.5790833830833435,1.8189953565597534,-0.7752615809440613,-0.08096639066934586,-0.4697019159793854,0.2807399034500122,-0.7867003679275513,-5.5424933433532715,2.206332206726074,-2.1668107509613037,5.245242118835449,-2.367823362350464,0.057786643505096436,1741516703.7777774,1741516703033,-2.0067286376953124,1.9531712646484376,1.765445001217778,-3.79092724609375,0.2025933837890625
1741516703.9189043,3.90869677066803,-0.0034535484189543867,-0.11045615682677236,-0.9938749973826575,-0.08654075115919113,0.02325562573969364,-0.7493665814399719,-1.8891525268554688,-1.1165204048156738,10.152242660522461,-0.058556556701660156,0.17872142791748047,-0.018501564860343933,-1.2447782754898071,0.005149920005351305,-0.9214541912078857,0.2813382148742676,1.2577484846115112,0.013542382046580315,0.9443427324295044,-0.22106507420539856,-0.3934920132160187,0.011635004542768002,0.31910428404808044,0.6803616285324097,-0.356954962015152,0.011240698397159576,-0.7936598658561707,0.11387044936418533,0.2439536154270172,1.6180285215377808,-0.4354868531227112,-0.012162219732999802,-0.6271827816963196,-0.09468858689069748,-2.0374209880828857,0.8238999247550964,-0.006584438495337963,-0.28261375427246094,3.148526430130005,0.7521064281463623,-0.021863242611289024,-0.5214002132415771,1.027443766593933,2.127939462661743,-0.905508816242218,-1.8701145648956299,-0.47319555282592773,-0.31937119364738464,0.2986811101436615,-4.639883041381836,0.8899806141853333,-2.9181253910064697,0.6516498923301697,-2.6502020359039307,0.5523418188095093,1741516703.7777774,1741516703033,-2.0067286376953124,1.9531712646484376,1.765445001217778,-3.79092724609375,0.2025933837890625
1741516703.9383922,3.8964518308639526,-0.003074580848910023,-0.10767653383507424,-0.9941812264440864,-0.12463469803333282,-0.07514362782239914,-0.659389078617096,0.7037911415100098,0.052813008427619934,8.735757827758789,-0.06313419342041016,0.18101024627685547,-0.05359731614589691,-1.236767292022705,0.005149920005351305,-0.9302281141281128,0.3282597064971924,1.2634705305099487,0.013923857361078262,0.9374761581420898,-0.1985580176115036,-0.3583962619304657,-0.01125352829694748,0.27141985297203064,0.6666285395622253,-0.3765198290348053,0.0059977383352816105,-0.8730067610740662,0.1184481605887413,0.17528800666332245,1.5585182905197144,-0.47937747836112976,0.0068073570728302,-0.2075241655111313,0.04053584858775139,-1.923466444015503,0.4104168713092804,-0.034369029104709625,-0.45821914076805115,3.1233348846435547,0.2962728440761566,0.03335469961166382,-0.4738657772541046,1.201885461807251,1.5971513986587524,-1.0461347103118896,-2.281731128692627,-0.6535219550132751,-1.1193439960479736,-0.4386121928691864,-3.747304916381836,0.13371606171131134,-3.2884607315063477,-3.3482120037078857,-1.9747449159622192,1.0977188348770142,1741516703.9839935,1741516703153,-2.078527099609375,1.85035693359375,2.661459043990827,-3.8172431640625,0.10983901977539062
1741516703.9584267,3.8834139108657837,0.0014492722277044006,-0.1048377235336259,-0.9944882861724903,-0.14949949085712433,0.2047557383775711,-0.6165165901184082,0.8428679704666138,-1.9274036884307861,5.761998176574707,-0.07686710357666016,0.18101024627685547,-0.08602273464202881,-1.2333340644836426,0.00476844422519207,-0.9454871416091919,0.3702220320701599,1.2630890607833862,0.013542382046580315,0.9325169920921326,-0.17376211285591125,-0.33512628078460693,-0.021553369238972664,0.23632410168647766,0.6570916175842285,-0.4152691662311554,0.0019125246908515692,-0.926413357257843,0.10852979123592377,0.12684062123298645,1.437209129333496,-0.48855704069137573,0.013669490814208984,-0.41794663667678833,0.00923241302371025,-1.4066429138183594,0.2580047845840454,-0.06796345114707947,-0.8568950891494751,2.7081007957458496,-0.010473128408193588,-0.020167334005236626,-0.34042873978614807,1.2313820123672485,0.9772360920906067,-0.37611377239227295,-1.5976334810256958,-0.43799638748168945,-2.067487955093384,-0.09164965152740479,-2.351297616958618,-0.5741026401519775,-2.348212480545044,-6.363293647766113,-0.11162762343883514,0.2754879593849182,1741516703.9839935,1741516703153,-2.078527099609375,1.85035693359375,2.661459043990827,-3.8172431640625,0.10983901977539062
1741516703.9784184,3.8719676733016968,0.015587831958495623,-0.0993560718441365,-0.9949298419901458,-0.28005972504615784,0.7654027938842773,-0.5625178217887878,1.8575749397277832,1.031429409980774,7.078880310058594,-0.08411502838134766,0.15964794158935547,-0.1031891331076622,-1.228756308555603,0.005149920005351305,-0.9626535177230835,0.4056992530822754,1.2619446516036987,0.013542382046580315,0.9298466444015503,-0.13942931592464447,-0.31948578357696533,-0.022697795182466507,0.21877622604370117,0.6620507836341858,-0.4646969735622406,-0.003998693078756332,-0.9470130205154419,0.08983749151229858,0.09861142933368683,1.269741415977478,-0.4618445038795471,0.014352977275848389,-0.2252437025308609,-0.6657038927078247,-0.8017334342002869,0.2795535624027252,-0.01581467129290104,-0.8483628630638123,2.3629448413848877,-0.08536367863416672,-0.010852763429284096,-0.1656421720981598,1.8402023315429688,0.6744087338447571,-0.003834267146885395,-0.9585940837860107,0.4058244228363037,-2.581670045852661,-0.4448328912258148,-0.7923343181610107,-0.992655336856842,-1.2449440956115723,-8.754622459411621,1.6331461668014526,0.05803654342889786,1741516703.9839935,1741516703153,-2.078527099609375,1.85035693359375,2.661459043990827,-3.8172431640625,0.10983901977539062
1741516703.998466,3.864214539527893,0.03457311222215488,-0.0922847244090377,-0.9951322673655107,-0.35952043533325195,0.9228854775428772,-0.3261513411998749,2.4937548637390137,-2.6570112705230713,4.329105854034424,-0.09327030181884766,0.15125465393066406,-0.10624094307422638,-1.227993369102478,0.005531395319849253,-0.9744792580604553,0.4339284300804138,1.2592743635177612,0.013542382046580315,0.926413357257843,-0.09708552807569504,-0.31376364827156067,-0.02841992862522602,0.1974135935306549,0.6815060377120972,-0.5119276642799377,-0.008267377503216267,-0.9420538544654846,0.06504157930612564,0.08487831056118011,1.0576409101486206,-0.4211253821849823,0.007367534097284079,-0.25889846682548523,-0.3319559097290039,-0.03251687437295914,0.028783466666936874,0.010104551911354065,-0.5181130170822144,1.740242838859558,-0.14984934031963348,0.011867067776620388,-0.23278801143169403,2.1038691997528076,0.23781852424144745,-0.4057717025279999,-1.1703649759292603,1.0950359106063843,-2.2952818870544434,-0.14069460332393646,0.490131139755249,-1.4371685981750488,-0.626224935054779,-11.104761123657227,1.9725849628448486,-0.4699775278568268,1741516703.9839935,1741516703153,-2.078527099609375,1.85035693359375,2.661459043990827,-3.8172431640625,0.10983901977539062
1741516704.0184672,3.865073800086975,0.052237852449149344,-0.08663219947571604,-0.9948698753030472,-0.2577304542064667,0.9315604567527771,0.07540672272443771,17.985092163085938,26.97704315185547,27.618125915527344,-0.09517860412597656,0.15163612365722656,-0.09670405089855194,-1.2276118993759155,0.005531395319849253,-0.9782940149307251,0.44766154885292053,1.2569855451583862,0.013542382046580315,0.9225986003875732,-0.06084534898400307,-0.30308231711387634,-0.05397878959774971,0.1806286722421646,0.7200350761413574,-0.539439857006073,0.004516424145549536,-0.9134432077407837,0.026512550190091133,0.06771191209554672,0.8539330363273621,-0.37564611434936523,-0.003995133098214865,-0.08838186413049698,-0.02194727025926113,0.5872412323951721,0.056204911321401596,0.017156952992081642,-0.09145956486463547,0.7688122391700745,-0.1770220696926117,0.003742438042536378,-0.2245982587337494,1.8349817991256714,0.8227959871292114,-1.5685468912124634,-0.6151010394096375,2.096567392349243,-1.0690059661865234,0.6620804071426392,1.243095874786377,-1.9128391742706299,-1.2982574701309204,-8.821502685546875,2.9427690505981445,-0.1769760400056839,1741516703.9839935,1741516703153,-2.078527099609375,1.85035693359375,2.661459043990827,-3.8172431640625,0.10983901977539062
1741516704.0385096,3.862944006919861,0.058047655995408926,-0.08054370168338286,-0.9950593860431532,-0.4170953929424286,0.5303345322608948,-0.34229764342308044,3.941779375076294,-7.621086597442627,6.409481048583984,-0.09403419494628906,0.17147350311279297,-0.071908138692379,-1.2276118993759155,0.004005493130534887,-0.9725719094276428,0.44575417041778564,1.2508819103240967,0.013923857361078262,0.9084840416908264,-0.05092698708176613,-0.2927824854850769,-0.049782559275627136,0.1810101419687271,0.7711527943611145,-0.5349735021591187,0.011202423833310604,-0.8730067610740662,0.02193484455347061,0.01926451548933983,0.9073395729064941,-0.2887844741344452,-0.017201995477080345,0.047348152846097946,0.6725139617919922,1.4273443222045898,-0.1445617526769638,-0.10692469775676727,0.28952908515930176,-0.5007303357124329,-0.4119071960449219,0.027000747621059418,-0.9183433055877686,-0.014564236626029015,0.4813210964202881,-0.06750413030385971,0.19249437749385834,2.4499809741973877,0.46698251366615295,0.4429987370967865,2.314908266067505,0.04433151334524155,-1.6540396213531494,2.652757406234741,3.93188738822937,-1.1381487846374512,1741516704.0842135,1741516703233,-2.13606298828125,1.78922265625,2.373178473360627,-3.83719775390625,0.05063942337036133
1741516704.0585058,3.8666077852249146,0.06177023925623259,-0.06978605081900793,-0.9956477010736853,-0.45590531826019287,-0.03250046446919441,0.11935567110776901,9.801259994506836,8.040517807006836,8.0693998336792,-0.10776710510253906,0.19893932342529297,-0.013923857361078262,-1.2314265966415405,0.008201723918318748,-0.9626535177230835,0.4064621925354004,1.2463041543960571,0.013542382046580315,0.9077210426330566,-0.0558861680328846,-0.30193790793418884,-0.04711223021149635,0.19512474536895752,0.8585107326507568,-0.5035880208015442,0.023619264364242554,-0.8562218546867371,0.004386968910694122,0.05664911866188049,0.8962767720222473,-0.24495455622673035,-0.03601433336734772,-0.3703572750091553,0.8705289959907532,3.278801918029785,-0.34011736512184143,0.22022193670272827,0.5133566856384277,-2.917778253555298,-0.23850314319133759,-0.019290152937173843,0.023633571341633797,-0.2222210317850113,-0.5213248133659363,0.3441011309623718,0.4709635078907013,4.760054111480713,1.596874713897705,0.6259388327598572,1.2634952068328857,-0.8724523186683655,2.143458127975464,-1.317464828491211,1.9181660413742065,-0.6306830644607544,1741516704.0842135,1741516703233,-2.13606298828125,1.78922265625,2.373178473360627,-3.83719775390625,0.05063942337036133
1741516704.07852,3.8701294660568237,0.0651368203347308,-0.07197517317167866,-0.9952772322742984,0.18528935313224792,0.21166373789310455,0.283385694026947,-0.895172119140625,-6.51915979385376,9.955116271972656,-0.08182621002197266,0.20122814178466797,0.045204851776361465,-1.2508819103240967,0.005912871100008488,-0.951972246170044,0.3530556261539459,1.2417265176773071,0.013160906732082367,0.9096284508705139,-0.06885633617639542,-0.35000380873680115,-0.03376058489084244,0.19016556441783905,1.0072861909866333,-0.46305587887763977,0.03364609554409981,-0.8089188933372498,0.035667963325977325,0.06771191209554672,0.9138246774673462,-0.23552684485912323,-0.02285880222916603,0.6951131224632263,0.17826856672763824,3.0176963806152344,-1.6157782077789307,0.012839321047067642,0.45867353677749634,-3.392324686050415,-0.32469305396080017,-0.05266530066728592,0.010580216534435749,-0.8135120272636414,-2.5610084533691406,0.7810130715370178,-0.36422601342201233,7.726431846618652,2.0969550609588623,0.5031229853630066,1.8368926048278809,1.7039636373519897,0.457135409116745,1.624780535697937,0.057669155299663544,0.45189031958580017,1741516704.0842135,1741516703233,-2.13606298828125,1.78922265625,2.373178473360627,-3.83719775390625,0.05063942337036133
1741516704.0985622,3.8840147256851196,0.06131432118397351,-0.06929811412245841,-0.9957099604788632,-0.1967737078666687,-0.11937206983566284,0.7757716178894043,0.8242820501327515,2.847951889038086,14.5344820022583,-0.11081886291503906,0.22220993041992188,0.10700388997793198,-1.2722445726394653,0.005531395319849253,-0.9447242021560669,0.30003052949905396,1.23447847366333,0.012779430486261845,0.9073395729064941,-0.09594109654426575,-0.44346532225608826,-0.038719769567251205,0.18902114033699036,1.1854352951049805,-0.4168981611728668,0.04150320962071419,-0.7902265787124634,0.03757534176111221,0.09555962681770325,0.9382390975952148,-0.2775389850139618,-0.015230459161102772,-0.8695517778396606,0.4948572516441345,2.828310966491699,-1.052700400352478,-0.01600676402449608,0.3494308292865753,-3.843233108520508,-0.5471000075340271,0.0036353180184960365,0.003221866674721241,-1.026865839958191,-4.986173152923584,-0.34198319911956787,-0.011485209688544273,9.051922798156738,2.2802534103393555,0.15719753503799438,1.239038109779358,0.04821920394897461,1.338820457458496,0.8240086436271667,-2.3258867263793945,0.4845294654369354,1741516704.0842135,1741516703233,-2.13606298828125,1.78922265625,2.373178473360627,-3.83719775390625,0.05063942337036133
1741516704.1229365,3.898523211479187,0.06158446693651414,-0.0700528764479587,-0.9956404712211695,0.05659770965576172,0.08013413846492767,0.6687430143356323,0.5130655169487,-6.926080703735352,7.462628364562988,-0.08831119537353516,0.22945785522460938,0.17185473442077637,-1.2783480882644653,0.006294346414506435,-0.9435797929763794,0.2302204966545105,1.2268489599227905,0.012779430486261845,0.9100099205970764,-0.11730372905731201,-0.5560005903244019,-0.04711223021149635,0.17452506721019745,1.352521538734436,-0.38506248593330383,0.013737255707383156,-0.7539864182472229,0.03681239113211632,0.09861142933368683,0.9443427324295044,-0.33738628029823303,0.0005036609363742173,0.5063048601150513,0.1937270313501358,3.21757173538208,-0.6259986758232117,0.07699459046125412,0.001419277279637754,-4.822733402252197,-0.46380874514579773,0.013002090156078339,0.16728034615516663,-1.0257995128631592,-5.6715779304504395,-0.5410933494567871,-0.8534337282180786,7.607396125793457,1.2937963008880615,-1.540329933166504,1.8389976024627686,-0.05562232434749603,0.011289379559457302,0.22289250791072845,-2.9502193927764893,0.7181791663169861,1741516704.0842135,1741516703233,-2.13606298828125,1.78922265625,2.373178473360627,-3.83719775390625,0.05063942337036133
1741516704.1386192,3.9144870042800903,0.05819596570476362,-0.06632253070571402,-0.9960996694590756,-0.28012824058532715,-0.1413300633430481,0.7990767359733582,-0.049085911363363266,0.01534650195389986,11.22668170928955,-0.08792972564697266,0.23823165893554688,0.247768372297287,-1.2863590717315674,0.005149920005351305,-0.9458686113357544,0.15506981313228607,1.220745325088501,0.012779430486261845,0.9115357995033264,-0.12531471252441406,-0.6612878441810608,-0.0551232174038887,0.17566949129104614,1.4501793384552002,-0.3926248848438263,-0.0007860876503400505,-0.7070649266242981,0.024986648932099342,0.09975585341453552,0.9355688095092773,-0.38975635170936584,-0.004684666637331247,0.0049826400354504585,0.2245955467224121,3.8061726093292236,-0.25717392563819885,-0.0759480819106102,-0.14169712364673615,-4.994784355163574,-0.3750210106372833,-0.008486703038215637,0.05016942322254181,-0.18594016134738922,-5.108247756958008,-0.3055625855922699,0.04987121745944023,4.279163360595703,-0.718685507774353,-0.3102816045284271,2.412544012069702,-0.5241485834121704,0.050157494843006134,-0.5212040543556213,-2.5166845321655273,-0.2969062924385071,1741516704.0842135,1741516703233,-2.13606298828125,1.78922265625,2.373178473360627,-3.83719775390625,0.05063942337036133
1741516704.158624,3.928285241127014,0.05119394228305836,-0.0606853829263475,-0.996843249750231,-0.2827557921409607,-0.32302138209342957,0.6147347092628479,0.6739376187324524,-1.65182626247406,8.71368408203125,-0.08640384674072266,0.24013900756835938,0.3217746317386627,-1.2821629047393799,0.005912871100008488,-0.9470130205154419,0.08449683338403702,1.219219446182251,0.012779430486261845,0.9119172692298889,-0.12798504531383514,-0.7429236173629761,-0.04711223021149635,0.17719538509845734,1.4662013053894043,-0.4251224398612976,0.012721138074994087,-0.6429770588874817,0.015449759550392628,0.09517814964056015,0.9142061471939087,-0.4300626814365387,0.0007503409869968891,0.047017086297273636,0.0440724641084671,3.6948516368865967,0.15639178454875946,0.03191759064793587,-0.02351219207048416,-4.647179126739502,-0.06029810756444931,0.0009316265350207686,0.03232423588633537,-0.35088589787483215,-3.7235100269317627,0.5406082272529602,-0.058094318956136703,0.22933723032474518,-1.6231995820999146,0.5658553242683411,3.3572115898132324,-0.4276731610298157,-0.3622550964355469,-1.155627727508545,-1.935220718383789,0.4996693432331085,1741516704.1969662,1741516703453,-2.286551513671875,1.5934378662109376,2.6962753092217504,-3.8925546875,-0.11305238342285157
1741516704.1786737,3.9373849630355835,0.04301405124752535,-0.05527868058222663,-0.9975440134993361,-0.3144557774066925,-0.39668717980384827,0.37935805320739746,-0.5423017144203186,1.052659511566162,7.6085944175720215,-0.07495975494384766,0.23594284057617188,0.3858625292778015,-1.2794926166534424,0.005531395319849253,-0.9466315507888794,0.024986648932099342,1.219982385635376,0.012779430486261845,0.9122987985610962,-0.12111848592758179,-0.8077744841575623,-0.021171892061829567,0.17147326469421387,1.418135404586792,-0.4483550786972046,-0.007151536177843809,-0.5758373141288757,0.004005493130534887,0.08945601433515549,0.8798733353614807,-0.4639396667480469,0.003047084202989936,0.33748000860214233,-0.08999063074588776,2.8630874156951904,0.228118434548378,-0.005491170566529036,-0.005674391984939575,-3.776334524154663,0.06768716126680374,0.007415132597088814,0.007454106118530035,0.575211763381958,-3.1265153884887695,1.387678623199463,-0.2413865029811859,-2.8104183673858643,-0.9877929091453552,-1.3017046451568604,3.403688430786133,-0.5947064757347107,-0.2978898882865906,-1.7985938787460327,-1.6328608989715576,0.07148662209510803,1741516704.1969662,1741516703453,-2.286551513671875,1.5934378662109376,2.6962753092217504,-3.8925546875,-0.11305238342285157
1741516704.198681,3.936890482902527,0.03813081980639422,-0.04621547162960211,-0.9982034716243706,-0.4379824101924896,-0.23935674130916595,-0.021550960838794708,-1.1807770729064941,-0.6610881686210632,7.409761428833008,-0.07534122467041016,0.22182846069335938,0.4343098998069763,-1.2756778001785278,0.006294346414506435,-0.9458686113357544,-0.027656977996230125,1.2314265966415405,0.013542382046580315,0.9138246774673462,-0.10433356463909149,-0.8611810207366943,0.01583123579621315,0.16346226632595062,1.3277256488800049,-0.44449934363365173,-0.014317863620817661,-0.508316159248352,-0.005912871100008488,0.06542305648326874,0.846684992313385,-0.49618250131607056,0.0028276625089347363,0.0017381074139848351,-0.4112926423549652,2.4282805919647217,0.31730666756629944,0.08774342387914658,0.09871792048215866,-3.5084991455078125,0.9412864446640015,0.060244131833314896,0.196057990193367,0.8512576818466187,-2.603379726409912,1.8826433420181274,-0.36002010107040405,-4.71572208404541,0.443617582321167,-0.007762677036225796,3.2966835498809814,-0.5840846300125122,-1.3488487005233765,-1.6574770212173462,-1.5743430852890015,-0.005671529099345207,1741516704.1969662,1741516703453,-2.286551513671875,1.5934378662109376,2.6962753092217504,-3.8925546875,-0.11305238342285157
1741516704.2186813,3.9465590715408325,0.03529857170108611,-0.03647945617592382,-0.9987107990369245,-0.5413112044334412,-0.17836491763591766,0.5036658048629761,-2.659998655319214,2.484708547592163,7.039567947387695,-0.07419681549072266,0.20847606658935547,0.4854276478290558,-1.2707185745239258,0.005531395319849253,-0.9382390975952148,-0.0722896158695221,1.239819049835205,0.013542382046580315,0.927176296710968,-0.09708552807569504,-0.8936064839363098,0.0558861680328846,0.15850308537483215,1.2163348197937012,-0.40891480445861816,-0.0057817609049379826,-0.4560540020465851,-0.020027466118335724,0.037193864583969116,0.8093003630638123,-0.5312439799308777,0.004247376229614019,0.06522034108638763,-0.39869439601898193,2.3962395191192627,0.37994009256362915,-0.015739353373646736,0.3464769423007965,-2.720623016357422,0.39491477608680725,-0.00016620421956758946,1.0354787111282349,0.24949994683265686,-1.3945927619934082,1.9196265935897827,-0.15341749787330627,-5.7690324783325195,2.016273021697998,0.26372280716896057,2.656505584716797,-0.6387044191360474,-1.361657977104187,-1.7980297803878784,-1.7467107772827148,0.03325634449720383,1741516704.1969662,1741516703453,-2.286551513671875,1.5934378662109376,2.6962753092217504,-3.8925546875,-0.11305238342285157
1741516704.2387235,3.9584020376205444,0.03840838886913886,-0.02755873485278062,-0.9988820309715213,-0.4375736713409424,0.15606659650802612,0.5692769885063171,3.9219775199890137,1.076413631439209,2.8922972679138184,-0.07343387603759766,0.18444347381591797,0.5102235674858093,-1.2592743635177612,0.005531395319849253,-0.9309910535812378,-0.09822995215654373,1.2348599433898926,0.013160906732082367,0.9443427324295044,-0.10204470902681351,-0.9065766334533691,0.09708552807569504,0.16346226632595062,1.0770962238311768,-0.36015623807907104,0.0008803392993286252,-0.3889143168926239,-0.018120087683200836,0.02536812424659729,0.7871748208999634,-0.5635142922401428,0.0036834590137004852,0.026417823508381844,-0.7202246189117432,1.0380524396896362,0.7730570435523987,-0.0006225106189958751,0.3621719181537628,-1.5928605794906616,-0.3825882375240326,0.006907180417329073,1.0988515615463257,-0.40343159437179565,-0.6499860882759094,2.0498454570770264,0.30241793394088745,-7.175481796264648,2.434281587600708,0.449152410030365,3.2959229946136475,0.08021996915340424,-0.28550320863723755,-1.1143996715545654,-1.6441938877105713,-0.27295270562171936,1741516704.1969662,1741516703453,-2.286551513671875,1.5934378662109376,2.6962753092217504,-3.8925546875,-0.11305238342285157
1741516704.2587419,3.9734636545181274,0.03470498281979925,-0.021689088088669716,-0.9991622228774262,-0.3205386698246002,-0.20971262454986572,0.7319798469543457,5.265492916107178,5.344145774841309,1.3907076120376587,-0.06542301177978516,0.17261791229248047,0.5174715518951416,-1.2527892589569092,0.005531395319849253,-0.924124538898468,-0.10166323184967041,1.229519248008728,0.013160906732082367,0.9588387608528137,-0.12073700875043869,-0.8943694233894348,0.12340734153985977,0.18558785319328308,0.9229800701141357,-0.31800249218940735,0.004366535227745771,-0.3244449496269226,-0.009727626107633114,0.03299763426184654,0.7642862796783447,-0.5818252563476562,0.004759044386446476,0.23848584294319153,-0.4244745671749115,0.22310613095760345,0.3606624901294708,-0.004400885663926601,0.3411821722984314,-0.01850518397986889,-0.3406578600406647,-0.0004535439074970782,0.8742197155952454,-1.0013025999069214,0.9055148959159851,1.1516607999801636,1.24823796749115,-7.64846134185791,1.9176325798034668,0.11023026704788208,3.280604124069214,0.5088273286819458,0.42945563793182373,-1.0435428619384766,-0.7191911339759827,0.3849271237850189,1741516704.299198,1741516703533,-2.3240673828125002,1.5195718994140626,3.031445068461387,-3.909129150390625,-0.16820423889160158
1741516704.2787774,3.987639307975769,0.02631261833901522,-0.01784086933096613,-0.9994945470074664,-0.2150447517633438,-0.4489430785179138,0.6298640370368958,55.47148132324219,-13.552508354187012,43.52135467529297,-0.06427860260009766,0.17490673065185547,0.5052643418312073,-1.2478300333023071,0.005531395319849253,-0.9187838435173035,-0.08945601433515549,1.223797082901001,0.013160906732082367,0.967231273651123,-0.1363775134086609,-0.8623254895210266,0.14438849687576294,0.21877622604370117,0.7978560924530029,-0.2887979745864868,0.007745673414319754,-0.2592126429080963,0.0024795911740511656,0.03337911143898964,0.7646677494049072,-0.5772610902786255,0.013351363129913807,0.04293608292937279,-0.044840678572654724,-0.7590912580490112,0.3521467447280884,-0.013694319874048233,0.19618770480155945,1.0094916820526123,-0.43371477723121643,0.00324941985309124,0.40045520663261414,-0.8608176708221436,1.3960322141647339,0.8555307388305664,1.6436138153076172,-4.8572211265563965,1.7545136213302612,0.14815987646579742,3.1175148487091064,0.5070751309394836,0.0076621524058282375,0.32735496759414673,0.22146344184875488,-0.009025279432535172,1741516704.299198,1741516703533,-2.3240673828125002,1.5195718994140626,3.031445068461387,-3.909129150390625,-0.16820423889160158
1741516704.2987869,4.002363801002502,0.014019670733860602,-0.022071357354545844,-0.9996580935585136,0.3483588993549347,-0.29235056042671204,0.8180273175239563,1.5846490859985352,-3.734813690185547,11.577800750732422,-0.06885623931884766,0.16956615447998047,0.47779813408851624,-1.2463041543960571,0.005912871100008488,-0.9100099205970764,-0.06237125024199486,1.2226526737213135,0.012397955171763897,0.967994213104248,-0.1325627565383911,-0.802815318107605,0.12531471252441406,0.2443350851535797,0.8512626886367798,-0.2430688887834549,0.025607377290725708,-0.22068360447883606,-0.007438773289322853,0.04482337832450867,0.7990005612373352,-0.5674070715904236,0.0089680515229702,-0.10294554382562637,-0.43663689494132996,-1.7421106100082397,-0.12776388227939606,0.0008706186199560761,0.3151113986968994,2.0360937118530273,0.018476340919733047,-0.09275536984205246,0.10123574733734131,0.5137302279472351,2.8513567447662354,-1.0188547372817993,0.8295566439628601,2.244011402130127,2.178638219833374,0.6859573721885681,1.7556694746017456,-0.23069283366203308,0.4691423177719116,2.075298547744751,0.7643021941184998,-0.19425417482852936,1741516704.299198,1741516703533,-2.3240673828125002,1.5195718994140626,3.031445068461387,-3.909129150390625,-0.16820423889160158
1741516704.3188055,4.011156916618347,0.009489452532543968,-0.028849270302764074,-0.9995387285611452,0.29613593220710754,-0.2457730621099472,0.41461455821990967,1.3718695640563965,4.750992774963379,8.600590705871582,-0.061226844787597656,0.16842174530029297,0.40951400995254517,-1.2554595470428467,0.005912871100008488,-0.9119172692298889,-0.023460745811462402,1.223797082901001,0.012779430486261845,0.9676127433776855,-0.1180666834115982,-0.7742046117782593,0.10433356463909149,0.2134355753660202,0.8268482685089111,-0.2168208807706833,0.046532776206731796,-0.22564278542995453,-0.006294346414506435,0.06351567804813385,0.8928435444831848,-0.5334887504577637,-0.0023812665604054928,0.11880059540271759,-0.03323625773191452,-3.6248369216918945,-0.4514220356941223,-0.006981218233704567,-0.15470698475837708,2.556290864944458,0.04210864380002022,0.061465632170438766,-0.04900117591023445,0.6697530150413513,1.5126272439956665,-1.1779638528823853,-1.7984511852264404,-1.6224853992462158,0.912236213684082,0.7908992767333984,-0.704595685005188,0.009365729056298733,1.139261245727539,5.345036506652832,1.7608400583267212,-0.5527434349060059,1741516704.299198,1741516703533,-2.3240673828125002,1.5195718994140626,3.031445068461387,-3.909129150390625,-0.16820423889160158
1741516704.338865,4.017528414726257,0.012512504495645307,-0.03343812876788937,-0.999362461159988,0.32312607765197754,0.3252585530281067,0.2955009937286377,3.8291170597076416,-1.1501628160476685,10.530826568603516,-0.07190799713134766,0.14934730529785156,0.3282597064971924,-1.2546966075897217,0.005531395319849253,-0.9111543297767639,0.016212711110711098,1.2260860204696655,0.012397955171763897,0.9683756828308105,-0.0864042118191719,-0.7364385724067688,0.06389715522527695,0.1832990050315857,0.8352407217025757,-0.22131037712097168,0.045059848576784134,-0.2775234580039978,0.0009536888683214784,0.09136339277029037,1.056496500968933,-0.4907153844833374,-0.010502053424715996,-0.27773168683052063,-0.5702869892120361,-4.006124019622803,0.06377369165420532,-0.021693497896194458,0.09012952446937561,2.647512912750244,0.26255908608436584,-0.0863579586148262,0.021974697709083557,1.7302039861679077,1.4038481712341309,-2.2453112602233887,-1.4537737369537354,0.8199381828308105,-0.48270031809806824,0.16608388721942902,-2.964080333709717,0.7081441879272461,1.4081482887268066,8.718775749206543,2.196690797805786,-0.40475982427597046,1741516704.299198,1741516703533,-2.3240673828125002,1.5195718994140626,3.031445068461387,-3.909129150390625,-0.16820423889160158
1741516704.3588612,4.011689066886902,0.01324292118082303,-0.04695319284034659,-0.9988093024800558,0.6190700531005859,0.08525916934013367,-0.34588468074798584,-6.3466620445251465,-1.8679450750350952,12.892696380615234,-0.053978919982910156,0.15316200256347656,0.2458609938621521,-1.2573670148849487,0.005531395319849253,-0.9103913903236389,0.05436026677489281,1.23447847366333,0.014686808921396732,0.9668498039245605,-0.04787518084049225,-0.7162203192710876,0.037193864583969116,0.164988175034523,0.8443961143493652,-0.26166364550590515,0.04793437570333481,-0.37823301553726196,0.035667963325977325,0.09899290651082993,1.2380788326263428,-0.4453592002391815,-0.013080911710858345,0.5156328678131104,0.009388674050569534,-4.1818671226501465,-0.21395522356033325,-0.055684931576251984,-0.07313697785139084,2.552722215652466,0.6164056062698364,0.17202530801296234,-0.07165281474590302,1.727219581604004,1.2478899955749512,-1.3170621395111084,-0.7868961691856384,0.17556385695934296,-2.133269786834717,0.06287581473588943,-5.358241558074951,1.7547338008880615,0.40404289960861206,9.16922378540039,2.2978556156158447,-0.11606624722480774,1741516704.3936834,1741516703633,-2.373515869140625,1.4230483398437501,3.122763049159938,-3.9271220703125,-0.23332290649414064
1741516704.3789196,4.001092076301575,0.018584243192554504,-0.05711000754661332,-0.9981949072916501,0.5157236456871033,0.30293139815330505,-0.6759355664253235,2.484886407852173,-4.888790130615234,8.911483764648438,-0.07152652740478516,0.15926647186279297,0.15735866129398346,-1.2558410167694092,0.005531395319849253,-0.9130617380142212,0.10013733059167862,1.2466856241226196,0.013542382046580315,0.9664682745933533,-0.013923857361078262,-0.6834134459495544,0.01888304017484188,0.15812161564826965,0.8447775840759277,-0.30492928624153137,0.03774964064359665,-0.4991607666015625,0.06466010212898254,0.09899290651082993,1.4085984230041504,-0.4131649434566498,-0.007606747560203075,-0.4191480875015259,0.23474059998989105,-4.433629512786865,0.12790915369987488,-0.00022390473168343306,-0.15365713834762573,3.133272886276245,0.8333349823951721,-0.07780477404594421,-0.05754363536834717,1.6666909456253052,1.635606288909912,-0.8705107569694519,-0.3832862377166748,0.024222947657108307,-2.074347972869873,-0.5408570170402527,-6.064428329467773,1.2237389087677002,-0.06483213603496552,8.020918846130371,1.244400143623352,0.38200369477272034,1741516704.3936834,1741516703633,-2.373515869140625,1.4230483398437501,3.122763049159938,-3.9271220703125,-0.23332290649414064
1741516704.3989391,3.981396794319153,0.021687295460248345,-0.06825971656885681,-0.9974318384278492,0.5453888177871704,0.08143772929906845,-0.9801428914070129,-1.2187771797180176,0.7118808627128601,10.43588638305664,-0.07114505767822266,0.16613292694091797,0.07572289556264877,-1.2550780773162842,0.005531395319849253,-0.9164950251579285,0.1512550562620163,1.2550780773162842,0.013923857361078262,0.9641794562339783,0.01926451548933983,-0.6483176946640015,0.008201723918318748,0.152399480342865,0.8405813574790955,-0.3430640697479248,0.020649196580052376,-0.6219958662986755,0.0883115902543068,0.08373387902975082,1.5135042667388916,-0.4203110933303833,-0.007549261674284935,-0.010014359839260578,0.26632586121559143,-3.945763349533081,0.11232328414916992,0.020337652415037155,-0.18010501563549042,3.500692129135132,0.4240417778491974,0.009035926312208176,-0.20512829720973969,1.613822340965271,1.8781790733337402,-0.5810021162033081,-0.27060726284980774,-0.25712770223617554,-1.905643343925476,-0.8317124247550964,-5.999441146850586,1.0469129085540771,-1.0610495805740356,4.43990421295166,-0.6484864950180054,-0.11374935507774353,1741516704.3936834,1741516703633,-2.373515869140625,1.4230483398437501,3.122763049159938,-3.9271220703125,-0.23332290649414064
1741516704.4189067,3.957844376564026,0.02449669185253086,-0.07478926207615601,-0.9968984293128293,0.3326556980609894,0.031949009746313095,-1.104499101638794,0.5156005620956421,-0.19693654775619507,8.030754089355469,-0.07839298248291016,0.16689586639404297,0.012397955171763897,-1.2505004405975342,0.005149920005351305,-0.9210727214813232,0.20618753135204315,1.2592743635177612,0.013923857361078262,0.9584572911262512,0.04139009863138199,-0.6029220819473267,-0.002861066721379757,0.14400701224803925,0.8302815556526184,-0.3798326551914215,0.005909434519708157,-0.7318608164787292,0.09136339277029037,0.05741206929087639,1.5459296703338623,-0.4533645212650299,-0.007515340577811003,-0.24208040535449982,0.040775589644908905,-2.802464485168457,0.3337130546569824,0.002251762431114912,-0.2926045358181,3.7569775581359863,0.2650485038757324,0.003004297614097595,-0.3943847417831421,0.9625347256660461,2.2125933170318604,-0.46920764446258545,-0.3698500692844391,-0.5861100554466248,-1.824716329574585,-0.4589874744415283,-5.43701171875,-0.03534846007823944,-1.3060302734375,1.0933347940444946,-1.6958177089691162,0.2056911736726761,1741516704.3936834,1741516703633,-2.373515869140625,1.4230483398437501,3.122763049159938,-3.9271220703125,-0.23332290649414064
1741516704.4389455,3.9392164945602417,0.024908305778818196,-0.07854882968827306,-0.996599045583444,0.20912250876426697,-0.029411641880869865,-0.8023861646652222,-1.3969142436981201,2.6655924320220947,7.023112773895264,-0.08983707427978516,0.17071056365966797,-0.031090257689356804,-1.2447782754898071,0.005912871100008488,-0.9287022352218628,0.26760509610176086,1.2596558332443237,0.013923857361078262,0.952735185623169,0.05054550990462303,-0.5579079985618591,-0.012779430486261845,0.1363775134086609,0.8180742859840393,-0.4130709171295166,0.0056096944026649,-0.8299000263214111,0.071908138692379,0.03681239113211632,1.5203708410263062,-0.48360198736190796,0.007847404107451439,-0.38953766226768494,0.11195497959852219,-2.0786073207855225,0.3307684659957886,0.04452577233314514,-0.332537442445755,3.9851324558258057,0.010712732560932636,-0.005032500252127647,-0.33058324456214905,0.5678419470787048,2.284435749053955,-0.5365265011787415,-0.2668093740940094,-0.541426420211792,-1.6225076913833618,0.013641430996358395,-4.900899887084961,-1.0820794105529785,-0.8544822931289673,-1.5808274745941162,-1.3071489334106445,0.6674934029579163,1741516704.3936834,1741516703633,-2.373515869140625,1.4230483398437501,3.122763049159938,-3.9271220703125,-0.23332290649414064
1741516704.4589756,3.926167607307434,0.02726896671125848,-0.08263434931655148,-0.996206789661429,0.2241266518831253,0.06441327184438705,-0.6257732510566711,-0.8252730369567871,-2.866232395172119,8.400712966918945,-0.09632301330566406,0.17071056365966797,-0.07839322835206985,-1.2440153360366821,0.005531395319849253,-0.9393835067749023,0.32673379778862,1.2573670148849487,0.013160906732082367,0.9481574892997742,0.05664911866188049,-0.5170900821685791,-0.01926451548933983,0.1356145590543747,0.805867075920105,-0.4445880353450775,0.001130838179960847,-0.9142061471939087,0.0394827201962471,0.021553369238972664,1.4532310962677002,-0.4865635633468628,0.01284745056182146,-0.2208271622657776,0.030270034447312355,-2.393855571746826,0.04930336773395538,0.03221997618675232,-0.7047936916351318,3.919977903366089,-0.21400868892669678,-0.01408719178289175,-0.32748398184776306,0.20869240164756775,1.8869787454605103,-0.21989405155181885,0.009863176383078098,-0.5922815203666687,-1.599779486656189,-0.10872604697942734,-3.765866756439209,-1.7124183177947998,-0.7498485445976257,-3.4628093242645264,0.19208553433418274,0.18384627997875214,1741516704.5039496,1741516703733,-2.45014697265625,1.3427447509765624,3.011066802456846,-3.950980224609375,-0.2964476623535156
1741516704.4789867,3.9228864908218384,0.02863314693657243,-0.08835327388041553,-0.9956775792851424,0.27548280358314514,0.07936371117830276,-0.12966620922088623,-0.11109305918216705,-3.335507869720459,6.555896282196045,-0.10051918029785156,0.16842174530029297,-0.11768520623445511,-1.2428709268569946,0.005531395319849253,-0.9554055333137512,0.3763256371021271,1.2527892589569092,0.013160906732082367,0.9412909150123596,0.05970092490315437,-0.4808499217033386,-0.020027466118335724,0.14171816408634186,0.8024337887763977,-0.4800935983657837,0.00240596872754395,-0.9699015617370605,-0.0024795911740511656,0.009346150793135166,1.3555734157562256,-0.45393499732017517,0.014772508293390274,-0.12064346671104431,-0.029381871223449707,-1.8201767206192017,0.0489741787314415,-0.00502688018605113,-0.7337476015090942,3.1848931312561035,-0.30782490968704224,-0.0030485219322144985,-0.4428856372833252,0.26147356629371643,2.043809652328491,-0.021204685792326927,0.36457154154777527,-0.06813420355319977,-1.786661148071289,0.16179224848747253,-2.510725736618042,-2.1465370655059814,-0.5223840475082397,-5.0625715255737305,1.8538521528244019,0.16328765451908112,1741516704.5039496,1741516703733,-2.45014697265625,1.3427447509765624,3.011066802456846,-3.950980224609375,-0.2964476623535156
1741516704.4990528,3.9201003313064575,0.03381291235474843,-0.09168484368709255,-0.9952138345080234,0.17479091882705688,0.2457314282655716,-0.18011221289634705,3.2681050300598145,-0.7559804320335388,5.613442420959473,-0.10280799865722656,0.16041088104248047,-0.1325627565383911,-1.2417265176773071,0.005531395319849253,-0.967994213104248,0.4240100681781769,1.2527892589569092,0.01430533267557621,0.9325169920921326,0.07495994865894318,-0.4358358085155487,-0.018501564860343933,0.13790340721607208,0.7997635006904602,-0.5191226005554199,0.0017632381059229374,-0.9897382855415344,-0.049782559275627136,-0.002861066721379757,1.2201495170593262,-0.4085681140422821,0.01174455601722002,-0.07234632968902588,-0.17195476591587067,-0.5755100250244141,0.09901778399944305,0.0011265655048191547,-0.5604808926582336,3.3496530055999756,0.0174991674721241,0.0761394202709198,-0.7303640246391296,1.0144768953323364,2.3064627647399902,0.10148798674345016,-0.297101229429245,-0.13207587599754333,-1.9849662780761719,-0.028876157477498055,-0.8858811855316162,-2.2965781688690186,-0.6885876655578613,-7.0162553787231445,2.2502129077911377,-0.12062127888202667,1741516704.5039496,1741516703733,-2.45014697265625,1.3427447509765624,3.011066802456846,-3.950980224609375,-0.2964476623535156
1741516704.5190365,3.912160277366638,0.03282234171765775,-0.09201069485052239,-0.9952169240508791,0.010104209184646606,-0.12361828237771988,-0.41838374733924866,1.691569209098816,1.0322402715682983,6.089828968048096,-0.10318946838378906,0.15964794158935547,-0.12264438718557358,-1.2402005195617676,0.005531395319849253,-0.9737163186073303,0.46215763688087463,1.2508819103240967,0.013923857361078262,0.9206912517547607,0.1039520874619484,-0.38319218158721924,-0.024986648932099342,0.12417028844356537,0.7963302135467529,-0.5515260100364685,-0.003900193376466632,-0.9752422571182251,-0.09327077120542526,-0.024605173617601395,1.045433759689331,-0.36125367879867554,0.004144465085119009,-0.015129117295145988,-0.058689627796411514,0.6514600515365601,0.11715300381183624,-0.0026788851246237755,-0.24669130146503448,2.2190096378326416,-0.19377504289150238,0.00013897953613195568,-0.7144576907157898,1.457465410232544,2.785630226135254,-0.3631032407283783,-0.8793861269950867,-0.26097312569618225,-1.4655976295471191,-0.5819695591926575,1.1841126680374146,-2.1610538959503174,-1.3035402297973633,-8.793096542358398,2.297301769256592,-0.3467870056629181,1741516704.5039496,1741516703733,-2.45014697265625,1.3427447509765624,3.011066802456846,-3.950980224609375,-0.2964476623535156
1741516704.5390928,3.8997219800949097,0.02678262709807095,-0.09231993026114857,-0.995369138240835,0.07079359889030457,-0.39250001311302185,-0.63860684633255,57.9213981628418,-6.05229377746582,34.24232864379883,-0.10471534729003906,0.18062877655029297,-0.09021896868944168,-1.23600435256958,0.005531395319849253,-0.9725719094276428,0.47550925612449646,1.2482116222381592,0.013542382046580315,0.9134432077407837,0.13942931592464447,-0.31872281432151794,-0.05054550990462303,0.10128175467252731,0.7940413355827332,-0.5578977465629578,-0.012837609276175499,-0.9370946884155273,-0.1337071806192398,-0.07038223743438721,0.890554666519165,-0.30743110179901123,-0.00908025074750185,-0.07618419826030731,0.4807734191417694,1.7899665832519531,0.29562708735466003,0.013952241279184818,0.10876183211803436,0.7541608810424805,-0.18191826343536377,-0.019947480410337448,-0.4982786178588867,1.9358993768692017,3.2559733390808105,-1.420142412185669,-1.0741758346557617,0.05370190367102623,-0.15334615111351013,-0.18102402985095978,1.6162056922912598,-2.0668551921844482,-2.5197811126708984,-5.9837565422058105,3.3052234649658203,-0.5571832656860352,1741516704.5039496,1741516703733,-2.45014697265625,1.3427447509765624,3.011066802456846,-3.950980224609375,-0.2964476623535156
1741516704.5590842,3.8780964612960815,0.011626240564256317,-0.08614745687562299,-0.9962145583177374,-0.415030837059021,-0.5901005268096924,-1.2278366088867188,3.4313504695892334,0.869659423828125,16.29122543334961,-0.10624122619628906,0.19512462615966797,-0.04139009863138199,-1.23600435256958,0.00476844422519207,-0.967994213104248,0.4678797721862793,1.2447782754898071,0.013923857361078262,0.9004730582237244,0.1512550562620163,-0.2641718089580536,-0.05283436179161072,0.07305257022380829,0.7986190319061279,-0.546204686164856,-0.005338408052921295,-0.8581292629241943,-0.135233074426651,-0.12264438718557358,0.9321355223655701,-0.24225826561450958,-0.05203300341963768,-0.03631529584527016,0.19224387407302856,2.6894264221191406,-0.0035710346419364214,-0.0471392497420311,0.18097342550754547,-0.9981077909469604,-0.20003031194210052,0.03498080000281334,-0.7538776397705078,0.06883697211742401,2.570880174636841,-0.34720104932785034,-1.4256607294082642,0.36701700091362,0.9320455193519592,0.4476794898509979,4.345683574676514,0.22587093710899353,-1.9439704418182373,1.55303156375885,2.7686171531677246,-2.692676305770874,1741516704.6063087,1741516703833,-2.52843408203125,1.2582208251953124,2.4604391652700985,-3.980294677734375,-0.3582840576171875
1741516704.5793915,3.8669365644454956,0.005310497897168138,-0.08010028467511009,-0.9967726636535787,-0.24456943571567535,-0.48464658856391907,-0.6069013476371765,-20.590106964111328,-1.9783343076705933,8.820484161376953,-0.10357093811035156,0.19932079315185547,0.025749599561095238,-1.233715534210205,0.006294346414506435,-0.9611276388168335,0.4228656589984894,1.2463041543960571,0.012397955171763897,0.9035248160362244,0.14553292095661163,-0.24128328263759613,-0.048256658017635345,0.03643091395497322,0.8455405235290527,-0.5121228098869324,0.010687748901546001,-0.8096818327903748,-0.13027389347553253,-0.10929274559020996,0.8989471197128296,-0.21397101879119873,-0.09767335653305054,0.1747138500213623,0.1351558417081833,3.1110689640045166,0.09950026124715805,0.005802537314593792,0.40156319737434387,-3.1818506717681885,0.11384917050600052,-0.0813421681523323,0.29937100410461426,-0.35825252532958984,0.7212618589401245,0.3344237804412842,-2.2371199131011963,2.839935302734375,1.6480060815811157,0.7863282561302185,2.1836650371551514,0.6616985201835632,0.8701097965240479,-1.9247188568115234,1.2521657943725586,-1.5492043495178223,1741516704.6063087,1741516703833,-2.52843408203125,1.2582208251953124,2.4604391652700985,-3.980294677734375,-0.3582840576171875
1741516704.5993874,3.85922372341156,0.008878743032223092,-0.07466567965334889,-0.9971690950907329,-0.31292933225631714,0.29290735721588135,-0.2674716114997864,-5.276739597320557,-3.4292151927948,9.986627578735352,-0.09746742248535156,0.18329906463623047,0.08449683338403702,-1.2428709268569946,0.006294346414506435,-0.9554055333137512,0.36793315410614014,1.2451597452163696,0.012779430486261845,0.9039062857627869,0.11539635062217712,-0.27103838324546814,-0.049782559275627136,-0.009346150793135166,0.9641794562339783,-0.47083979845046997,0.023361079394817352,-0.760471522808075,-0.07495994865894318,-0.08945601433515549,0.9126802682876587,-0.22124207019805908,-0.062182772904634476,0.16377019882202148,-0.49229902029037476,2.7972164154052734,-0.9031990766525269,0.12750448286533356,0.15455465018749237,-3.6997416019439697,-0.03121591918170452,0.008535797707736492,0.023054752498865128,-1.7608133554458618,-1.85311758518219,-0.24849265813827515,-2.276733636856079,6.665542125701904,2.133455276489258,0.5371989011764526,2.2954256534576416,2.5719172954559326,1.2108203172683716,1.0635279417037964,-0.7393385171890259,1.8818875551223755,1741516704.6063087,1741516703833,-2.52843408203125,1.2582208251953124,2.4604391652700985,-3.980294677734375,-0.3582840576171875
1741516704.6194224,3.866271138191223,0.011025689656299905,-0.062449386911659285,-0.9979872284964175,-0.5409987568855286,0.06378002464771271,0.4353616535663605,-10.362822532653809,0.913679838180542,8.973154067993164,-0.10853004455566406,0.19550609588623047,0.13179980218410492,-1.2524077892303467,0.005531395319849253,-0.9554055333137512,0.30422675609588623,1.2505004405975342,0.013542382046580315,0.9065766334533691,0.07648584991693497,-0.3622110188007355,-0.07495994865894318,-0.04482337832450867,1.1285953521728516,-0.4247674345970154,0.030280018225312233,-0.7413977384567261,-0.051689937710762024,-0.07038223743438721,0.9008545279502869,-0.2720232605934143,-0.048456866294145584,-0.3761707544326782,0.22905206680297852,2.432533025741577,-0.504012942314148,-0.030508918687701225,-0.01435877289623022,-4.388369083404541,0.34062492847442627,0.0864076316356659,0.25113824009895325,-1.7543725967407227,-5.142036437988281,-1.2451016902923584,-1.7712033987045288,8.067144393920898,2.2907257080078125,0.21764543652534485,1.1117583513259888,1.107448935508728,0.6124740839004517,-0.8588739037513733,-2.715291976928711,0.6259678602218628,1741516704.6063087,1741516703833,-2.52843408203125,1.2582208251953124,2.4604391652700985,-3.980294677734375,-0.3582840576171875
1741516704.6394725,3.8800419569015503,0.022138085152346502,-0.054032729279507245,-0.9982937289958276,-0.4269481599330902,0.7658856511116028,0.7025637030601501,11.796575546264648,-2.090632200241089,3.0330309867858887,-0.09403419494628906,0.19092845916748047,0.17910276353359222,-1.2600373029708862,0.005531395319849253,-0.9557870030403137,0.23212787508964539,1.2482116222381592,0.013160906732082367,0.9122987985610962,0.0551232174038887,-0.481612890958786,-0.10662241280078888,-0.07000076025724411,1.3014038801193237,-0.3907686769962311,0.00964154303073883,-0.6986724734306335,-0.043678950518369675,-0.07457847148180008,0.8947508931159973,-0.32359108328819275,-0.059550002217292786,0.3581373691558838,-0.0766080915927887,2.279987096786499,-0.5644770860671997,0.014903263188898563,0.013710633851587772,-4.948012351989746,-0.15591543912887573,-0.05333356931805611,0.3847116529941559,-0.8788561224937439,-5.968366622924805,-1.5773576498031616,-1.1063616275787354,8.3698148727417,1.4438564777374268,-1.2157959938049316,2.0707969665527344,0.21183229982852936,-0.3101595342159271,-0.0811878889799118,-2.4278881549835205,-0.41138210892677307,1741516704.6063087,1741516703833,-2.52843408203125,1.2582208251953124,2.4604391652700985,-3.980294677734375,-0.3582840576171875
1741516704.6594715,3.8973718881607056,0.025702625925955944,-0.04492190673024501,-0.9986598005908867,-0.42864924669265747,0.09807607531547546,0.8599072694778442,-8.220531463623047,-0.0943296030163765,14.69255542755127,-0.09136295318603516,0.21343517303466797,0.23365376889705658,-1.2627075910568237,0.005531395319849253,-0.952735185623169,0.15774014592170715,1.2455412149429321,0.013542382046580315,0.916113555431366,0.04329747334122658,-0.6105515956878662,-0.12645913660526276,-0.07000076025724411,1.4135576486587524,-0.39141467213630676,0.0024637188762426376,-0.6704432964324951,-0.05130846053361893,-0.07915617525577545,0.8829251527786255,-0.35767847299575806,-0.04066097363829613,0.05434213578701019,0.6185311079025269,2.9606244564056396,-0.09941904991865158,-0.0011462774127721786,0.17508073151111603,-4.855872631072998,-0.19753916561603546,0.07633525133132935,0.2524723708629608,-0.5286166667938232,-6.224498748779297,-0.8560985922813416,0.08956990391016006,5.131120681762695,-0.2952646017074585,-0.03099297173321247,1.5784916877746582,-0.46939337253570557,-0.14065337181091309,-0.7221185564994812,-1.6112748384475708,1.0732489824295044,1741516704.6986096,1741516703933,-2.60700927734375,1.16828564453125,2.438655790731764,-4.0054208984375,-0.4167045593261719
1741516704.679519,3.9179710149765015,0.029102419809926762,-0.0429557609761612,-0.9986530187007726,-0.08419054001569748,0.2619304656982422,0.9870795011520386,6.217654228210449,2.770615339279175,6.909717559814453,-0.07991886138916016,0.21267223358154297,0.2904936373233795,-1.2653779983520508,0.005531395319849253,-0.9481574892997742,0.08983749151229858,1.2413450479507446,0.012397955171763897,0.9214541912078857,0.04291599988937378,-0.7150759100914001,-0.1333257108926773,-0.04444190114736557,1.4532310962677002,-0.41258957982063293,0.012491279281675816,-0.612077534198761,-0.051689937710762024,-0.08030059933662415,0.8665217161178589,-0.38596537709236145,-0.016739122569561005,0.32173439860343933,0.009817845188081264,2.967933416366577,-0.15104004740715027,0.005209403112530708,0.26131075620651245,-4.335501194000244,-0.3006891906261444,-0.10996069759130478,0.3816847503185272,0.12071221321821213,-4.993975639343262,-0.14434896409511566,1.469606876373291,1.4320614337921143,-1.1095858812332153,0.3552713096141815,2.9493753910064697,-0.08037109673023224,-0.050554655492305756,-0.8528537750244141,-1.404547095298767,1.219353437423706,1741516704.6986096,1741516703933,-2.60700927734375,1.16828564453125,2.438655790731764,-4.0054208984375,-0.4167045593261719
1741516704.6995435,3.9296458959579468,0.025647440909856847,-0.04668520402535777,-0.9985803425362859,0.19415833055973053,-0.2358725517988205,0.4712390899658203,1.8764488697052002,-0.6364034414291382,7.1341447830200195,-0.06427860260009766,0.22602462768554688,0.34695202112197876,-1.2657594680786133,0.005531395319849253,-0.9416723847389221,0.03452353551983833,1.2340970039367676,0.013160906732082367,0.924124538898468,0.050164032727479935,-0.80663001537323,-0.12493324279785156,-0.005912871100008488,1.425001859664917,-0.4261668622493744,-0.006275485269725323,-0.5613412857055664,-0.05283436179161072,-0.08220797777175903,0.841725766658783,-0.41294535994529724,-0.011547272093594074,0.4757949113845825,0.40695860981941223,2.7358195781707764,-0.05295725166797638,-0.019974203780293465,0.2292899787425995,-3.4982800483703613,-0.5502053499221802,0.11385621130466461,0.12540948390960693,0.37070879340171814,-4.526753902435303,0.468502014875412,1.9499350786209106,-1.8466483354568481,-0.501484751701355,-1.1015506982803345,2.546393632888794,-0.07417697459459305,-0.13758361339569092,-1.2497484683990479,-1.3831665515899658,0.00297268433496356,1741516704.6986096,1741516703933,-2.60700927734375,1.16828564453125,2.438655790731764,-4.0054208984375,-0.4167045593261719
1741516704.7195742,3.9301897287368774,0.02411570352419419,-0.050240779888848605,-0.9984459408899881,0.16458794474601746,-0.008812095038592815,-0.09566397219896317,-0.4707471430301666,3.756284713745117,6.598632335662842,-0.057793617248535156,0.22220993041992188,0.39463645219802856,-1.2657594680786133,0.005149920005351305,-0.9386205673217773,-0.010872052982449532,1.2291377782821655,0.013160906732082367,0.9260318875312805,0.06771191209554672,-0.8764400482177734,-0.10738536715507507,0.03604944050312042,1.3513771295547485,-0.41626599431037903,-0.008919715881347656,-0.5014495849609375,-0.05855649709701538,-0.0879301130771637,0.8199816942214966,-0.43973904848098755,-0.008679631166160107,0.22258006036281586,-0.06415218859910965,2.3050527572631836,0.004707992542535067,-0.028198961168527603,0.1516593098640442,-3.1287198066711426,-0.16943012177944183,-0.07411057502031326,0.14240603148937225,0.9362730979919434,-3.3515703678131104,0.8284050822257996,1.9917072057724,-3.94826078414917,0.7426725029945374,0.1975557804107666,3.1086089611053467,-0.31684646010398865,-0.2674484848976135,-1.0692906379699707,-1.335878610610962,0.25217461585998535,1741516704.6986096,1741516703933,-2.60700927734375,1.16828564453125,2.438655790731764,-4.0054208984375,-0.4167045593261719
1741516704.7397711,3.9272745847702026,0.02408660442346542,-0.053303819421038304,-0.9982878033525586,0.12881596386432648,-0.024443691596388817,-0.06589385867118835,12.632797241210938,-1.797340750694275,3.231766939163208,-0.051308631896972656,0.22297286987304688,0.44155794382095337,-1.2665224075317383,0.005531395319849253,-0.9306095838546753,-0.07000076025724411,1.2306636571884155,0.013923857361078262,0.9340428709983826,0.07763027399778366,-0.9218356609344482,-0.0871671661734581,0.06275273114442825,1.2506675720214844,-0.37554964423179626,-0.005518647842109203,-0.464446485042572,-0.058175019919872284,-0.09937438368797302,0.7940413355827332,-0.47238805890083313,-0.00714145926758647,0.18528179824352264,0.0025063971988856792,2.3513975143432617,-0.1463494896888733,-0.048172809183597565,0.47725415229797363,-3.5766654014587402,0.015984144061803818,0.08982673287391663,0.5907108187675476,0.3077341914176941,-1.9953546524047852,0.980989396572113,1.296983003616333,-5.192768096923828,2.198378324508667,0.08417844027280807,1.4183485507965088,0.06467077881097794,-0.5422192215919495,-1.3070577383041382,-1.6641117334365845,-0.08004627376794815,1741516704.6986096,1741516703933,-2.60700927734375,1.16828564453125,2.438655790731764,-4.0054208984375,-0.4167045593261719
1741516704.7598057,3.925822615623474,0.027942812243162085,-0.052500352982722966,-0.9982298894446273,-0.045715898275375366,0.34227392077445984,-0.1382635235786438,5.8001508712768555,0.33302411437034607,4.231847763061523,-0.049019813537597656,0.21305370330810547,0.4800869822502136,-1.2665224075317383,0.005531395319849253,-0.9245060086250305,-0.1035706102848053,1.230282187461853,0.012397955171763897,0.9473945498466492,0.06427863240242004,-0.9424353241920471,-0.06084534898400307,0.07991912961006165,1.121347427368164,-0.32478341460227966,-0.0007949763094075024,-0.41409170627593994,-0.05245288833975792,-0.09670405089855194,0.7814526557922363,-0.5069113373756409,-0.005400554742664099,0.04901440069079399,-0.3285973072052002,1.7677265405654907,0.1335286945104599,0.019460812211036682,0.2806019186973572,-1.9930883646011353,-0.014795508235692978,-0.13703419268131256,0.8683831095695496,-0.7730185985565186,-1.049208402633667,1.4313117265701294,0.8902537226676941,-6.504948616027832,2.5635132789611816,0.3392874300479889,2.674036979675293,0.1947574019432068,0.3879718482494354,-0.6296191215515137,-1.67500901222229,0.22881276905536652,1741516704.8039675,1741516704053,-2.67704833984375,1.0670965576171876,2.8405883951615833,-4.02084765625,-0.4781335754394531
1741516704.7797782,3.92642605304718,0.0295706008218629,-0.05301882518884915,-0.9981555909489404,0.010846750810742378,-0.020357130095362663,0.04584331065416336,2.274277448654175,0.708115816116333,6.219077110290527,-0.040627479553222656,0.21457958221435547,0.4968718886375427,-1.2611817121505737,0.005531395319849253,-0.9187838435173035,-0.11577782779932022,1.2299007177352905,0.013160906732082367,0.9584572911262512,0.035667963325977325,-0.9447242021560669,-0.029564354568719864,0.08945601433515549,0.9790570139884949,-0.2732115089893341,0.0042616031132638454,-0.3736552894115448,-0.04329747334122658,-0.07877469807863235,0.760471522808075,-0.5401596426963806,-0.002336867619305849,0.2050829827785492,0.002938895719125867,0.7354810237884521,0.3199162483215332,0.0057511343620717525,0.23132014274597168,-0.5354754328727722,-0.05022113770246506,0.06567970663309097,0.6902291774749756,-1.5072150230407715,0.03261125087738037,1.5128624439239502,0.6524907350540161,-7.370794773101807,2.461904525756836,0.07973592728376389,2.0179882049560547,0.5952168107032776,0.8230335116386414,-0.9642167091369629,-1.5675621032714844,0.1232094094157219,1741516704.8039675,1741516704053,-2.67704833984375,1.0670965576171876,2.8405883951615833,-4.02084765625,-0.4781335754394531
1741516704.7998202,3.9283348321914673,0.030693567394171346,-0.051334457027323394,-0.9982097366998227,-0.10691942274570465,0.1359134316444397,0.10790766775608063,1.569488763809204,-0.2687232792377472,3.519030809402466,-0.041008949279785156,0.20809459686279297,0.4964904189109802,-1.2585114240646362,0.005531395319849253,-0.918402373790741,-0.10929274559020996,1.2283748388290405,0.012779430486261845,0.9660868048667908,0.0009536888683214784,-0.9149690866470337,-0.00858320016413927,0.1188296303153038,0.8375295400619507,-0.24423803389072418,0.006121072452515364,-0.31872281432151794,-0.022697795182466507,-0.06313420087099075,0.7497901916503906,-0.557546079158783,-0.002374121220782399,-0.012323017232120037,-0.19736820459365845,-0.21333366632461548,0.18206723034381866,0.003709787968546152,-0.007004523184150457,0.5787295699119568,-0.10810580104589462,0.008549954742193222,0.4628787934780121,-1.7083584070205688,1.6839914321899414,1.182171106338501,1.8842328786849976,-6.942195892333984,1.0953928232192993,0.20310036838054657,2.876721143722534,0.9951547980308533,0.658552885055542,-0.6051480174064636,-0.6237583160400391,-0.002476790454238653,1741516704.8039675,1741516704053,-2.67704833984375,1.0670965576171876,2.8405883951615833,-4.02084765625,-0.4781335754394531
1741516704.819821,3.9344671964645386,0.0259991679314574,-0.04905349190153512,-0.9984577097699922,-0.08988375216722488,-0.2942633330821991,0.33322420716285706,5.432588577270508,-4.931442737579346,6.023368835449219,-0.044823646545410156,0.22106552124023438,0.47550925612449646,-1.2543151378631592,0.005531395319849253,-0.919165313243866,-0.07839322835206985,1.2241785526275635,0.012779430486261845,0.9676127433776855,-0.023079270496964455,-0.8710994124412537,0.02689402550458908,0.152399480342865,0.7112611532211304,-0.26157933473587036,0.013743606396019459,-0.26798656582832336,-0.006294346414506435,-0.06084534898400307,0.7467383742332458,-0.5556090474128723,-0.009657002054154873,-0.13652582466602325,0.3756985664367676,-1.220808982849121,0.21284407377243042,0.0020718476735055447,-0.03884395956993103,2.3167240619659424,-0.3327595293521881,0.016219908371567726,0.06981752067804337,-1.0466349124908447,2.207258939743042,1.6859369277954102,1.872462272644043,-6.054128646850586,-1.2381901741027832,0.4044345021247864,2.3843812942504883,0.7788521647453308,0.062237292528152466,0.05405924469232559,0.13781030476093292,-0.4814569652080536,1741516704.8039675,1741516704053,-2.67704833984375,1.0670965576171876,2.8405883951615833,-4.02084765625,-0.4781335754394531
1741516704.8399212,3.943289637565613,0.015191399062573555,-0.036723671136924374,-0.9992099846242274,-0.636026918888092,-0.5668489336967468,0.3942505717277527,-15.475137710571289,8.035886764526367,21.169126510620117,-0.049782752990722656,0.23250961303710938,0.4388876259326935,-1.2524077892303467,0.005531395319849253,-0.9206912517547607,-0.03337911143898964,1.2218897342681885,0.012779430486261845,0.9657053351402283,-0.03528648987412453,-0.8287556171417236,0.032616160809993744,0.17452506721019745,0.6979095339775085,-0.2602947950363159,0.03276756405830383,-0.22564278542995453,-0.00858320016413927,-0.06733043491840363,0.7936598658561707,-0.5508673787117004,-0.021044684574007988,-0.1838553100824356,0.2982300817966461,-1.9233282804489136,0.18435315787792206,0.009148663841187954,0.05776054039597511,3.0998733043670654,-0.012191744521260262,0.008858859539031982,-0.17141667008399963,-0.5268985629081726,2.2272324562072754,-0.15414270758628845,0.6921128630638123,1.4302343130111694,0.6585102677345276,1.078182578086853,1.9375919103622437,-0.4918248653411865,-0.36104443669319153,2.9201488494873047,0.26108816266059875,-0.5594412088394165,1741516704.8039675,1741516704053,-2.67704833984375,1.0670965576171876,2.8405883951615833,-4.02084765625,-0.4781335754394531
1741516704.8599305,3.9584561586380005,0.011149532113165527,-0.035822637457190096,-0.9992959654573155,0.029337203130126,-0.30991291999816895,0.7584442496299744,-3.129760503768921,4.9248762130737305,3.111659526824951,-0.02574920654296875,0.24166488647460938,0.37861448526382446,-1.2474485635757446,0.006294346414506435,-0.919165313243866,0.024605173617601395,1.232571005821228,0.013160906732082367,0.9611276388168335,-0.013923857361078262,-0.8154039978981018,0.019645990803837776,0.13752193748950958,0.7597085237503052,-0.26282352209091187,0.05309968441724777,-0.22487983107566833,-0.00667582219466567,-0.08449683338403702,0.881780743598938,-0.5238344669342041,-0.029046373441815376,0.750917375087738,0.3087250888347626,-3.421999931335449,0.31423187255859375,0.053154218941926956,-0.004714879672974348,4.061408996582031,0.6007468104362488,0.017462830990552902,-0.3086165487766266,1.225641131401062,0.324012815952301,-0.3011176884174347,-2.2356317043304443,2.226926803588867,-0.5231244564056396,0.7549824118614197,-0.49939611554145813,0.20356203615665436,-0.7625898718833923,4.756278038024902,1.6384881734848022,-0.2948099672794342,1741516704.8039675,1741516704053,-2.67704833984375,1.0670965576171876,2.8405883951615833,-4.02084765625,-0.4781335754394531
1741516704.879936,3.9612892866134644,0.007459437678564529,-0.034683042191765656,-0.9993705235666319,-0.093354731798172,-0.06882743537425995,0.2049545794725418,10.227743148803711,-0.3077521324157715,12.476804733276367,-0.035668373107910156,0.23365402221679688,0.28706035017967224,-1.2531707286834717,0.005531395319849253,-0.9275577664375305,0.07839322835206985,1.238293170928955,0.013923857361078262,0.9554055333137512,0.00476844422519207,-0.7753490209579468,-0.002861066721379757,0.09288929402828217,0.7726787328720093,-0.2765807509422302,0.04270105063915253,-0.2725642919540405,0.0009536888683214784,-0.06351567804813385,1.029411792755127,-0.4795028269290924,-0.03287465125322342,-0.2470533698797226,-0.19400811195373535,-4.667919635772705,-0.35960933566093445,-0.005048641934990883,-0.42107853293418884,3.361316204071045,0.39662471413612366,0.0003260476514697075,-0.3020651042461395,0.8954612612724304,2.145434856414795,-1.5678234100341797,-1.8552111387252808,0.5216636061668396,-0.43421223759651184,-0.6330249309539795,-2.5371546745300293,0.345638632774353,1.386073112487793,7.760929107666016,2.22871994972229,-0.3355811834335327,1741516704.8039675,1741516704053,-2.67704833984375,1.0670965576171876,2.8405883951615833,-4.02084765625,-0.4781335754394531
1741516704.899932,3.952478051185608,-0.0018044193960867325,-0.042815197091918555,-0.9990813795525483,0.5317259430885315,-0.46056076884269714,-0.5769767761230469,-4.555085182189941,2.1959424018859863,12.155277252197266,-0.02384185791015625,0.2584495544433594,0.20084688067436218,-1.2569855451583862,0.005531395319849253,-0.924887478351593,0.12798504531383514,1.2459226846694946,0.01430533267557621,0.952735185623169,0.02079041674733162,-0.7452124953269958,-0.028038453310728073,0.06275273114442825,0.7791637778282166,-0.2776842415332794,0.04199482873082161,-0.36678874492645264,0.027656977996230125,-0.02727550081908703,1.2045090198516846,-0.43418654799461365,-0.03130459785461426,0.3504192531108856,0.7629843354225159,-4.257701396942139,-0.39496949315071106,-0.03475791960954666,0.1269560158252716,3.330292224884033,0.49419286847114563,0.04023991897702217,-0.1800204962491989,0.8143881559371948,1.436840534210205,-0.7451011538505554,-1.4226003885269165,0.449998676776886,-0.08021851629018784,-0.04775037616491318,-4.966597080230713,1.4260200262069702,1.637170672416687,8.865105628967285,2.2077786922454834,0.2577997148036957,1741516704.8039675,1741516704053,-2.67704833984375,1.0670965576171876,2.8405883951615833,-4.02084765625,-0.4781335754394531
1741516704.9199622,3.9354408979415894,-0.0036550995532973977,-0.053098846818915184,-0.9985825718055352,0.4180043637752533,-0.09029239416122437,-0.90400230884552,4.463231086730957,1.5838063955307007,8.357137680053711,-0.02002716064453125,0.24891281127929688,0.11959258466959,-1.2596558332443237,0.005531395319849253,-0.9233615398406982,0.17414358258247375,1.2497375011444092,0.013542382046580315,0.951972246170044,0.03452353551983833,-0.7047760486602783,-0.03337911143898964,0.05703059583902359,0.7887006998062134,-0.2823656499385834,0.0340552031993866,-0.47779813408851624,0.057793546468019485,-0.013923857361078262,1.359006643295288,-0.41081857681274414,-0.008292168378829956,0.040673453360795975,-0.16659663617610931,-4.019150733947754,0.02845195308327675,0.005732731427997351,0.040510766208171844,3.058121681213379,0.3150014877319336,-0.010786520317196846,-0.05755406618118286,0.7518256306648254,2.0953125953674316,-0.14635589718818665,-0.042787253856658936,0.2837955355644226,-0.32016193866729736,-0.4755937159061432,-5.567276954650879,1.3076505661010742,0.518682599067688,7.4061384201049805,0.8182451128959656,1.2076444625854492,1741516704.8039675,1741516704053,-2.67704833984375,1.0670965576171876,2.8405883951615833,-4.02084765625,-0.4781335754394531
1741516704.940036,3.9107996225357056,-0.007247426430137284,-0.05819964745620152,-0.9982786564111815,0.27105775475502014,-0.27298614382743835,-1.2084624767303467,-3.990748882293701,1.495169758796692,11.347135543823242,-0.031472206115722656,0.2534904479980469,0.048256658017635345,-1.2516448497772217,0.005531395319849253,-0.9237430095672607,0.22220951318740845,1.2554595470428467,0.01430533267557621,0.9496833682060242,0.048638131469488144,-0.6673914790153503,-0.03452353551983833,0.05397878959774971,0.7875562906265259,-0.2960644066333771,0.01665695756673813,-0.5891889929771423,0.06198977679014206,-0.018120087683200836,1.4555199146270752,-0.43135395646095276,-0.004987546242773533,-0.34756284952163696,0.10113532096147537,-3.411583423614502,0.5624702572822571,0.011746780946850777,-0.0014212819514796138,3.240629196166992,0.3077433109283447,-0.002157205482944846,-0.167576402425766,0.5869367122650146,1.8487732410430908,-0.13855940103530884,-0.20249472558498383,-0.034454718232154846,-0.7575860619544983,-0.7853903770446777,-5.447153568267822,0.011629503220319748,-0.4361114799976349,4.337647914886475,-1.3418011665344238,0.04282371699810028,1741516704.8039675,1741516704053,-2.67704833984375,1.0670965576171876,2.8405883951615833,-4.02084765625,-0.4781335754394531
