Freshhhhh-LC/Legged_odom/data/4/segments/booster_seg_9.78s.csv
time,yaw,projected_gravity_x,projected_gravity_y,projected_gravity_z,ang_vel_x,ang_vel_y,ang_vel_z,lin_acc_x,lin_acc_y,lin_acc_z,q_0,q_1,q_2,q_3,q_4,q_5,q_6,q_7,q_8,q_9,q_10,q_11,q_12,q_13,q_14,q_15,q_16,q_17,q_18,q_19,q_20,q_21,q_22,dq_0,dq_1,dq_2,dq_3,dq_4,dq_5,dq_6,dq_7,dq_8,dq_9,dq_10,dq_11,dq_12,dq_13,dq_14,dq_15,dq_16,dq_17,dq_18,dq_19,dq_20,dq_21,dq_22,mocap_time,mocap_timestamp,robot_x,robot_y,robot_yaw,ball_x,ball_y
1741516121.6699233,3.987359642982483,-0.009499531782439358,0.09093266268169395,-0.9958117340911041,-0.6247129440307617,0.2320667803287506,0.8555154204368591,-1.2902833223342896,2.2027957439422607,11.297185897827148,-0.01735687255859375,0.24204635620117188,0.19092851877212524,-1.236767292022705,0.005531395319849253,-0.9588387608528137,0.23632410168647766,1.2646150588989258,0.005149920005351305,0.9111543297767639,0.14057374000549316,-0.4198138415813446,0.011635004542768002,-0.24319066107273102,1.2060348987579346,-0.3934817910194397,0.01337949838489294,-0.5563820600509644,-0.0864042118191719,-0.3404669165611267,0.7406347990036011,-0.45893630385398865,-0.014600139111280441,-0.05281704291701317,0.6227291822433472,2.3174355030059814,-1.0170066356658936,-0.028014998883008957,0.03299891948699951,-4.3099212646484375,0.18445950746536255,0.03707188367843628,0.12065774202346802,-1.6598739624023438,-6.3263444900512695,-1.5974483489990234,-0.2936770021915436,10.397730827331543,1.2686210870742798,-0.8860068917274475,0.608896791934967,0.8838684558868408,0.4675324857234955,-0.17507268488407135,0.009518078528344631,0.13739265501499176,1741516121.6285303,1741516120893,0.32843142700195316,-1.1761611328125001,2.1495404570243912,-0.9724408569335937,-1.1313486328125
1741516121.6719189,4.0144160985946655,-0.00212444042240715,0.0996481615148023,-0.9950204674576356,-0.3799726068973541,0.2607262134552002,1.427598237991333,3.990157127380371,3.7834315299987793,10.761853218078613,-0.00629425048828125,0.24929428100585938,0.23746852576732635,-1.2482116222381592,0.005912871100008488,-0.9584572911262512,0.17376211285591125,1.2627075910568237,0.00476844422519207,0.9126802682876587,0.10051880776882172,-0.5460822582244873,-0.020027466118335724,-0.21839475631713867,1.3971542119979858,-0.40860509872436523,0.0075111426413059235,-0.5334935784339905,-0.07839322835206985,-0.3393225073814392,0.7375829815864563,-0.45929837226867676,-0.013609327375888824,0.30022192001342773,0.2770860195159912,2.3231637477874756,-0.773563027381897,0.021450582891702652,-0.009462691843509674,-4.17584753036499,-0.17217899858951569,-0.014558072201907635,0.09641005098819733,-2.0418272018432617,-6.131961345672607,-1.4821017980575562,1.5278892517089844,9.072282791137695,-1.1874315738677979,0.005837911739945412,1.2181130647659302,0.31077829003334045,0.09051573276519775,-0.15847180783748627,-0.022189868614077568,0.0869717076420784,1741516121.6285303,1741516120893,0.32843142700195316,-1.1761611328125001,2.1495404570243912,-0.9724408569335937,-1.1313486328125
1741516121.6746066,3.8949133157730103,0.05197001820303702,-0.009091063358436229,-0.9986072650321491,0.29931023716926575,0.08843038976192474,-0.9631033539772034,0.1940373182296753,-1.6110354661941528,5.89209508895874,-0.5849924087524414,0.796330451965332,0.3255893886089325,-1.3325176239013672,0.005531395319849253,-0.6906614899635315,-0.013160906732082367,1.293225646018982,0.002861066721379757,0.7238498330116272,0.24357213079929352,-0.8813992738723755,-0.1508735716342926,-0.13790340721607208,0.9481574892997742,-0.32537853717803955,-0.00029137672390788794,-0.5872815847396851,-0.04634927958250046,-0.12264438718557358,0.8077744841575623,-0.3335426151752472,-0.007274833973497152,-0.47162914276123047,-0.36680397391319275,0.4530591070652008,0.030994003638625145,-0.005348415579646826,0.21848471462726593,-0.7873956561088562,-0.00493781641125679,-0.0024416260421276093,0.08006352931261063,-0.34728923439979553,1.1914808750152588,0.5589966773986816,-0.11275482922792435,-8.111698150634766,2.074615240097046,0.47426995635032654,-0.5044180750846863,1.0273175239562988,0.6325809955596924,2.6011064052581787,-2.341689109802246,0.08577114343643188,1741516121.6285303,1741516120893,0.32843142700195316,-1.1761611328125001,2.1495404570243912,-0.9724408569335937,-1.1313486328125
1741516121.6947122,3.873120427131653,0.053104402124154675,-0.012304155163731028,-0.9985131597734418,0.18670208752155304,-0.03396785631775856,-1.1003402471542358,1.0618242025375366,-1.6240968704223633,3.280827283859253,-0.6174182891845703,0.7700080871582031,0.3263523280620575,-1.3302288055419922,0.005531395319849253,-0.6883726119995117,-0.01506828423589468,1.293225646018982,0.0032425422687083483,0.7227054238319397,0.2309834510087967,-0.8237964510917664,-0.12798504531383514,-0.14133669435977936,0.7570382356643677,-0.29815879464149475,0.007749481592327356,-0.5903334021568298,-0.02231631986796856,-0.12455176562070847,0.8661402463912964,-0.3656589090824127,-0.006635494064539671,-0.9592644572257996,-0.735537052154541,0.014320598915219307,0.14800655841827393,0.0009115482098422945,0.10849165171384811,0.08000718057155609,-0.01079324260354042,0.006984108127653599,-0.1165432259440422,-0.5832138657569885,2.8935623168945312,1.2610228061676025,-0.0994672179222107,-9.6705322265625,1.1435593366622925,0.3230628967285156,-0.21883253753185272,0.9899597764015198,-0.03621775656938553,2.750075101852417,-1.4567632675170898,-0.08355401456356049,1741516121.7260926,1741516120993,0.28349365234375,-1.2368809814453126,2.550572891097774,-1.161279541015625,-1.0822708740234375
1741516121.7146845,3.8508154153823853,0.04091035350821912,-0.006190574708401568,-0.9991436432068276,-0.2763513922691345,-0.7868494987487793,-1.1564291715621948,-26.59373664855957,28.724628448486328,33.77994155883789,-0.6460285186767578,0.7768745422363281,0.32673379778862,-1.3252695798873901,0.005531395319849253,-0.6837949156761169,-0.0024795911740511656,1.294751524925232,0.002861066721379757,0.7188906669616699,0.22602425515651703,-0.7841230034828186,-0.1024261862039566,-0.13103684782981873,0.7146944403648376,-0.22722069919109344,-0.0335615873336792,-0.5869001150131226,-0.039101243019104004,-0.12531471252441406,0.9107728600502014,-0.38381969928741455,-0.0169364046305418,-0.8957945704460144,0.296201229095459,0.007627221290022135,0.339417964220047,0.0035632189828902483,0.41732436418533325,0.8655127882957458,0.20783774554729462,-0.0068694246001541615,-0.26880770921707153,-0.174179807305336,2.012667179107666,1.0452426671981812,0.476178377866745,0.6671451926231384,4.024548053741455,-2.049065589904785,0.5078843235969543,-1.438462495803833,-0.07085032016038895,2.093571186065674,-0.7805972695350647,-0.6289450526237488,1741516121.7260926,1741516120993,0.28349365234375,-1.2368809814453126,2.550572891097774,-1.161279541015625,-1.0822708740234375
1741516121.7346847,3.8369089365005493,0.044786551010462666,-0.00897559435074026,-0.9989562570776751,0.22040584683418274,-0.06453873962163925,-0.645912230014801,-1.2004703283309937,-7.2036614418029785,7.048348903656006,-0.6708250045776367,0.7421607971191406,0.3103303611278534,-1.3168771266937256,0.005531395319849253,-0.6780728101730347,0.024223696440458298,1.3050514459609985,0.0024795911740511656,0.7173647880554199,0.2470054179430008,-0.7726787328720093,-0.08411535620689392,-0.15888457000255585,0.7501716613769531,-0.16050371527671814,-0.05194658413529396,-0.568970799446106,-0.02841992862522602,-0.1661325991153717,0.9351872801780701,-0.37604036927223206,-0.00831891130656004,-0.7540231943130493,-0.6596041321754456,-1.0261356830596924,0.5553629994392395,-0.030288513749837875,0.21152612566947937,2.05458927154541,0.5558521151542664,0.011729265563189983,-0.145603209733963,1.004622459411621,0.5930642485618591,1.4031697511672974,-1.6748876571655273,0.8566279411315918,2.884403944015503,-0.49284541606903076,0.4616773724555969,0.7101020216941833,-2.3214986324310303,1.2018036842346191,0.5509772300720215,0.6762144565582275,1741516121.7260926,1741516120993,0.28349365234375,-1.2368809814453126,2.550572891097774,-1.161279541015625,-1.0822708740234375
1741516121.7546976,3.824196219444275,0.03376721797548051,0.0018070291875598023,-0.9994280912780628,-0.6782912611961365,-0.5553444027900696,-0.6821528077125549,-8.511982917785645,-2.756303071975708,16.326213836669922,-0.7043943405151367,0.7345314025878906,0.2748531401157379,-1.3138253688812256,0.005531395319849253,-0.6742580533027649,0.06198977679014206,1.3153512477874756,0.002861066721379757,0.7085908055305481,0.2470054179430008,-0.7295719981193542,-0.05855649709701538,-0.1680399775505066,0.7204165458679199,-0.1255084127187729,-0.031565506011247635,-0.568970799446106,-0.03376058489084244,-0.20580606162548065,0.9744792580604553,-0.3584098815917969,-0.013740154914557934,-1.0479332208633423,-0.032814864069223404,-1.8842792510986328,0.19463978707790375,0.001829206245020032,0.14144864678382874,2.4524621963500977,0.9058281779289246,0.028438638895750046,-0.6704704165458679,-0.007497252896428108,2.518070697784424,1.3410502672195435,-0.3022359013557434,-1.1916332244873047,1.669083595275879,1.2107890844345093,-0.14321616291999817,-0.3230833113193512,-2.247453451156616,2.3881561756134033,0.9587118029594421,-0.5863229632377625,1741516121.7260926,1741516120993,0.28349365234375,-1.2368809814453126,2.550572891097774,-1.161279541015625,-1.0822708740234375
1741516121.7747414,3.800848364830017,0.024136141966552477,0.020259232640243027,-0.9995033817570599,-0.8046766519546509,-0.49774548411369324,-1.330275297164917,-2.3387584686279297,-1.0277819633483887,11.071012496948242,-0.7230873107910156,0.7135496139526367,0.2309834510087967,-1.302762508392334,0.005149920005351305,-0.6712062358856201,0.09403372555971146,1.3370953798294067,0.0036240178160369396,0.6937133073806763,0.2592126429080963,-0.7078278660774231,-0.05130846053361893,-0.18635080754756927,0.7402533292770386,-0.09384080022573471,-0.012423437088727951,-0.5834668278694153,-0.04634927958250046,-0.25349050760269165,1.0416189432144165,-0.3302846848964691,-0.01640680804848671,-0.6383942365646362,-0.4390442669391632,-2.1852192878723145,0.8444085717201233,0.0053014145232737064,0.21580985188484192,2.058772325515747,1.3817439079284668,0.030598487704992294,-1.0313063859939575,0.9316412806510925,0.5404009222984314,0.5472772717475891,-1.1903197765350342,1.1231938600540161,1.375291347503662,0.7321329116821289,-1.0145357847213745,-0.6898470520973206,-2.2622108459472656,3.451333999633789,1.4208064079284668,0.09512646496295929,1741516121.7260926,1741516120993,0.28349365234375,-1.2368809814453126,2.550572891097774,-1.161279541015625,-1.0822708740234375
1741516121.7947688,3.765062928199768,0.015083825937293325,0.03344287258537432,-0.9993267996348001,-0.639901876449585,-0.28311887383461,-1.8054767847061157,-2.919072151184082,-3.0898945331573486,12.82365894317627,-0.7360572814941406,0.6803617477416992,0.19169145822525024,-1.2920812368392944,0.005531395319849253,-0.6635767221450806,0.12264438718557358,1.3473951816558838,0.0032425422687083483,0.6792172193527222,0.28400853276252747,-0.6967650651931763,-0.03490501269698143,-0.1962691694498062,0.7589455842971802,-0.09481378644704819,-0.016878221184015274,-0.6170367002487183,-0.06160829961299896,-0.28782328963279724,1.117151141166687,-0.3156364858150482,0.0016246706945821643,-0.4956343472003937,-0.9251191020011902,-1.9352600574493408,0.5712162852287292,0.0048021115362644196,0.37046489119529724,1.8385727405548096,0.5744180679321289,-0.014413125813007355,-0.9294842481613159,1.0793683528900146,0.6191481947898865,0.7008187770843506,-0.1824827641248703,0.7639843225479126,-0.3328422009944916,-0.42455482482910156,-1.6797749996185303,-0.5722854137420654,-1.5434839725494385,3.922980785369873,0.5159510374069214,0.7953521609306335,1741516121.8311431,1741516121073,0.24805287170410156,-1.2834013671875,2.1116671058503185,-1.303479248046875,-1.0458085937500001
1741516121.814794,3.735331892967224,0.014360873896689155,0.04269077737186681,-0.9989851164198139,-0.40213778614997864,0.011563936248421669,-1.4217687845230103,0.04380904883146286,-1.5851155519485474,11.959474563598633,-0.7558937072753906,0.6380176544189453,0.15964750945568085,-1.2897924184799194,0.005531395319849253,-0.6498435735702515,0.1501106321811676,1.3519729375839233,0.0032425422687083483,0.6639581918716431,0.28667888045310974,-0.6815060377120972,-0.009346150793135166,-0.18787670135498047,0.7600900530815125,-0.12022571265697479,-0.025522343814373016,-0.6597619652748108,-0.06847485899925232,-0.3107118308544159,1.1739909648895264,-0.32758957147598267,-0.0021639016922563314,-0.5528361797332764,-1.23548424243927,-1.4240552186965942,0.07388909161090851,0.018094057217240334,0.7900588512420654,1.8377673625946045,0.24262677133083344,0.003736622864380479,-1.045461654663086,0.15290836989879608,0.7577113509178162,1.366516351699829,0.5040045380592346,-0.07644505053758621,-1.4045355319976807,-0.2815113067626953,-2.200594902038574,-0.2740028202533722,-0.9813268184661865,2.5822179317474365,-0.7502608895301819,-0.3421376943588257,1741516121.8311431,1741516121073,0.24805287170410156,-1.2834013671875,2.1116671058503185,-1.303479248046875,-1.0458085937500001
1741516121.8347921,3.7194827795028687,0.014993745567636026,0.046231084866975906,-0.9988182389133047,-0.16385917365550995,0.0823269933462143,-0.7630158066749573,-1.231109619140625,-3.437177896499634,7.718633651733398,-0.7726783752441406,0.5987262725830078,0.13027389347553253,-1.2913182973861694,0.00476844422519207,-0.6319142580032349,0.1806286722421646,1.3523544073104858,0.0032425422687083483,0.6460288166999817,0.2775234580039978,-0.6586175560951233,0.01888304017484188,-0.17681391537189484,0.7528420090675354,-0.15168528258800507,-0.02165098674595356,-0.697528064250946,-0.06923781335353851,-0.3126192092895508,1.196879506111145,-0.3532106578350067,-0.009418021887540817,-0.504792332649231,-1.2037729024887085,-1.6301954984664917,-0.12971505522727966,-0.060317263007164,0.8646814227104187,2.0417768955230713,-0.00534390565007925,0.0021463115699589252,-1.241424560546875,-0.6256581544876099,1.2663198709487915,1.4093950986862183,0.5023813843727112,-0.38297590613365173,-1.4937931299209595,0.33271801471710205,-1.7319682836532593,-0.06044722720980644,-0.03436271473765373,0.8175258636474609,-1.3100086450576782,-0.12240446358919144,1741516121.8311431,1741516121073,0.24805287170410156,-1.2834013671875,2.1116671058503185,-1.303479248046875,-1.0458085937500001
1741516121.8548353,3.706762671470642,0.015903171280380865,0.04926360624356735,-0.9986591942415117,-0.11952308565378189,0.05887119844555855,-0.5919584631919861,0.6536016464233398,2.1098978519439697,8.046979904174805,-0.787938117980957,0.5666818618774414,0.0883115902543068,-1.296658992767334,0.005531395319849253,-0.622377336025238,0.21038375794887543,1.3523544073104858,0.0032425422687083483,0.6250476837158203,0.2637903392314911,-0.6261920928955078,0.048638131469488144,-0.16117341816425323,0.7425421476364136,-0.1715124100446701,-0.02541189081966877,-0.7169833183288574,-0.07038223743438721,-0.3133821487426758,1.185816764831543,-0.3769991993904114,0.003940860740840435,-0.5007210969924927,-0.9854264855384827,-2.0780110359191895,-0.35125571489334106,-0.04020644724369049,0.3457340896129608,2.027632474899292,0.00864544790238142,-0.00022500779596157372,-1.3901864290237427,-0.6884638667106628,1.583676815032959,1.465520977973938,0.7998907566070557,-0.5433149337768555,-0.8933809995651245,-0.2489071637392044,-0.8293678164482117,-0.05856717377901077,-0.12125778198242188,-0.7829210162162781,-1.1122100353240967,0.6218690872192383,1741516121.8311431,1741516121073,0.24805287170410156,-1.2834013671875,2.1116671058503185,-1.303479248046875,-1.0458085937500001
1741516121.8748658,3.6920541524887085,0.013362100366346247,0.05123329470507503,-0.9985973181355248,-0.0854918509721756,-0.09936042129993439,-0.7544090151786804,-0.530510663986206,-1.9711132049560547,7.79103946685791,-0.790226936340332,0.5365457534790039,0.05970092490315437,-1.2985663414001465,0.005531395319849253,-0.620851457118988,0.23708705604076385,1.3512099981307983,0.0032425422687083483,0.6071183085441589,0.2607385218143463,-0.5964370369911194,0.07572289556264877,-0.14553292095661163,0.733386754989624,-0.18492384254932404,-0.030495505779981613,-0.7230868935585022,-0.07572289556264877,-0.3263523280620575,1.1472877264022827,-0.38926661014556885,0.00840605329722166,-0.10805542021989822,-0.917254626750946,-1.2030991315841675,-0.06058574840426445,-0.005708165466785431,0.016697324812412262,1.7437798976898193,-0.10584087669849396,0.0018525398336350918,-1.158495545387268,-0.03679117560386658,1.4139012098312378,1.2033828496932983,0.7593360543251038,-0.4423161447048187,-0.6705060005187988,-0.1468043327331543,-0.16515810787677765,-0.3253619968891144,-0.7033445835113525,-2.0130791664123535,-0.5114601850509644,0.09773227572441101,1741516121.8311431,1741516121073,0.24805287170410156,-1.2834013671875,2.1116671058503185,-1.303479248046875,-1.0458085937500001
1741516121.8948922,3.673362135887146,0.009685286698904623,0.05389844643422193,-0.9984994505224013,-0.12294310331344604,-0.14500384032726288,-0.947449266910553,0.7243506908416748,-0.8918195962905884,7.962441921234131,-0.794041633605957,0.50946044921875,0.05207141116261482,-1.2985663414001465,0.005531395319849253,-0.622377336025238,0.2576867341995239,1.3485395908355713,0.0032425422687083483,0.5945296287536621,0.265697717666626,-0.5693522691726685,0.09136339277029037,-0.14476996660232544,0.726138710975647,-0.19616900384426117,-0.03184941038489342,-0.7166017889976501,-0.08869306743144989,-0.3404669165611267,1.0915923118591309,-0.3860519826412201,0.0063351793214678764,-0.11642749607563019,-0.8023748397827148,-0.27679818868637085,-0.023155946284532547,0.0014783595688641071,-0.06129494681954384,1.2481170892715454,-0.20312784612178802,0.0049131689593195915,-0.8010087013244629,0.3824436664581299,1.318121075630188,0.6762992739677429,-0.055798377841711044,-0.3633436858654022,-0.5696089863777161,-0.09488659352064133,0.4504445493221283,-0.7497318387031555,-0.6619514226913452,-3.017077684402466,0.2888534367084503,0.01876341924071312,1741516121.933573,1741516121173,0.21249461364746094,-1.3291707763671876,1.1237809200220377,-1.4775208740234376,-1.0016309814453126
1741516121.9149172,3.653953433036804,0.004262275195460273,0.05602779017045846,-0.9984201118460972,-0.09013226628303528,-0.22311832010746002,-0.9559276700019836,-1.1084483861923218,-2.2272422313690186,7.908486366271973,-0.793278694152832,0.4823760986328125,0.0555046908557415,-1.2985663414001465,0.005531395319849253,-0.6250476837158203,0.26951247453689575,1.3466322422027588,0.0032425422687083483,0.5888075232505798,0.2809567451477051,-0.5495155453681946,0.1039520874619484,-0.14744029939174652,0.7230868935585022,-0.2116774618625641,-0.03469343110918999,-0.6937133073806763,-0.10433356463909149,-0.3564889132976532,1.0175859928131104,-0.3646697700023651,0.008961156941950321,0.0037802611477673054,-0.8057619333267212,0.17346344888210297,-0.0073796832002699375,-0.001226234482601285,-0.12513840198516846,0.7981077432632446,-0.11188317835330963,0.002775845117866993,-0.32223445177078247,0.7721916437149048,0.9709438681602478,0.5549778342247009,-0.09542039036750793,-0.15127789974212646,-0.8461384177207947,-0.12036173045635223,1.326237678527832,-0.8122856616973877,-0.7683018445968628,-3.813955068588257,1.1745010614395142,0.16199220716953278,1741516121.933573,1741516121173,0.21249461364746094,-1.3291707763671876,1.1237809200220377,-1.4775208740234376,-1.0016309814453126
1741516121.9351175,3.6375006437301636,0.00039813130973514506,0.05638079348680744,-0.9984092585794957,-0.007100183516740799,-0.14939966797828674,-0.7769389748573303,0.4878072738647461,-2.3388047218322754,7.173159599304199,-0.7921342849731445,0.4568166732788086,0.06351567804813385,-1.2985663414001465,0.005531395319849253,-0.6250476837158203,0.28324559330940247,1.3462507724761963,0.0032425422687083483,0.5888075232505798,0.29812315106391907,-0.5312047004699707,0.11196307092905045,-0.1501106321811676,0.7215610146522522,-0.23649907112121582,-0.032912369817495346,-0.655184268951416,-0.11463340371847153,-0.3694590628147125,0.9225986003875732,-0.3284986615180969,0.006298546679317951,0.010818161070346832,-0.7819581031799316,0.42496922612190247,-0.00499673280864954,-0.006958134472370148,0.009342588484287262,0.9447028040885925,-0.014592800289392471,0.0039234282448887825,0.004599687177687883,0.8217440247535706,0.9085661768913269,0.42172732949256897,-0.13702544569969177,-0.056648947298526764,-1.317784070968628,0.02716909535229206,1.9528483152389526,-0.4625397026538849,-0.6418392658233643,-4.946780681610107,1.8677864074707031,-0.19839029014110565,1741516121.933573,1741516121173,0.21249461364746094,-1.3291707763671876,1.1237809200220377,-1.4775208740234376,-1.0016309814453126
1741516121.9549918,3.625949263572693,-0.005099027673226118,0.055607587123579605,-0.9984396807875181,0.044407304376363754,-0.24591465294361115,-0.5409472584724426,-0.2326555997133255,0.8946765661239624,6.650030612945557,-0.787938117980957,0.4350728988647461,0.07763027399778366,-1.2985663414001465,0.005531395319849253,-0.6250476837158203,0.2943083941936493,1.3462507724761963,0.0032425422687083483,0.5918593406677246,0.3122377395629883,-0.5128938555717468,0.1180666834115982,-0.152399480342865,0.724612832069397,-0.266715407371521,-0.03525558486580849,-0.612077534198761,-0.1188296303153038,-0.3839551508426666,0.8085374236106873,-0.28479519486427307,0.0024579796008765697,0.10276094079017639,-0.6424458622932434,0.7515431046485901,0.00411949073895812,-0.006977597717195749,-0.007234922144562006,0.6547147035598755,-0.004125726409256458,0.005926575977355242,0.2615566849708557,0.6713907122612,0.9274218678474426,0.22295278310775757,-0.1045607402920723,0.20724891126155853,-1.514955997467041,-0.06662188470363617,2.2189080715179443,-0.21344806253910065,-0.7310178279876709,-5.819699287414551,2.163747549057007,-0.15362617373466492,1741516121.933573,1741516121173,0.21249461364746094,-1.3291707763671876,1.1237809200220377,-1.4775208740234376,-1.0016309814453126
1741516121.975014,3.6168307065963745,-0.008265004456496392,0.05046013713417,-0.9986918765373707,0.28243690729141235,-0.12824717164039612,-0.45911601185798645,5.0412821769714355,-0.04657099023461342,4.947747707366943,-0.7810707092285156,0.4106588363647461,0.09594109654426575,-1.298184871673584,0.005531395319849253,-0.6258106231689453,0.2977416515350342,1.3458693027496338,0.0032425422687083483,0.5991073250770569,0.32673379778862,-0.49076828360557556,0.1192111074924469,-0.15735866129398346,0.7391088604927063,-0.29311689734458923,-0.04242993891239166,-0.5735484957695007,-0.12188144028186798,-0.4007400572299957,0.6864652633666992,-0.24586208164691925,-0.0013367211213335395,0.18788860738277435,-0.723373293876648,0.9575470685958862,-0.002430587774142623,-0.005499118473380804,-0.032320424914360046,0.13568533957004547,-0.017520224675536156,0.004812456201761961,0.5040672421455383,0.7636401057243347,1.005000114440918,-0.08552594482898712,-0.18593630194664001,0.7686681747436523,-1.2751959562301636,-0.42385414242744446,1.8291326761245728,-0.20584388077259064,-0.785295844078064,-6.103854179382324,1.8532252311706543,-0.12291254103183746,1741516121.933573,1741516121173,0.21249461364746094,-1.3291707763671876,1.1237809200220377,-1.4775208740234376,-1.0016309814453126
1741516121.9950585,3.604435086250305,-0.013922093484792043,0.04079153324582256,-0.9990706812475559,0.4942125678062439,-0.23911726474761963,-0.6703042984008789,-9.154064178466797,-5.105749130249023,22.692350387573242,-0.7696266174316406,0.3896770477294922,0.12111848592758179,-1.298947811126709,0.005531395319849253,-0.6246662139892578,0.2943083941936493,1.3443434238433838,0.0032425422687083483,0.6052109599113464,0.3427557647228241,-0.4804684519767761,0.10662241280078888,-0.15430685877799988,0.7616159319877625,-0.3107004761695862,-0.045736148953437805,-0.5422675013542175,-0.12569619715213776,-0.41561761498451233,0.6040665507316589,-0.2055315226316452,-0.009335295297205448,0.33212754130363464,-0.687218189239502,1.313643455505371,-0.06553219258785248,-0.009855017066001892,0.05253717303276062,-0.3163986802101135,-0.14717724919319153,0.005492083262652159,0.34246429800987244,0.8490636944770813,0.4754372835159302,-0.3814934492111206,0.07898721098899841,1.2404685020446777,-0.7496348023414612,-0.1914464235305786,1.6395906209945679,0.007161831017583609,-0.9676557779312134,-2.824373960494995,2.143068313598633,-0.49704304337501526,1741516122.037881,1741516121273,0.1658179473876953,-1.351915771484375,0.9466401124527164,-1.6494892578125,-0.962399658203125
1741516122.0150464,3.5874239206314087,-0.01380692137384569,0.03536842331304863,-0.9992789618292409,0.21601122617721558,0.17890989780426025,-0.8784348368644714,11.528886795043945,6.226522445678711,6.323394775390625,-0.7742042541503906,0.3728923797607422,0.1497291475534439,-1.3035255670547485,0.005531395319849253,-0.6242847442626953,0.2813382148742676,1.3451063632965088,0.0032425422687083483,0.6082627773284912,0.3572518527507782,-0.4663538634777069,0.09975585341453552,-0.1665140837430954,0.7906080484390259,-0.31069210171699524,-0.03602219745516777,-0.5212863087654114,-0.09899290651082993,-0.4209582805633545,0.6010147333145142,-0.17348690330982208,-0.029176974669098854,-0.1037163957953453,-0.48629146814346313,1.4631379842758179,-0.3208925724029541,-0.008669637143611908,-0.0012814661022275686,-0.9697268009185791,0.14397920668125153,0.01595901884138584,0.2379799783229828,0.5942831039428711,0.5209780335426331,-0.3516816794872284,-0.7770470976829529,1.4044749736785889,0.18637773394584656,0.7231220602989197,0.6307607293128967,1.1947332620620728,0.2549852132797241,-0.3324715197086334,1.3381685018539429,-1.0110511779785156,1741516122.037881,1741516121273,0.1658179473876953,-1.351915771484375,0.9466401124527164,-1.6494892578125,-0.962399658203125
1741516122.0351274,3.563377261161804,-0.017167402835738626,0.029191157805645285,-0.9994264137923519,0.2806890904903412,-0.09889525920152664,-1.192583441734314,-7.321877956390381,0.685136616230011,14.257278442382812,-0.7646675109863281,0.3698406219482422,0.1813916265964508,-1.3096290826797485,0.005531395319849253,-0.6235218048095703,0.2573052644729614,1.3466322422027588,0.0032425422687083483,0.6139848828315735,0.36411839723587036,-0.4732204079627991,0.0871671661734581,-0.20466163754463196,0.8241779208183289,-0.28904661536216736,-0.023196954280138016,-0.5140383243560791,-0.0883115902543068,-0.3767071068286896,0.5933852195739746,-0.16763810813426971,-0.03543747216463089,0.24209833145141602,-0.09307181090116501,1.579138994216919,-0.3832783102989197,-0.003175701480358839,0.01867416873574257,-1.6897358894348145,0.039810556918382645,-0.0030229389667510986,0.38365408778190613,0.31035947799682617,-0.4240913689136505,-0.7282811999320984,-2.007312536239624,1.9351519346237183,1.2058124542236328,0.29647061228752136,0.7729280591011047,0.655386209487915,2.3950936794281006,-0.2695089280605316,0.1992889642715454,-0.10652105510234833,1741516122.037881,1741516121273,0.1658179473876953,-1.351915771484375,0.9466401124527164,-1.6494892578125,-0.962399658203125
1741516122.0555675,3.5414003133773804,-0.00969607090791443,0.02256975559400033,-0.999698250644351,0.35902082920074463,0.38574835658073425,-0.9769484996795654,3.589719295501709,8.566657066345215,9.803083419799805,-0.7585639953613281,0.3595409393310547,0.21076524257659912,-1.315732717514038,0.005912871100008488,-0.6261920928955078,0.22449836134910583,1.3473951816558838,0.002861066721379757,0.622377336025238,0.369840532541275,-0.509079098701477,0.06580453366041183,-0.2584496736526489,0.9019989371299744,-0.25297948718070984,-0.017125897109508514,-0.481612890958786,-0.07000076025724411,-0.32940414547920227,0.5907148718833923,-0.1667013168334961,-0.03199508786201477,0.17114697396755219,-0.3157069981098175,1.4192255735397339,-0.4481581747531891,0.0482230968773365,-0.06918182969093323,-2.1676578521728516,0.03156443312764168,-0.011016972362995148,0.6069331169128418,0.2914418578147888,-2.412219285964966,-1.201134443283081,-2.622349262237549,4.173449993133545,1.7900408506393433,0.5917763710021973,1.229026198387146,0.9057385325431824,2.1038553714752197,-0.2524935305118561,0.050111252814531326,0.056370604783296585,1741516122.037881,1741516121273,0.1658179473876953,-1.351915771484375,0.9466401124527164,-1.6494892578125,-0.962399658203125
1741516122.0751433,3.5292550325393677,-0.01127449191507401,0.011512608382907949,-0.9998701644114993,0.5036797523498535,0.018688755109906197,-0.48522505164146423,-8.85303783416748,0.3486219644546509,12.912327766418457,-0.7406349182128906,0.3698406219482422,0.22716869413852692,-1.3287029266357422,0.005149920005351305,-0.6265735626220703,0.19321736693382263,1.3439619541168213,0.0032425422687083483,0.6300068497657776,0.36259251832962036,-0.5823224186897278,0.023460745811462402,-0.30231937766075134,1.0160601139068604,-0.22984100878238678,0.00989043153822422,-0.4800869822502136,-0.054741740226745605,-0.3084229826927185,0.5819409489631653,-0.1639506220817566,-0.03474719822406769,0.4998135566711426,0.1465027779340744,0.6391001343727112,-0.8537670969963074,-0.05853068828582764,-0.08285019546747208,-2.139141798019409,-0.3115641474723816,0.0146332997828722,0.5028151273727417,-0.3883877098560333,-3.4580612182617188,-2.198671340942383,-1.9438178539276123,6.122908592224121,0.9522143006324768,1.2578028440475464,0.4128629267215729,0.7382158637046814,0.8568751811981201,-0.09455393254756927,0.23810094594955444,-0.08288517594337463,1741516122.037881,1741516121273,0.1658179473876953,-1.351915771484375,0.9466401124527164,-1.6494892578125,-0.962399658203125
1741516122.0951264,3.5261400938034058,-0.004614819224908603,0.006756492004631137,-0.9999665260694043,0.23483812808990479,0.21169514954090118,-0.15305393934249878,0.3580252528190613,5.090254306793213,6.661157608032227,-0.7532234191894531,0.3801403045654297,0.23403525352478027,-1.3340435028076172,0.005912871100008488,-0.6284809708595276,0.1657511293888092,1.3401471376419067,0.0024795911740511656,0.6361104846000671,0.34809643030166626,-0.655184268951416,-0.02689402550458908,-0.3065156042575836,1.1594948768615723,-0.23838716745376587,0.015418574213981628,-0.4705500900745392,-0.048638131469488144,-0.2904936373233795,0.5865186452865601,-0.15250204503536224,-0.02829422429203987,-0.3169027864933014,0.1959821879863739,0.35356929898262024,-0.2998979985713959,0.03749817982316017,-0.08352312445640564,-1.8442577123641968,-0.24719329178333282,-0.04320951923727989,0.37719255685806274,-0.7131126523017883,-3.7289915084838867,-2.378166675567627,-0.019234497100114822,7.0679402351379395,-0.6937049627304077,0.03563809394836426,0.01627172902226448,0.1758195012807846,0.9183899164199829,-0.135902538895607,0.5008467435836792,0.3729972541332245,1741516122.140264,1741516121373,0.10274686431884766,-1.3498519287109376,1.1931781012057825,-1.8155228271484376,-0.9189054565429687
1741516122.1151857,3.5235050916671753,-0.005777638391714739,0.001637516885000932,-0.9999819685539664,0.2153308093547821,-0.039333608001470566,-0.12953096628189087,-7.0002360343933105,0.03272062912583351,11.954436302185059,-0.7249946594238281,0.3900585174560547,0.23479819297790527,-1.3382397890090942,0.005531395319849253,-0.6319142580032349,0.14095520973205566,1.3325176239013672,0.002861066721379757,0.6418325901031494,0.33321890234947205,-0.7387273907661438,-0.06771191209554672,-0.28515297174453735,1.268596887588501,-0.2743273675441742,0.004353849682956934,-0.4842832088470459,-0.04444190114736557,-0.26836803555488586,0.5788891315460205,-0.15357574820518494,-0.02984427846968174,0.7577477097511292,0.29813525080680847,0.0276295468211174,-0.2903112471103668,-0.0032723103649914265,-0.20251139998435974,-1.655039668083191,-0.5112727284431458,0.005217297002673149,0.37340086698532104,-0.7318741083145142,-4.099527359008789,-1.8854551315307617,1.2352986335754395,5.047538757324219,-1.9615070819854736,-0.6024636626243591,-0.4044279456138611,0.3149951994419098,1.2103362083435059,-0.0593525655567646,-0.1191173642873764,-0.1729731261730194,1741516122.140264,1741516121373,0.10274686431884766,-1.3498519287109376,1.1931781012057825,-1.8155228271484376,-0.9189054565429687
1741516122.1351976,3.514708638191223,0.0041304588216150755,-0.0012982751632348477,-0.9999906268518337,0.18693587183952332,0.47618958353996277,-0.46532782912254333,7.066408634185791,4.972875595092773,4.828693866729736,-0.7280464172363281,0.3862438201904297,0.23632410168647766,-1.3393841981887817,0.005531395319849253,-0.6410696506500244,0.11348897218704224,1.3325176239013672,0.0024795911740511656,0.648699164390564,0.31605249643325806,-0.7990005612373352,-0.09555962681770325,-0.24929426610469818,1.3105592727661133,-0.32041704654693604,-0.0007495689205825329,-0.47589075565338135,-0.039101243019104004,-0.23632410168647766,0.5895704627037048,-0.16249722242355347,-0.031652264297008514,-0.056673672050237656,-0.09594297409057617,0.06640221178531647,-0.02001526951789856,-0.0026658782735466957,-0.4115149676799774,-1.8818674087524414,0.023083945736289024,0.01300034299492836,0.45753777027130127,-0.7786194086074829,-2.6891257762908936,-1.305895209312439,1.7539929151535034,1.5242199897766113,-2.3019750118255615,-0.19554448127746582,-0.0016359940636903048,0.2508956491947174,1.4453651905059814,0.38501808047294617,-0.5564234256744385,0.0695844292640686,1741516122.140264,1741516121373,0.10274686431884766,-1.3498519287109376,1.1931781012057825,-1.8155228271484376,-0.9189054565429687
1741516122.1552494,3.4997137784957886,0.005210557657603332,-0.009839846809715598,-0.9999380118305624,0.4597660005092621,0.04398902505636215,-0.750933051109314,-18.611879348754883,-1.7010993957519531,16.42194366455078,-0.7001981735229492,0.3904399871826172,0.24128328263759613,-1.3431990146636963,0.005531395319849253,-0.6395437717437744,0.0864042118191719,1.3309917449951172,0.0024795911740511656,0.6506065726280212,0.30422675609588623,-0.8264667987823486,-0.11234454810619354,-0.21992065012454987,1.27927827835083,-0.3540671169757843,-0.0011453776387497783,-0.5025940537452698,-0.03604944050312042,-0.22106507420539856,0.5918593406677246,-0.18716299533843994,-0.03376559540629387,0.8197659850120544,0.0951172485947609,0.2995803654193878,-0.3611616790294647,-0.0017878044163808227,0.11336710304021835,-1.7461458444595337,-0.11357136815786362,-0.006164461374282837,0.05932304263114929,-0.6157628297805786,-1.1797256469726562,-0.7090931534767151,1.3845202922821045,-2.055332660675049,-1.4562156200408936,-0.05349941924214363,-0.9356117248535156,0.24173007905483246,0.7419333457946777,0.4196794927120209,-1.2674556970596313,-0.283294141292572,1741516122.140264,1741516121373,0.10274686431884766,-1.3498519287109376,1.1931781012057825,-1.8155228271484376,-0.9189054565429687
1741516122.175266,3.484019160270691,0.013525704985852184,-0.02004837980222662,-0.9997075161125585,0.5206093192100525,0.3760121464729309,-0.7927741408348083,1.6982285976409912,0.41083627939224243,6.1577324867248535,-0.6963834762573242,0.3839550018310547,0.2481498420238495,-1.3443434238433838,0.005531395319849253,-0.6338216066360474,0.06694895774126053,1.3287029266357422,0.0020981156267225742,0.6498435735702515,0.28934919834136963,-0.8291370868682861,-0.12531471252441406,-0.19092851877212524,1.183146357536316,-0.3616592586040497,-0.007376991678029299,-0.48962387442588806,-0.03643091395497322,-0.1970321238040924,0.6246662139892578,-0.21555675566196442,-0.03452718257904053,0.14296510815620422,-0.18530996143817902,0.3462936580181122,0.004473933484405279,-0.0030176739674061537,0.2961357831954956,-1.1284233331680298,-0.18385080993175507,-0.009480288252234459,-0.09071753919124603,-0.6888642907142639,0.10941226780414581,-0.6962640285491943,1.3117496967315674,-5.318855285644531,-0.23113377392292023,-0.27917787432670593,0.33642342686653137,-0.03912413492798805,1.1911773681640625,1.5209206342697144,-1.4952304363250732,0.1868904083967209,1741516122.140264,1741516121373,0.10274686431884766,-1.3498519287109376,1.1931781012057825,-1.8155228271484376,-0.9189054565429687
1741516122.1952417,3.466732382774353,0.014132855258562352,-0.0311630088302633,-0.9994143931737653,0.589676558971405,-0.030437378212809563,-0.8540846109390259,-7.116487503051758,0.9092810153961182,10.886822700500488,-0.6845579147338867,0.3927288055419922,0.25120165944099426,-1.3443434238433838,0.005531395319849253,-0.6307697892189026,0.05855649709701538,1.3233622312545776,0.0024795911740511656,0.6460288166999817,0.28248265385627747,-0.8009079098701477,-0.14133669435977936,-0.17795833945274353,1.0400930643081665,-0.35525593161582947,-0.004273534752428532,-0.5205233693122864,-0.03376058489084244,-0.18978407979011536,0.6475547552108765,-0.24785347282886505,-0.034695617854595184,0.33386385440826416,0.24143537878990173,0.13033507764339447,-0.05071747675538063,-0.002252529840916395,0.0855337381362915,-0.45525574684143066,-0.4252341389656067,0.004209091421216726,-0.22340236604213715,-0.30609068274497986,1.5025516748428345,-0.9476763606071472,0.6040821671485901,-7.356171607971191,0.39076492190361023,0.2666555345058441,-1.363516092300415,0.294497013092041,0.2069055736064911,1.3878785371780396,-1.5456936359405518,0.03764062374830246,1741516122.2401938,1741516121493,0.049251625061035156,-1.34930224609375,0.9328178601522757,-2.0101512451171875,-0.8695940551757813
1741516122.2152696,3.4492324590682983,0.016335466707978977,-0.038679173927156696,-0.9991181481845604,0.3517540991306305,0.08887326717376709,-0.8155102133750916,-0.7039453387260437,-4.454930782318115,6.391307353973389,-0.6776914596557617,0.3927288055419922,0.2504386901855469,-1.3431990146636963,0.005531395319849253,-0.6361104846000671,0.059319447726011276,1.318021535873413,0.0020981156267225742,0.6483176946640015,0.2725642919540405,-0.7555122971534729,-0.15506981313228607,-0.1665140837430954,0.8710994124412537,-0.34170952439308167,0.0017469683662056923,-0.5197604298591614,-0.02880140393972397,-0.18825818598270416,0.6960021257400513,-0.27490857243537903,-0.033174291253089905,0.16648982465267181,0.037052590399980545,-0.06170641630887985,0.13528230786323547,-0.007970329374074936,-0.34499892592430115,0.20378340780735016,-0.3463113605976105,0.0012181173078715801,0.14130988717079163,-0.4043378531932831,2.454324960708618,-0.5732532143592834,0.3915509283542633,-8.71287727355957,0.6037048101425171,0.31754371523857117,-0.2918837368488312,0.09078053385019302,0.20173989236354828,2.255255699157715,-1.3922356367111206,0.06913651525974274,1741516122.2401938,1741516121493,0.049251625061035156,-1.34930224609375,0.9328178601522757,-2.0101512451171875,-0.8695940551757813
1741516122.2355413,3.431003212928772,0.012054948577962266,-0.03831537369648272,-0.9991929795356258,-0.05188013240695,-0.24730053544044495,-0.8647304773330688,-6.442014217376709,-3.7045953273773193,8.76427173614502,-0.6715879440307617,0.3961620330810547,0.248531311750412,-1.3363324403762817,0.005531395319849253,-0.6429770588874817,0.0707637146115303,1.313443899154663,0.0024795911740511656,0.6490806341171265,0.2752346098423004,-0.7108796834945679,-0.14209964871406555,-0.16880293190479279,0.6994354128837585,-0.3412398099899292,0.003983107395470142,-0.5445563197135925,-0.02536812424659729,-0.18635080754756927,0.7322422862052917,-0.300578773021698,-0.03674774616956711,0.21338720619678497,0.13690850138664246,-0.10596741735935211,0.4810176193714142,0.006310676224529743,-0.30559614300727844,0.8078929781913757,-0.30087825655937195,0.014304887503385544,0.02881321869790554,0.09658613055944443,1.9625425338745117,0.9266104102134705,-0.2768130600452423,-8.153862953186035,0.022777052596211433,-0.01798398233950138,-0.7156463265419006,0.35641953349113464,-0.02506488375365734,2.1057980060577393,-1.1302436590194702,-0.3265310823917389,1741516122.2401938,1741516121493,0.049251625061035156,-1.34930224609375,0.9328178601522757,-2.0101512451171875,-0.8695940551757813
1741516122.2555847,3.4150127172470093,0.007326710144079441,-0.027474721060765418,-0.999595647760182,-0.4808809459209442,-0.41971448063850403,-0.6747105121612549,-1.3333641290664673,18.346874237060547,15.074291229248047,-0.6734952926635742,0.4041728973388672,0.247768372297287,-1.3252695798873901,0.005531395319849253,-0.647936224937439,0.08335240930318832,1.309247612953186,0.0020981156267225742,0.648699164390564,0.26760509610176086,-0.6853207945823669,-0.13027389347553253,-0.17986571788787842,0.6788357496261597,-0.2988484799861908,-0.01262644398957491,-0.5476081371307373,-0.016975661739706993,-0.1966506391763687,0.777256429195404,-0.31715700030326843,-0.04472284018993378,-0.10984215140342712,0.3359512686729431,0.058073267340660095,0.7474969625473022,0.04336857795715332,-0.1447463482618332,0.8912453651428223,-0.16829556226730347,-0.022583190351724625,-0.0574207529425621,-0.3710048198699951,1.3376582860946655,0.13114310801029205,-0.31299668550491333,0.6981222629547119,2.2492010593414307,-0.7333934903144836,-0.40721920132637024,0.1634349822998047,-0.47120606899261475,1.6892169713974,-0.9150692820549011,-0.2802424728870392,1741516122.2401938,1741516121493,0.049251625061035156,-1.34930224609375,0.9328178601522757,-2.0101512451171875,-0.8695940551757813
1741516122.2756312,3.402912735939026,0.009642582896477542,-0.024013992368815344,-0.9996651183099243,-0.13808588683605194,0.06025036796927452,-0.5279961824417114,-3.7573349475860596,-9.983962059020996,9.43498420715332,-0.6490802764892578,0.3805217742919922,0.24357213079929352,-1.3145883083343506,0.005531395319849253,-0.6509880423545837,0.1031891331076622,1.3153512477874756,0.002861066721379757,0.6517509818077087,0.28629741072654724,-0.6944762468338013,-0.09479667246341705,-0.1974135935306549,0.7009612917900085,-0.2595866322517395,-0.04215690493583679,-0.5468451976776123,-0.009346150793135166,-0.22487983107566833,0.7784008383750916,-0.34398603439331055,-0.025345703586935997,0.6692397594451904,-0.5674216747283936,-0.33060771226882935,0.7187842130661011,-0.005034492816776037,-0.17514169216156006,1.4290063381195068,0.3607948422431946,0.06755685806274414,0.19211184978485107,0.9637449383735657,-0.5497660040855408,1.9837521314620972,-0.9808210134506226,0.38641026616096497,1.698829174041748,-1.106799602508545,0.22239823639392853,0.6783462166786194,-1.5638302564620972,0.1532779335975647,-1.330544114112854,1.0481531620025635,1741516122.2401938,1741516121493,0.049251625061035156,-1.34930224609375,0.9328178601522757,-2.0101512451171875,-0.8695940551757813
1741516122.2955706,3.3924983739852905,0.008887701070600646,-0.011648125127772968,-0.9998926592143216,-0.7351868152618408,-0.08466464281082153,-0.5344350934028625,-4.669714450836182,-5.936152935028076,16.03053092956543,-0.6479358673095703,0.3797588348388672,0.2294575423002243,-1.3050514459609985,0.005531395319849253,-0.6582360863685608,0.13179980218410492,1.3210734128952026,0.002861066721379757,0.657473087310791,0.28782328963279724,-0.6727321147918701,-0.06466010212898254,-0.20428015291690826,0.6872282028198242,-0.23802067339420319,-0.03977126628160477,-0.5399786233901978,-0.00476844422519207,-0.2660791873931885,0.8077744841575623,-0.3757907748222351,-0.016369469463825226,0.11350297927856445,-0.09424406290054321,-0.7624784111976624,0.6172226071357727,0.0007361402967944741,-0.37462857365608215,1.9054136276245117,0.4997358024120331,0.0145350880920887,0.404195100069046,0.11657603085041046,1.1263773441314697,1.2927638292312622,-0.13216173648834229,-0.6300289630889893,1.0712130069732666,0.3512904942035675,0.2622140944004059,-0.1853354424238205,-1.8759355545043945,1.7142040729522705,-1.6946593523025513,0.45025283098220825,1741516122.3450737,1741516121573,0.015244811058044434,-1.35038330078125,0.8254332662849914,-2.136375244140625,-0.8379052734375
1741516122.3158247,3.376491665840149,0.003259323354523041,0.00498781059483899,-0.9999822491208235,-0.7072594165802002,-0.29805657267570496,-0.9957213997840881,-16.061664581298828,0.4435562491416931,12.01667594909668,-0.6372547149658203,0.3759441375732422,0.21076524257659912,-1.297421932220459,0.005531395319849253,-0.6681544184684753,0.15850308537483215,1.3370953798294067,0.0032425422687083483,0.6662470698356628,0.3068970739841461,-0.6658655405044556,-0.0555046908557415,-0.21953918039798737,0.6872282028198242,-0.2155260443687439,-0.033432487398386,-0.5560005903244019,-0.03299763426184654,-0.2969787120819092,0.8787289261817932,-0.4172399044036865,-0.005648654419928789,0.34455469250679016,-0.15685980021953583,-0.9444913268089294,0.47449707984924316,-0.02356528490781784,-0.488497257232666,1.8119397163391113,1.0342540740966797,0.037075407803058624,0.5969271063804626,0.8916726112365723,0.19489017128944397,0.5035362839698792,-0.9875475168228149,0.1381855010986328,1.0592974424362183,0.2833707332611084,-0.9134851098060608,-1.378118872642517,-1.6393085718154907,4.096301078796387,-2.0987589359283447,0.6969248056411743,1741516122.3450737,1741516121573,0.015244811058044434,-1.35038330078125,0.8254332662849914,-2.136375244140625,-0.8379052734375
1741516122.335614,3.3502177000045776,0.006458129544436485,0.009490185901323734,-0.999934112296578,-0.1970186084508896,0.12572114169597626,-1.314563512802124,2.4399845600128174,-3.5251922607421875,8.430679321289062,-0.6094074249267578,0.3469524383544922,0.19169145822525024,-1.2913182973861694,0.005531395319849253,-0.6837949156761169,0.18635080754756927,1.3382397890090942,0.0024795911740511656,0.6807430982589722,0.32063019275665283,-0.657473087310791,-0.04482337832450867,-0.23327229917049408,0.691805899143219,-0.20293907821178436,-0.03445339575409889,-0.6025406122207642,-0.05664911866188049,-0.3397039771080017,0.9863049983978271,-0.4591587781906128,0.005254432093352079,0.7610002756118774,-0.8259699940681458,-0.8688738942146301,0.3990623354911804,0.01029667817056179,-0.7677000761032104,1.8151640892028809,-0.153008371591568,-0.06421510130167007,1.0984150171279907,0.6005728840827942,0.29066234827041626,0.48437297344207764,-0.2996777892112732,0.1294098198413849,0.5343605279922485,-0.18282662332057953,-2.6309714317321777,-1.2573062181472778,-2.016096353530884,5.45298433303833,-1.9714092016220093,0.6194379925727844,1741516122.3450737,1741516121573,0.015244811058044434,-1.35038330078125,0.8254332662849914,-2.136375244140625,-0.8379052734375
1741516122.3556473,3.322724223136902,0.005653198964539694,0.011035831733182249,-0.9999231229246698,-0.02138351835310459,0.008668986149132252,-1.3520714044570923,-0.9401042461395264,0.6338658928871155,10.310683250427246,-0.6029224395751953,0.3259706497192383,0.17833982408046722,-1.2871220111846924,0.005531395319849253,-0.7009612917900085,0.21114671230316162,1.3317546844482422,0.0024795911740511656,0.7017242908477783,0.3233005404472351,-0.6525139212608337,-0.024986648932099342,-0.21953918039798737,0.6937133073806763,-0.2018556445837021,-0.03992445021867752,-0.6609063744544983,-0.09136339277029037,-0.3591592311859131,1.0969328880310059,-0.4850950837135315,-0.0004460398049559444,0.23472672700881958,-0.724064826965332,-0.7037365436553955,0.27358242869377136,-0.0016479339683428407,-0.89858478307724,1.611944317817688,-0.398017555475235,0.02488168515264988,1.4439873695373535,-0.024730656296014786,0.2849198877811432,1.3260570764541626,0.59976726770401,0.18057005107402802,0.00801085028797388,-0.2046794593334198,-2.7900304794311523,-1.8318299055099487,-0.6330640316009521,5.451573371887207,-1.1100406646728516,-0.4278843402862549,1741516122.3450737,1741516121573,0.015244811058044434,-1.35038330078125,0.8254332662849914,-2.136375244140625,-0.8379052734375
1741516122.3756356,3.2967954874038696,0.006392913630513828,0.006652783439562113,-0.9999574346580054,0.21308834850788116,0.02690979838371277,-1.299041509628296,4.556424617767334,-5.029050350189209,7.49165153503418,-0.5880441665649414,0.3080415725708008,0.15697719156742096,-1.2817814350128174,0.005531395319849253,-0.7223239541053772,0.23670557141304016,1.3241251707077026,0.0024795911740511656,0.7257572412490845,0.31490805745124817,-0.6425955891609192,0.007438773289322853,-0.20466163754463196,0.7013428211212158,-0.20642827451229095,-0.05280805006623268,-0.7009612917900085,-0.12569619715213776,-0.3580147922039032,1.182383418083191,-0.4906303882598877,0.0030840113759040833,0.4277323782444,-0.5253302454948425,-1.0937148332595825,0.35676732659339905,-0.002670079004019499,-1.0744494199752808,1.6797375679016113,-0.5736688375473022,-0.005207495763897896,1.55722177028656,-0.42056936025619507,0.5223836302757263,1.5330575704574585,1.0039172172546387,0.26928868889808655,-0.29375988245010376,-0.7674174308776855,-1.8569717407226562,-1.575690746307373,-0.058626748621463776,4.030301570892334,-0.14033757150173187,0.42486247420310974,1741516122.3450737,1741516121573,0.015244811058044434,-1.35038330078125,0.8254332662849914,-2.136375244140625,-0.8379052734375
1741516122.3956764,3.2774734497070312,0.00017345647124206414,0.0035553680731131797,-0.99999366461529,0.13835297524929047,-0.34219422936439514,-0.9266317486763,1.2029130458831787,-3.281386137008667,9.815693855285645,-0.5754556655883789,0.2981233596801758,0.12951095402240753,-1.2772036790847778,0.005531395319849253,-0.7452124953269958,0.2626459002494812,1.316495656967163,0.0024795911740511656,0.7490272521972656,0.3114747703075409,-0.6273365616798401,0.038719769567251205,-0.18673227727413177,0.7009612917900085,-0.21674202382564545,-0.07428739964962006,-0.7219424843788147,-0.14629587531089783,-0.35229265689849854,1.2117570638656616,-0.48350656032562256,0.012705721892416477,0.402078777551651,-0.3581760823726654,-1.4700769186019897,0.27560147643089294,-0.01238174457103014,-1.2033271789550781,1.8020284175872803,-0.48434117436408997,0.005401470698416233,1.507830023765564,-0.2624693512916565,0.8317452669143677,1.647457480430603,0.6467028260231018,0.013730713166296482,-0.5296669006347656,-1.0130869150161743,-0.8120325207710266,-1.124621033668518,0.4536237120628357,0.982524037361145,0.41173669695854187,0.2587616741657257,1741516122.3450737,1741516121573,0.015244811058044434,-1.35038330078125,0.8254332662849914,-2.136375244140625,-0.8379052734375
1741516122.415695,3.267271041870117,-0.007772339483358902,0.0017353822758658347,-0.9999682890908651,0.10258936882019043,-0.3914046883583069,-0.4056418836116791,-0.3901593089103699,-2.008481740951538,8.98694133758545,-0.5674448013305664,0.2977418899536133,0.09937438368797302,-1.2733889818191528,0.005531395319849253,-0.770771324634552,0.28973066806793213,1.311155080795288,0.0024795911740511656,0.770771324634552,0.30231937766075134,-0.5991073250770569,0.06656748056411743,-0.182154580950737,0.7024872303009033,-0.2281545102596283,-0.09313100576400757,-0.7166017889976501,-0.16155488789081573,-0.3419928252696991,1.187342643737793,-0.47165173292160034,-0.0006593032157979906,0.22213569283485413,-0.010330856777727604,-1.4734009504318237,0.2504718005657196,0.002588043687865138,-1.320817232131958,1.7687382698059082,-0.3164859414100647,0.00018724388792179525,1.4879236221313477,-0.35885322093963623,1.4115995168685913,1.275210976600647,0.31029483675956726,0.07083038240671158,-0.6109597682952881,-0.8642202019691467,0.41450250148773193,-0.7069171071052551,0.5705177187919617,-1.552062749862671,0.6157742738723755,-0.6120548248291016,1741516122.4457195,1741516121673,-0.02260053253173828,-1.3608323974609375,0.9129712937936512,-2.292713134765625,-0.8015107421875001
1741516122.4357288,3.2580034732818604,-0.01586872973035431,0.001021505270830388,-0.9998735619785767,0.003933633212000132,-0.42663663625717163,-0.4874793589115143,1.0455111265182495,-1.5044653415679932,7.755076885223389,-0.5575265884399414,0.2893495559692383,0.07305257022380829,-1.2703371047973633,0.005531395319849253,-0.7978560924530029,0.31567102670669556,1.305432915687561,0.0024795911740511656,0.7909895181655884,0.308804452419281,-0.5891889929771423,0.0871671661734581,-0.1810101419687271,0.7028687000274658,-0.24115271866321564,-0.1047656461596489,-0.6960021257400513,-0.17872129380702972,-0.32978561520576477,1.125925064086914,-0.4568341076374054,0.003468256676569581,0.29688939452171326,-0.21706143021583557,-1.2591060400009155,0.14600129425525665,-0.008347539231181145,-1.3466436862945557,1.6668835878372192,-0.3864920437335968,0.017954206094145775,1.3309910297393799,0.48793962597846985,0.27703580260276794,0.9412246942520142,0.03438033163547516,0.02648479864001274,-0.6276189088821411,-0.5880021452903748,1.1308635473251343,-0.9419056177139282,0.6057558059692383,-3.401503324508667,0.731783390045166,0.3130466043949127,1741516122.4457195,1741516121673,-0.02260053253173828,-1.3608323974609375,0.9129712937936512,-2.292713134765625,-0.8015107421875001
1741516122.4557304,3.2451142072677612,-0.0209174974016907,0.0019738972609428737,-0.9997792566522139,-0.06774772703647614,-0.17636413872241974,-0.7104589343070984,0.8299614787101746,-0.7486081719398499,4.195674896240234,-0.5437936782836914,0.2771415710449219,0.056267641484737396,-1.2661409378051758,0.005531395319849253,-0.8245593905448914,0.33588922023773193,1.3000922203063965,0.0024795911740511656,0.8096818327903748,0.32940414547920227,-0.5827038884162903,0.1024261862039566,-0.18520638346672058,0.7139315009117126,-0.2564426064491272,-0.11265908181667328,-0.6628137826919556,-0.1958876997232437,-0.32520791888237,1.029411792755127,-0.446795791387558,0.0027026089373975992,0.4156275689601898,-0.3489992618560791,-0.7559056282043457,0.3261018991470337,-0.009678248316049576,-1.3185378313064575,1.3113393783569336,-0.39512890577316284,-0.0022454936988651752,1.2174395322799683,1.1626179218292236,0.2718551456928253,0.6449772119522095,-0.2237536907196045,0.6888018250465393,-0.7641929388046265,-0.27980276942253113,1.7655277252197266,-0.818153977394104,0.13633665442466736,-5.159080505371094,0.38880854845046997,-0.20379599928855896,1741516122.4457195,1741516121673,-0.02260053253173828,-1.3608323974609375,0.9129712937936512,-2.292713134765625,-0.8015107421875001
1741516122.475754,3.2267091274261475,-0.021724133625590187,0.0023923804297284017,-0.9997611407401755,-0.028811056166887283,0.014096417464315891,-0.9609408378601074,0.8126771450042725,3.2196433544158936,7.542496681213379,-0.5315866470336914,0.2584495544433594,0.05397878959774971,-1.2611817121505737,0.005531395319849253,-0.8512626886367798,0.34847790002822876,1.2920812368392944,0.0024795911740511656,0.8287556171417236,0.36259251832962036,-0.5880445837974548,0.1039520874619484,-0.18978407979011536,0.734149694442749,-0.27602192759513855,-0.11072131991386414,-0.6219958662986755,-0.20466163754463196,-0.33245593309402466,0.8974212408065796,-0.44998762011528015,-0.008588075637817383,0.3608394265174866,-0.5041505098342896,-0.0025379089638590813,0.3406637907028198,0.006771869491785765,-1.3238121271133423,0.7243891358375549,-0.512722909450531,0.001801663194783032,1.3113124370574951,1.741956114768982,-0.24546974897384644,-0.10613597929477692,-0.23213866353034973,1.1779944896697998,-1.019500732421875,0.12631499767303467,2.030099868774414,-0.36495402455329895,-0.4283231794834137,-6.901979923248291,-0.28215065598487854,-0.535196840763092,1741516122.4457195,1741516121673,-0.02260053253173828,-1.3608323974609375,0.9129712937936512,-2.292713134765625,-0.8015107421875001
1741516122.4957895,3.2016416788101196,-0.01881514659457978,0.0013357739727145814,-0.9998220871567693,-0.04500371962785721,0.05897848308086395,-1.3171402215957642,-7.125539302825928,3.9416937828063965,13.395777702331543,-0.510986328125,0.24586105346679688,0.05664911866188049,-1.2527892589569092,0.005149920005351305,-0.8749141693115234,0.34885939955711365,1.2794926166534424,0.0024795911740511656,0.846684992313385,0.39768826961517334,-0.5876630544662476,0.10585946589708328,-0.20428015291690826,0.770771324634552,-0.29640325903892517,-0.11296553164720535,-0.5827038884162903,-0.20923933386802673,-0.369840532541275,0.8367666006088257,-0.4247845709323883,0.019013231620192528,0.5961834788322449,-0.361481636762619,0.10378821194171906,0.5628913044929504,0.015133061446249485,-1.1758328676223755,-0.059806253761053085,-0.8928894400596619,0.009402821771800518,1.1013411283493042,1.676533579826355,0.16495251655578613,0.9570572972297668,-1.215805172920227,1.8355149030685425,-1.024218201637268,-0.010619944892823696,1.9789808988571167,0.15659171342849731,-2.355832576751709,-0.8631066679954529,1.6771067380905151,1.419058084487915,1741516122.4457195,1741516121673,-0.02260053253173828,-1.3608323974609375,0.9129712937936512,-2.292713134765625,-0.8015107421875001
1741516122.515794,3.1650060415267944,-0.01592581445212962,0.005042369766911618,-0.9998604617351213,-0.22005820274353027,0.0669880211353302,-1.8002792596817017,2.153895854949951,3.1879196166992188,7.132716178894043,-0.498779296875,0.24013900756835938,0.06771191209554672,-1.2451597452163696,0.005149920005351305,-0.8958953022956848,0.33627068996429443,1.2688112258911133,0.002861066721379757,0.8592736721038818,0.41256579756736755,-0.5773632526397705,0.09441519528627396,-0.24128328263759613,0.7970931529998779,-0.32831767201423645,-0.07301265001296997,-0.5758373141288757,-0.17681391537189484,-0.3759441375732422,0.8226520419120789,-0.39319008588790894,0.032247647643089294,0.35742470622062683,-0.30793705582618713,0.7200104594230652,0.5086696743965149,0.010727191343903542,-0.962313175201416,-0.9480549097061157,-0.6893552541732788,0.02885287255048752,0.9458526968955994,0.624910831451416,0.5016560554504395,-0.6845147013664246,-2.070739269256592,1.2797760963439941,-1.6128079891204834,2.395460844039917,0.1149350181221962,1.172325611114502,0.530131995677948,-1.3586376905441284,1.3583314418792725,0.32685935497283936,1741516122.4457195,1741516121673,-0.02260053253173828,-1.3608323974609375,0.9129712937936512,-2.292713134765625,-0.8015107421875001
1741516122.5358305,3.1285786628723145,-0.017664087499945653,0.007012010442978175,-0.9998193895511038,-0.09097466617822647,0.035916175693273544,-1.7535336017608643,-1.487336277961731,9.119467735290527,9.552807807922363,-0.4854278564453125,0.24814987182617188,0.09174486994743347,-1.2436338663101196,0.005531395319849253,-0.9103913903236389,0.3099488914012909,1.2592743635177612,0.002861066721379757,0.8779659867286682,0.4076066315174103,-0.5586709380149841,0.06542305648326874,-0.2950713336467743,0.8226520419120789,-0.36457645893096924,-0.023047814145684242,-0.5498970150947571,-0.1497291475534439,-0.3374151289463043,0.7986190319061279,-0.3739827275276184,0.0056796749122440815,0.3928602933883667,0.10730309784412384,1.2252399921417236,-0.06104133278131485,-0.004413406830281019,-0.7750068306922913,-1.8908250331878662,-0.655346691608429,-0.021818164736032486,1.2628060579299927,-0.33193081617355347,0.933941662311554,-1.6566218137741089,-2.673640489578247,1.3553645610809326,-1.8814127445220947,2.5398921966552734,1.5296469926834106,1.9930124282836914,1.7808833122253418,-0.864356517791748,0.7526155114173889,-1.7448129653930664,1741516122.4457195,1741516121673,-0.02260053253173828,-1.3608323974609375,0.9129712937936512,-2.292713134765625,-0.8015107421875001
1741516122.5558743,3.1013263463974,-0.014741628095441665,-0.001312707705353771,-0.9998904746018815,0.47221165895462036,0.05005722865462303,-1.2522144317626953,2.5232112407684326,-0.2781122922897339,7.832692623138428,-0.4659719467163086,0.24776840209960938,0.11310750246047974,-1.2543151378631592,0.005912871100008488,-0.926413357257843,0.27218279242515564,1.2505004405975342,0.001716639962978661,0.9000915288925171,0.3854810297489166,-0.5560005903244019,0.030708782374858856,-0.343137264251709,0.8749141693115234,-0.40511584281921387,0.009031512774527073,-0.5281528830528259,-0.10738536715507507,-0.30003052949905396,0.7829785346984863,-0.375007301568985,-0.016268905252218246,0.5683267712593079,-0.02050684578716755,1.0563890933990479,-0.8248444199562073,0.007811171934008598,-0.7808811664581299,-2.5181329250335693,-0.6692907214164734,-0.03763071075081825,1.4773813486099243,-1.193522334098816,0.061841752380132675,-1.651686429977417,-2.2019388675689697,2.9590704441070557,-1.969321846961975,1.334213137626648,0.6943549513816833,1.9906598329544067,1.8546656370162964,-0.9114739298820496,-0.2140815258026123,-0.6656168103218079,1741516122.4457195,1741516121673,-0.02260053253173828,-1.3608323974609375,0.9129712937936512,-2.292713134765625,-0.8015107421875001
1741516122.5758717,3.0891635417938232,-0.015576273786119404,-0.0076713759950109576,-0.9998492534803849,0.26528578996658325,-0.02366498112678528,-0.5569965839385986,0.9941993951797485,0.7027037143707275,9.283000946044922,-0.4571981430053711,0.2569236755371094,0.1371404528617859,-1.2611817121505737,0.005531395319849253,-0.9420538544654846,0.24929426610469818,1.2386746406555176,0.001716639962978661,0.9145876169204712,0.35229265689849854,-0.569733738899231,-0.016212711110711098,-0.3435187339782715,0.967994213104248,-0.43300265073776245,-0.005455175414681435,-0.5132753252983093,-0.07801175117492676,-0.27218279242515564,0.776493489742279,-0.3832780122756958,-0.029813257977366447,0.30340906977653503,0.3142578601837158,1.217559576034546,-0.3293757438659668,-0.00486819539219141,-0.7377784848213196,-1.2931406497955322,-0.759348452091217,-0.007461764849722385,0.8301854729652405,-1.6473355293273926,-0.9880939722061157,-2.4371182918548584,0.31724169850349426,4.915998458862305,-1.2848795652389526,-0.8056960105895996,0.8032747507095337,1.49888277053833,1.228616714477539,-0.18793366849422455,-0.4158082902431488,-0.7726308107376099,1741516122.4457195,1741516121673,-0.02260053253173828,-1.3608323974609375,0.9129712937936512,-2.292713134765625,-0.8015107421875001
1741516122.5958698,3.0857229232788086,-0.018308810437104465,-0.010414909496574639,-0.9997781339480055,0.09826841950416565,-0.1188507005572319,-0.12446274608373642,0.32402491569519043,-2.6963491439819336,8.927096366882324,-0.4484243392944336,0.2641716003417969,0.1653696447610855,-1.2623261213302612,0.005531395319849253,-0.953498125076294,0.22259098291397095,1.2283748388290405,0.001716639962978661,0.9233615398406982,0.3282597064971924,-0.6280995011329651,-0.05703059583902359,-0.31376364827156067,1.0957884788513184,-0.44916635751724243,-0.007050256244838238,-0.4972533881664276,-0.049782559275627136,-0.2500572204589844,0.7623788714408875,-0.3913964331150055,-0.040705833584070206,0.28430187702178955,0.2596057951450348,1.5085762739181519,-0.08314360678195953,-0.006785131525248289,-0.5379239320755005,-1.9114999771118164,-0.6879693269729614,0.012888455763459206,0.5571315884590149,-1.1026545763015747,-3.107412815093994,-2.033466339111328,1.641301155090332,6.678765773773193,-0.7450142502784729,0.36081185936927795,0.9688937664031982,1.4194241762161255,1.1766315698623657,-0.7569916844367981,-0.3098982870578766,-0.4403918385505676,1741516122.4457195,1741516121673,-0.02260053253173828,-1.3608323974609375,0.9129712937936512,-2.292713134765625,-0.8015107421875001
1741516122.6159692,3.087865114212036,-0.020809833875303097,-0.006824283379698219,-0.9997601612238987,-0.2070559561252594,-0.13764561712741852,0.10210417956113815,0.14816048741340637,2.965857982635498,9.065743446350098,-0.4335470199584961,0.2702751159667969,0.200083926320076,-1.2588928937911987,0.005531395319849253,-0.9618905782699585,0.18596932291984558,1.2234156131744385,0.0020981156267225742,0.9279392957687378,0.31567102670669556,-0.7150759100914001,-0.09708552807569504,-0.273708701133728,1.2365529537200928,-0.4544825255870819,0.005593659821897745,-0.4800869822502136,-0.023079270496964455,-0.23327229917049408,0.7478827834129333,-0.39384037256240845,-0.04498807340860367,0.4249754846096039,0.18612445890903473,1.8045239448547363,0.3015088140964508,-0.01254185475409031,-0.4408566355705261,-2.4545416831970215,-0.20396962761878967,0.018522731959819794,0.22592498362064362,-0.5432823300361633,-4.421361446380615,-1.9353597164154053,1.9922176599502563,6.923291206359863,-0.1783004254102707,0.3690733015537262,0.7213308811187744,1.2165287733078003,0.7891415953636169,-0.7443403005599976,-0.14965979754924774,-0.2253587245941162,1741516122.6525767,1741516121773,-0.06540309143066407,-1.338865966796875,0.756204292597042,-2.44484423828125,-0.7655595703125
1741516122.6359532,3.087430238723755,-0.02167852632636592,-0.0018893599512644105,-0.9997632078723899,-0.2497258484363556,0.03905961290001869,-0.019836893305182457,-0.22435922920703888,-0.4506200850009918,10.611857414245605,-0.4148550033569336,0.2702751159667969,0.24242770671844482,-1.2546966075897217,0.005531395319849253,-0.9637979865074158,0.14438849687576294,1.2253230810165405,0.0020981156267225742,0.9283207654953003,0.3114747703075409,-0.8093003630638123,-0.12645913660526276,-0.23365376889705658,1.3513771295547485,-0.449459433555603,-0.005461065098643303,-0.4671168029308319,-0.007438773289322853,-0.22716869413852692,0.7402533292770386,-0.40122273564338684,-0.0506497398018837,0.5469112992286682,0.001451575313694775,2.1284079551696777,0.21223631501197815,-0.013257665559649467,-0.04111018404364586,-2.8410208225250244,0.09131624549627304,0.001162132015451789,0.043504998087882996,-0.12870030105113983,-4.741131782531738,-1.2872763872146606,1.9648936986923218,5.2671380043029785,0.31828629970550537,-0.5339668989181519,0.7249401807785034,0.6314758658409119,0.3110547363758087,-0.2484901249408722,-0.4303652048110962,-0.12465590983629227,1741516122.6525767,1741516121773,-0.06540309143066407,-1.338865966796875,0.756204292597042,-2.44484423828125,-0.7655595703125
1741516122.655994,3.0865883827209473,-0.017301370451565722,0.0024242573604604054,-0.9998473811321145,-0.18809299170970917,0.21746142208576202,-0.05928587168455124,1.3064777851104736,1.7514744997024536,9.841733932495117,-0.3946361541748047,0.2660789489746094,0.28896772861480713,-1.2543151378631592,0.005531395319849253,-0.959983229637146,0.09708552807569504,1.224941611289978,0.0020981156267225742,0.9287022352218628,0.3110933005809784,-0.8859769701957703,-0.15735866129398346,-0.1958876997232437,1.4040207862854004,-0.43864819407463074,-0.004761361982673407,-0.464446485042572,0.00667582219466567,-0.21953918039798737,0.7394903302192688,-0.41553688049316406,-0.05522390082478523,0.5919163227081299,-0.13257531821727753,2.396735668182373,0.02318304218351841,-0.008334305137395859,0.2374035269021988,-3.1483962535858154,-0.014063112437725067,0.006062171421945095,0.029276467859745026,-0.06083405762910843,-3.6937501430511475,-1.4401545524597168,2.0272269248962402,2.024097204208374,0.6304088830947876,0.07592510432004929,0.01578918658196926,0.7479616403579712,0.37837350368499756,-0.051808033138513565,-0.7982330322265625,-0.30054521560668945,1741516122.6525767,1741516121773,-0.06540309143066407,-1.338865966796875,0.756204292597042,-2.44484423828125,-0.7655595703125
1741516122.6760275,3.075960874557495,-0.011745402601064917,0.0029933056617565783,-0.9999265401213002,0.00900280475616455,0.30993935465812683,-0.5656575560569763,-1.553605318069458,0.5601149797439575,10.735782623291016,-0.3694591522216797,0.2595939636230469,0.3370336592197418,-1.2566040754318237,0.005531395319849253,-0.9554055333137512,0.053215838968753815,1.224941611289978,0.002861066721379757,0.9290837049484253,0.2954528033733368,-0.9309910535812378,-0.17032882571220398,-0.16918440163135529,1.3849469423294067,-0.4186042249202728,-0.0026637434493750334,-0.4690241813659668,0.016212711110711098,-0.21190966665744781,0.7410162687301636,-0.43537452816963196,-0.06668506562709808,0.718629002571106,-0.16355782747268677,2.4057393074035645,-0.2158963680267334,0.00497036287561059,0.18258783221244812,-2.8325037956237793,-0.01956292800605297,0.058864302933216095,0.02722548507153988,-0.7445268034934998,-2.025982618331909,-0.5067107677459717,1.3031998872756958,-1.4776387214660645,1.0550568103790283,0.14362679421901703,-0.0032859081402420998,0.5482969284057617,0.394187331199646,0.1472482979297638,-0.9938515424728394,-0.6918537616729736,1741516122.6525767,1741516121773,-0.06540309143066407,-1.338865966796875,0.756204292597042,-2.44484423828125,-0.7655595703125
1741516122.6960201,3.0568565130233765,-0.0013138412909011056,0.0020324609837819654,-0.9999970714574178,0.035865068435668945,0.5229119658470154,-1.0513243675231934,1.5582172870635986,-0.34553033113479614,10.578034400939941,-0.3427553176879883,0.24853134155273438,0.38090333342552185,-1.2588928937911987,0.005531395319849253,-0.9481574892997742,0.018501564860343933,1.225704550743103,0.002861066721379757,0.9309910535812378,0.2817196846008301,-0.9393835067749023,-0.1680399775505066,-0.15964750945568085,1.3044556379318237,-0.3938800096511841,-0.003069089725613594,-0.4682612419128418,0.024605173617601395,-0.20122835040092468,0.7471198439598083,-0.45449885725975037,-0.07125810533761978,0.7680065035820007,-0.2606552541255951,2.141308546066284,-0.15946823358535767,0.001299290917813778,0.31936028599739075,-2.268719434738159,0.047930020838975906,0.003106727497652173,0.09746614843606949,-0.7275354862213135,-0.18118810653686523,0.1416303962469101,0.38366204500198364,-4.435606956481934,1.1983964443206787,0.06993935257196426,0.020146729424595833,0.40957242250442505,0.42598065733909607,0.25551196932792664,-0.9476642608642578,-0.13924629986286163,1741516122.6525767,1741516121773,-0.06540309143066407,-1.338865966796875,0.756204292597042,-2.44484423828125,-0.7655595703125
1741516122.7159977,3.038638472557068,0.008082720916246138,-0.0014013318389638236,-0.9999663523797524,0.20304256677627563,0.46863317489624023,-0.8122892379760742,-0.014533786103129387,-0.9098238348960876,8.796185493469238,-0.3271150588989258,0.24738693237304688,0.41371023654937744,-1.2604187726974487,0.005912871100008488,-0.9382390975952148,-0.0078202486038208,1.2299007177352905,0.002861066721379757,0.9351872801780701,0.2580682039260864,-0.9275577664375305,-0.15545128285884857,-0.15888457000255585,1.1758984327316284,-0.37611809372901917,0.0016718142433091998,-0.465209424495697,0.024986648932099342,-0.20313572883605957,0.7528420090675354,-0.4698866307735443,-0.07893621176481247,0.4943959712982178,-0.014386957511305809,1.5859403610229492,-0.07749824970960617,0.026451921090483665,0.47369104623794556,-1.7071106433868408,0.32870250940322876,0.0017864382825791836,0.31211668252944946,-1.2011584043502808,0.7793375253677368,0.7999004125595093,0.06922677159309387,-6.685769081115723,0.7511182427406311,0.3318944573402405,0.2825302183628082,0.012510712258517742,-0.13352805376052856,0.2800670564174652,-0.7259244322776794,-0.293108731508255,1741516122.7502,1741516121993,-0.18198382568359375,-1.2853223876953126,0.22020175833239744,-2.77206591796875,-0.6900323486328125
1741516122.7360523,3.0334259271621704,0.019054433099801087,-0.004957823106228774,-0.9998061554968006,0.15249522030353546,0.5162557363510132,-0.15672440826892853,6.358489990234375,-3.6992592811584473,7.251589298248291,-0.3061342239379883,0.23823165893554688,0.43240252137184143,-1.2604187726974487,0.005912871100008488,-0.9279392957687378,-0.023079270496964455,1.2321895360946655,0.0024795911740511656,0.9416723847389221,0.230601966381073,-0.890554666519165,-0.12989242374897003,-0.14248111844062805,1.0290303230285645,-0.375125914812088,0.005360566545277834,-0.4522392749786377,0.027656977996230125,-0.212672621011734,0.7513160705566406,-0.478863388299942,-0.07030251622200012,0.6115598082542419,-0.25909391045570374,0.7814438939094543,-0.008417917415499687,-0.016241496428847313,0.45890164375305176,-0.8266013264656067,0.07933391630649567,-0.0023339095059782267,0.43430790305137634,-1.4507464170455933,1.8786499500274658,1.306235909461975,0.8127315044403076,-7.583319664001465,-0.12295587360858917,0.08572349697351456,0.7145036458969116,0.24160556495189667,-0.6639276742935181,-0.16373950242996216,-0.4038452208042145,0.45504656434059143,1741516122.7502,1741516121993,-0.18198382568359375,-1.2853223876953126,0.22020175833239744,-2.77206591796875,-0.6900323486328125
1741516122.7560842,3.036542057991028,0.022530189607605007,-0.0020571712921006965,-0.9997440465451747,-0.2048710733652115,0.12801767885684967,0.23213055729866028,1.6586514711380005,-2.675450563430786,7.4044036865234375,-0.2996492385864258,0.2553977966308594,0.4373617172241211,-1.2562226057052612,0.005531395319849253,-0.9203097820281982,-0.020027466118335724,1.2314265966415405,0.0024795911740511656,0.9481574892997742,0.21229113638401031,-0.8524070978164673,-0.10013733059167862,-0.11425192654132843,0.8909361362457275,-0.3958578109741211,0.004935430828481913,-0.42973220348358154,0.039101243019104004,-0.23289081454277039,0.7433050870895386,-0.4831208288669586,-0.063174307346344,0.19621610641479492,0.4402599036693573,0.1561514288187027,0.33880630135536194,-0.017275528982281685,0.3885028660297394,0.39950308203697205,-0.05928127467632294,0.001270839013159275,0.3756963312625885,-0.6572744846343994,1.9158191680908203,1.5195176601409912,1.507394790649414,-6.580093860626221,-1.1769345998764038,0.0014828162966296077,1.2768961191177368,0.7026565670967102,-0.9494581818580627,-0.3604489266872406,-0.17394742369651794,0.503486692905426,1741516122.7502,1741516121993,-0.18198382568359375,-1.2853223876953126,0.22020175833239744,-2.77206591796875,-0.6900323486328125
1741516122.776097,3.0437265634536743,0.019661256696114796,0.0117550621064287,-0.9997375923211068,-0.7630756497383118,-0.2237575799226761,0.33444204926490784,0.17204716801643372,-3.4216108322143555,9.226593017578125,-0.2855348587036133,0.2695121765136719,0.43202105164527893,-1.2478300333023071,0.005531395319849253,-0.919165313243866,0.000572213320992887,1.2333340644836426,0.0024795911740511656,0.9473945498466492,0.22259098291397095,-0.8199816942214966,-0.06733043491840363,-0.09632257372140884,0.8020523190498352,-0.42322033643722534,0.0019111474975943565,-0.3923476040363312,0.06237125024199486,-0.2504386901855469,0.7337682247161865,-0.4829604923725128,-0.03996749594807625,0.3907302916049957,0.4380247890949249,-0.3180718421936035,0.5673187375068665,-0.011473817750811577,0.021603327244520187,1.500014305114746,0.20412351191043854,0.011006958782672882,-0.10057481378316879,0.6493456363677979,1.391386866569519,1.632176160812378,0.4326900243759155,-3.759434700012207,-1.0379936695098877,-0.29038819670677185,1.9316551685333252,1.267087697982788,-0.8924378156661987,-0.46214088797569275,0.08341092616319656,1.4207342863082886,1741516122.7502,1741516121993,-0.18198382568359375,-1.2853223876953126,0.22020175833239744,-2.77206591796875,-0.6900323486328125
1741516122.7961552,3.05057156085968,0.008163559842441638,0.026452069974735936,-0.9996167487015963,-0.6084725260734558,-0.4570446014404297,0.37834280729293823,-3.0093331336975098,-3.4343454837799072,14.486347198486328,-0.2592124938964844,0.2763786315917969,0.4190509021282196,-1.23447847366333,0.005531395319849253,-0.9172579646110535,0.031090257689356804,1.2443968057632446,0.0032425422687083483,0.9447242021560669,0.24128328263759613,-0.7955672740936279,-0.04444190114736557,-0.1340886503458023,0.838674008846283,-0.42455849051475525,-0.0029456631746143103,-0.3568703830242157,0.07953765243291855,-0.2790493667125702,0.7291905283927917,-0.47191986441612244,-0.025136403739452362,0.7443570494651794,0.2899317741394043,-0.8619765043258667,0.9056990146636963,0.0026494679041206837,0.1041642278432846,2.113159656524658,0.8480069637298584,0.0529274120926857,-0.13676409423351288,1.3083758354187012,1.332911729812622,1.0699028968811035,-2.158717155456543,2.120809316635132,-0.24337491393089294,-0.13525068759918213,1.7606749534606934,0.7779524922370911,-1.4631731510162354,-0.17033010721206665,0.6814877390861511,0.6216461658477783,1741516122.7502,1741516121993,-0.18198382568359375,-1.2853223876953126,0.22020175833239744,-2.77206591796875,-0.6900323486328125
1741516122.8161416,3.0516557693481445,-0.0017313875222382481,0.03085041564991353,-0.9995225130788578,-0.25213685631752014,-0.6491084694862366,-0.14002220332622528,-1.0769834518432617,-3.3367812633514404,13.850903511047363,-0.23365402221679688,0.2767601013183594,0.3721294105052948,-1.224560022354126,0.005531395319849253,-0.9180209040641785,0.07038223743438721,1.2508819103240967,0.0032425422687083483,0.9462500810623169,0.2752346098423004,-0.7803082466125488,-0.03490501269698143,-0.16002899408340454,0.8531700372695923,-0.43388697504997253,-0.02873104251921177,-0.3389410376548767,0.0875486359000206,-0.31910428404808044,0.7551308274269104,-0.44363415241241455,-0.006144737359136343,0.700421929359436,0.1465376317501068,-2.4964256286621094,0.5747337341308594,0.006659055594354868,-0.06246921047568321,2.5252597332000732,0.3159205913543701,0.016153579577803612,0.05316701903939247,1.6076620817184448,1.086248517036438,0.36858776211738586,-0.9625858664512634,0.3831818699836731,-0.42923012375831604,-1.4201593399047852,0.394620418548584,0.16757459938526154,-1.930254340171814,1.6635124683380127,1.492126703262329,0.9108637571334839,1741516122.7502,1741516121993,-0.18198382568359375,-1.2853223876953126,0.22020175833239744,-2.77206591796875,-0.6900323486328125
1741516122.8361642,3.044751286506653,-0.01441335221699161,0.03511437405269668,-0.99927935834418,-0.12978653609752655,-0.5068196654319763,-0.28623348474502563,-1.191007375717163,4.127313137054443,12.003144264221191,-0.22716903686523438,0.2698936462402344,0.31872281432151794,-1.227993369102478,0.005531395319849253,-0.916113555431366,0.10166323184967041,1.2539336681365967,0.0036240178160369396,0.9466315507888794,0.28782328963279724,-0.7471198439598083,-0.02880140393972397,-0.17719538509845734,0.8504997491836548,-0.43203723430633545,-0.042099740356206894,-0.361066609621048,0.06504157930612564,-0.3385595381259918,0.846684992313385,-0.41941532492637634,-0.005431311205029488,0.22119812667369843,-0.1474725306034088,-2.701882839202881,-0.25589585304260254,-0.0014121172716841102,0.12915962934494019,2.1867527961730957,0.24809755384922028,0.008518068119883537,0.04471703618764877,0.6786781549453735,1.5792382955551147,0.33993953466415405,-0.8664063215255737,-0.13784602284431458,0.21205420792102814,-0.4266515076160431,-1.5834496021270752,-1.2704508304595947,-0.8360013961791992,5.121378421783447,0.9974544048309326,-0.15291279554367065,1741516122.7502,1741516121993,-0.18198382568359375,-1.2853223876953126,0.22020175833239744,-2.77206591796875,-0.6900323486328125
1741516122.8579955,3.0271486043930054,-0.0206084804225675,0.028905293663021595,-0.9993696886202458,0.3015490770339966,-0.2212420403957367,-1.0157344341278076,-2.398909568786621,1.260465145111084,8.787357330322266,-0.19130992889404297,0.2592124938964844,0.25158312916755676,-1.2348599433898926,0.005531395319849253,-0.9153505563735962,0.13942931592464447,1.2569855451583862,0.0036240178160369396,0.9470130205154419,0.30003052949905396,-0.7177462577819824,-0.026131074875593185,-0.1840619444847107,0.840962827205658,-0.4271291196346283,-0.04349290952086449,-0.43011367321014404,0.032616160809993744,-0.34695202112197876,0.9870679974555969,-0.43078914284706116,-0.009977245703339577,1.0334728956222534,-0.3371296525001526,-3.449126958847046,-0.435750812292099,-0.002141532488167286,0.01078654732555151,2.4256834983825684,0.143949493765831,0.023699501529335976,-0.001413080026395619,0.5875565409660339,1.648779034614563,0.15221679210662842,-0.18110863864421844,-0.5787783861160278,0.17664971947669983,-0.09229699522256851,-3.8213140964508057,-1.6904067993164062,-0.33102813363075256,7.190133571624756,-0.9123265147209167,-0.0027756686322391033,1741516122.7502,1741516121993,-0.18198382568359375,-1.2853223876953126,0.22020175833239744,-2.77206591796875,-0.6900323486328125
1741516122.8762116,3.0014010667800903,-0.020100206558368593,0.0187553717337042,-0.9996220374358707,0.5165089964866638,0.07554392516613007,-1.3188111782073975,-0.635127067565918,0.585513710975647,11.485539436340332,-0.18711376190185547,0.24433517456054688,0.17948424816131592,-1.236767292022705,0.005531395319849253,-0.9149690866470337,0.17376211285591125,1.2566040754318237,0.0032425422687083483,0.9473945498466492,0.3091859221458435,-0.6837949156761169,-0.01926451548933983,-0.17528800666332245,0.8222705721855164,-0.4251228868961334,-0.043645214289426804,-0.5186160206794739,-0.01430533267557621,-0.3419928252696991,1.1392767429351807,-0.47379639744758606,-0.006819522939622402,0.1942678838968277,-0.434810996055603,-3.6031792163848877,-0.08028111606836319,-0.004296867176890373,0.025332847610116005,2.407496929168701,-0.06966383010149002,-0.014861766248941422,0.04097333922982216,0.4848806858062744,1.6204689741134644,0.44311946630477905,0.4615500569343567,-0.9696865081787109,0.10230404138565063,-0.004713831935077906,-4.223317623138428,-2.485044002532959,0.4037989377975464,7.386912822723389,-2.2423384189605713,0.14747054874897003,1741516122.7502,1741516121993,-0.18198382568359375,-1.2853223876953126,0.22020175833239744,-2.77206591796875,-0.6900323486328125
1741516122.8962276,2.973039388656616,-0.018983751053053315,0.0044306455716337,-0.9998099752331812,0.7102872729301453,0.09040277451276779,-1.4135653972625732,-0.33606377243995667,-1.6493914127349854,9.016823768615723,-0.17071056365966797,0.23250961303710938,0.10929274559020996,-1.2363858222961426,0.005531395319849253,-0.9149690866470337,0.2153429538011551,1.2543151378631592,0.002861066721379757,0.9466315507888794,0.31757840514183044,-0.6513695120811462,-0.002861066721379757,-0.1527809500694275,0.80510413646698,-0.4259096384048462,-0.04610655829310417,-0.6052109599113464,-0.06885633617639542,-0.33245593309402466,1.2628748416900635,-0.5204793214797974,0.0036426070146262646,0.4228326976299286,-0.3627443313598633,-3.3939781188964844,0.05008488520979881,-0.002583859721198678,-0.02213353104889393,2.8281686305999756,-0.20243299007415771,-0.02047216147184372,-0.055758677423000336,0.3775184750556946,1.796297311782837,0.8817601799964905,1.1533255577087402,-0.8404088616371155,-0.08090821653604507,-0.12069308757781982,-4.484846115112305,-2.656489610671997,0.4691697657108307,5.842113018035889,-2.3074698448181152,0.4890967607498169,1741516122.7502,1741516121993,-0.18198382568359375,-1.2853223876953126,0.22020175833239744,-2.77206591796875,-0.6900323486328125
1741516122.9162486,2.9463725090026855,-0.01804661940641698,-0.010744895499487608,-0.9997794090441677,0.7198528051376343,0.025848018005490303,-1.3512479066848755,3.4639949798583984,-7.443910121917725,8.855175018310547,-0.16498851776123047,0.22335433959960938,0.04291599988937378,-1.233715534210205,0.005531395319849253,-0.9157320261001587,0.2622644305229187,1.2497375011444092,0.002861066721379757,0.9458686113357544,0.3107118308544159,-0.612077534198761,0.018501564860343933,-0.13103684782981873,0.7864118218421936,-0.43052124977111816,-0.05692018195986748,-0.6723506450653076,-0.1184481605887413,-0.31490805745124817,1.3288700580596924,-0.5619910955429077,0.004527686629444361,0.18500916659832,-0.27053213119506836,-3.2143540382385254,0.17853012681007385,-0.012923275120556355,-0.049473412334918976,3.1750800609588623,-0.2928149104118347,0.009470038115978241,-0.0522303506731987,-0.38757234811782837,1.8707033395767212,1.0845955610275269,1.1025587320327759,-0.9890241026878357,-0.24483399093151093,-0.5880827903747559,-3.1614232063293457,-2.573298692703247,1.017006754875183,2.784627914428711,-1.9723014831542969,-0.21678327023983002,1741516122.9593356,1741516122193,-0.3062170104980469,-1.263450439453125,0.4175832115997661,-3.0559033203125,-0.6255859375
1741516122.9378295,2.930986762046814,-0.02111890728481798,-0.024941251309944536,-0.9994658201950627,0.6929249167442322,-0.19664783775806427,-0.7669101357460022,5.050649166107178,-2.2203080654144287,7.571997165679932,-0.16117382049560547,0.21953964233398438,-0.010109102353453636,-1.231808066368103,0.005531395319849253,-0.916876494884491,0.3099488914012909,1.2470670938491821,0.002861066721379757,0.9462500810623169,0.30270084738731384,-0.578507661819458,0.0394827201962471,-0.10662241280078888,0.7654306888580322,-0.4355296790599823,-0.07089356333017349,-0.7169833183288574,-0.16422522068023682,-0.28629741072654724,1.3300144672393799,-0.5824242830276489,-0.0019953411538153887,0.1287550926208496,-0.0762888491153717,-2.5365829467773438,0.07251597940921783,-0.02613024041056633,-0.11554960161447525,3.1759095191955566,-0.16363541781902313,-0.017473489046096802,-0.0016747895861044526,-0.6211591362953186,1.5770492553710938,0.9679816365242004,1.173824429512024,-1.0463780164718628,-0.2543444037437439,-0.6901796460151672,-2.0095620155334473,-2.252168893814087,1.5486552715301514,-0.4825500547885895,-0.7806687355041504,-0.014590750448405743,1741516122.9593356,1741516122193,-0.3062170104980469,-1.263450439453125,0.4175832115997661,-3.0559033203125,-0.6255859375
1741516122.9563484,2.9249240159988403,-0.024181543725413368,-0.0376271776821343,-0.9989992234445095,0.59868985414505,-0.09931319952011108,-0.310527503490448,3.7266204357147217,0.1521274298429489,7.54721212387085,-0.15659618377685547,0.21877670288085938,-0.056267641484737396,-1.232571005821228,0.005912871100008488,-0.9229800701141357,0.3538185656070709,1.2463041543960571,0.0024795911740511656,0.9454871416091919,0.290875107049942,-0.5380712747573853,0.057793546468019485,-0.09021896868944168,0.7505531311035156,-0.44068220257759094,-0.07886476814746857,-0.7345311641693115,-0.20351719856262207,-0.25234606862068176,1.271267294883728,-0.5758973956108093,0.014769583940505981,0.13609355688095093,-0.019131766632199287,-2.338414430618286,-0.0541866235435009,0.027785737067461014,-0.4106146991252899,2.8222787380218506,-0.02215694636106491,-0.00524497963488102,-0.01759744994342327,-0.43747320771217346,2.012507438659668,0.8637080788612366,0.8600540161132812,-0.6420302987098694,-0.27878087759017944,-0.33278268575668335,-0.6410120725631714,-1.8885282278060913,1.7025234699249268,-3.4580776691436768,0.4981955885887146,0.7040191888809204,1741516122.9593356,1741516122193,-0.3062170104980469,-1.263450439453125,0.4175832115997661,-3.0559033203125,-0.6255859375
1741516122.97639,2.9157137870788574,-0.02483988219754358,-0.045949166584791624,-0.998634895416025,0.3565221130847931,-0.06886087357997894,-0.45607075095176697,1.0844374895095825,2.689415216445923,6.137075424194336,-0.15392494201660156,0.20962047576904297,-0.09479667246341705,-1.231045126914978,0.005149920005351305,-0.9420538544654846,0.3927290737628937,1.2485930919647217,0.0036240178160369396,0.9416723847389221,0.2954528033733368,-0.506790280342102,0.07457847148180008,-0.07877469807863235,0.7455939650535583,-0.4477428197860718,-0.08219876885414124,-0.7272831201553345,-0.23289081454277039,-0.2298390120267868,1.1430914402008057,-0.5559031367301941,0.007870210334658623,0.07782968133687973,-0.19872739911079407,-1.7957768440246582,0.10832569748163223,-0.019247526302933693,-0.9499036073684692,2.6996588706970215,0.21038612723350525,0.08263172209262848,-0.40281084179878235,0.3902772068977356,1.5077570676803589,0.6582692861557007,0.46828001737594604,-0.11831025779247284,-0.3797425627708435,-0.06678812205791473,0.5173542499542236,-1.4199333190917969,0.9350489974021912,-7.09393310546875,1.0253747701644897,-0.6830980777740479,1741516122.9593356,1741516122193,-0.3062170104980469,-1.263450439453125,0.4175832115997661,-3.0559033203125,-0.6255859375
1741516122.9963286,2.8951998949050903,-0.025863050633118462,-0.04793146981778487,-0.998515736888035,0.03871719166636467,-0.10796423256397247,-1.0897144079208374,-2.5133798122406006,0.9780543446540833,5.827943801879883,-0.14400672912597656,0.20656871795654297,-0.1031891331076622,-1.228756308555603,0.005149920005351305,-0.959220290184021,0.42629891633987427,1.2516448497772217,0.0036240178160369396,0.9325169920921326,0.33016708493232727,-0.4858091175556183,0.07419699430465698,-0.0875486359000206,0.7505531311035156,-0.46061059832572937,-0.07537020742893219,-0.6948577165603638,-0.25577935576438904,-0.23289081454277039,0.9435797929763794,-0.5416663289070129,-0.003166305599734187,0.27179598808288574,-0.10372904688119888,-0.16986113786697388,0.18421834707260132,-0.004635057877749205,-0.8134512901306152,1.8770242929458618,0.07964400947093964,-0.00254393951036036,-0.5886438488960266,1.8541659116744995,0.9848057627677917,-0.35055166482925415,-0.7488104701042175,0.2900141477584839,-0.6412431001663208,0.35191163420677185,1.8469650745391846,-1.1760876178741455,-0.3860457241535187,-10.37844181060791,0.5945447683334351,-0.2589954435825348,1741516122.9593356,1741516122193,-0.3062170104980469,-1.263450439453125,0.4175832115997661,-3.0559033203125,-0.6255859375
1741516123.016374,2.8682395219802856,-0.023916178661209344,-0.05085316597622268,-0.9984197373391813,0.18868473172187805,-0.029512178152799606,-1.3493732213974,-18.260114669799805,-7.162391662597656,19.755212783813477,-0.13790321350097656,0.19741344451904297,-0.09174486994743347,-1.219219446182251,0.004386968910694122,-0.9710460305213928,0.4346913993358612,1.2482116222381592,0.0032425422687083483,0.927176296710968,0.3751811981201172,-0.4713130295276642,0.05664911866188049,-0.12912946939468384,0.7726787328720093,-0.4716537594795227,-0.07639043778181076,-0.6322957277297974,-0.2779049277305603,-0.2786678969860077,0.8245593905448914,-0.48456311225891113,0.04707612469792366,0.17514754831790924,-0.30540725588798523,0.6884269714355469,0.847041666507721,-0.0774124264717102,-0.5501567125320435,0.48547977209091187,-0.277771532535553,-0.014732319861650467,-0.4562026858329773,2.3139150142669678,0.8647281527519226,-0.05052132532000542,-2.7938907146453857,1.218649983406067,-0.49488696455955505,-0.21400795876979828,3.4551351070404053,-0.726488471031189,-2.8361048698425293,-2.4987876415252686,3.8333394527435303,2.9113075733184814,1741516122.9593356,1741516122193,-0.3062170104980469,-1.263450439453125,0.4175832115997661,-3.0559033203125,-0.6255859375
1741516123.0364604,2.833203673362732,-0.022700801508590513,-0.04436127960071879,-0.9987576034669545,-0.3330186903476715,0.04137580096721649,-1.6871715784072876,0.21292908489704132,-3.031759262084961,4.824522495269775,-0.13332557678222656,0.20313549041748047,-0.05741206929087639,-1.2085380554199219,0.00476844422519207,-0.9733348488807678,0.4247730076313019,1.2466856241226196,0.004005493130534887,0.9157320261001587,0.3908216953277588,-0.44155794382095337,0.018120087683200836,-0.20122835040092468,0.7833600640296936,-0.4922698438167572,-0.033309128135442734,-0.5895704627037048,-0.2500572204589844,-0.3213931620121002,0.8310444951057434,-0.4203643202781677,0.06103488802909851,0.08902552723884583,0.060587603598833084,1.8822450637817383,0.6244681477546692,0.0008414789917878807,-0.019833335652947426,-0.9834871888160706,-0.05571800097823143,0.07333981990814209,-0.45695462822914124,0.4749142527580261,1.3415205478668213,-2.1606879234313965,-3.5255327224731445,0.513672411441803,-0.9934013485908508,2.798304557800293,1.5667346715927124,1.0143476724624634,-1.1961342096328735,-0.8490011096000671,2.452235221862793,-0.06899064779281616,1741516122.9593356,1741516122193,-0.3062170104980469,-1.263450439453125,0.4175832115997661,-3.0559033203125,-0.6255859375
1741516123.0564454,2.8082510232925415,-0.020103623821572304,-0.040121527816597405,-0.9989925461758474,-0.19754232466220856,0.1615624874830246,-1.299192190170288,-2.922783374786377,3.0932600498199463,8.300399780273438,-0.12111854553222656,0.20275402069091797,-0.01201647985726595,-1.2070121765136719,0.005531395319849253,-0.969520092010498,0.39501792192459106,1.2463041543960571,0.0036240178160369396,0.9187838435173035,0.3706035017967224,-0.40951400995254517,-0.02727550081908703,-0.27027541399002075,0.7867932915687561,-0.5088664889335632,0.007375293876975775,-0.5670633912086487,-0.230601966381073,-0.2924010157585144,0.7906080484390259,-0.3944631814956665,0.03360585868358612,0.36282476782798767,-0.013692770153284073,2.278886318206787,-0.05313463509082794,-0.02675512433052063,0.14040400087833405,-2.046900987625122,-0.024196570739150047,-0.026392992585897446,0.23037071526050568,-1.363194227218628,1.583707571029663,-2.1438381671905518,-3.503650426864624,0.29384106397628784,-0.561735987663269,1.2787532806396484,1.4124019145965576,1.2977875471115112,1.7245644330978394,-1.423844575881958,1.3373574018478394,-1.7944731712341309,1741516122.9593356,1741516122193,-0.3062170104980469,-1.263450439453125,0.4175832115997661,-3.0559033203125,-0.6255859375
1741516123.0764384,2.7912206649780273,-0.008666885544429986,-0.03817564642007654,-0.9992334587649521,-0.15854845941066742,0.5375573635101318,-0.7636769413948059,8.750072479248047,1.617654800415039,4.711055755615234,-0.11425209045410156,0.19130992889404297,0.03185320645570755,-1.224941611289978,0.006294346414506435,-0.9721904397010803,0.36526283621788025,1.2436338663101196,0.0024795911740511656,0.9187838435173035,0.31376364827156067,-0.3912031650543213,-0.06389715522527695,-0.30308231711387634,0.837911069393158,-0.49117961525917053,-0.020388314500451088,-0.5472266674041748,-0.18673227727413177,-0.2573052644729614,0.7940413355827332,-0.3833569586277008,0.009016307070851326,0.21856476366519928,-0.34091365337371826,2.2208974361419678,-1.3345229625701904,0.06416377425193787,-0.08710122853517532,-2.0234453678131104,-0.2202634960412979,-0.053754501044750214,0.0038304945919662714,-2.9428093433380127,0.663079023361206,-1.7730400562286377,-1.185662865638733,3.1297988891601562,1.1287190914154053,-1.2807170152664185,0.08510925620794296,2.0323498249053955,1.4719910621643066,-0.03287816792726517,0.34875252842903137,-0.7493159770965576,1741516122.9593356,1741516122193,-0.3062170104980469,-1.263450439453125,0.4175832115997661,-3.0559033203125,-0.6255859375
1741516123.0964155,2.79161274433136,-0.0075446075251598245,-0.0317614566163593,-0.9994670023421977,-0.35209307074546814,0.11921237409114838,0.11941598355770111,-5.271330833435059,1.089714765548706,9.564090728759766,-0.11081886291503906,0.20885753631591797,0.08068207651376724,-1.2428709268569946,0.005149920005351305,-0.9710460305213928,0.33207446336746216,1.2402005195617676,0.0024795911740511656,0.9187838435173035,0.2592126429080963,-0.42820629477500916,-0.10509651154279709,-0.28706035017967224,0.9359502792358398,-0.4521731436252594,-0.017055721953511238,-0.5506599545478821,-0.15888457000255585,-0.23670557141304016,0.7986190319061279,-0.3892107307910919,0.009377282112836838,0.09126631170511246,0.5371826887130737,2.388615608215332,-1.1199967861175537,-0.0046044206246733665,0.051645468920469284,-2.278634548187256,-0.15863102674484253,-0.004858571570366621,0.009484168142080307,-2.565645933151245,-2.1551601886749268,-2.0200963020324707,0.9688562750816345,5.331507682800293,1.9281764030456543,0.5825623869895935,0.30481183528900146,1.3644523620605469,0.7371252775192261,0.4279352128505707,-0.31901419162750244,-0.025157470256090164,1741516122.9593356,1741516122193,-0.3062170104980469,-1.263450439453125,0.4175832115997661,-3.0559033203125,-0.6255859375
1741516123.1164622,2.801767587661743,-0.0034590457504458647,-0.020346639302898387,-0.9997870019517028,-0.6287314295768738,0.08607236295938492,0.5652714371681213,-0.34058958292007446,-3.50700306892395,9.693592071533203,-0.10090065002441406,0.21877670288085938,0.1337071806192398,-1.2527892589569092,0.005531395319849253,-0.9706645011901855,0.28706035017967224,1.2405821084976196,0.002861066721379757,0.9187838435173035,0.22678720951080322,-0.509079098701477,-0.14133669435977936,-0.2580682039260864,1.0912108421325684,-0.41541779041290283,0.004916222300380468,-0.5365453362464905,-0.13218127191066742,-0.23975738883018494,0.8009079098701477,-0.39799171686172485,-0.0003213277959730476,0.316897451877594,0.42016494274139404,2.9069392681121826,-0.6503632068634033,0.0031927525997161865,-0.010610733181238174,-3.080841064453125,0.022768547758460045,0.04269852116703987,-0.04818500578403473,-1.489128828048706,-4.324307918548584,-1.8046574592590332,1.3588547706604004,7.769651889801025,1.726462960243225,0.9162711501121521,0.4308931529521942,1.1624995470046997,-0.14600500464439392,-0.0989823192358017,-0.420076459646225,-0.49798259139060974,1741516123.1603866,1741516122293,-0.37008047485351564,-1.218123046875,0.519034388801132,-3.184086669921875,-0.5973192749023437
1741516123.1364565,2.821226716041565,-0.005591983633697871,-0.001121761779936605,-0.9999837355525085,-0.9787644147872925,-0.0230952687561512,1.0029640197753906,-2.032961845397949,2.337157964706421,11.55577564239502,-0.08907413482666016,0.22755050659179688,0.19207294285297394,-1.2577484846115112,0.005531395319849253,-0.9706645011901855,0.23746852576732635,1.2463041543960571,0.0032425422687083483,0.919165313243866,0.21076524257659912,-0.620851457118988,-0.1653696447610855,-0.23556114733219147,1.255245327949524,-0.40197694301605225,0.0051986537873744965,-0.5209048390388489,-0.10967422276735306,-0.2504386901855469,0.804341197013855,-0.4074111878871918,-0.007357794791460037,0.32777997851371765,0.26423850655555725,2.8501389026641846,-0.2480906993150711,-0.01029664371162653,0.002957309130579233,-3.4081578254699707,0.3950282633304596,0.0015106198843568563,0.052425216883420944,-0.7188183069229126,-5.652274131774902,-1.098130702972412,1.2556982040405273,7.804471969604492,0.4435005784034729,-0.08841434121131897,1.0310251712799072,1.0792500972747803,-0.5817489624023438,0.2316518872976303,-0.5082446336746216,-0.24264894425868988,1741516123.1603866,1741516122293,-0.37008047485351564,-1.218123046875,0.519034388801132,-3.184086669921875,-0.5973192749023437
1741516123.156497,2.8453214168548584,-0.0024325225261515693,0.01914987359572441,-0.99981366522739,-1.0189273357391357,0.1001390591263771,1.1747517585754395,2.6017158031463623,0.7308007478713989,9.837634086608887,-0.07228946685791016,0.22602462768554688,0.25196459889411926,-1.2581299543380737,0.005531395319849253,-0.9706645011901855,0.1817730963230133,1.2470670938491821,0.0032425422687083483,0.9203097820281982,0.1993209719657898,-0.7303349375724792,-0.19054703414440155,-0.20542457699775696,1.3853284120559692,-0.4147453010082245,0.0033388822339475155,-0.4964904189109802,-0.08030059933662415,-0.2641718089580536,0.8020523190498352,-0.4244547486305237,-0.011119264177978039,0.5200494527816772,-0.016626253724098206,3.0348925590515137,-0.015632500872015953,-0.0037968517281115055,0.004797942470759153,-3.75518536567688,-0.01798892579972744,-0.0013252751668915153,0.026010027155280113,-0.6190317273139954,-5.40083122253418,-1.179582953453064,1.7038341760635376,5.941596508026123,-0.7935292720794678,-0.025617392733693123,1.1275736093521118,1.5130844116210938,-0.6476062536239624,-0.12318374216556549,-0.8937437534332275,-0.2087508589029312,1741516123.1603866,1741516122293,-0.37008047485351564,-1.218123046875,0.519034388801132,-3.184086669921875,-0.5973192749023437
1741516123.176535,2.8685463666915894,-0.003962944133247203,0.03874749254673542,-0.9992411755402884,-0.9722875356674194,-0.05356926843523979,1.1448259353637695,0.9446377754211426,2.342402458190918,10.632564544677734,-0.053597450256347656,0.23098373413085938,0.31452658772468567,-1.2569855451583862,0.005531395319849253,-0.9668498039245605,0.12417028844356537,1.2459226846694946,0.0032425422687083483,0.9210727214813232,0.19054703414440155,-0.8211261034011841,-0.1989395022392273,-0.17032882571220398,1.4475089311599731,-0.4382270574569702,0.002338020596653223,-0.47741663455963135,-0.05054550990462303,-0.2645532786846161,0.8024337887763977,-0.4461187422275543,-0.016802089288830757,0.533401370048523,0.14705747365951538,3.163947105407715,0.12261608242988586,-0.007306114304810762,0.27060040831565857,-3.789327621459961,-0.07444823533296585,0.0005372486775740981,0.06315019726753235,-0.3385638892650604,-4.152784824371338,-0.1822596937417984,1.7864861488342285,2.6129262447357178,-1.1550803184509277,-0.10261773318052292,1.138067364692688,1.4550491571426392,0.180453822016716,0.0683121383190155,-1.121661901473999,-0.2726278603076935,1741516123.1603866,1741516122293,-0.37008047485351564,-1.218123046875,0.519034388801132,-3.184086669921875,-0.5973192749023437
