Freshhhhh-LC/Legged_odom/data/4/segments/booster_seg_9.35s.csv
time,yaw,projected_gravity_x,projected_gravity_y,projected_gravity_z,ang_vel_x,ang_vel_y,ang_vel_z,lin_acc_x,lin_acc_y,lin_acc_z,q_0,q_1,q_2,q_3,q_4,q_5,q_6,q_7,q_8,q_9,q_10,q_11,q_12,q_13,q_14,q_15,q_16,q_17,q_18,q_19,q_20,q_21,q_22,dq_0,dq_1,dq_2,dq_3,dq_4,dq_5,dq_6,dq_7,dq_8,dq_9,dq_10,dq_11,dq_12,dq_13,dq_14,dq_15,dq_16,dq_17,dq_18,dq_19,dq_20,dq_21,dq_22,mocap_time,mocap_timestamp,robot_x,robot_y,robot_yaw,ball_x,ball_y
1741516499.8510866,0.9904434382915497,-0.015987994667954475,-0.04221253200480888,-0.9989807236219528,0.4748744070529938,0.6592816114425659,0.5041395425796509,2.46266770362854,-1.1697943210601807,7.795650959014893,-0.9882125854492188,0.2882051467895508,0.21114671230316162,-1.381346583366394,0.005531395319849253,-0.5289158225059509,0.21038375794887543,1.3443434238433838,0.0020981156267225742,0.5235751867294312,0.14324407279491425,-0.6445029377937317,-0.05359731614589691,-0.09708552807569504,0.9290837049484253,-0.4511954188346863,0.0004641897976398468,-0.5495155453681946,-0.04749370738863945,-0.0871671661734581,0.7955672740936279,-0.2632581293582916,-0.014312448911368847,-0.1348787099123001,-0.15726925432682037,0.4540494978427887,-0.14764335751533508,-0.002928578294813633,-0.1608458310365677,-1.0528301000595093,-0.19826272130012512,-0.004785593133419752,0.9672965407371521,-1.6871042251586914,-0.8229765892028809,-1.347130298614502,0.575861394405365,1.761991024017334,0.25368866324424744,-0.38625243306159973,0.11536303162574768,0.2545669674873352,0.8748828172683716,-0.8414350152015686,0.9162317514419556,0.4741966128349304,1741516499.8994079,1741516499093,-0.5402359619140625,1.493591796875,-2.125089079823362,4.6530146484375,1.5495074462890626
1741516499.8531444,1.0106578469276428,0.011103645896593642,-0.038614041666016126,-0.9991925063940472,-0.2967885434627533,0.5949081182479858,-0.2780100703239441,3.7127344608306885,7.873471260070801,7.551550388336182,-0.9874496459960938,0.3118562698364258,0.1977950781583786,-1.3752429485321045,0.005531395319849253,-0.5384527444839478,0.19550621509552002,1.3523544073104858,0.0024795911740511656,0.5388342142105103,0.1958876997232437,-0.7944228053092957,-0.09250781685113907,-0.08335240930318832,1.1270694732666016,-0.37264004349708557,0.0022334125824272633,-0.5582894682884216,-0.03528648987412453,-0.08220797777175903,0.7581826448440552,-0.24662671983242035,-0.011217094957828522,0.08057189732789993,-0.07266062498092651,-0.2624428868293762,0.3484601676464081,-0.004174168221652508,-0.36306244134902954,-0.6843186020851135,0.5528923273086548,0.014434171840548515,0.056901514530181885,1.9625657796859741,-2.939840078353882,-0.7995672821998596,-0.1064128652215004,4.015932083129883,1.8451423645019531,0.28485944867134094,-0.08380407840013504,0.31441205739974976,0.051449649035930634,-0.6231014728546143,0.36146271228790283,0.23808886110782623,1741516499.8994079,1741516499093,-0.5402359619140625,1.493591796875,-2.125089079823362,4.6530146484375,1.5495074462890626
1741516499.8554397,-0.24796795845031738,0.02357004592486193,-0.006798050197659469,-0.9996990744462105,-0.10961466282606125,0.19909417629241943,0.45083463191986084,-2.6473429203033447,-1.018540382385254,10.691184997558594,0.02651214599609375,0.02765655517578125,0.05359731614589691,-1.2478300333023071,0.005149920005351305,-0.9649423956871033,0.36373692750930786,1.2340970039367676,0.001716639962978661,0.9115357995033264,-0.005912871100008488,-0.46215763688087463,-0.01583123579621315,0.10852979123592377,1.1064698696136475,-0.5212526321411133,-0.011401087045669556,-0.6044480204582214,0.02727550081908703,0.12302586436271667,0.8752956390380859,-0.346222847700119,0.026277029886841774,0.02827553078532219,-0.06989064067602158,2.685758113861084,-0.8714229464530945,0.019033638760447502,0.1584838628768921,-2.0462582111358643,-0.5315768122673035,-0.011719537898898125,-0.08550029993057251,-2.6370089054107666,-2.072942018508911,-1.0072777271270752,1.9305797815322876,5.882697105407715,2.0914499759674072,0.030629022046923637,1.5184245109558105,1.6085789203643799,1.6909481287002563,0.5151029825210571,0.41896387934684753,0.13308601081371307,1741516499.8994079,1741516499093,-0.5402359619140625,1.493591796875,-2.125089079823362,4.6530146484375,1.5495074462890626
1741516499.8723056,-0.2300398349761963,0.026494725248168472,0.001181167272573682,-0.9996482553267916,-0.4857383668422699,0.0008824407705105841,0.9349529147148132,-1.3169838190078735,-2.290447235107422,11.085308074951172,0.02803802490234375,0.039101600646972656,0.10891126841306686,-1.2600373029708862,0.005531395319849253,-0.9618905782699585,0.3229190409183502,1.2276118993759155,0.0024795911740511656,0.9092469811439514,-0.04634927958250046,-0.5384527444839478,-0.020027466118335724,0.13218127191066742,1.2445639371871948,-0.47702065110206604,-0.008727536536753178,-0.5914778113365173,0.049782559275627136,0.13866636157035828,0.8768215179443359,-0.35472846031188965,0.010355711914598942,0.05546850338578224,0.24882611632347107,3.0558950901031494,-0.7604575157165527,-0.03443790227174759,0.15908017754554749,-2.776095390319824,-0.3999296724796295,0.07763301581144333,-0.16988693177700043,-1.9881418943405151,-4.133169174194336,-0.20706427097320557,1.0050227642059326,6.80251407623291,2.1740028858184814,0.1934361308813095,0.3808703124523163,1.0330065488815308,0.7324373126029968,-0.08528895676136017,-0.5713391304016113,-0.8163846135139465,1741516499.8994079,1741516499093,-0.5402359619140625,1.493591796875,-2.125089079823362,4.6530146484375,1.5495074462890626
1741516499.8923097,-0.20867204666137695,0.030217737107782954,0.01534522199883573,-0.9994255412615246,-0.7483813166618347,0.34679901599884033,1.0309885740280151,5.141027927398682,-1.453404188156128,10.425341606140137,0.02460479736328125,0.039101600646972656,0.17223620414733887,-1.2649965286254883,0.005531395319849253,-0.9565499424934387,0.27065691351890564,1.226467490196228,0.0024795911740511656,0.9100099205970764,-0.08220797777175903,-0.6219958662986755,-0.02841992862522602,0.16193637251853943,1.362821340560913,-0.4517632722854614,0.0036540941800922155,-0.5586709380149841,0.07343403995037079,0.14171816408634186,0.8752956390380859,-0.3811072111129761,0.007329757325351238,-0.11620867997407913,-0.05013377219438553,3.371978282928467,-0.26513803005218506,-0.0065077003091573715,0.238536536693573,-3.6386940479278564,0.01770569570362568,-0.002680293284356594,0.08967097848653793,-1.660117268562317,-3.9504425525665283,-0.38223111629486084,1.5047425031661987,5.576482772827148,0.9340161085128784,0.712131917476654,1.964726448059082,1.2330303192138672,0.2158757746219635,-0.15853776037693024,-1.379133701324463,-0.04350491613149643,1741516499.8994079,1741516499093,-0.5402359619140625,1.493591796875,-2.125089079823362,4.6530146484375,1.5495074462890626
1741516499.9123356,-0.1892993450164795,0.03148816372444669,0.03243748516163835,-0.998977629930546,-0.8702793717384338,-0.09842141717672348,0.9164146184921265,-1.0871649980545044,-1.468923807144165,10.167533874511719,0.034142494201660156,0.049782752990722656,0.24280919134616852,-1.2653779983520508,0.005531395319849253,-0.955024003982544,0.20733195543289185,1.2283748388290405,0.0032425422687083483,0.9107728600502014,-0.11310750246047974,-0.7009612917900085,-0.02079041674733162,0.17071031033992767,1.4311054944992065,-0.45664137601852417,0.0043342020362615585,-0.5277714133262634,0.09861142933368683,0.1493476778268814,0.8588922023773193,-0.41238418221473694,0.010839220136404037,0.23026035726070404,0.2751130163669586,3.634420394897461,-0.024501079693436623,-0.008322292007505894,0.11318343877792358,-4.142999649047852,0.12197474390268326,0.08695174753665924,0.035190731287002563,-1.5722934007644653,-3.8321807384490967,0.42893996834754944,0.2856215834617615,2.9219298362731934,-0.39058738946914673,-0.26945942640304565,1.459917664527893,1.4077503681182861,0.352409690618515,-0.956838071346283,-1.550765872001648,0.20481833815574646,1741516499.8994722,1741516499193,-0.456371826171875,1.4835191650390624,-2.1716350127197313,4.7574970703125,1.534804931640625
1741516499.9323933,-0.17348670959472656,0.034963755701716455,0.05303135741378118,-0.9979805664030149,-1.067290186882019,0.24785351753234863,0.72707200050354,1.7728440761566162,0.17545737326145172,8.585474014282227,0.036812782287597656,0.047112464904785156,0.31681543588638306,-1.2638521194458008,0.005149920005351305,-0.9489204287528992,0.13866636157035828,1.23295259475708,0.002861066721379757,0.9126802682876587,-0.13027389347553253,-0.768482506275177,-0.0013351644156500697,0.16231784224510193,1.4463645219802856,-0.4772118628025055,-0.005495509598404169,-0.4804684519767761,0.12264438718557358,0.15735866129398346,0.8421072959899902,-0.4417525827884674,0.01001567579805851,0.07032685726881027,-0.0667983889579773,3.696352243423462,0.13441891968250275,-0.04494929686188698,0.2460404634475708,-4.541222095489502,0.3089953362941742,-0.04128313064575195,0.16433997452259064,-0.6707555651664734,-3.37239670753479,1.1085788011550903,-0.649054229259491,0.45384955406188965,-1.093279242515564,-0.2754482626914978,2.543846368789673,1.2136369943618774,0.46346962451934814,-0.8599272966384888,-1.4160081148147583,-0.1529766023159027,1741516499.8994722,1741516499193,-0.456371826171875,1.4835191650390624,-2.1716350127197313,4.7574970703125,1.534804931640625
1741516499.9523842,-0.16740691661834717,0.04033288156706663,0.07365649409018787,-0.9964677513812672,-1.052356243133545,0.22870872914791107,0.14930206537246704,3.9676830768585205,3.773935556411743,6.496362686157227,0.042534828186035156,0.048638343811035156,0.38281071186065674,-1.2596558332443237,0.005149920005351305,-0.9431982636451721,0.0722896158695221,1.2348599433898926,0.0032425422687083483,0.9145876169204712,-0.14133669435977936,-0.8344777822494507,0.032616160809993744,0.12836651504039764,1.4311054944992065,-0.4970746338367462,0.0022250658366829157,-0.44079500436782837,0.1497291475534439,0.16041046380996704,0.8154039978981018,-0.46703383326530457,0.0021005950402468443,0.15796618163585663,0.03133472800254822,3.236996650695801,0.325361967086792,0.00914857815951109,0.3166395425796509,-4.350370407104492,0.08327805995941162,0.056314025074243546,0.11065918952226639,-0.44067293405532837,-3.4052529335021973,1.8212097883224487,-1.7261191606521606,-0.9554159641265869,-0.8459334969520569,0.3305647373199463,1.8539996147155762,1.3541629314422607,0.06520084291696548,-1.356245756149292,-1.2328603267669678,-0.4203801453113556,1741516500.003554,1741516499293,-0.37352532958984375,1.506121826171875,-3.011739125915689,4.85699169921875,1.517590087890625
1741516499.9724488,-0.1710491180419922,0.045491639974497435,0.09614471529775494,-0.9943272622294655,-1.1416220664978027,0.35514935851097107,-0.25910115242004395,1.183840274810791,-0.602183997631073,7.42557954788208,0.047112464904785156,0.046349525451660156,0.44117647409439087,-1.2588928937911987,0.005531395319849253,-0.9367132186889648,0.015449759550392628,1.23600435256958,0.002861066721379757,0.9187838435173035,-0.14667734503746033,-0.9031433463096619,0.08258945494890213,0.08869306743144989,1.3941023349761963,-0.4948276877403259,-0.011752504855394363,-0.4056992530822754,0.17261768877506256,0.16041046380996704,0.7951858043670654,-0.48744913935661316,-0.002412529429420829,0.14683441817760468,-0.02860233746469021,3.1042683124542236,-0.08625224977731705,-0.025288643315434456,0.4094136655330658,-3.708137035369873,0.16421197354793549,-0.03595893457531929,0.29476580023765564,-0.3480209410190582,-3.335585594177246,2.6366424560546875,-1.9847277402877808,-1.9873836040496826,0.31967782974243164,-0.7471421360969543,1.935497522354126,1.0930370092391968,-7.913052832009271e-05,-0.9138205647468567,-0.9355508685112,-0.10679233819246292,1741516500.003554,1741516499293,-0.37352532958984375,1.506121826171875,-3.011739125915689,4.85699169921875,1.517590087890625
1741516499.9924223,-0.16899538040161133,0.0537557984553753,0.11590908219672168,-0.9918041131174737,-0.9597684741020203,0.36735573410987854,0.132896289229393,4.295681953430176,-2.5742835998535156,12.378990173339844,0.047493934631347656,0.038338661193847656,0.4991607666015625,-1.2577484846115112,0.005531395319849253,-0.924887478351593,-0.034142062067985535,1.2424894571304321,0.0024795911740511656,0.9287022352218628,-0.1684214472770691,-0.9557870030403137,0.1512550562620163,0.0558861680328846,1.3319218158721924,-0.4713418185710907,-0.008408564142882824,-0.3706035017967224,0.19092851877212524,0.15506981313228607,0.7753490209579468,-0.506245493888855,-0.008612524718046188,0.01624043844640255,-0.20316281914710999,2.6577367782592773,0.2014722377061844,-0.0012256511254236102,0.5276695489883423,-3.2489240169525146,0.3108867406845093,-0.006927814334630966,0.7040581703186035,-1.3077784776687622,-2.31186842918396,3.546806812286377,-1.5184592008590698,-3.5040862560272217,1.3457025289535522,0.46668770909309387,1.3755998611450195,0.8006580471992493,-0.33452174067497253,-1.1140363216400146,-0.9762753844261169,-0.3971433639526367,1741516500.003554,1741516499293,-0.37352532958984375,1.506121826171875,-3.011739125915689,4.85699169921875,1.517590087890625
1741516500.012438,-0.1534649133682251,0.05795933302923049,0.13450625055309043,-0.9892162474792638,-0.9915810823440552,0.16952615976333618,0.7604018449783325,1.430073618888855,-3.0624823570251465,11.77155876159668,0.048638343811035156,0.033761024475097656,0.5228122472763062,-1.2493560314178467,0.005531395319849253,-0.9164950251579285,-0.06618601083755493,1.239819049835205,0.0020981156267225742,0.9401465058326721,-0.20771344006061554,-0.9634165167808533,0.22144655883312225,0.05397878959774971,1.2197680473327637,-0.4350135028362274,-0.0016472182469442487,-0.33627068996429443,0.1974135935306549,0.14438849687576294,0.7558938264846802,-0.5243597030639648,-0.011071158573031425,0.03631497174501419,-0.13236510753631592,0.8668792247772217,0.5139778852462769,-0.029180191457271576,0.32967671751976013,-1.848779320716858,-0.22668549418449402,-0.032607369124889374,0.8095594644546509,-1.9783142805099487,0.09339944273233414,3.3566651344299316,0.2087840884923935,-6.073886871337891,1.8083595037460327,0.22721117734909058,2.3494837284088135,0.09051074087619781,-0.6437001824378967,-0.8429040908813477,-0.8349118828773499,0.23025813698768616,1741516500.003554,1741516499293,-0.37352532958984375,1.506121826171875,-3.011739125915689,4.85699169921875,1.517590087890625
1741516500.0324707,-0.1266418695449829,0.06178504502812837,0.15058835336792506,-0.9866639529448763,-0.8782338500022888,-0.13013938069343567,1.3439290523529053,7.043955326080322,6.048507213592529,7.523749351501465,0.047493934631347656,0.036812782287597656,0.5209048390388489,-1.2440153360366821,0.005531395319849253,-0.9103913903236389,-0.07000076025724411,1.231808066368103,0.000572213320992887,0.9508277773857117,-0.23556114733219147,-0.9279392957687378,0.2588311731815338,0.08030059933662415,1.047722578048706,-0.4124963581562042,0.0060321129858493805,-0.2790493667125702,0.18940261006355286,0.12607766687870026,0.7295719981193542,-0.5395587682723999,-0.0028119131457060575,-0.03233156353235245,0.11111108958721161,-0.16304193437099457,0.31471654772758484,-0.0015271302545443177,0.30373337864875793,0.07704119384288788,-0.5091338753700256,-0.05220147967338562,0.643485963344574,-1.2698708772659302,2.047576665878296,1.5248873233795166,1.3961145877838135,-9.128954887390137,0.8268675804138184,0.4760228991508484,2.707104444503784,-0.24026840925216675,-0.9226090312004089,-1.5020984411239624,-0.7747480869293213,0.24176175892353058,1741516500.003554,1741516499293,-0.37352532958984375,1.506121826171875,-3.011739125915689,4.85699169921875,1.517590087890625
1741516500.0524874,-0.1021718978881836,0.05399461102912031,0.16058512994501709,-0.985544011204145,-0.5359174013137817,-0.6378903388977051,1.12832510471344,-37.28643035888672,34.56525421142578,13.499053001403809,0.050927162170410156,0.060463905334472656,0.5052643418312073,-1.2428709268569946,0.005149920005351305,-0.9035248160362244,-0.053215838968753815,1.2253230810165405,0.0009536888683214784,0.954261064529419,-0.2481498420238495,-0.8676661252975464,0.2775234580039978,0.09632257372140884,0.9664682745933533,-0.3625841438770294,0.007223204243928194,-0.20923933386802673,0.17986571788787842,0.10433356463909149,0.7166017889976501,-0.544829785823822,0.003821797203272581,0.11197566986083984,0.544374942779541,-0.8620502352714539,0.04474659264087677,-0.021592803299427032,0.40692195296287537,1.1089231967926025,-0.4061204195022583,0.02661176398396492,0.18436789512634277,-0.46607187390327454,3.5071616172790527,0.6823347806930542,0.7301643490791321,-0.49245044589042664,3.079590320587158,0.16965991258621216,3.7872354984283447,-0.8658784031867981,-0.9755452871322632,-0.2593593895435333,0.002398739568889141,0.5401400923728943,1741516500.003554,1741516499293,-0.37352532958984375,1.506121826171875,-3.011739125915689,4.85699169921875,1.517590087890625
1741516500.0725117,-0.07798779010772705,0.04720011997567497,0.14952221535218857,-0.9876311334655543,0.44399577379226685,-0.7084721326828003,0.9992602467536926,-8.236804962158203,-3.801177740097046,15.468169212341309,0.061608314514160156,0.060082435607910156,0.46063172817230225,-1.2497375011444092,0.005912871100008488,-0.9004730582237244,-0.03032730519771576,1.223034143447876,0.0013351644156500697,0.9584572911262512,-0.22564278542995453,-0.8173113465309143,0.2504386901855469,0.09288929402828217,0.9889753460884094,-0.3013431131839752,0.02942677028477192,-0.17376211285591125,0.1817730963230133,0.10662241280078888,0.7242313027381897,-0.5223621726036072,0.013494515791535378,0.3448946475982666,0.05147211626172066,-2.532806396484375,-0.6455403566360474,-0.03141441568732262,-0.014169761911034584,1.7490273714065552,-0.1654738038778305,0.1290406584739685,0.2441316843032837,0.9903882145881653,1.682222604751587,-1.4130866527557373,-0.16761073470115662,-0.3366130292415619,2.440241575241089,1.0679726600646973,1.113132119178772,0.1449895203113556,0.36124086380004883,0.6980693936347961,1.3704094886779785,0.473513662815094,1741516500.1031358,1741516499393,-0.28567340087890625,1.5280224609375,2.5360116098917747,4.9452714843750005,1.503123779296875
1741516500.0933874,-0.07256472110748291,0.046705880073083114,0.14198157027800865,-0.9887668048978939,0.31337758898735046,0.25958412885665894,0.20346541702747345,-5.864930152893066,-4.04429817199707,12.079529762268066,0.046349525451660156,0.02956390380859375,0.3900587558746338,-1.2623261213302612,0.00476844422519207,-0.9065766334533691,-0.01430533267557621,1.223034143447876,0.002861066721379757,0.9603646993637085,-0.1985580176115036,-0.7696269154548645,0.22335393726825714,0.0864042118191719,0.9504463076591492,-0.2803589403629303,0.03594580665230751,-0.18787670135498047,0.1848248988389969,0.12111848592758179,0.7982375621795654,-0.4802435636520386,0.009371811524033546,-0.4093787670135498,-0.97686767578125,-3.349693775177002,-0.5893406867980957,-0.03357267007231712,-0.277444452047348,0.9788897037506104,0.026108838617801666,0.023725248873233795,0.19343000650405884,1.4850327968597412,2.8595361709594727,-1.6603353023529053,-0.2119825929403305,-0.9901649951934814,0.8765825033187866,0.11160662025213242,-1.0953551530838013,0.1250264197587967,0.7874234914779663,4.4335479736328125,2.0789175033569336,-0.19598138332366943,1741516500.1031358,1741516499393,-0.28567340087890625,1.5280224609375,2.5360116098917747,4.9452714843750005,1.503123779296875
1741516500.1125827,-0.08948361873626709,0.047555474524440915,0.13385056930061492,-0.9898598395432843,0.461898535490036,-0.11393765360116959,-0.8785368800163269,-8.03355598449707,1.0782785415649414,8.158015251159668,0.060082435607910156,0.02994537353515625,0.33436331152915955,-1.2600373029708862,0.005531395319849253,-0.9088655114173889,-0.004005493130534887,1.2291377782821655,0.0036240178160369396,0.960746169090271,-0.1646067053079605,-0.7646677494049072,0.1962691694498062,0.08411535620689392,0.9565499424934387,-0.2927953600883484,0.041812997311353683,-0.26989394426345825,0.19054703414440155,0.1356145590543747,0.9393835067749023,-0.4355905055999756,0.002083334606140852,0.3335992693901062,0.06770221889019012,-2.6844396591186523,0.17592136561870575,0.007205347064882517,-0.12707343697547913,0.8788408041000366,0.4734743535518646,0.10055698454380035,-0.09235302358865738,1.5104215145111084,-0.13374939560890198,-0.8516818881034851,-0.2973420321941376,0.12972481548786163,-0.9289495944976807,0.5214001536369324,-4.650269031524658,0.27478915452957153,0.5976799130439758,7.134287357330322,2.248255968093872,-0.3470618426799774,1741516500.1031358,1741516499393,-0.28567340087890625,1.5280224609375,2.5360116098917747,4.9452714843750005,1.503123779296875
1741516500.1325855,-0.1146470308303833,0.05355645145299643,0.12585950906745308,-0.9906013781966299,0.43336379528045654,0.6534543633460999,-1.171346664428711,-1.1643720865249634,-5.872204303741455,11.718914985656738,0.049401283264160156,0.01621246337890625,0.2645532786846161,-1.2554595470428467,0.005531395319849253,-0.9157320261001587,0.01888304017484188,1.2436338663101196,0.0036240178160369396,0.9603646993637085,-0.14248111844062805,-0.7425421476364136,0.1825360506772995,0.09517814964056015,0.969520092010498,-0.3293847143650055,0.04831111058592796,-0.3858625292778015,0.2145799994468689,0.13866636157035828,1.1030365228652954,-0.40188145637512207,-0.003227566834539175,-0.2661478817462921,-0.3845610022544861,-3.691084623336792,0.382588654756546,0.015885155647993088,-0.3451158404350281,1.6690919399261475,0.9237080812454224,-0.03493268042802811,0.03361203521490097,1.0416417121887207,1.2462354898452759,-0.8564352989196777,0.703789472579956,0.49955132603645325,-1.9165682792663574,0.4188828468322754,-5.685942649841309,1.322935938835144,0.1007823720574379,8.392949104309082,1.3500721454620361,-0.19794702529907227,1741516500.1031358,1741516499393,-0.28567340087890625,1.5280224609375,2.5360116098917747,4.9452714843750005,1.503123779296875
1741516500.1526315,-0.14017963409423828,0.05924353942503625,0.11890170620014874,-0.991137017419432,0.4847028851509094,0.23169541358947754,-1.2089430093765259,3.0939137935638428,-4.426959991455078,13.549501419067383,0.046730995178222656,0.02117156982421875,0.17948424816131592,-1.2489745616912842,0.005531395319849253,-0.9187838435173035,0.059319447726011276,1.2535521984100342,0.0032425422687083483,0.9580758213996887,-0.14095520973205566,-0.7211795449256897,0.17338064312934875,0.11234454810619354,0.9649423956871033,-0.3671983480453491,0.05437334254384041,-0.5086976289749146,0.22755016386508942,0.14209964871406555,1.2304493188858032,-0.403923898935318,-0.008877656422555447,-0.10873207449913025,0.1512988656759262,-4.2799248695373535,0.40347763895988464,-0.005550534464418888,-0.12912382185459137,2.9720256328582764,0.5328035354614258,0.00827797781676054,-0.19926027953624725,-0.00897559616714716,0.9843093156814575,-0.2958619296550751,0.7908709645271301,-0.26672565937042236,-1.8468458652496338,0.4602428376674652,-6.135472774505615,0.509084939956665,0.06381339579820633,5.920815944671631,-0.36880069971084595,-0.3390706777572632,1741516500.1031358,1741516499393,-0.28567340087890625,1.5280224609375,2.5360116098917747,4.9452714843750005,1.503123779296875
1741516500.1726358,-0.15173935890197754,0.06306304536698654,0.10795813487845751,-0.9921532610552697,0.5580989718437195,0.35840871930122375,-0.36348140239715576,1.0943992137908936,-3.565173387527466,11.585436820983887,0.040246009826660156,0.02727508544921875,0.09403372555971146,-1.2436338663101196,0.005531395319849253,-0.924124538898468,0.12188144028186798,1.2592743635177612,0.0024795911740511656,0.9569314122200012,-0.14553292095661163,-0.6792172193527222,0.17032882571220398,0.12951095402240753,0.9588387608528137,-0.3995117247104645,0.055731143802404404,-0.6063553690910339,0.23708705604076385,0.13027389347553253,1.2949187755584717,-0.4320797026157379,-0.007620466873049736,-0.17747345566749573,0.14704066514968872,-4.189722061157227,0.30956023931503296,0.006380193401128054,-0.2867755591869354,4.345443248748779,0.397610068321228,-0.06977584213018417,-0.051014531403779984,-0.3880787193775177,2.423673152923584,-0.23998089134693146,0.7537156343460083,-0.4618690609931946,-1.6889841556549072,0.0021495488472282887,-4.805509567260742,0.38086041808128357,-0.7853302359580994,2.691112756729126,-1.489123821258545,0.27040499448776245,1741516500.2055385,1741516499493,-0.1856011657714844,1.5184351806640626,2.9069452707490275,5.03905419921875,1.4881423339843751
1741516500.192722,-0.14833545684814453,0.06671791021416157,0.10081255021651532,-0.9926658804328361,0.3238866627216339,0.07784003019332886,0.28882789611816406,1.8976857662200928,-0.17568059265613556,9.304271697998047,0.02880096435546875,0.037957191467285156,0.016594186425209045,-1.2413450479507446,0.005531395319849253,-0.9267948269844055,0.20122835040092468,1.2623261213302612,0.002861066721379757,0.955024003982544,-0.1653696447610855,-0.6345845460891724,0.1646067053079605,0.14400701224803925,0.9405279755592346,-0.43243756890296936,0.051844242960214615,-0.693331778049469,0.22716869413852692,0.11272602528333664,1.3052185773849487,-0.4644067883491516,0.0019310569623485208,-0.33946293592453003,0.39155808091163635,-3.7953429222106934,0.10950354486703873,0.006817421410232782,-0.10580093413591385,5.419097900390625,0.1941295862197876,0.03801748529076576,-0.13842828571796417,-1.089392066001892,2.2443222999572754,-0.15287025272846222,0.7190216779708862,-0.8716237545013428,-1.6487579345703125,-0.1301766037940979,-4.232882499694824,-0.6670453548431396,-0.8532350063323975,0.11682789772748947,-1.5393216609954834,0.4238317608833313,1741516500.2055385,1741516499493,-0.1856011657714844,1.5184351806640626,2.9069452707490275,5.03905419921875,1.4881423339843751
1741516500.2127402,-0.1414046287536621,0.06729234504578034,0.09399689900453939,-0.9932956877364213,0.3038097620010376,0.05650661885738373,0.32458704710006714,-1.1486806869506836,-1.0206546783447266,6.882426738739014,0.02384185791015625,0.02956390380859375,-0.06198977679014206,-1.2421079874038696,0.005531395319849253,-0.9283207654953003,0.2821011543273926,1.2661409378051758,0.0032425422687083483,0.9504463076591492,-0.1836804747581482,-0.5830853581428528,0.16422522068023682,0.16117341816425323,0.9237430095672607,-0.4643235504627228,0.043884120881557465,-0.7722972631454468,0.212672621011734,0.08182650804519653,1.28233003616333,-0.4805002212524414,0.005045533180236816,-0.14084093272686005,-0.16803331673145294,-3.9419476985931396,-0.03916656970977783,0.029738198965787888,-0.11845970153808594,5.286362171173096,0.2880570590496063,0.036697760224342346,-0.4166237711906433,-0.9137707352638245,2.7749054431915283,-0.06340523809194565,0.9317724704742432,-0.9260910749435425,-1.6099119186401367,-0.4836136996746063,-3.6558187007904053,-0.7500258088111877,-1.894055724143982,-1.1951844692230225,-0.5876542925834656,0.16514979302883148,1741516500.2055385,1741516499493,-0.1856011657714844,1.5184351806640626,2.9069452707490275,5.03905419921875,1.4881423339843751
1741516500.232757,-0.1380535364151001,0.06896538052275354,0.09012964001739145,-0.9935393420895255,0.1436825543642044,-0.025723576545715332,0.16220229864120483,3.7469193935394287,-2.1673035621643066,8.278428077697754,0.02040863037109375,0.02727508544921875,-0.1188296303153038,-1.2409635782241821,0.005149920005351305,-0.9393835067749023,0.3534370958805084,1.2707185745239258,0.0036240178160369396,0.9424353241920471,-0.19016556441783905,-0.534637987613678,0.16079194843769073,0.17833982408046722,0.9012359976768494,-0.4959951639175415,0.03703619912266731,-0.8398184180259705,0.19207294285297394,0.04177157208323479,1.2468528747558594,-0.46853914856910706,0.0077146138064563274,-0.10554125905036926,-0.05423777177929878,-2.677561044692993,0.06917896121740341,0.021806495264172554,-0.5649060010910034,4.681739807128906,0.2353944182395935,0.018012695014476776,-0.5578094124794006,-0.05876442417502403,2.225593090057373,-0.16636447608470917,0.9102757573127747,-1.1425585746765137,-1.5935313701629639,-0.06036822497844696,-3.381664276123047,-1.21415114402771,-1.9007010459899902,-1.8569353818893433,0.8831812739372253,0.22789962589740753,1741516500.2055385,1741516499493,-0.1856011657714844,1.5184351806640626,2.9069452707490275,5.03905419921875,1.4881423339843751
1741516500.2527747,-0.14524292945861816,0.06603509846948748,0.09054876885282735,-0.9937003000046656,0.030155349522829056,-0.07876651734113693,-0.41898512840270996,0.6728036403656006,-1.6116580963134766,10.087321281433105,0.01811981201171875,0.02346038818359375,-0.14515145123004913,-1.2386746406555176,0.005149920005351305,-0.9508277773857117,0.4083695709705353,1.2726260423660278,0.0036240178160369396,0.9344243407249451,-0.17071031033992767,-0.4983977973461151,0.1508735716342926,0.1810101419687271,0.8813992738723755,-0.5265184044837952,0.03522888943552971,-0.88979172706604,0.16308079659938812,0.004386968910694122,1.1919203996658325,-0.4298248291015625,0.011909984052181244,-0.07368509471416473,-0.10530094802379608,-1.0671558380126953,0.20693475008010864,-0.005749634001404047,-0.5966816544532776,3.480325937271118,0.11342494934797287,0.000300421699648723,-0.48712393641471863,1.0455622673034668,1.98994779586792,-0.604664146900177,-0.0511777400970459,-0.9003791809082031,-1.5040100812911987,-0.29154983162879944,-2.246581554412842,-1.491821527481079,-1.9891105890274048,-3.05850887298584,2.027663230895996,0.021511076018214226,1741516500.2055385,1741516499493,-0.1856011657714844,1.5184351806640626,2.9069452707490275,5.03905419921875,1.4881423339843751
1741516500.2727537,-0.15850675106048584,0.06278850020239277,0.08885385146464413,-0.994063678705863,0.12208913266658783,-0.15268291532993317,-0.6525017619132996,-5.6222662925720215,-2.248082160949707,11.990052223205566,0.01735687255859375,0.02269744873046875,-0.14400701224803925,-1.230282187461853,0.005149920005351305,-0.960746169090271,0.44232088327407837,1.2699556350708008,0.0036240178160369396,0.9294651746749878,-0.1367589831352234,-0.4556725323200226,0.1356145590543747,0.1665140837430954,0.8619440197944641,-0.5555858612060547,0.029575958847999573,-0.9081025123596191,0.1340886503458023,-0.029182879254221916,1.1102845668792725,-0.3830729126930237,0.0071268328465521336,-0.026907484978437424,-0.022784415632486343,0.18985064327716827,0.5897865295410156,-0.006006418261677027,-0.5376471877098083,2.221632719039917,-0.2037905901670456,0.011327800340950489,-0.3218313157558441,1.760764241218567,1.938752293586731,-0.8294082880020142,-0.6440401673316956,-1.0605562925338745,-1.4871104955673218,-0.29954275488853455,-0.5180789828300476,-1.4882651567459106,-1.637670636177063,-4.108088493347168,2.4110586643218994,-0.3089505136013031,1741516500.310663,1741516499593,-0.09299532318115235,1.504665283203125,-2.759239818246702,5.125458984375,1.4744454345703126
1741516500.2928429,-0.17299532890319824,0.05956367214994002,0.08969464869510158,-0.9941866217946592,-0.018846554681658745,-0.07909619808197021,-0.7253391146659851,7.59289026260376,-1.688996434211731,5.992265224456787,0.01659393310546875,0.02079010009765625,-0.12340734153985977,-1.220745325088501,0.005149920005351305,-0.9664682745933533,0.47589075565338135,1.2684297561645508,0.0032425422687083483,0.9203097820281982,-0.09861142933368683,-0.4015030264854431,0.11577782779932022,0.1508735716342926,0.840199887752533,-0.5808354020118713,0.022232459858059883,-0.9061951637268066,0.1039520874619484,-0.061226826161146164,0.9969863295555115,-0.3356342017650604,0.0011265137000009418,-0.03155480697751045,-0.04123837128281593,1.1434733867645264,0.5908812284469604,0.0029030824080109596,-0.21938970685005188,1.9976023435592651,-0.08812008798122406,-0.008198748342692852,-0.5946508646011353,1.8055726289749146,2.79687762260437,-0.955519437789917,-0.8268919587135315,-1.2588739395141602,-1.2492163181304932,-0.5750206708908081,0.31368616223335266,-1.498191237449646,-1.6850512027740479,-6.034776210784912,2.2551493644714355,-0.2107282280921936,1741516500.310663,1741516499593,-0.09299532318115235,1.504665283203125,-2.759239818246702,5.125458984375,1.4744454345703126
1741516500.312854,-0.18208694458007812,0.05351590774085346,0.08815199379537411,-0.9946684239527124,0.13434772193431854,-0.273666113615036,-0.40683984756469727,2.3621721267700195,-1.0800464153289795,7.695716857910156,0.01316070556640625,0.02079010009765625,-0.0883115902543068,-1.215023159980774,0.005149920005351305,-0.9645609259605408,0.49000534415245056,1.2646150588989258,0.0032425422687083483,0.9142061471939087,-0.07343403995037079,-0.3370336592197418,0.09288929402828217,0.13790340721607208,0.8085374236106873,-0.5883716940879822,0.006126206833869219,-0.8749141693115234,0.07495994865894318,-0.09517814964056015,0.8646143078804016,-0.3084171712398529,-0.005659902933984995,-0.1151842251420021,-0.0022965301759541035,1.7981667518615723,0.2665937840938568,-0.006967098452150822,0.07581072300672531,0.8558494448661804,-0.261167973279953,-0.0028846703935414553,-0.4169677793979645,1.1724580526351929,3.3057894706726074,-1.3169866800308228,-0.5292985439300537,-1.5122169256210327,-0.07599775493144989,-0.5508465766906738,1.7602001428604126,-1.4661468267440796,-1.701508641242981,-6.623983383178711,1.0614219903945923,-0.4165639877319336,1741516500.310663,1741516499593,-0.09299532318115235,1.504665283203125,-2.759239818246702,5.125458984375,1.4744454345703126
1741516500.33285,-0.1867079734802246,0.044327239755698015,0.08205082624665362,-0.995641882268862,0.3468798100948334,-0.45288509130477905,-0.16588225960731506,-1.5056324005126953,-0.6180648803710938,6.415655612945557,0.01201629638671875,0.02346038818359375,-0.037193864583969116,-1.215023159980774,0.005149920005351305,-0.9588387608528137,0.4888609051704407,1.2588928937911987,0.0032425422687083483,0.9096284508705139,-0.06427863240242004,-0.27180132269859314,0.0551232174038887,0.14019227027893066,0.7887006998062134,-0.5716227293014526,0.014406696893274784,-0.8325703740119934,0.05092698708176613,-0.12645913660526276,0.7497901916503906,-0.3164654076099396,-0.008213195949792862,-0.04209848865866661,0.11218675225973129,2.546497106552124,-0.021723777055740356,-0.008121210150420666,0.33050185441970825,-0.23328569531440735,-0.36484602093696594,-0.004419977311044931,-0.2810700535774231,0.34970617294311523,3.1938202381134033,-2.0083281993865967,0.23577463626861572,-0.6882268190383911,0.9493560791015625,0.8304418921470642,2.1086132526397705,-1.058233380317688,-1.5311305522918701,-5.477598667144775,-0.7317057251930237,-0.04443420469760895,1741516500.310663,1741516499593,-0.09299532318115235,1.504665283203125,-2.759239818246702,5.125458984375,1.4744454345703126
1741516500.3529608,-0.18678605556488037,0.03450065015203102,0.06783009159473742,-0.9971001874502565,0.806031346321106,-0.5181882977485657,0.026379525661468506,4.149642467498779,-10.088032722473145,17.608121871948242,0.01163482666015625,0.02651214599609375,0.02231631986796856,-1.217693567276001,0.005531395319849253,-0.9565499424934387,0.4701686203479767,1.2535521984100342,0.0032425422687083483,0.9088655114173889,-0.06733043491840363,-0.22755016386508942,0.03795681521296501,0.14286258816719055,0.8100633025169373,-0.5565451979637146,0.03329252451658249,-0.7982375621795654,0.035667963325977325,-0.12455176562070847,0.7036316394805908,-0.32841402292251587,-0.022945083677768707,-0.02760588936507702,0.12465185672044754,3.2973554134368896,-0.27268630266189575,0.0001583560515427962,0.035273849964141846,-1.3501672744750977,-0.43220269680023193,0.0022119167260825634,-0.030839072540402412,-0.18462608754634857,1.9842137098312378,-0.3615855574607849,-0.05775144696235657,1.6253550052642822,0.7210561037063599,0.8986433744430542,1.4490593671798706,-0.5861808061599731,0.7839131355285645,-0.9239882826805115,-0.02396509237587452,-0.9902815222740173,1741516500.310663,1741516499593,-0.09299532318115235,1.504665283203125,-2.759239818246702,5.125458984375,1.4744454345703126
1741516500.372901,-0.1862025260925293,0.028922418805555843,0.056258908723070926,-0.9979972088536747,0.43845075368881226,-0.008222594857215881,-0.03817857429385185,1.3803454637527466,-4.412765979766846,7.954282760620117,0.00743865966796875,0.02384185791015625,0.0871671661734581,-1.23600435256958,0.00476844422519207,-0.959220290184021,0.42782482504844666,1.2443968057632446,0.0032425422687083483,0.9065766334533691,-0.08945601433515549,-0.22716869413852692,0.03452353551983833,0.14591439068317413,0.8947508931159973,-0.5315905809402466,0.047083206474781036,-0.7719157934188843,0.04444190114736557,-0.07915617525577545,0.7661936283111572,-0.3219524025917053,-0.037364959716796875,-0.09529488533735275,-0.05480625480413437,3.4854862689971924,-1.1407349109649658,-0.08557980507612228,-0.0931813046336174,-3.2489469051361084,-0.5964295268058777,0.009175142273306847,-0.07680550217628479,-1.2323721647262573,-0.38511186838150024,-0.4665328860282898,0.12924735248088837,4.813058376312256,1.4746588468551636,0.5693707466125488,0.8271452188491821,0.4147469401359558,2.4191675186157227,2.769414186477661,0.09709292650222778,-0.3795868754386902,1741516500.4131274,1741516499693,0.008618832588195801,1.4815191650390624,-2.5844008538327072,5.20699560546875,1.4616983642578125
1741516500.392933,-0.17900586128234863,0.025305929637525624,0.04841872175455339,-0.9985065033883533,0.45369940996170044,-0.26435586810112,0.407885879278183,-11.984416007995605,1.7803288698196411,14.187877655029297,0.00667572021484375,0.02536773681640625,0.15583276748657227,-1.2432523965835571,0.005149920005351305,-0.9580758213996887,0.35191118717193604,1.2459226846694946,0.004005493130534887,0.9100099205970764,-0.10776684433221817,-0.28820478916168213,0.021171892061829567,0.12798504531383514,1.038948655128479,-0.48767757415771484,0.05062466487288475,-0.7578011751174927,0.06046387553215027,-0.03299763426184654,0.7845044732093811,-0.3258209228515625,-0.03205793350934982,0.0205497108399868,0.07346880435943604,3.3051698207855225,-0.40812671184539795,-0.04901862516999245,0.0023872379679232836,-5.262030601501465,0.16629385948181152,0.059641171246767044,0.2812410593032837,-0.7372949123382568,-3.2308828830718994,-0.5989124774932861,-1.2482179403305054,7.47857666015625,2.1865763664245605,0.24096940457820892,1.1850461959838867,0.9399586915969849,1.9707714319229126,0.7364526391029358,-0.07476722449064255,0.16869014501571655,1741516500.4131274,1741516499693,0.008618832588195801,1.4815191650390624,-2.5844008538327072,5.20699560546875,1.4616983642578125
1741516500.4129457,-0.16565728187561035,0.02682144371203875,0.044853596392027205,-0.9986334487928507,0.01789979264140129,0.005905370693653822,0.7097635269165039,-2.2168800830841064,-2.8377294540405273,13.6666898727417,0.01201629638671875,0.02269744873046875,0.21686884760856628,-1.2543151378631592,0.005531395319849253,-0.959983229637146,0.27027541399002075,1.2474485635757446,0.0036240178160369396,0.9096284508705139,-0.11120012402534485,-0.3915846347808838,0.0078202486038208,0.10471503436565399,1.2151904106140137,-0.4495243430137634,0.033891212195158005,-0.726901650428772,0.06847485899925232,-0.010109102353453636,0.7913710474967957,-0.32361817359924316,-0.03535309061408043,0.09613830596208572,-0.07151167839765549,3.0883617401123047,-0.7370982766151428,-0.01783628575503826,-0.0720224380493164,-5.416110992431641,0.04945925250649452,-0.03663055598735809,-0.06342961639165878,-0.12488596886396408,-5.375637531280518,-0.7189136147499084,-1.046431303024292,8.726056098937988,1.6469545364379883,-1.4744991064071655,1.3924622535705566,0.16166289150714874,1.2732970714569092,0.3548170030117035,0.06217990070581436,-0.08080612123012543,1741516500.4131274,1741516499693,0.008618832588195801,1.4815191650390624,-2.5844008538327072,5.20699560546875,1.4616983642578125
1741516500.4329913,-0.14330124855041504,0.026312171458956726,0.046562152322677644,-0.998568793626255,-0.04210712015628815,-0.08453840762376785,1.1195579767227173,3.82834529876709,2.3685386180877686,10.844769477844238,0.00438690185546875,0.02689361572265625,0.27218279242515564,-1.2585114240646362,0.005531395319849253,-0.9569314122200012,0.18596932291984558,1.2489745616912842,0.0036240178160369396,0.9107728600502014,-0.1192111074924469,-0.5033569931983948,0.00667582219466567,0.10166323184967041,1.3639658689498901,-0.44725796580314636,-0.0016096716281026602,-0.6960021257400513,0.06580453366041183,0.0024795911740511656,0.8009079098701477,-0.32704848051071167,-0.02817247435450554,-0.17831338942050934,0.043214503675699234,2.761704206466675,-0.26474425196647644,-0.00812431052327156,0.12845633924007416,-5.607783794403076,0.08649925142526627,0.012283430434763432,0.07751171290874481,-0.4273013174533844,-5.576695919036865,0.35096684098243713,0.004719414282590151,7.009411334991455,-0.30729547142982483,-1.1664947271347046,1.759244441986084,-0.18287788331508636,0.4514804780483246,0.44032371044158936,-0.20543383061885834,0.40665319561958313,1741516500.4131274,1741516499693,0.008618832588195801,1.4815191650390624,-2.5844008538327072,5.20699560546875,1.4616983642578125
1741516500.4529955,-0.11842763423919678,0.022026862073666335,0.04604465769003709,-0.9986965038716192,-0.030064985156059265,-0.33441901206970215,1.256574273109436,0.9552507996559143,-0.39571714401245117,9.374649047851562,0.01697540283203125,0.034523963928222656,0.32520791888237,-1.2611817121505737,0.005531395319849253,-0.9561684727668762,0.10585946589708328,1.2466856241226196,0.0032425422687083483,0.9111543297767639,-0.12302586436271667,-0.5994887948036194,0.010109102353453636,0.11577782779932022,1.4501793384552002,-0.482292503118515,0.00971820205450058,-0.6536583304405212,0.059319447726011276,0.012397955171763897,0.7970931529998779,-0.3362807631492615,-0.018462032079696655,0.3130863606929779,0.078983835875988,2.688481569290161,-0.09999199956655502,-0.011014214716851711,0.024074189364910126,-5.193788528442383,-0.1638726145029068,-0.001530386391095817,0.016719352453947067,-0.02492436021566391,-4.636978626251221,0.2920369803905487,0.9831278920173645,3.704306125640869,-1.886754035949707,0.3997783958911896,2.155768394470215,-0.3725535571575165,0.48183539509773254,-0.25400054454803467,-0.4938994348049164,0.5543255805969238,1741516500.4131274,1741516499693,0.008618832588195801,1.4815191650390624,-2.5844008538327072,5.20699560546875,1.4616983642578125
1741516500.4730074,-0.09796714782714844,0.01381367654352208,0.046292313889865024,-0.9988324203864597,-0.025241049006581306,-0.4472908675670624,0.8281040191650391,1.1955517530441284,0.8010682463645935,9.548521995544434,0.01544952392578125,0.034523963928222656,0.3732738196849823,-1.2604187726974487,0.005149920005351305,-0.9569314122200012,0.03833829239010811,1.2436338663101196,0.0036240178160369396,0.9107728600502014,-0.12417028844356537,-0.6750209927558899,0.016594186425209045,0.14286258816719055,1.4620050191879272,-0.5261754989624023,0.001761743682436645,-0.6071183085441589,0.05359731614589691,0.018501564860343933,0.7917525172233582,-0.3512336015701294,-0.00827087927609682,0.01950746960937977,0.012612208724021912,2.2229807376861572,0.004665242973715067,-0.049653131514787674,-0.04429765045642853,-4.373033046722412,-0.18472406268119812,0.019299734383821487,-0.07639176398515701,-0.1419864147901535,-3.6049296855926514,0.4418909549713135,1.2354873418807983,0.03239089250564575,-2.1557276248931885,-0.34713214635849,2.3253848552703857,-0.31965017318725586,0.247250035405159,-0.25078824162483215,-0.846744954586029,0.41191282868385315,1741516500.5127144,1741516499793,0.08788526916503907,1.4787091064453126,-2.5440930887307935,5.2883427734375,1.4496326904296875
1741516500.4930367,-0.08846485614776611,0.005720640063844422,0.042965418256910665,-0.9990601819266288,0.1628834456205368,-0.4106036424636841,0.3897230625152588,2.9541473388671875,-1.7323663234710693,6.611642837524414,0.01773834228515625,0.02956390380859375,0.41142138838768005,-1.2592743635177612,0.005531395319849253,-0.9565499424934387,-0.013542382046580315,1.2440153360366821,0.0036240178160369396,0.9126802682876587,-0.1188296303153038,-0.727664589881897,0.03376058489084244,0.16117341816425323,1.4127947092056274,-0.5550223588943481,-0.0050838179886341095,-0.5701152086257935,0.04901960864663124,0.028038453310728073,0.7841230034828186,-0.37299445271492004,-0.005589032545685768,0.07931151986122131,-0.1272333711385727,1.840671420097351,0.030179154127836227,0.010426401160657406,0.013096828944981098,-3.400998592376709,0.09929731488227844,-0.013405638746917248,0.09058648347854614,0.30501726269721985,-2.4975461959838867,0.8892331123352051,0.8749000430107117,-2.8599584102630615,-1.1175782680511475,-0.31495368480682373,1.5734254121780396,-0.16866940259933472,0.5469223260879517,-0.46507591009140015,-1.1366748809814453,0.2961191236972809,1741516500.5127144,1741516499793,0.08788526916503907,1.4787091064453126,-2.5440930887307935,5.2883427734375,1.4496326904296875
1741516500.5130837,-0.07889020442962646,0.003174363426607547,0.04049565238846172,-0.9991746721942408,0.11373234540224075,0.00518746068701148,0.5995095372200012,5.604233264923096,3.306257486343384,6.943666458129883,0.01697540283203125,0.01583099365234375,0.4533836841583252,-1.2600373029708862,0.005531395319849253,-0.951972246170044,-0.07305257022380829,1.2470670938491821,0.0036240178160369396,0.9206912517547607,-0.12417028844356537,-0.7673380374908447,0.05397878959774971,0.17261768877506256,1.3178073167800903,-0.5461143851280212,-0.013462108559906483,-0.5319676399230957,0.048638131469488144,0.03795681521296501,0.7814526557922363,-0.39430564641952515,-0.0013483776710927486,-0.03522208333015442,-0.4266153573989868,2.016706943511963,0.08088143169879913,-0.003578059608116746,0.26466530561447144,-3.878297805786133,0.08675041794776917,0.00776671851053834,0.6525357961654663,-0.379465252161026,-1.91265070438385,1.0233148336410522,0.5034682750701904,-5.0331807136535645,0.7827398777008057,-0.36674270033836365,2.014923572540283,-0.044720351696014404,0.41483405232429504,-0.0255317110568285,-1.027565360069275,0.121988944709301,1741516500.5127144,1741516499793,0.08788526916503907,1.4787091064453126,-2.5440930887307935,5.2883427734375,1.4496326904296875
1741516500.5330594,-0.0673668384552002,0.006896080272180529,0.03760377448165575,-0.9992689328812402,0.14927679300308228,0.1863631308078766,0.5337027311325073,1.3882733583450317,-0.595897912979126,9.28788948059082,0.01850128173828125,-0.00438690185546875,0.47550925612449646,-1.2527892589569092,0.005531395319849253,-0.9431982636451721,-0.10967422276735306,1.2432523965835571,0.0032425422687083483,0.9393835067749023,-0.13790340721607208,-0.7845044732093811,0.08602273464202881,0.17719538509845734,1.19459068775177,-0.5058607459068298,-0.019080068916082382,-0.5022125840187073,0.04482337832450867,0.043678950518369675,0.7768749594688416,-0.41664206981658936,-0.001585465157404542,0.011810996569693089,-0.596537709236145,0.8962294459342957,0.4509495496749878,-0.0014927207957953215,0.45188117027282715,-2.381930112838745,-0.30017250776290894,-0.017308801412582397,1.277476191520691,-0.7877780795097351,-0.6209158301353455,1.5967191457748413,0.31491971015930176,-6.322756767272949,2.037712574005127,-0.2188601791858673,1.4457435607910156,-0.2146613448858261,0.22688595950603485,-0.2022983729839325,-1.1294184923171997,0.024180974811315536,1741516500.5127144,1741516499793,0.08788526916503907,1.4787091064453126,-2.5440930887307935,5.2883427734375,1.4496326904296875
1741516500.5530794,-0.054692745208740234,0.014156885633271967,0.03388354764049697,-0.9993255164301874,0.1763596385717392,0.344275563955307,0.6191463470458984,1.8681089878082275,2.825329303741455,7.374723434448242,0.01735687255859375,-0.01049041748046875,0.4800869822502136,-1.2512633800506592,0.005531395319849253,-0.9332799315452576,-0.12722209095954895,1.23600435256958,0.0032425422687083483,0.9569314122200012,-0.1661325991153717,-0.7860303521156311,0.12302586436271667,0.19016556441783905,1.046196699142456,-0.4620455503463745,-0.017479734495282173,-0.4728389382362366,0.03681239113211632,0.04749370738863945,0.777256429195404,-0.4366264045238495,0.0014423459069803357,-0.023945173248648643,-0.22798137366771698,0.10474757850170135,0.0689501240849495,-0.013339972123503685,0.49556851387023926,-0.8478480577468872,-0.5286529064178467,0.004650379065424204,1.0936102867126465,-1.4359010457992554,0.10663697123527527,1.9254716634750366,0.8344870805740356,-7.742366790771484,2.1689951419830322,0.14771409332752228,1.494315505027771,-0.307157427072525,0.2757784426212311,-0.027990758419036865,-0.996966540813446,0.2658824622631073,1741516500.5127144,1741516499793,0.08788526916503907,1.4787091064453126,-2.5440930887307935,5.2883427734375,1.4496326904296875
1741516500.57313,-0.047557950019836426,0.019242209175633008,0.030769917329119587,-0.9993412578161677,0.13680259883403778,0.24554532766342163,0.3257817029953003,2.925532817840576,-1.6774570941925049,7.263927936553955,0.01392364501953125,-0.00705718994140625,0.47436484694480896,-1.2508819103240967,0.005531395319849253,-0.924887478351593,-0.12455176562070847,1.228756308555603,0.0032425422687083483,0.9691386222839355,-0.19016556441783905,-0.7696269154548645,0.15659570693969727,0.22526131570339203,0.9023804068565369,-0.4179234504699707,-0.007735158782452345,-0.4369802474975586,0.04406042397022247,0.06313420087099075,0.7761120200157166,-0.4560129940509796,0.007226485293358564,-0.09830500930547714,0.051738329231739044,-0.40717342495918274,0.017517289146780968,-0.0015609750989824533,0.38329067826271057,0.2870963215827942,-0.48301026225090027,0.003747751470655203,0.7137542366981506,-1.1532955169677734,0.921598494052887,1.436849594116211,1.9375982284545898,-7.016660690307617,2.2180845737457275,0.4968218505382538,1.9097363948822021,0.5829069018363953,0.8420358300209045,-0.06111294776201248,-0.9220092296600342,0.1332480013370514,1741516500.6177409,1741516499893,0.18111233520507813,1.482753662109375,-2.2880082469666396,5.3664716796875,1.4395731201171875
1741516500.5931547,-0.04285383224487305,0.019285004818504606,0.03234603732556782,-0.9992906596473737,-0.11711913347244263,-0.07744616270065308,0.23636694252490997,5.375171661376953,5.583491802215576,7.980959415435791,0.00667572021484375,-0.00209808349609375,0.4560540020465851,-1.2493560314178467,0.005531395319849253,-0.918402373790741,-0.09822995215654373,1.222271203994751,0.0032425422687083483,0.9729533791542053,-0.200083926320076,-0.7509346008300781,0.18558785319328308,0.27065691351890564,0.8009079098701477,-0.3701697289943695,0.007626607548445463,-0.387006938457489,0.05664911866188049,0.08335240930318832,0.7696269154548645,-0.46533870697021484,-0.0003043524920940399,-0.22887201607227325,0.1166670098900795,-0.9578990340232849,0.15110161900520325,-0.0038903604727238417,0.3112817406654358,2.022963047027588,-0.45296511054039,0.00277357897721231,0.10118400305509567,-0.33671942353248596,0.8364938497543335,1.592323899269104,2.181506395339966,-4.327962398529053,2.4613747596740723,0.9048942923545837,2.704970598220825,0.5175302624702454,1.0104140043258667,-0.35844507813453674,-0.21160639822483063,-0.19198888540267944,1741516500.6177409,1741516499893,0.18111233520507813,1.482753662109375,-2.2880082469666396,5.3664716796875,1.4395731201171875
1741516500.6131485,-0.037010788917541504,0.008346644171158553,0.032288928023579265,-0.9994437246079282,0.03821892291307449,-0.5710150003433228,0.3187160789966583,-6.601546287536621,3.163912296295166,10.599967002868652,0.00209808349609375,0.02307891845703125,0.42553597688674927,-1.2485930919647217,0.005531395319849253,-0.9134432077407837,-0.048638131469488144,1.220745325088501,0.0032425422687083483,0.9683756828308105,-0.1966506391763687,-0.7204165458679199,0.19245441257953644,0.3061341345310211,0.8054856061935425,-0.3321229815483093,0.019781414419412613,-0.3248264193534851,0.0555046908557415,0.09975585341453552,0.7608529925346375,-0.4499827027320862,0.003323235549032688,-0.14658214151859283,0.7261707782745361,-1.7174795866012573,-0.07009212672710419,-0.00046724954154342413,0.2143852710723877,3.5398244857788086,-0.01845746673643589,-0.000680804718285799,-0.3004148304462433,0.2332495003938675,1.9039334058761597,0.1956958919763565,1.4306119680404663,0.5324660539627075,1.5425833463668823,0.5900289416313171,3.1435065269470215,-0.04661772772669792,0.5933011770248413,-0.36144736409187317,1.0368729829788208,0.10981565713882446,1741516500.6177409,1741516499893,0.18111233520507813,1.482753662109375,-2.2880082469666396,5.3664716796875,1.4395731201171875
1741516500.6331568,-0.029967188835144043,0.003643154489487244,0.03078649228705484,-0.9995193441439865,0.053265735507011414,-0.1823938935995102,0.3772793114185333,-0.8564847111701965,-2.4070749282836914,12.564787864685059,-0.00324249267578125,0.02117156982421875,0.3721294105052948,-1.2527892589569092,0.005531395319849253,-0.9126802682876587,0.01583123579621315,1.2234156131744385,0.0032425422687083483,0.9657053351402283,-0.19016556441783905,-0.6631952524185181,0.18863965570926666,0.2946898639202118,0.8112077713012695,-0.3347231447696686,0.02326522395014763,-0.28324559330940247,0.06046387553215027,0.11158160120248795,0.7738231420516968,-0.4339456558227539,-0.004825899843126535,-0.18405288457870483,0.040450744330883026,-2.6834280490875244,-0.27635979652404785,-0.009955989196896553,0.01446983590722084,4.333222389221191,0.1631399691104889,0.005284648854285479,-0.18341580033302307,0.31899577379226685,2.8572800159454346,-0.21187764406204224,-0.903379499912262,-0.05122454836964607,-0.33532851934432983,0.1887027621269226,1.6371959447860718,0.33831584453582764,0.7351229786872864,1.121125340461731,0.6628339290618896,-0.2701431214809418,1741516500.6177409,1741516499893,0.18111233520507813,1.482753662109375,-2.2880082469666396,5.3664716796875,1.4395731201171875
1741516500.653191,-0.026174068450927734,0.006719533077569524,0.03512663698635677,-0.9993602790031472,-0.19109369814395905,0.17676396667957306,0.20065012574195862,-0.6523138880729675,1.5586724281311035,10.292771339416504,-0.01544952392578125,0.01277923583984375,0.30384528636932373,-1.2535521984100342,0.005531395319849253,-0.9119172692298889,0.07953765243291855,1.228756308555603,0.0032425422687083483,0.9596017599105835,-0.1840619444847107,-0.6277180314064026,0.17223620414733887,0.27141985297203064,0.8081559538841248,-0.34455016255378723,0.02495982125401497,-0.2931639552116394,0.06275273114442825,0.14400701224803925,0.8577477931976318,-0.413387268781662,-0.012599737383425236,-0.37037739157676697,-0.22754915058612823,-3.502323627471924,-0.002070656279101968,0.0013302676379680634,0.06587856262922287,4.3087568283081055,0.44673338532447815,0.02262207679450512,-0.39743053913116455,0.41426119208335876,1.7249562740325928,-0.9356184601783752,-1.0286099910736084,0.041421107947826385,-0.45348602533340454,0.05420910567045212,-1.032321572303772,0.05865582078695297,1.7067018747329712,4.89213752746582,1.215606689453125,-0.3225846290588379,1741516500.6177409,1741516499893,0.18111233520507813,1.482753662109375,-2.2880082469666396,5.3664716796875,1.4395731201171875
1741516500.673201,-0.03291010856628418,0.01134288200879433,0.032633567364667354,-0.9994030164597215,0.20228245854377747,0.23066763579845428,-0.406564325094223,-7.161008834838867,-0.5201205611228943,10.4202299118042,-0.01430511474609375,0.01354217529296875,0.22793163359165192,-1.2566040754318237,0.005912871100008488,-0.9111543297767639,0.14286258816719055,1.2409635782241821,0.0036240178160369396,0.9531166553497314,-0.1817730963230133,-0.5971999764442444,0.14248111844062805,0.2450980395078659,0.8070115447044373,-0.3591890335083008,0.031090300530195236,-0.36488136649131775,0.07877469807863235,0.1802472025156021,1.0210193395614624,-0.3696743845939636,-0.019368307664990425,0.0002356532058911398,0.006881811656057835,-3.8018717765808105,-0.21105654537677765,0.008778657764196396,0.014252481050789356,4.145355224609375,0.750769853591919,0.030620088800787926,-0.39002323150634766,-0.0004918251070193946,1.52265465259552,-1.6352888345718384,-1.292891025543213,-0.11342031508684158,-0.74842768907547,0.22537510097026825,-4.230228900909424,1.066746711730957,1.8559083938598633,8.760601043701172,2.297187566757202,-0.39780011773109436,1741516500.7200975,1741516499993,0.28799197387695313,1.49781787109375,-2.35642040817647,5.4402226562500005,1.4302867431640625
1741516500.6932688,-0.04882192611694336,0.018855093245370526,0.024338520361291856,-0.9995259485802914,0.48911917209625244,0.3719218075275421,-0.8198317885398865,6.6329240798950195,1.1782190799713135,9.556950569152832,-0.02651214599609375,0.01392364501953125,0.1493476778268814,-1.2573670148849487,0.005531395319849253,-0.9115357995033264,0.1993209719657898,1.2447782754898071,0.0036240178160369396,0.9504463076591492,-0.19207294285297394,-0.5674448609352112,0.11577782779932022,0.23937590420246124,0.8054856061935425,-0.3680341839790344,0.022453730925917625,-0.4888609051704407,0.10929274559020996,0.20428015291690826,1.2163348197937012,-0.3320259749889374,-0.01208727527409792,-0.35132285952568054,0.033887896686792374,-3.9799506664276123,-0.0060776714235544205,-0.0006884496542625129,-0.013642624951899052,3.7197372913360596,0.18263109028339386,-0.0015139153692871332,-0.17531242966651917,-0.5783690810203552,1.5334577560424805,-1.1760821342468262,-0.16413000226020813,-0.0680040568113327,-0.4102080762386322,-0.4053378403186798,-6.346622943878174,1.5958470106124878,1.1037993431091309,9.820083618164062,1.5316742658615112,0.5741171836853027,1741516500.7200975,1741516499993,0.28799197387695313,1.49781787109375,-2.35642040817647,5.4402226562500005,1.4302867431640625
1741516500.71327,-0.07444906234741211,0.02451855087645688,0.011373370061068769,-0.9996346768276763,0.6687494516372681,0.30877843499183655,-1.3031933307647705,8.048630714416504,-1.8443289995193481,7.196571350097656,-0.032616615295410156,0.02155303955078125,0.07648584991693497,-1.2562226057052612,0.005531395319849253,-0.9126802682876587,0.25120165944099426,1.2447782754898071,0.0036240178160369396,0.9462500810623169,-0.20923933386802673,-0.5270084738731384,0.10547798871994019,0.24242770671844482,0.7982375621795654,-0.3730866312980652,0.01697138510644436,-0.6162737607955933,0.13942931592464447,0.20275425910949707,1.3887617588043213,-0.3385770916938782,-0.008717893622815609,-0.1960042268037796,0.25539931654930115,-3.509364366531372,0.15217643976211548,-0.011064361780881882,-0.08056727796792984,3.429903984069824,0.04173874482512474,0.001980152679607272,-0.3095727562904358,-0.891609787940979,2.0922417640686035,-0.4388235807418823,0.14705103635787964,-0.44163739681243896,-0.17570887506008148,-0.26905250549316406,-6.326674461364746,1.4052095413208008,-0.3361337184906006,7.8964009284973145,-0.6861894130706787,-0.03957286849617958,1741516500.7200975,1741516499993,0.28799197387695313,1.49781787109375,-2.35642040817647,5.4402226562500005,1.4302867431640625
1741516500.7332997,-0.101936936378479,0.024859705794308788,0.0019340932563065428,-0.9996890788195578,0.42781683802604675,-0.01949060522019863,-1.3643802404403687,2.5675981044769287,-9.316593170166016,10.390756607055664,-0.042916297912597656,0.040627479553222656,0.016975661739706993,-1.2493560314178467,0.005149920005351305,-0.916113555431366,0.29926756024360657,1.2455412149429321,0.0036240178160369396,0.9428167939186096,-0.22678720951080322,-0.483138769865036,0.10090028494596481,0.2439536154270172,0.7887006998062134,-0.370941162109375,0.011970573104918003,-0.725375771522522,0.16269932687282562,0.16918440163135529,1.483367681503296,-0.3827022314071655,-0.013435549102723598,-0.30118685960769653,0.5300444960594177,-2.8346076011657715,0.4787939190864563,-0.01686386577785015,-0.17929565906524658,3.2031161785125732,0.0903138592839241,0.009298794902861118,-0.1879880130290985,-0.600204348564148,2.2940783500671387,-0.1979990154504776,0.046133723109960556,-0.4221240282058716,0.08950754255056381,-0.19958734512329102,-5.226193904876709,0.9679848551750183,-1.862200140953064,3.941267251968384,-2.3467392921447754,-0.19509372115135193,1741516500.7200975,1741516499993,0.28799197387695313,1.49781787109375,-2.35642040817647,5.4402226562500005,1.4302867431640625
1741516500.7533357,-0.11745059490203857,0.024235913299482385,0.0035307060259887604,-0.9997000323204447,-0.11622728407382965,-0.02809278853237629,-0.7413151264190674,1.7550585269927979,-4.068769931793213,10.812400817871094,-0.060082435607910156,0.044060707092285156,-0.02384222112596035,-1.2394375801086426,0.005531395319849253,-0.9199283123016357,0.3427557647228241,1.2531707286834717,0.0036240178160369396,0.9390020370483398,-0.22716869413852692,-0.4377431869506836,0.09708552807569504,0.23785001039505005,0.7822155952453613,-0.37589842081069946,0.0011719900649040937,-0.8054856061935425,0.16384375095367432,0.1184481605887413,1.4875638484954834,-0.43475139141082764,-0.004933861084282398,-0.5106409192085266,0.1226947084069252,-1.9129823446273804,0.7021565437316895,-0.011783592402935028,-0.23114925622940063,2.8014161586761475,0.5589986443519592,0.014162424020469189,-0.3457293212413788,-0.020085062831640244,2.2389369010925293,-0.19108609855175018,-0.43798041343688965,-0.35171613097190857,-0.3817967474460602,-0.5600929260253906,-3.6755855083465576,-0.22200313210487366,-2.5968925952911377,-0.4417001008987427,-2.5104358196258545,0.5203452110290527,1741516500.7200975,1741516499993,0.28799197387695313,1.49781787109375,-2.35642040817647,5.4402226562500005,1.4302867431640625
1741516500.7733538,-0.12519240379333496,0.024930803268962794,0.011296953358621152,-0.9996253467640651,-0.3879895806312561,0.06170572340488434,-0.4194476902484894,0.08646383136510849,-1.464906930923462,10.367870330810547,-0.06275272369384766,0.046730995178222656,-0.06771191209554672,-1.230282187461853,0.005531395319849253,-0.9298466444015503,0.38281071186065674,1.2649965286254883,0.004005493130534887,0.9317540526390076,-0.21992065012454987,-0.39845120906829834,0.08945601433515549,0.21648737788200378,0.7711527943611145,-0.4028495252132416,0.0028551602736115456,-0.8562218546867371,0.15926603972911835,0.06008239835500717,1.4127947092056274,-0.47008806467056274,0.01228239107877016,-0.11329159885644913,0.08404646813869476,-2.3068184852600098,0.5829607248306274,0.023531533777713776,-0.5425751805305481,2.65837025642395,0.7462901473045349,0.027734946459531784,-0.4795338809490204,0.5336053967475891,1.9317935705184937,-0.31482064723968506,-1.216394305229187,-0.49373772740364075,-1.5192440748214722,0.1441594809293747,-2.378164291381836,-0.2857503592967987,-2.7333784103393555,-4.178994178771973,-1.4525830745697021,0.7982571125030518,1741516500.7200975,1741516499993,0.28799197387695313,1.49781787109375,-2.35642040817647,5.4402226562500005,1.4302867431640625
1741516500.7933927,-0.13297772407531738,0.029652888048757094,0.02139201603168075,-0.999331320374013,-0.5268977880477905,0.2662396728992462,-0.4005700647830963,4.280133247375488,-0.7007333636283875,7.241182327270508,-0.07267093658447266,0.037194252014160156,-0.10204470902681351,-1.224560022354126,0.005149920005351305,-0.9489204287528992,0.42629891633987427,1.2707185745239258,0.0036240178160369396,0.9237430095672607,-0.20199130475521088,-0.3736552894115448,0.08258945494890213,0.19245441257953644,0.7581826448440552,-0.44940289855003357,-0.0028807558119297028,-0.8806362748146057,0.152399480342865,0.020027466118335724,1.284618854522705,-0.46879225969314575,0.01350349374115467,-0.29511383175849915,-0.2700822651386261,-1.495671272277832,0.35684290528297424,0.01618211902678013,-0.9047529697418213,2.8587818145751953,0.31316280364990234,-0.01837150938808918,-0.5727628469467163,1.0007402896881104,1.0170546770095825,-0.3929630219936371,-1.1480143070220947,-0.7245060801506042,-2.4195923805236816,-0.34657350182533264,-1.0013275146484375,-0.3043983578681946,-1.8544892072677612,-6.593430995941162,0.3468326926231384,-0.0410250648856163,1741516500.7200975,1741516499993,0.28799197387695313,1.49781787109375,-2.35642040817647,5.4402226562500005,1.4302867431640625
1741516500.8134348,-0.13728582859039307,0.04029668629386869,0.034924754724764265,-0.9985772071207858,-0.6480087041854858,0.640388548374176,-0.17808012664318085,2.1786625385284424,-0.3889480233192444,1.5498757362365723,-0.07839298248291016,0.02422332763671875,-0.1192111074924469,-1.2196009159088135,0.005531395319849253,-0.9645609259605408,0.4530022144317627,1.2730075120925903,0.004005493130534887,0.9195467829704285,-0.17338064312934875,-0.34657052159309387,0.07457847148180008,0.1672770231962204,0.7513160705566406,-0.49723419547080994,-0.005956839770078659,-0.884069561958313,0.13828489184379578,0.000572213320992887,1.1350804567337036,-0.43442341685295105,0.0118937436491251,-0.21039682626724243,-0.4266304075717926,-0.7911520004272461,0.29509463906288147,-0.00840126071125269,-0.8011384010314941,1.5305554866790771,0.1992689073085785,0.00875871628522873,-0.23933321237564087,1.453595757484436,1.3176912069320679,-0.39995235204696655,-1.2882156372070312,-0.2773042619228363,-2.307398557662964,-0.03792567551136017,0.11499793082475662,-0.7168771028518677,-0.8946177959442139,-7.54509162902832,1.8537391424179077,-0.04545887932181358,1741516500.7200975,1741516499993,0.28799197387695313,1.49781787109375,-2.35642040817647,5.4402226562500005,1.4302867431640625
1741516500.8334382,-0.1361396312713623,0.05475138898165841,0.04187541427886637,-0.9976215390034201,-0.3165688216686249,0.7053049802780151,0.10107237845659256,2.209502935409546,1.8427140712738037,4.130234241485596,-0.08106327056884766,0.02155303955078125,-0.1180666834115982,-1.217693567276001,0.005531395319849253,-0.9740977883338928,0.4667353332042694,1.2730075120925903,0.0036240178160369396,0.9180209040641785,-0.14782176911830902,-0.3244449496269226,0.06237125024199486,0.14476996660232544,0.7494087219238281,-0.5287444591522217,-0.0006612732540816069,-0.8745326995849609,0.12302586436271667,-0.021553369238972664,0.9729533791542053,-0.3891514539718628,0.006971294060349464,-0.11393725126981735,-0.09063690155744553,0.219939723610878,0.07596881687641144,0.00444065872579813,-0.4062422215938568,0.8577185273170471,-0.11097008734941483,-0.027995331212878227,-0.10931500792503357,1.1812403202056885,1.1430634260177612,-0.8043879866600037,-1.093117356300354,-0.08589676022529602,-1.3004295825958252,0.19162903726100922,0.2831763029098511,-0.6856927275657654,-1.322583794593811,-7.953668594360352,2.2495155334472656,-0.35246849060058594,1741516500.9232154,1741516500093,0.39989791870117186,1.4971094970703125,-1.1136799681630667,5.50691943359375,1.4233359375
1741516500.8534353,-0.12939560413360596,0.06530291192795804,0.041774023951023816,-0.996990702372228,0.04592694342136383,0.5116682648658752,0.3803860545158386,-0.2529473304748535,-4.350499629974365,6.172365665435791,-0.07839298248291016,0.02040863037109375,-0.09555962681770325,-1.2188379764556885,0.005149920005351305,-0.9756237268447876,0.4701686203479767,1.2669038772583008,0.0032425422687083483,0.917639434337616,-0.1356145590543747,-0.2931639552116394,0.03032730519771576,0.1367589831352234,0.7562752962112427,-0.5261640548706055,-0.0022011990658938885,-0.8642328381538391,0.10051880776882172,-0.04787518084049225,0.8375295400619507,-0.3544657230377197,-0.007241986691951752,0.05030879005789757,-0.07213663309812546,1.237570881843567,-0.09318916499614716,-0.012809809297323227,0.003352896310389042,0.07406371086835861,-0.48596251010894775,0.0005427105934359133,-0.03919471055269241,0.5194544792175293,1.707932949066162,-1.579694390296936,-0.16837579011917114,0.5498638153076172,0.3172719478607178,0.1735687553882599,0.6794911026954651,-1.3651657104492188,-1.2677439451217651,-6.401033878326416,1.543684959411621,-0.6807669997215271,1741516500.9232154,1741516500093,0.39989791870117186,1.4971094970703125,-1.1136799681630667,5.50691943359375,1.4233359375
1741516500.8735068,-0.122947096824646,0.06762754129838641,0.03372773131187561,-0.9971403892123158,0.476653128862381,-0.054912928491830826,0.31479519605636597,-2.8492848873138428,2.5743417739868164,7.906065464019775,-0.07495975494384766,0.046349525451660156,-0.05436026677489281,-1.2196009159088135,0.005149920005351305,-0.9710460305213928,0.45719844102859497,1.2554595470428467,0.0036240178160369396,0.917639434337616,-0.1333257108926773,-0.27141985297203064,0.01201647985726595,0.14553292095661163,0.7879377603530884,-0.5182461738586426,0.013399695046246052,-0.846684992313385,0.06504157930612564,-0.061226826161146164,0.7440680265426636,-0.3445449769496918,-0.013954340480268002,0.1147751733660698,0.8354218602180481,2.2972028255462646,-0.022644774988293648,-0.04905219003558159,0.2709088921546936,-1.0023322105407715,-0.8085786700248718,0.011883281171321869,0.016475586220622063,0.08172810077667236,0.9804674983024597,-0.8342984318733215,0.339454710483551,1.9294945001602173,0.3508840799331665,0.7311689853668213,0.8981521725654602,-1.663346290588379,-0.32117122411727905,-4.330958843231201,0.39203229546546936,-0.34900885820388794,1741516500.9232154,1741516500093,0.39989791870117186,1.4971094970703125,-1.1136799681630667,5.50691943359375,1.4233359375
1741516500.893464,-0.11903440952301025,0.06036204904813968,0.015639440122693585,-0.998054022058605,0.8818402886390686,-0.4130100607872009,0.1806885451078415,-20.57064437866211,4.174942493438721,20.49243927001953,-0.06885623931884766,0.057412147521972656,0.009727626107633114,-1.2299007177352905,0.005912871100008488,-0.9626535177230835,0.42820629477500916,1.2409635782241821,0.0032425422687083483,0.9157320261001587,-0.13141833245754242,-0.272945761680603,0.008964675478637218,0.15545128285884857,0.8783474564552307,-0.5036682486534119,0.025839336216449738,-0.8184558153152466,0.04749370738863945,-0.04444190114736557,0.7726787328720093,-0.32478150725364685,-0.028783632442355156,0.16753695905208588,0.4422212243080139,3.2184219360351562,-1.0421422719955444,0.013940025120973587,0.45972228050231934,-2.1352758407592773,-0.9662071466445923,-0.01424596831202507,-0.19559986889362335,0.012634431011974812,-0.33831533789634705,-0.04013732820749283,0.422459214925766,5.027393817901611,0.8712849617004395,0.5650107860565186,1.7737722396850586,-0.612759530544281,1.0549362897872925,2.43689227104187,0.9886013865470886,-0.7264859676361084,1741516500.9232154,1741516500093,0.39989791870117186,1.4971094970703125,-1.1136799681630667,5.50691943359375,1.4233359375
1741516500.9135163,-0.12254977226257324,0.05927157503564588,0.005670102880613502,-0.9982257912547227,0.4735756814479828,-0.22075721621513367,-0.03351433947682381,-2.6494786739349365,9.292203903198242,12.915904998779297,-0.07686710357666016,0.060082435607910156,0.09174486994743347,-1.2440153360366821,0.005531395319849253,-0.9531166553497314,0.368314653635025,1.230282187461853,0.0036240178160369396,0.9122987985610962,-0.1333257108926773,-0.31528952717781067,-0.005149920005351305,0.15926603972911835,1.0145342350006104,-0.46512311697006226,0.035067714750766754,-0.80663001537323,0.056267641484737396,-0.0009536888683214784,0.8199816942214966,-0.32020774483680725,-0.03579026460647583,-0.2863460183143616,0.16947714984416962,4.124319076538086,-0.7639507055282593,0.0545627735555172,0.4473804235458374,-4.317656517028809,-0.6147992610931396,0.033666037023067474,-0.1657170206308365,0.046281084418296814,-2.8440933227539062,-0.5740457773208618,-0.10925518721342087,7.035915851593018,2.0254414081573486,0.2277534008026123,0.5307411551475525,0.33916017413139343,2.277689218521118,1.7230981588363647,0.07814757525920868,-0.09256158024072647,1741516500.9232154,1741516500093,0.39989791870117186,1.4971094970703125,-1.1136799681630667,5.50691943359375,1.4233359375
1741516500.9335136,-0.121573805809021,0.05382653601385353,-0.0005905748351845736,-0.9985501265545528,0.23571346700191498,-0.1748008280992508,0.11137468367815018,-2.5170412063598633,-4.625804424285889,11.13167953491211,-0.06466007232666016,0.056649208068847656,0.17071031033992767,-1.2501189708709717,0.005531395319849253,-0.9454871416091919,0.28362706303596497,1.2253230810165405,0.002861066721379757,0.9111543297767639,-0.12188144028186798,-0.39730677008628845,-0.016212711110711098,0.13828489184379578,1.179331660270691,-0.4196473956108093,0.03997299075126648,-0.7639048099517822,0.05855649709701538,0.029182879254221916,0.837911069393158,-0.31479570269584656,-0.031528860330581665,0.2887937128543854,-0.09440258890390396,3.9077892303466797,-0.4607478678226471,0.03109842538833618,0.34802889823913574,-5.7746992111206055,-0.25947076082229614,-0.07406836003065109,-0.14243395626544952,0.5827568769454956,-4.012164115905762,-0.8193870186805725,-1.0171160697937012,8.302223205566406,2.199817657470703,0.12557610869407654,2.291590929031372,-0.07347047328948975,1.348798394203186,1.124936580657959,0.37772560119628906,0.17088773846626282,1741516500.9232988,1741516500193,0.5182413330078125,1.4943819580078126,-0.7318840545181939,5.5687846679687505,1.4194538574218751
1741516500.9535797,-0.10438454151153564,0.04566478643037472,0.0018730945316533687,-0.9989550634523776,-0.17420586943626404,-0.5519647598266602,0.922147810459137,-2.011711359024048,3.882751941680908,11.63162899017334,-0.07267093658447266,0.07381534576416016,0.23823148012161255,-1.2588928937911987,0.005531395319849253,-0.9428167939186096,0.20275425910949707,1.231808066368103,0.0032425422687083483,0.9092469811439514,-0.11310750246047974,-0.4983977973461151,-0.026512550190091133,0.12798504531383514,1.338025450706482,-0.39463239908218384,0.0081868227571249,-0.7234683632850647,0.048256658017635345,0.03681239113211632,0.8504997491836548,-0.3124927878379822,-0.02372361347079277,-0.26216980814933777,0.5282570719718933,3.1738502979278564,-0.4738912284374237,-0.036430906504392624,0.10577591508626938,-5.165407180786133,0.4630929231643677,0.056305866688489914,-0.13107635080814362,0.3340069055557251,-5.036125183105469,-0.23263761401176453,-0.3751540184020996,7.44719934463501,0.8673722743988037,-1.6062109470367432,2.0521748065948486,-0.7074423432350159,0.26219990849494934,0.3597739636898041,-0.0019678540993481874,0.41586175560951233,1741516500.9232988,1741516500193,0.5182413330078125,1.4943819580078126,-0.7318840545181939,5.5687846679687505,1.4194538574218751
1741516500.9735591,-0.07841348648071289,0.033535963795830785,0.0016103977811646325,-0.9994362139482795,-0.0413932204246521,-0.567682147026062,1.3013699054718018,-3.581021547317505,-0.3578685224056244,11.732680320739746,-0.062371253967285156,0.07267093658447266,0.30498969554901123,-1.2623261213302612,0.005531395319849253,-0.9431982636451721,0.1348516047000885,1.23447847366333,0.001716639962978661,0.9107728600502014,-0.11158160120248795,-0.5949110984802246,-0.02536812424659729,0.1337071806192398,1.4456015825271606,-0.4182153046131134,0.00527589488774538,-0.6700618267059326,0.035667963325977325,0.037193864583969116,0.8470664620399475,-0.3157362937927246,-0.01878371648490429,0.24374687671661377,0.02894512005150318,3.477346181869507,-0.24323196709156036,-0.005199674982577562,-0.03915414586663246,-4.571643829345703,0.11166463047266006,-0.14154110848903656,0.10116973519325256,0.08176323771476746,-4.77488899230957,0.12144247442483902,0.5793417692184448,4.936094284057617,-1.5222896337509155,0.22292354702949524,2.9046523571014404,-0.51055908203125,0.023028545081615448,-0.1596822440624237,-0.1700543910264969,0.35298746824264526,1741516500.9232988,1741516500193,0.5182413330078125,1.4943819580078126,-0.7318840545181939,5.5687846679687505,1.4194538574218751
1741516500.9936156,-0.04941129684448242,0.02410387730353526,0.0032394777623681197,-0.9997042106957253,-0.14869648218154907,-0.5176129341125488,1.4444268941879272,1.3628486394882202,8.749858856201172,12.207353591918945,-0.061226844787597656,0.060845375061035156,0.36564430594444275,-1.2596558332443237,0.005531395319849253,-0.9439612627029419,0.071908138692379,1.233715534210205,0.0013351644156500697,0.9122987985610962,-0.10547798871994019,-0.6773098111152649,-0.018501564860343933,0.16079194843769073,1.481078863143921,-0.4651626646518707,0.0008069601026363671,-0.6177996397018433,0.029564354568719864,0.037193864583969116,0.8356221914291382,-0.3286765515804291,-0.009471452794969082,0.02707800827920437,-0.32320326566696167,2.9766788482666016,0.24905014038085938,-0.004996808711439371,-0.04690967872738838,-3.942410469055176,-0.04832945391535759,0.010814077220857143,0.03919430077075958,0.19636403024196625,-3.772118091583252,0.42618051171302795,1.298165202140808,1.1366925239562988,-2.3600144386291504,-0.2824740409851074,2.3019962310791016,-0.2509603500366211,0.007938811555504799,-0.6557726263999939,-0.8154215812683105,0.21591424942016602,1741516501.027163,1741516500293,0.6131578369140626,1.4882054443359376,-1.1480025202812667,5.62850244140625,1.418921630859375
1741516501.01365,-0.03351163864135742,0.014288782957285407,0.00577170106863653,-0.9998812520236461,-0.13626685738563538,-0.44122034311294556,0.7552358508110046,-6.210927486419678,3.9671170711517334,11.168519020080566,-0.057412147521972656,0.052071571350097656,0.41142138838768005,-1.2588928937911987,0.005531395319849253,-0.9458686113357544,0.01926451548933983,1.2333340644836426,0.0024795911740511656,0.9126802682876587,-0.10166323184967041,-0.7398717999458313,-0.000572213320992887,0.17986571788787842,1.4429312944412231,-0.5082469582557678,-0.007686733268201351,-0.5724040865898132,0.023079270496964455,0.037193864583969116,0.8241779208183289,-0.35784584283828735,-0.014138138853013515,0.09238723665475845,-0.2551504373550415,2.1709022521972656,0.04508917033672333,0.005228150635957718,-0.09663517028093338,-3.364888906478882,0.02050863392651081,0.07262799143791199,0.08786488324403763,0.327468603849411,-3.0123414993286133,0.8350070118904114,1.0258700847625732,-2.404841899871826,-2.000800848007202,-0.2938025891780853,2.6141109466552734,-0.3696273863315582,0.03151734545826912,-0.4110075831413269,-1.526415467262268,-0.3607812225818634,1741516501.027163,1741516500293,0.6131578369140626,1.4882054443359376,-1.1480025202812667,5.62850244140625,1.418921630859375
1741516501.033655,-0.029832839965820312,0.01327609011211026,0.005771575375986761,-0.9998952116842116,0.04291057586669922,-0.06230741739273071,0.2082202285528183,-4.446603775024414,-0.912153959274292,11.931916236877441,-0.057030677795410156,0.02613067626953125,0.45719844102859497,-1.2608002424240112,0.005531395319849253,-0.9420538544654846,-0.0398641936480999,1.2421079874038696,0.0024795911740511656,0.9172579646110535,-0.09403372555971146,-0.7799267768859863,0.01735713705420494,0.18673227727413177,1.3513771295547485,-0.5209771394729614,-0.009188910014927387,-0.5247195959091187,0.01583123579621315,0.03490501269698143,0.8085374236106873,-0.396124929189682,-0.00642763078212738,0.005833651404827833,-0.7394555807113647,2.5893008708953857,-0.16944169998168945,-0.01765933819115162,0.2889362871646881,-4.177556991577148,0.5381996631622314,0.018682118505239487,0.38383394479751587,0.22236233949661255,-1.7165635824203491,0.8647065758705139,0.270721971988678,-4.920708656311035,-0.28997281193733215,-0.12728026509284973,2.077549695968628,-0.35072314739227295,-0.1841760277748108,-0.9557479023933411,-1.9215081930160522,0.4535953104496002,1741516501.027163,1741516500293,0.6131578369140626,1.4882054443359376,-1.1480025202812667,5.62850244140625,1.418921630859375
1741516501.0537088,-0.02607583999633789,0.021459476211777306,0.003936121799005293,-0.9997619705839483,0.08825425803661346,0.45485803484916687,0.05649915337562561,0.8162233829498291,4.987671375274658,1.1885361671447754,-0.051690101623535156,0.00209808349609375,0.49496451020240784,-1.2596558332443237,0.005531395319849253,-0.9355688095092773,-0.09098191559314728,1.2417265176773071,0.0020981156267225742,0.9340428709983826,-0.09670405089855194,-0.802815318107605,0.03757534176111221,0.18749523162841797,1.2220568656921387,-0.4943949580192566,-0.018353747203946114,-0.481612890958786,0.0078202486038208,0.03337911143898964,0.7990005612373352,-0.4326356053352356,-0.002620835555717349,0.16274937987327576,-0.6864141821861267,1.6567856073379517,0.12933754920959473,0.006584480404853821,0.33655256032943726,-3.2458412647247314,-0.11058519035577774,-0.02605089545249939,1.1862003803253174,-0.15864989161491394,-1.1874241828918457,1.128920316696167,-0.031610723584890366,-6.695064544677734,1.5808576345443726,-0.46904587745666504,2.1684346199035645,-0.4752989411354065,0.08512183278799057,-0.5565162301063538,-1.8296483755111694,0.23819608986377716,1741516501.027163,1741516500293,0.6131578369140626,1.4882054443359376,-1.1480025202812667,5.62850244140625,1.418921630859375
1741516501.0737088,-0.027217984199523926,0.03029254765182721,0.0013296902655544403,-0.9995401910281344,0.1224154457449913,0.4514915645122528,-0.03170051425695419,0.8513410687446594,2.1822993755340576,4.964319229125977,-0.052453041076660156,-0.00095367431640625,0.5102235674858093,-1.2600373029708862,0.005531395319849253,-0.9279392957687378,-0.12455176562070847,1.235241413116455,0.0024795911740511656,0.9531166553497314,-0.10929274559020996,-0.810826301574707,0.07000076025724411,0.18902114033699036,1.0736628770828247,-0.45061683654785156,-0.016196679323911667,-0.44079500436782837,0.00667582219466567,0.03833829239010811,0.7875562906265259,-0.468960165977478,0.003954137675464153,-0.010419243946671486,-0.08803346753120422,0.619076132774353,-0.011021404527127743,-0.005103143397718668,0.3744286000728607,-1.9024783372879028,-0.4874405860900879,0.0061102379113435745,1.246387243270874,-0.6704148054122925,-0.22402004897594452,1.597247838973999,0.25364789366722107,-7.23134183883667,2.1308717727661133,0.18970158696174622,2.1849586963653564,0.08343207091093063,0.31621432304382324,-0.4969261586666107,-1.7981113195419312,0.3933618366718292,1741516501.027163,1741516500293,0.6131578369140626,1.4882054443359376,-1.1480025202812667,5.62850244140625,1.418921630859375
1741516501.0937302,-0.027143120765686035,0.036772660853053474,0.00010405093258632888,-0.9993236515699954,0.03295563906431198,0.27328577637672424,0.02803812175989151,1.9123705625534058,0.2701660692691803,6.157503128051758,-0.055123329162597656,0.00019073486328125,0.5071717500686646,-1.2585114240646362,0.005531395319849253,-0.9206912517547607,-0.12912946939468384,1.231045126914978,0.0024795911740511656,0.9668498039245605,-0.12378881871700287,-0.8077744841575623,0.10700388997793198,0.20771344006061554,0.9420538544654846,-0.40567535161972046,-0.007130838464945555,-0.39501792192459106,0.018501564860343933,0.05092698708176613,0.7738231420516968,-0.4993821084499359,0.0007146252901293337,-0.09787598252296448,0.040110860019922256,-0.2612532675266266,0.11373960971832275,-0.0011561638675630093,0.38553857803344727,-0.05748310312628746,-0.2090974599123001,0.007233623415231705,0.8529154062271118,-0.7996377944946289,0.149563729763031,1.7463442087173462,1.3416123390197754,-6.349542617797852,2.2689216136932373,0.44575291872024536,2.4072377681732178,0.7611470222473145,0.5651643872261047,-0.6970418095588684,-1.3488034009933472,-0.327302485704422,1741516501.1260111,1741516500393,0.7144674072265625,1.4989678955078125,-1.2045474408993453,5.68265966796875,1.420487548828125
1741516501.1137562,-0.0213698148727417,0.03767534317292312,0.0028734316197644174,-0.999285900985063,-0.20241625607013702,0.03212251886725426,0.2956603765487671,-0.13219881057739258,-4.492171287536621,6.436918258666992,-0.062371253967285156,0.01087188720703125,0.4861905872821808,-1.2531707286834717,0.005531395319849253,-0.9195467829704285,-0.10700388997793198,1.2291377782821655,0.0020981156267225742,0.9737163186073303,-0.14019227027893066,-0.7990005612373352,0.1340886503458023,0.2466239482164383,0.8398184180259705,-0.3637056052684784,0.002195419277995825,-0.3419928252696991,0.035667963325977325,0.06008239835500717,0.7600900530815125,-0.5034700632095337,0.001203845371492207,-0.19490507245063782,0.30013903975486755,-1.1952896118164062,0.36563780903816223,-0.006420920602977276,-0.005968285258859396,1.7835426330566406,-0.10484029352664948,-0.0008514484507031739,0.34557709097862244,-0.6790158748626709,0.47751548886299133,1.5469187498092651,1.881891131401062,-4.946920394897461,1.9332282543182373,0.4239252507686615,2.795079469680786,0.8329818844795227,0.3842843472957611,-0.5637068152427673,0.20076234638690948,0.35308554768562317,1741516501.1260111,1741516500393,0.7144674072265625,1.4989678955078125,-1.2045474408993453,5.68265966796875,1.420487548828125
1741516501.133779,-0.011139392852783203,0.035098353458198374,0.007934371054158146,-0.9993523659553213,-0.25182026624679565,-0.17894965410232544,0.48959338665008545,6.189757823944092,-1.62444007396698,6.7980241775512695,-0.06771183013916016,0.02155303955078125,0.4488059878349304,-1.2470670938491821,0.005531395319849253,-0.9218356609344482,-0.06313420087099075,1.226467490196228,0.0020981156267225742,0.9729533791542053,-0.14095520973205566,-0.7845044732093811,0.16155488789081573,0.27141985297203064,0.7650492191314697,-0.3452802896499634,0.01312187872827053,-0.28934919834136963,0.04749370738863945,0.059319447726011276,0.7639048099517822,-0.4866664409637451,-0.0071600694209337234,-0.1667257845401764,0.365174263715744,-2.012573480606079,0.3901386559009552,-0.007025078404694796,-0.17962820827960968,3.118478536605835,-0.23756526410579681,0.01393976528197527,-0.14317405223846436,0.023911522701382637,0.7668752670288086,1.1403796672821045,1.0884805917739868,-3.5880866050720215,0.6815568804740906,0.4940383732318878,2.378777027130127,0.5396978855133057,-0.11347045749425888,0.4130042791366577,0.7494823336601257,-0.821985125541687,1741516501.1260111,1741516500393,0.7144674072265625,1.4989678955078125,-1.2045474408993453,5.68265966796875,1.420487548828125
1741516501.153801,-0.0005096197128295898,0.025725869636907442,0.018290029751743642,-0.9995017030716381,-0.5904259085655212,-0.5086286664009094,0.5166406035423279,-6.771635055541992,4.169012546539307,17.48630714416504,-0.07190799713134766,0.032616615295410156,0.39692530035972595,-1.2432523965835571,0.005531395319849253,-0.9222171306610107,-0.005912871100008488,1.223034143447876,0.0024795911740511656,0.9660868048667908,-0.13828489184379578,-0.7593270540237427,0.16079194843769073,0.26722362637519836,0.7574197053909302,-0.335845410823822,0.02249620296061039,-0.2660791873931885,0.05092698708176613,0.06237125024199486,0.8169298768043518,-0.479140967130661,-0.0220900010317564,-0.1402834802865982,0.41156789660453796,-2.605077028274536,0.2560971677303314,-0.002253748709335923,0.057029515504837036,3.8405213356018066,-0.0990201085805893,0.005592417903244495,-0.4412245750427246,0.1766786426305771,1.7092870473861694,-0.3610396385192871,-0.7660617828369141,0.703327476978302,0.5085269808769226,0.4896484613418579,0.7633374333381653,0.10522043704986572,0.3674428462982178,3.14420485496521,0.38525351881980896,-0.5612244009971619,1741516501.1260111,1741516500393,0.7144674072265625,1.4989678955078125,-1.2045474408993453,5.68265966796875,1.420487548828125
1741516501.173821,0.004031062126159668,0.02461983701236399,0.024909549457859746,-0.9993865007950083,-0.2344130128622055,0.01250251941382885,0.1829727739095688,9.752090454101562,1.6995289325714111,9.414417266845703,-0.07648563385009766,0.02727508544921875,0.3278782367706299,-1.2451597452163696,0.005912871100008488,-0.9214541912078857,0.0551232174038887,1.232571005821228,0.0024795911740511656,0.9588387608528137,-0.12302586436271667,-0.732623815536499,0.13866636157035828,0.22716869413852692,0.7940413355827332,-0.33760303258895874,0.02999318763613701,-0.2924010157585144,0.05741206929087639,0.08144503086805344,0.9363317489624023,-0.45267555117607117,-0.03131910413503647,-0.1417773962020874,-0.11365244537591934,-3.5840325355529785,-0.24049130082130432,0.026235239580273628,0.006164477206766605,4.041397571563721,0.629636287689209,0.010031680576503277,-0.45211106538772583,0.9171720147132874,0.6440871953964233,-1.1073418855667114,-1.8825620412826538,1.2439942359924316,-0.21015004813671112,0.18810521066188812,-1.9200578927993774,0.4909173250198364,1.11934494972229,6.370166778564453,1.5835566520690918,-0.3872230648994446,1741516501.1260111,1741516500393,0.7144674072265625,1.4989678955078125,-1.2045474408993453,5.68265966796875,1.420487548828125
1741516501.1938453,-0.0012780427932739258,0.02392426953868145,0.024188092631872236,-0.9994211151971287,0.07740528136491776,0.06690855324268341,-0.3077067732810974,-8.124492645263672,3.3133270740509033,14.64380168914795,-0.07877445220947266,0.02346038818359375,0.24319066107273102,-1.2539336681365967,0.005531395319849253,-0.9229800701141357,0.11196307092905045,1.2379117012023926,0.002861066721379757,0.9538795948028564,-0.11348897218704224,-0.7063019871711731,0.11310750246047974,0.1993209719657898,0.8054856061935425,-0.34018680453300476,0.03353063389658928,-0.3709849715232849,0.07839322835206985,0.1184481605887413,1.100366234779358,-0.40673887729644775,-0.03930113837122917,-0.10961893200874329,-0.14744730293750763,-4.31854772567749,-0.5336717367172241,-0.02375755086541176,-0.07536842674016953,3.777635097503662,0.35699552297592163,-0.008082639425992966,-0.27092358469963074,0.3071877658367157,1.8391458988189697,-1.184965968132019,-1.3662389516830444,0.6224799156188965,-0.06271042674779892,0.16267716884613037,-4.199854373931885,1.074373722076416,1.9524781703948975,8.575103759765625,2.3018219470977783,-0.23379643261432648,1741516501.2318704,1741516500493,0.8246399536132812,1.520689208984375,-2.2140118648939104,5.7338486328125,1.4242341308593751
1741516501.2138584,-0.01493823528289795,0.023970600721923214,0.011113710029444763,-0.9996508869352397,0.7354897856712341,-0.16065265238285065,-0.7255639433860779,-4.091024398803711,2.702443838119507,12.317728042602539,-0.08068180084228516,0.031472206115722656,0.15774014592170715,-1.2611817121505737,0.005531395319849253,-0.9214541912078857,0.16880293190479279,1.23753023147583,0.0024795911740511656,0.9523537158966064,-0.11387044936418533,-0.6773098111152649,0.10509651154279709,0.19398032128810883,0.8047226667404175,-0.34072890877723694,0.0322350338101387,-0.4808499217033386,0.10204470902681351,0.1504921019077301,1.2708858251571655,-0.3725178837776184,-0.01737206056714058,-0.05181500315666199,0.2622249722480774,-4.219326972961426,-0.5082178711891174,-0.016273625195026398,0.046432290226221085,3.750049114227295,-0.09182702004909515,0.01432741992175579,-0.110060915350914,-0.028635278344154358,1.2318017482757568,-0.25035905838012695,-0.05492944270372391,-0.04146392643451691,-0.04694278538227081,-0.017150036990642548,-5.833298683166504,1.1659588813781738,1.455132007598877,8.255558013916016,1.41838538646698,1.5350195169448853,1741516501.2318704,1741516500493,0.8246399536132812,1.520689208984375,-2.2140118648939104,5.7338486328125,1.4242341308593751
1741516501.233931,-0.03635275363922119,0.022873524435471464,-0.0040466725046570924,-0.9997301767584792,0.7510476112365723,0.07058306038379669,-1.0685570240020752,-3.510410785675049,-2.3576366901397705,11.233138084411621,-0.08792972564697266,0.02994537353515625,0.07839322835206985,-1.2615631818771362,0.005531395319849253,-0.9252689480781555,0.22182802855968475,1.238293170928955,0.0024795911740511656,0.951209306716919,-0.1192111074924469,-0.6284809708595276,0.11005569249391556,0.20962081849575043,0.8077744841575623,-0.3449924886226654,0.020887456834316254,-0.5930037498474121,0.12912946939468384,0.1508735716342926,1.3975356817245483,-0.3836064040660858,0.0008369208080694079,-0.2202608287334442,-0.022975578904151917,-3.90910267829895,0.09272894263267517,-0.008191411383450031,-0.19220896065235138,3.4629857540130615,0.09206102788448334,0.012212180532515049,-0.09649147838354111,-0.33863338828086853,2.6511025428771973,0.32234418392181396,0.8043885827064514,0.08601023256778717,-0.27350562810897827,-0.7245199680328369,-5.495632171630859,1.2245975732803345,-0.2682056128978729,5.911332607269287,-0.9427022337913513,0.3899410367012024,1741516501.2318704,1741516500493,0.8246399536132812,1.520689208984375,-2.2140118648939104,5.7338486328125,1.4242341308593751
1741516501.2539392,-0.057303786277770996,0.022012659123657106,-0.01228300536033038,-0.9996822348214576,0.3868984282016754,-0.24428392946720123,-1.194573163986206,0.4413191080093384,-2.1554291248321533,10.676209449768066,-0.09975624084472656,0.045586585998535156,0.012397955171763897,-1.2520263195037842,0.005531395319849253,-0.926413357257843,0.27141985297203064,1.2405821084976196,0.002861066721379757,0.9466315507888794,-0.12645913660526276,-0.5872815847396851,0.11348897218704224,0.22487983107566833,0.8031967878341675,-0.35541462898254395,0.006883473601192236,-0.6979095339775085,0.13866636157035828,0.12874799966812134,1.4574273824691772,-0.42698219418525696,-0.005418560467660427,-0.3817690312862396,0.4791025221347809,-3.0735723972320557,0.7419724464416504,-0.00200677034445107,-0.04044259339570999,3.2696590423583984,0.1123509407043457,0.020837420597672462,-0.37492454051971436,-0.2735109031200409,1.81692373752594,-0.021273404359817505,0.5500988960266113,-0.19230414927005768,-0.5970110893249512,-0.5598465800285339,-5.191544055938721,0.19651050865650177,-1.0800741910934448,2.2987959384918213,-2.2583909034729004,-0.1931067705154419,1741516501.2318704,1741516500493,0.8246399536132812,1.520689208984375,-2.2140118648939104,5.7338486328125,1.4242341308593751
1741516501.2739737,-0.07897937297821045,0.020266916584710918,-0.012913353612672221,-0.9997112069946111,0.0030582344625145197,0.033693715929985046,-0.8370866179466248,2.4293816089630127,-1.4598312377929688,6.445154190063477,-0.10318946838378906,0.038720130920410156,-0.032616160809993744,-1.2405821084976196,0.005149920005351305,-0.926413357257843,0.31910428404808044,1.2455412149429321,0.002861066721379757,0.9412909150123596,-0.11768520623445511,-0.5445563197135925,0.10776684433221817,0.22411687672138214,0.805867075920105,-0.37685465812683105,0.0008024509297683835,-0.7810711860656738,0.1337071806192398,0.09060044586658478,1.4463645219802856,-0.47399020195007324,0.004866059869527817,-0.0992240160703659,-0.13550391793251038,-2.16530442237854,0.7542957663536072,-0.03976566344499588,-0.018432682380080223,3.212111473083496,0.42553430795669556,-0.008742650970816612,-0.3110853135585785,0.2956952452659607,2.179400682449341,-0.3274715840816498,-0.06579897552728653,0.10429683327674866,-1.1850990056991577,-0.3173794746398926,-3.7286627292633057,-0.16702814400196075,-2.0496041774749756,-1.092703104019165,-2.2233123779296875,0.4694153070449829,1741516501.2318704,1741516500493,0.8246399536132812,1.520689208984375,-2.2140118648939104,5.7338486328125,1.4242341308593751
1741516501.2945397,-0.09436595439910889,0.020845128931108285,-0.009900403105597113,-0.9997336958501459,-0.15680237114429474,-0.00024044641759246588,-0.8018316030502319,-0.3390631079673767,-4.2890706062316895,9.006001472473145,-0.10891151428222656,0.038338661193847656,-0.08068207651376724,-1.233715534210205,0.005912871100008488,-0.9302281141281128,0.36335545778274536,1.2489745616912842,0.002861066721379757,0.9363317489624023,-0.11043716967105865,-0.5121309161186218,0.10700388997793198,0.22144655883312225,0.8062485456466675,-0.4047095477581024,-0.006746287923306227,-0.846684992313385,0.12493324279785156,0.057793546468019485,1.3776988983154297,-0.49807149171829224,0.012408783659338951,-0.14983290433883667,-0.0007240861305035651,-2.2858197689056396,0.4327285587787628,0.01299573015421629,-0.30008625984191895,2.8696391582489014,0.1603097766637802,0.015533631667494774,-0.35197362303733826,0.33346760272979736,1.336229681968689,-0.02412080578505993,-0.015018856152892113,0.04509850591421127,-1.3834604024887085,-0.37670841813087463,-3.061553955078125,-0.42935600876808167,-1.4795390367507935,-3.8089730739593506,-0.8420789241790771,0.23624145984649658,1741516501.334266,1741516500593,0.9363085327148438,1.52002587890625,-2.0660554212622166,5.777666015625,1.4246202392578124
1741516501.3140793,-0.10579943656921387,0.022694380762677307,-0.004927576086030613,-0.9997303056703418,-0.25501981377601624,0.19946517050266266,-0.6008871793746948,3.8774657249450684,0.07735446095466614,6.352143287658691,-0.11539649963378906,0.02384185791015625,-0.11463340371847153,-1.2276118993759155,0.005149920005351305,-0.9424353241920471,0.4087510406970978,1.2516448497772217,0.002861066721379757,0.9302281141281128,-0.10204470902681351,-0.4865720570087433,0.10700388997793198,0.22144655883312225,0.812352180480957,-0.433087557554245,-0.014077754691243172,-0.8848325610160828,0.11425192654132843,0.0394827201962471,1.270504355430603,-0.48268282413482666,0.01281240675598383,-0.17830801010131836,-0.34289589524269104,-1.484837532043457,0.37066686153411865,0.0031665649730712175,-0.6272435188293457,3.1401994228363037,0.24447046220302582,-0.001320398529060185,-0.4290110170841217,0.5983498692512512,1.6818058490753174,-0.02039981074631214,-0.011328691616654396,0.46270111203193665,-1.4817098379135132,-0.418447881937027,-1.6662839651107788,-0.5603430271148682,-0.8720592260360718,-5.613241672515869,1.1687021255493164,0.14687761664390564,1741516501.334266,1741516500593,0.9363085327148438,1.52002587890625,-2.0660554212622166,5.777666015625,1.4246202392578124
1741516501.334059,-0.11641931533813477,0.030713512503801686,7.420087461851436e-05,-0.9995282260366183,-0.22711940109729767,0.3950888216495514,-0.47901812195777893,4.224971771240234,-1.6907103061676025,7.590400695800781,-0.12035560607910156,0.01163482666015625,-0.12684062123298645,-1.2234156131744385,0.005149920005351305,-0.9546425342559814,0.44537270069122314,1.2524077892303467,0.002861066721379757,0.924124538898468,-0.086785688996315,-0.45834288001060486,0.10471503436565399,0.21801327168941498,0.8146410584449768,-0.4657474756240845,-0.019680244848132133,-0.8909361362457275,0.09708552807569504,0.02841992862522602,1.1324101686477661,-0.43994563817977905,0.013301401399075985,-0.15663902461528778,-0.37831905484199524,-0.4623798429965973,0.31243082880973816,0.0035099221859127283,-0.5804724097251892,2.1669774055480957,-0.0032465315889567137,0.007812389638274908,-0.3640635907649994,0.9143092632293701,1.4285612106323242,-0.1697702258825302,-0.2159799039363861,0.06603405624628067,-1.6398497819900513,-0.31967324018478394,-0.26690226793289185,-0.880020797252655,-0.6308342218399048,-7.274260520935059,2.174821615219116,-0.041904788464307785,1741516501.334266,1741516500593,0.9363085327148438,1.52002587890625,-2.0660554212622166,5.777666015625,1.4246202392578124
1741516501.3540988,-0.12049579620361328,0.03847043239428098,0.002746359189964726,-0.9992559648771665,-0.09826750308275223,0.42691850662231445,-0.1841730922460556,0.33772996068000793,0.38194626569747925,6.812964916229248,-0.12073707580566406,0.00782012939453125,-0.12188144028186798,-1.2180750370025635,0.005149920005351305,-0.9645609259605408,0.4667353332042694,1.2527892589569092,0.002861066721379757,0.918402373790741,-0.06694895774126053,-0.4228656589984894,0.09021896868944168,0.20351719856262207,0.8184558153152466,-0.4959758520126343,-0.01924540475010872,-0.8806362748146057,0.071908138692379,0.00858320016413927,0.9649423956871033,-0.3951316177845001,0.005358862690627575,-0.01591889001429081,-0.15147972106933594,0.4252829849720001,0.3209376931190491,0.002951472532004118,-0.43405771255493164,1.3028573989868164,0.0066002546809613705,-0.007827181369066238,-0.3418949842453003,1.030234932899475,1.90306556224823,-0.9248730540275574,-0.8207772970199585,0.11572085320949554,-1.5228172540664673,0.13008016347885132,0.9007208943367004,-1.242226243019104,-1.2168035507202148,-8.16964340209961,2.19205641746521,-0.5888698101043701,1741516501.334266,1741516500593,0.9363085327148438,1.52002587890625,-2.0660554212622166,5.777666015625,1.4246202392578124
