Freshhhhh-LC/Legged_odom/data/4/segments/booster_seg_9.87s.csv
time,yaw,projected_gravity_x,projected_gravity_y,projected_gravity_z,ang_vel_x,ang_vel_y,ang_vel_z,lin_acc_x,lin_acc_y,lin_acc_z,q_0,q_1,q_2,q_3,q_4,q_5,q_6,q_7,q_8,q_9,q_10,q_11,q_12,q_13,q_14,q_15,q_16,q_17,q_18,q_19,q_20,q_21,q_22,dq_0,dq_1,dq_2,dq_3,dq_4,dq_5,dq_6,dq_7,dq_8,dq_9,dq_10,dq_11,dq_12,dq_13,dq_14,dq_15,dq_16,dq_17,dq_18,dq_19,dq_20,dq_21,dq_22,mocap_time,mocap_timestamp,robot_x,robot_y,robot_yaw,ball_x,ball_y
1741516786.429588,3.236464738845825,0.02959916501490596,-0.10193265409200655,-0.9943508553122382,0.3720744252204895,0.27063417434692383,1.192110300064087,10.65432357788086,-17.4940185546875,28.96254539489746,0.4793243408203125,0.8272294998168945,-0.039101243019104004,-1.2829258441925049,0.005531395319849253,-0.7650492191314697,0.3774700462818146,1.3107736110687256,0.013542382046580315,0.7028687000274658,-0.13103684782981873,-0.5022125840187073,-0.08983749151229858,0.04558632895350456,0.9668498039245605,-0.3020387887954712,0.0020072462502866983,-0.7970931529998779,-0.050164032727479935,0.06084534898400307,0.7059205174446106,-0.23499707877635956,0.030932119116187096,1.2216435670852661,0.7090198993682861,1.3153655529022217,-0.156374990940094,-0.0022528639528900385,0.7716100215911865,0.041281141340732574,-0.07955466210842133,-0.008735967800021172,-0.9328795671463013,0.01836695894598961,-1.342138409614563,0.37420347332954407,1.0270246267318726,4.228964805603027,0.7727682590484619,0.1587158590555191,1.4196372032165527,-1.8374196290969849,-1.0125937461853027,-3.282733201980591,4.618159770965576,1.7735834121704102,1741516786.417259,1741516785673,-3.41922314453125,0.6274844970703125,-2.5765322885745103,-1.9259378662109374,-1.9679796142578125
1741516786.4319074,3.281659245491028,0.03460680964763524,-0.11110302356648363,-0.9932061653455427,0.12883692979812622,0.05010296031832695,1.4148731231689453,-5.656308650970459,2.2889175415039062,3.7201523780822754,0.5323495864868164,0.8539333343505859,0.04482337832450867,-1.298947811126709,0.005149920005351305,-0.7318608164787292,0.33588922023773193,1.3088661432266235,0.013542382046580315,0.6834134459495544,-0.1680399775505066,-0.536926805973053,-0.08220797777175903,0.11577782779932022,1.0645074844360352,-0.2405110001564026,0.008688103407621384,-0.7650492191314697,-0.07724879682064056,0.0871671661734581,0.7505531311035156,-0.09740157425403595,0.03754883259534836,0.598785936832428,0.6428202390670776,2.621032238006592,-0.40635499358177185,-0.099650539457798,0.9345044493675232,-2.3797600269317627,0.12523220479488373,-0.02738671749830246,-0.35716643929481506,-0.5837612152099609,-0.8472409844398499,-0.08481093496084213,1.6381137371063232,2.552032947540283,1.8164548873901367,-0.03665631636977196,0.6823197603225708,-1.064806342124939,1.0827807188034058,-0.24181286990642548,2.7133126258850098,-0.8149985671043396,1741516786.417259,1741516785673,-3.41922314453125,0.6274844970703125,-2.5765322885745103,-1.9259378662109374,-1.9679796142578125
1741516786.433938,3.344184994697571,0.052414427396800696,-0.1397851189117393,-0.9887936328332098,0.1592869609594345,0.5943349599838257,0.8188143968582153,-2.780796766281128,1.9352365732192993,7.549259662628174,0.6116962432861328,0.8722438812255859,0.1958876997232437,-1.3328990936279297,0.005531395319849253,-0.6769283413887024,0.22297245264053345,1.300473690032959,0.013160906732082367,0.6620507836341858,-0.17376211285591125,-0.6254291534423828,-0.06046387553215027,0.18978407979011536,1.2052719593048096,-0.2851567268371582,0.009984425269067287,-0.733386754989624,-0.10852979123592377,0.09060044586658478,0.7848859429359436,-0.13037468492984772,0.035881634801626205,0.7171382904052734,0.04053284227848053,3.029693841934204,-0.20454587042331696,0.0019059606129303575,1.130507469177246,-3.1377809047698975,-0.3866049349308014,-0.09444361925125122,-0.8333119750022888,0.8392118811607361,-2.298704147338867,-0.1559104323387146,1.3409916162490845,1.8172438144683838,-2.609818696975708,-0.08838850259780884,1.5043143033981323,-0.5072794556617737,-0.3924594819545746,-0.37070202827453613,-1.2344002723693848,0.33847981691360474,1741516786.417259,1741516785673,-3.41922314453125,0.6274844970703125,-2.5765322885745103,-1.9259378662109374,-1.9679796142578125
1741516786.4441333,-1.6276673078536987,-0.009723914277565039,-0.07005640829912768,-0.9974956366557943,0.34290775656700134,-0.044808872044086456,0.6347765922546387,-2.2090559005737305,0.6569358706474304,7.532539367675781,0.6227588653564453,0.18711376190185547,0.19474326074123383,-1.376387357711792,0.005531395319849253,-0.5285343527793884,0.17452506721019745,1.3306102752685547,0.012779430486261845,0.54264897108078,-0.1184481605887413,-0.6403067111968994,-0.005149920005351305,0.14629587531089783,0.8871213793754578,-0.3160167634487152,-0.001590905012562871,-0.5563820600509644,-0.12607766687870026,-0.08487831056118011,0.7032501697540283,-0.2909431457519531,-0.014837781898677349,-0.34394243359565735,-0.45838624238967896,0.07238241285085678,0.09184471517801285,-0.015444286167621613,0.03299881890416145,0.07012946903705597,-0.28009033203125,-0.02032948099076748,0.040945593267679214,-1.1994011402130127,1.9928324222564697,-0.15895944833755493,0.3396053612232208,-2.2977139949798584,-0.6721182465553284,-0.17981112003326416,-1.7580335140228271,-0.22902315855026245,0.1451171487569809,1.3336358070373535,-1.5115158557891846,0.21672773361206055,1741516786.417259,1741516785673,-3.41922314453125,0.6274844970703125,-2.5765322885745103,-1.9259378662109374,-1.9679796142578125
1741516786.464244,-1.6112042665481567,-0.01074872328896068,-0.07529766134943194,-0.9971031677529479,0.238881915807724,0.08974630385637283,0.92293781042099,-3.801215410232544,4.722280979156494,8.57756233215332,0.5991077423095703,0.17032909393310547,0.19283588230609894,-1.374098539352417,0.005531395319849253,-0.5289158225059509,0.17872129380702972,1.3252695798873901,0.012779430486261845,0.541886031627655,-0.17109178006649017,-0.5933852195739746,-0.009727626107633114,0.1684214472770691,0.8119707107543945,-0.3200792670249939,0.00011048245505662635,-0.5682078003883362,-0.12607766687870026,-0.09899290651082993,0.7501716613769531,-0.32308557629585266,-0.017385270446538925,-0.6822620630264282,-0.5010892748832703,-0.07420619577169418,0.1806267350912094,0.011526878923177719,-0.021200142800807953,0.2984773814678192,-0.33147719502449036,-0.0034552556462585926,-0.043780893087387085,-2.4359240531921387,2.5510878562927246,-0.24255982041358948,1.0606486797332764,-3.887690305709839,-0.07952339947223663,0.15400758385658264,-0.4055781364440918,-0.08701030164957047,-0.6337632536888123,2.4785735607147217,-1.6126528978347778,-0.01888468861579895,1741516786.417259,1741516785673,-3.41922314453125,0.6274844970703125,-2.5765322885745103,-1.9259378662109374,-1.9679796142578125
1741516786.484172,-1.5825375318527222,-0.009328241211997339,-0.07404747404276053,-0.9972110887388775,-0.10913199931383133,0.09208644926548004,1.3317939043045044,0.880630373954773,-0.25433242321014404,7.438981056213379,0.5819406509399414,0.15354347229003906,0.18863965570926666,-1.36990225315094,0.005149920005351305,-0.5277714133262634,0.18635080754756927,1.3248881101608276,0.013160906732082367,0.5395971536636353,-0.18825818598270416,-0.5376898050308228,-0.009346150793135166,0.19207294285297394,0.7059205174446106,-0.31576594710350037,0.001048724981956184,-0.5907148718833923,-0.13065537810325623,-0.09403372555971146,0.7864118218421936,-0.3571421802043915,-0.01591447740793228,-0.526340663433075,-0.48890870809555054,-0.34036558866500854,0.3181183338165283,-0.04637209326028824,0.05336325243115425,0.5449212193489075,0.022213004529476166,0.05344676226377487,-0.22201421856880188,-0.7445880770683289,2.5994646549224854,0.26995447278022766,1.007214069366455,-5.538635730743408,0.24053724110126495,0.02417938970029354,-1.0667842626571655,-0.15995804965496063,0.30109110474586487,1.732945203781128,-1.6295338869094849,0.405058890581131,1741516786.5194473,1741516785773,-3.4120693359375003,0.6305401000976563,3.1128977445536905,-1.8543970947265624,-2.048834228515625
1741516786.5043757,-1.5513290166854858,-0.0065044553502232065,-0.06078757786609736,-0.9981295318934161,-0.6978968977928162,0.27972784638404846,1.5583009719848633,7.377415657043457,1.6764540672302246,27.323013305664062,0.5655374526977539,0.13599586486816406,0.17910276353359222,-1.362654209136963,0.005531395319849253,-0.5266270041465759,0.19398032128810883,1.3260325193405151,0.013160906732082367,0.5327305793762207,-0.20809490978717804,-0.49458304047584534,0.005912871100008488,0.1977950781583786,0.6113145351409912,-0.28958016633987427,-0.0037999239284545183,-0.5922408103942871,-0.12417028844356537,-0.10204470902681351,0.8279926776885986,-0.37672966718673706,-0.0022159290965646505,-0.514911949634552,-0.5646531581878662,-0.4265522062778473,0.47628721594810486,0.004500859882682562,0.025529319420456886,0.44660621881484985,0.0751415565609932,-0.03697124123573303,-0.5514593124389648,-0.6544660925865173,2.090245008468628,0.7715530395507812,0.13305851817131042,-3.7743453979492188,1.8215645551681519,-0.37793678045272827,-0.18086490035057068,0.48060259222984314,-0.4981941878795624,1.9514656066894531,-0.914868950843811,0.3484500050544739,1741516786.5194473,1741516785773,-3.4120693359375003,0.6305401000976563,3.1128977445536905,-1.8543970947265624,-2.048834228515625
1741516786.5242352,-1.5183781385421753,-0.012255563921135658,-0.049611982824735154,-0.9986933725188993,-0.3408054709434509,-0.2737930119037628,1.5934046506881714,9.037980079650879,1.0816705226898193,11.587026596069336,0.5537118911743164,0.15430641174316406,0.16193637251853943,-1.3557876348495483,0.005531395319849253,-0.5231937170028687,0.1993209719657898,1.3397656679153442,0.013160906732082367,0.5220493078231812,-0.19016556441783905,-0.49305713176727295,0.008201723918318748,0.17795833945274353,0.614366352558136,-0.23742854595184326,0.004399967845529318,-0.5941481590270996,-0.11730372905731201,-0.08182650804519653,0.840962827205658,-0.38730373978614807,-0.011136195622384548,-0.4059561491012573,0.5206067562103271,-0.8966478705406189,0.45052671432495117,0.005967664532363415,0.2420540750026703,0.3065223693847656,1.1524211168289185,0.07833072543144226,-0.7449702620506287,1.0442392826080322,-0.49061232805252075,0.1087832823395729,-1.2902271747589111,0.22218428552150726,2.4505867958068848,0.560975193977356,0.2857426702976227,0.6907473206520081,1.3043270111083984,0.3972482979297638,-0.539738118648529,-0.20663990080356598,1741516786.5194473,1741516785773,-3.4120693359375003,0.6305401000976563,3.1128977445536905,-1.8543970947265624,-2.048834228515625
1741516786.5442204,-1.4995085000991821,-0.019590480501772315,-0.04615464537084125,-0.9987421898490129,-0.21251875162124634,-0.19535185396671295,0.9495769739151001,0.018476177006959915,-2.510558605194092,7.989070892333984,0.5510416030883789,0.16536998748779297,0.15583276748657227,-1.3569320440292358,0.005531395319849253,-0.5201418995857239,0.2004653960466385,1.3554061651229858,0.013542382046580315,0.5117494463920593,-0.17910276353359222,-0.49000534415245056,0.004005493130534887,0.12226291000843048,0.6124590039253235,-0.20710179209709167,0.008268788456916809,-0.5754558444023132,-0.071908138692379,-0.04177157208323479,0.84897381067276,-0.39004823565483093,0.004943625070154667,-0.15539804100990295,0.17222529649734497,-0.1498328000307083,-0.21298807859420776,-0.0030556642450392246,0.03513197973370552,0.042649805545806885,0.9273185729980469,0.0047807455994188786,-0.6803849935531616,0.703650176525116,0.45076650381088257,-0.3340870141983032,-2.643385410308838,-0.20866291224956512,1.306361436843872,1.1453242223069537e-05,0.8290364742279053,2.3959686756134033,2.1378674507141113,0.37546902894973755,-0.10043885558843613,0.8272595405578613,1741516786.5194473,1741516785773,-3.4120693359375003,0.6305401000976563,3.1128977445536905,-1.8543970947265624,-2.048834228515625
1741516786.5642786,-1.4916938543319702,-0.019294349832777176,-0.03328270589313519,-0.9992597207698114,-0.6806539297103882,0.10700494796037674,0.25275182723999023,-8.454036712646484,2.4605181217193604,13.589646339416504,0.5380716323852539,0.15926647186279297,0.1653696447610855,-1.3565505743026733,0.005531395319849253,-0.5247195959091187,0.1985580176115036,1.3657060861587524,0.013160906732082367,0.506027340888977,-0.14858472347259521,-0.4812313914299011,-0.0024795911740511656,0.09060044586658478,0.6033035516738892,-0.2072148323059082,0.002017860533669591,-0.5949110984802246,-0.024605173617601395,0.015449759550392628,0.8665217161178589,-0.39247041940689087,0.00371071370318532,-0.37508881092071533,-0.15872272849082947,0.5457649230957031,0.10168834775686264,-0.017624100670218468,-0.21675346791744232,-0.1765614002943039,0.7690012454986572,0.021829551085829735,-0.3946634531021118,1.4290388822555542,0.3017255961894989,-0.3678815960884094,-1.4406377077102661,-0.33787423372268677,-0.18035145103931427,-0.2443752884864807,-0.911049485206604,2.165572166442871,2.8922910690307617,1.1384166479110718,-0.10845253616571426,-0.26732566952705383,1741516786.5194473,1741516785773,-3.4120693359375003,0.6305401000976563,3.1128977445536905,-1.8543970947265624,-2.048834228515625
1741516786.5842476,-1.48721444606781,-0.0035876573399826446,-0.02763590259458629,-0.9996116173807672,-0.2310217171907425,0.6936269402503967,0.30924227833747864,-5.6062774658203125,1.7799016237258911,9.309050559997559,0.527008056640625,0.14820289611816406,0.1802472025156021,-1.3550246953964233,0.005912871100008488,-0.5239566564559937,0.18635080754756927,1.380202054977417,0.013542382046580315,0.5056458115577698,-0.13790340721607208,-0.4991607666015625,-0.010109102353453636,0.050164032727479935,0.6029220819473267,-0.21293650567531586,-0.006298177409917116,-0.6212329268455505,0.013542382046580315,0.05283436179161072,0.9317540526390076,-0.39638054370880127,-0.0035383214708417654,-0.2896880805492401,-0.23996983468532562,0.7501178979873657,0.05369693413376808,0.03488430753350258,0.07818897068500519,-0.7877938151359558,0.8663219213485718,-0.001881563337519765,0.03708351403474808,0.4512343108654022,-1.1087697744369507,-0.43889185786247253,-1.8966959714889526,-0.05525549501180649,-0.20784148573875427,-0.36367279291152954,-1.64726722240448,1.8955739736557007,1.519008755683899,3.394906759262085,-0.1577647179365158,-0.19494691491127014,1741516786.6299853,1741516785873,-3.3947236328125,0.6293935546875,2.9157722858585147,-1.7891774902343751,-2.126009521484375
1741516786.6043139,-1.4738439321517944,0.010252059584111715,-0.028321173473016565,-0.9995463002819804,0.07013686001300812,0.7323892116546631,0.6116894483566284,-3.358981132507324,0.4815012514591217,8.864123344421387,0.5144195556640625,0.14820289611816406,0.18940261006355286,-1.3554061651229858,0.005149920005351305,-0.5186160206794739,0.17490653693675995,1.3847798109054565,0.013160906732082367,0.5125123858451843,-0.12378881871700287,-0.5193789601325989,-0.020027466118335724,0.04406042397022247,0.6029220819473267,-0.21144667267799377,-0.003622485790401697,-0.6937133073806763,0.045204851776361465,0.050164032727479935,1.0240710973739624,-0.3927464187145233,0.0022248539607971907,-0.36835604906082153,0.011853275820612907,0.3069729208946228,-0.015340734273195267,-0.027025992050766945,0.13924694061279297,-0.7004715800285339,0.1724132001399994,0.004558066837489605,0.5159201622009277,0.5340251922607422,-0.8651864528656006,-0.2298101931810379,-0.3329504132270813,0.009862515144050121,0.15878988802433014,0.23909668624401093,-3.9184672832489014,1.379991888999939,-0.24253275990486145,4.830239772796631,0.22363683581352234,0.27060097455978394,1741516786.6299853,1741516785873,-3.3947236328125,0.6293935546875,2.9157722858585147,-1.7891774902343751,-2.126009521484375
1741516786.6243143,-1.4583271741867065,0.0262913058783724,-0.036496969494975884,-0.9989878570097298,0.42451319098472595,0.795866072177887,0.8557901978492737,3.957462787628174,0.4116089642047882,8.05525016784668,0.4999237060546875,0.15964794158935547,0.18978407979011536,-1.3550246953964233,0.005531395319849253,-0.5224307775497437,0.1661325991153717,1.381346583366394,0.013160906732082367,0.5197604298591614,-0.14095520973205566,-0.5300602912902832,-0.022697795182466507,0.029564354568719864,0.6033035516738892,-0.19714705646038055,-0.007844503968954086,-0.7578011751174927,0.05283436179161072,0.04711223021149635,1.1312657594680786,-0.3904958963394165,0.003928049933165312,-0.42486709356307983,0.37665265798568726,0.01448342576622963,-0.019205352291464806,0.002984982682392001,-0.26415327191352844,-0.5445876717567444,-0.2763613760471344,-0.0003049283113796264,0.437920480966568,-0.7703608870506287,-0.5834631323814392,-0.232167050242424,-0.6043331027030945,-0.021254895254969597,0.7626011371612549,-0.2579781413078308,-3.067283868789673,0.3161073923110962,-0.08536580950021744,5.245718479156494,0.10168657451868057,0.18424712121486664,1741516786.6299853,1741516785873,-3.3947236328125,0.6293935546875,2.9157722858585147,-1.7891774902343751,-2.126009521484375
1741516786.6444182,-1.4384008646011353,0.032730409995455886,-0.044605250724138214,-0.9984683729940403,0.36472558975219727,0.3288833200931549,0.934090256690979,-3.6582279205322266,8.166715621948242,10.17402172088623,0.4831390380859375,0.17833995819091797,0.18520638346672058,-1.3554061651229858,0.005531395319849253,-0.5281528830528259,0.16231784224510193,1.3775317668914795,0.013542382046580315,0.5243381261825562,-0.1348516047000885,-0.5407415628433228,-0.02536812424659729,0.03185320645570755,0.6048294901847839,-0.18118207156658173,-0.008522202260792255,-0.813878059387207,0.06427863240242004,0.04634927958250046,1.2006943225860596,-0.38954609632492065,0.006929392926394939,-0.4972279667854309,0.5780354142189026,-0.20435640215873718,-0.06486745923757553,0.0036491493228822947,-0.22989843785762787,-0.23762281239032745,-0.22386227548122406,0.004261321388185024,0.24426677823066711,0.32373321056365967,-0.4187300205230713,-0.1205226257443428,0.07945766299962997,0.16422654688358307,0.7568892240524292,0.1043894961476326,-2.5873515605926514,0.5485737919807434,0.006730976514518261,2.8410985469818115,-0.004869661759585142,0.04937998577952385,1741516786.6299853,1741516785873,-3.3947236328125,0.6293935546875,2.9157722858585147,-1.7891774902343751,-2.126009521484375
1741516786.6643627,-1.427005648612976,0.03481687503212507,-0.05191845061549242,-0.9980442173063697,0.3148118853569031,0.02468167617917061,0.7107161283493042,0.535319447517395,-1.470523715019226,8.55040454864502,0.4621572494506836,0.18711376190185547,0.1840619444847107,-1.3576951026916504,0.005531395319849253,-0.5251010656356812,0.15850308537483215,1.3744800090789795,0.013542382046580315,0.5228122472763062,-0.14591439068317413,-0.5457007884979248,-0.030708782374858856,0.016975661739706993,0.613603413105011,-0.16488881409168243,-0.008004920557141304,-0.8241779208183289,0.07381551712751389,0.05092698708176613,1.2117570638656616,-0.39247044920921326,0.0037105116061866283,-0.61125248670578,0.35600537061691284,-0.007029206492006779,-0.2094941884279251,0.008834075182676315,0.2119005173444748,-0.22732549905776978,-0.22009162604808807,-0.01733187958598137,-0.11952288448810577,-0.5679442286491394,-0.3720414936542511,-0.36598366498947144,-0.7531207203865051,0.3416958749294281,0.7590095400810242,-0.09372735023498535,-0.046156059950590134,0.43821853399276733,0.40686315298080444,0.14668956398963928,-0.147104874253273,-0.07745947688817978,1741516786.6299853,1741516785873,-3.3947236328125,0.6293935546875,2.9157722858585147,-1.7891774902343751,-2.126009521484375
1741516786.6844416,-1.4134405851364136,0.030337059305121355,-0.051914534702878615,-0.9981906350589056,-0.04054559767246246,-0.1651534140110016,0.6514313817024231,-2.8094499111175537,1.0989646911621094,7.511990547180176,0.4434652328491211,0.18749523162841797,0.18520638346672058,-1.358839511871338,0.005531395319849253,-0.5167086124420166,0.15850308537483215,1.374861478805542,0.013542382046580315,0.5193789601325989,-0.12645913660526276,-0.5571450591087341,-0.035667963325977325,0.01125352829694748,0.6265735626220703,-0.1610279530286789,-0.01221805065870285,-0.8009079098701477,0.07495994865894318,0.07419699430465698,1.1583504676818848,-0.39370834827423096,0.0026030754670500755,-0.5887682437896729,0.015604604035615921,0.032081715762615204,-0.02847604639828205,-0.01296792458742857,0.3513309359550476,0.03313285857439041,0.04069037362933159,0.010915237478911877,-0.21046382188796997,1.1023098230361938,-0.6220316290855408,-0.2234896421432495,-0.1351757049560547,0.8065804839134216,0.05483425408601761,-0.07939328998327255,1.3911725282669067,0.054759521037340164,1.202644944190979,-3.3537697792053223,-0.08672907948493958,-0.0855240747332573,1741516786.7237868,1741516785973,-3.406923828125,0.6173233032226563,-2.9769820996982532,-1.7245799560546875,-2.20028759765625
1741516786.7044165,-1.3966058492660522,0.027617159475753966,-0.05182738047302608,-0.9982741182339623,-0.015433453023433685,-0.09800802171230316,0.8879783749580383,-2.3975627422332764,1.3183215856552124,7.977492809295654,0.4308767318725586,0.18520641326904297,0.1848248988389969,-1.3573135137557983,0.005531395319849253,-0.5098420977592468,0.16079194843769073,1.373335599899292,0.013542382046580315,0.5178530812263489,-0.134470134973526,-0.5930037498474121,-0.04406042397022247,0.00667582219466567,0.656710147857666,-0.1695774644613266,-0.004839447792619467,-0.7303349375724792,0.07381551712751389,0.09708552807569504,1.0320820808410645,-0.4006911814212799,-0.0030831422191113234,-0.38907390832901,-0.049484170973300934,-0.011509507894515991,0.09024196118116379,-0.002655281685292721,0.3471386730670929,0.1619706004858017,-0.15306790173053741,-0.0033501300495117903,-0.06308536231517792,-0.6535040140151978,-1.975236177444458,-0.4856853783130646,-0.17647144198417664,1.5824284553527832,-0.4931873083114624,0.42747020721435547,3.6216068267822266,-0.11128959059715271,1.1703293323516846,-6.868528842926025,-0.44266751408576965,-0.2866353988647461,1741516786.7237868,1741516785973,-3.406923828125,0.6173233032226563,-2.9769820996982532,-1.7245799560546875,-2.20028759765625
1741516786.7245078,-1.3687442541122437,0.0283336080310936,-0.050045016484193475,-0.9983449819481426,-0.1590522676706314,0.21532386541366577,1.3713210821151733,4.8933634757995605,12.968035697937012,7.557458400726318,0.4175252914428711,0.17528820037841797,0.1840619444847107,-1.3569320440292358,0.005531395319849253,-0.509079098701477,0.1653696447610855,1.3710466623306274,0.013160906732082367,0.5205233693122864,-0.12645913660526276,-0.6212329268455505,-0.06046387553215027,0.026512550190091133,0.699053943157196,-0.19302166998386383,0.0035158651880919933,-0.6685358881950378,0.06961929053068161,0.11120012402534485,0.8623254895210266,-0.41289523243904114,-0.006083308719098568,-0.3790610730648041,-0.3015103042125702,-0.05736246705055237,0.06291691213846207,-0.02243778668344021,-0.09917610138654709,0.3828933835029602,-0.11251313239336014,-0.033533964306116104,0.1970270425081253,0.40617021918296814,-1.4468262195587158,-0.7673110961914062,1.0839769840240479,2.02099347114563,-1.2821074724197388,0.3829093277454376,2.8781330585479736,-0.3737873435020447,0.6429476737976074,-8.356606483459473,-0.3015441298484802,-0.04477063938975334,1741516786.7237868,1741516785973,-3.406923828125,0.6173233032226563,-2.9769820996982532,-1.7245799560546875,-2.20028759765625
1741516786.7444708,-1.3421562910079956,0.034306938040841575,-0.047836792956779575,-0.9982658339550002,-0.3380362093448639,0.534722626209259,1.2657454013824463,-3.8133842945098877,2.220076084136963,11.798104286193848,0.4041728973388672,0.15506935119628906,0.1813916265964508,-1.3576951026916504,0.005149920005351305,-0.5140383243560791,0.17185473442077637,1.3679949045181274,0.013542382046580315,0.5239566564559937,-0.14248111844062805,-0.6353475451469421,-0.03490501269698143,0.03681239113211632,0.724612832069397,-0.2363298386335373,0.008771778084337711,-0.6666285395622253,0.07000076025724411,0.0715266615152359,0.8745326995849609,-0.37504133582115173,-0.07858118414878845,-0.4065134525299072,-0.5821763873100281,-0.12833952903747559,-0.09292452782392502,-0.004075862467288971,-0.2458225041627884,0.3722718358039856,-0.19492873549461365,0.035569366067647934,0.13974472880363464,-0.8451566696166992,-0.2991429269313812,1.4880746603012085,0.4261780083179474,0.8580218553543091,-2.363253593444824,0.3945917785167694,-0.7920473217964172,0.35941511392593384,-1.8851873874664307,1.239258885383606,2.0478713512420654,-4.155130863189697,1741516786.7237868,1741516785973,-3.406923828125,0.6173233032226563,-2.9769820996982532,-1.7245799560546875,-2.20028759765625
1741516786.7645338,-1.3239067792892456,0.03849221664597745,-0.03826398968602046,-0.9985260218697294,-0.4055352509021759,0.18583306670188904,0.7068765759468079,-22.769973754882812,11.03381061553955,5.8166069984436035,0.3793773651123047,0.15506935119628906,0.182154580950737,-1.3565505743026733,0.005531395319849253,-0.5285343527793884,0.17490653693675995,1.366087555885315,0.013542382046580315,0.5277714133262634,-0.13866636157035828,-0.6383993029594421,-0.027656977996230125,0.06466010212898254,0.7192721366882324,-0.2892434000968933,0.009506813250482082,-0.691042959690094,0.04406042397022247,0.07343403995037079,0.8573662638664246,-0.3375339210033417,-0.09291021525859833,-0.6537497043609619,0.0464390330016613,0.03884602710604668,0.006746432278305292,-0.011912795715034008,-0.7905079126358032,0.23613743484020233,-0.22228345274925232,0.054609887301921844,0.371614009141922,0.14722611010074615,-0.1144866868853569,0.10126940160989761,1.2432600259780884,-0.24983860552310944,-2.5367770195007324,-0.07374371588230133,-0.40190085768699646,-1.0833154916763306,0.0940680131316185,-1.4406911134719849,1.8702013492584229,0.2735607624053955,1741516786.7237868,1741516785973,-3.406923828125,0.6173233032226563,-2.9769820996982532,-1.7245799560546875,-2.20028759765625
1741516786.7845163,-1.3182326555252075,0.04713412920631792,-0.046724523672423614,-0.9977951657286916,0.5007808208465576,0.4320807456970215,0.35619840025901794,4.748354434967041,3.402956962585449,14.833980560302734,0.3801403045654297,0.15087318420410156,0.18520638346672058,-1.3637986183166504,0.005912871100008488,-0.5483710765838623,0.17452506721019745,1.3565505743026733,0.012779430486261845,0.5392156839370728,-0.1371404528617859,-0.6353475451469421,-0.01735713705420494,0.08182650804519653,0.7352941036224365,-0.3309382200241089,-0.003376136999577284,-0.6368734240531921,0.026131074875593185,0.05855649709701538,0.8199816942214966,-0.3114855885505676,-0.028020847588777542,-0.0648946538567543,0.0017301448388025165,0.12266887724399567,-0.6334633827209473,0.014812756329774857,-0.9271665811538696,-0.08139849454164505,-0.704183042049408,-0.08307784795761108,0.8921405673027039,0.07864154130220413,0.06499514728784561,0.968484103679657,0.8597484827041626,0.8980546593666077,-2.0653233528137207,-0.5503212809562683,2.382732629776001,-0.7074989080429077,-0.9164485335350037,-1.5956997871398926,1.2568963766098022,2.570124864578247,1741516786.7237868,1741516785973,-3.406923828125,0.6173233032226563,-2.9769820996982532,-1.7245799560546875,-2.20028759765625
1741516786.8045728,-1.3097234964370728,0.043389518829984305,-0.062376050372531015,-0.9971091103764051,0.7445399761199951,-0.20166364312171936,0.5173080563545227,-6.542562484741211,2.303030014038086,10.77324390411377,0.3416109085083008,0.16536998748779297,0.18558785319328308,-1.3744800090789795,0.005531395319849253,-0.5651560425758362,0.17376211285591125,1.3431990146636963,0.013160906732082367,0.5548561811447144,-0.13866636157035828,-0.6395437717437744,0.00019073777366429567,0.1180666834115982,0.7455939650535583,-0.37547287344932556,0.0044504618272185326,-0.6345845460891724,0.011635004542768002,0.05703059583902359,0.8005264401435852,-0.31047680974006653,-0.041572198271751404,-1.1508933305740356,0.3889920711517334,0.02710561454296112,-0.5258126258850098,-0.015346565283834934,-0.952947199344635,-0.018507657572627068,-0.894976019859314,0.027625281363725662,1.1199654340744019,-0.22978772222995758,-0.16949452459812164,0.528395414352417,2.096137762069702,0.4483816623687744,-2.209843158721924,0.5468021631240845,0.5025726556777954,-0.9401476383209229,0.15303996205329895,-0.7865643501281738,-0.04284562170505524,-0.6701824069023132,1741516786.8348107,1741516786073,-3.419935791015625,0.6128040771484375,-2.886128624650845,-1.6656434326171876,-2.271685302734375
1741516786.8246148,-1.2940248250961304,0.045491435295649696,-0.0766131654366645,-0.9960225661080757,0.6629908680915833,0.055752795189619064,1.0114496946334839,5.281620502471924,8.142901420593262,5.048400402069092,0.3381776809692383,0.15163612365722656,0.18673227727413177,-1.3744800090789795,0.006294346414506435,-0.5895704627037048,0.17376211285591125,1.3279399871826172,0.012397955171763897,0.576218843460083,-0.15583276748657227,-0.6422140598297119,0.008964675478637218,0.1653696447610855,0.7875562906265259,-0.4006124436855316,-0.002306356793269515,-0.5979629158973694,0.0009536888683214784,0.05970092490315437,0.7810711860656738,-0.3090582489967346,-0.029047314077615738,-0.18557056784629822,-0.3055136203765869,0.06643227487802505,-0.009857963770627975,0.08549300581216812,-1.2546594142913818,0.02174229547381401,-1.0771949291229248,-0.03933776170015335,1.4499871730804443,-0.4909561574459076,-0.3221381902694702,0.636844277381897,2.2984578609466553,2.5701537132263184,-1.0136804580688477,-0.5334885120391846,1.3127062320709229,-0.32349637150764465,-0.084373340010643,-1.2594572305679321,0.09282560646533966,0.7352297306060791,1741516786.8348107,1741516786073,-3.419935791015625,0.6128040771484375,-2.886128624650845,-1.6656434326171876,-2.271685302734375
1741516786.8459818,-1.2661069631576538,0.03374132334560627,-0.08653305858929071,-0.9956774341472592,0.32970529794692993,-0.38869497179985046,1.4487110376358032,-6.922165870666504,5.566600799560547,10.286321640014648,0.3141450881958008,0.15011024475097656,0.19092851877212524,-1.37295401096344,0.00476844422519207,-0.6101701259613037,0.17376211285591125,1.3122994899749756,0.013160906732082367,0.5991073250770569,-0.15316243469715118,-0.6708247661590576,0.028038453310728073,0.19398032128810883,0.8516441583633423,-0.3931591212749481,-0.008968451991677284,-0.5823224186897278,-0.007438773289322853,0.04940108209848404,0.7455939650535583,-0.31195980310440063,-0.031611811369657516,-0.7186816334724426,-0.11858835816383362,0.24981294572353363,0.14564333856105804,-0.07525497674942017,-1.0562803745269775,-0.0020168230403214693,-1.0296097993850708,0.09392067790031433,1.5386388301849365,0.13926294445991516,-1.5686100721359253,1.0213310718536377,1.175791621208191,3.2502355575561523,0.5482559204101562,-0.10795298218727112,1.1749811172485352,-0.5416836142539978,-0.6615467071533203,-1.4594624042510986,-0.12329505383968353,-0.22928202152252197,1741516786.8348107,1741516786073,-3.419935791015625,0.6128040771484375,-2.886128624650845,-1.6656434326171876,-2.271685302734375
1741516786.8645935,-1.238477349281311,0.03241256560030037,-0.08790559363205888,-0.9956013420036162,-0.048414990305900574,0.00270104524679482,1.2861390113830566,5.243771076202393,2.586555242538452,4.5868120193481445,0.2988862991333008,0.12951087951660156,0.19398032128810883,-1.361128330230713,0.005149920005351305,-0.6406881809234619,0.17414358258247375,1.3016180992126465,0.012779430486261845,0.6212329268455505,-0.1501106321811676,-0.7066834568977356,0.03757534176111221,0.1985580176115036,0.9222171306610107,-0.36480847001075745,-0.0028470030520111322,-0.5395971536636353,-0.022697795182466507,0.030708782374858856,0.7303349375724792,-0.3140583634376526,-0.032320354133844376,-0.422268807888031,-0.6051198244094849,0.10895953327417374,0.8257936835289001,0.008280860260128975,-1.5763128995895386,0.03629511594772339,-0.6284055709838867,-0.03666715696454048,1.3640249967575073,0.3622620403766632,-1.7095232009887695,0.41277819871902466,0.11070931702852249,3.5080478191375732,1.5714044570922852,0.2562822699546814,1.6323864459991455,-0.662976861000061,-1.0570906400680542,-1.0048730373382568,-0.14574649930000305,0.09431762248277664,1741516786.8348107,1741516786073,-3.419935791015625,0.6128040771484375,-2.886128624650845,-1.6656434326171876,-2.271685302734375
1741516786.8846493,-1.224082350730896,0.022299475167520746,-0.08388540406315156,-0.9962258641454832,-0.24472244083881378,-0.47064611315727234,0.5149268507957458,-13.095255851745605,4.918438911437988,13.256265640258789,0.2866792678833008,0.12493324279785156,0.20237277448177338,-1.3489210605621338,0.005531395319849253,-0.6692988276481628,0.17414358258247375,1.295133113861084,0.013160906732082367,0.6395437717437744,-0.1192111074924469,-0.7372015118598938,0.04291599988937378,0.1970321238040924,0.9794384837150574,-0.3274149000644684,-0.0014487713342532516,-0.5300602912902832,-0.02536812424659729,0.010872052982449532,0.699053943157196,-0.32624807953834534,-0.03391050547361374,-0.35721272230148315,-0.1719600111246109,0.4584501385688782,0.6793639659881592,-0.025262555107474327,-1.4102952480316162,-0.05146517977118492,-0.4050876796245575,0.009118245914578438,1.2164555788040161,1.3381625413894653,-1.4909567832946777,0.22466528415679932,-0.0720185935497284,2.549403429031372,1.853676676750183,0.01726571097970009,0.890647828578949,-0.13685612380504608,-0.9808028340339661,-1.2491321563720703,-0.6571377515792847,-0.22828711569309235,1741516786.8348107,1741516786073,-3.419935791015625,0.6128040771484375,-2.886128624650845,-1.6656434326171876,-2.271685302734375
1741516786.9046504,-1.2249246835708618,0.020971803944052115,-0.078088843362366,-0.9967257977907766,-0.23423700034618378,-0.06005575880408287,-0.022778257727622986,-1.0257498025894165,0.5787765383720398,6.724725246429443,0.2676048278808594,0.10318946838378906,0.22144655883312225,-1.3382397890090942,0.005531395319849253,-0.6948577165603638,0.1665140837430954,1.293988585472107,0.012779430486261845,0.6593804955482483,-0.10624094307422638,-0.7482643127441406,0.045204851776361465,0.1958876997232437,1.0011825561523438,-0.29546311497688293,0.0018655838211998343,-0.4819943606853485,-0.03681239113211632,0.0036240178160369396,0.6944762468338013,-0.34477078914642334,-0.04104869067668915,-0.5481535792350769,-0.6298666000366211,1.0208419561386108,0.8505314588546753,0.04145219177007675,-1.2021903991699219,-0.571107029914856,-0.05621466413140297,-0.05931137502193451,1.3816308975219727,0.6473602652549744,-0.2655537724494934,0.1516111046075821,-0.040105726569890976,0.8435419797897339,1.5220789909362793,0.22577442228794098,2.148012161254883,-0.5055391192436218,-0.31527677178382874,-0.3138449788093567,-1.0072113275527954,-0.2983497977256775,1741516786.8348107,1741516786073,-3.419935791015625,0.6128040771484375,-2.886128624650845,-1.6656434326171876,-2.271685302734375
1741516786.9247534,-1.226859450340271,0.013673232395150019,-0.07628531843688367,-0.9969922732433043,-0.030768316239118576,-0.4684396982192993,-0.09450752288103104,-22.10117530822754,9.876908302307129,12.426338195800781,0.2588310241699219,0.09937477111816406,0.248531311750412,-1.3264141082763672,0.005531395319849253,-0.7131685614585876,0.15316243469715118,1.293988585472107,0.012779430486261845,0.6818875670433044,-0.10013733059167862,-0.7413977384567261,0.053215838968753815,0.1985580176115036,0.9939345121383667,-0.27689671516418457,0.003720284206792712,-0.4869535267353058,-0.040245670825242996,-0.004386968910694122,0.6799801588058472,-0.36877524852752686,-0.05653132498264313,-0.301052063703537,-0.13064934313297272,1.404077172279358,0.6682088375091553,-0.00681091845035553,-0.7665351629257202,-0.9347509741783142,-0.008870141580700874,0.038780577480793,1.4489270448684692,0.1279413253068924,0.29356762766838074,0.4557499289512634,0.18607011437416077,-0.5484246611595154,0.8125743865966797,0.061504215002059937,-0.14919303357601166,-0.06766559928655624,-0.45966964960098267,-0.5172269344329834,-1.1268434524536133,-0.8388295769691467,1741516786.8348107,1741516786073,-3.419935791015625,0.6128040771484375,-2.886128624650845,-1.6656434326171876,-2.271685302734375
1741516786.9446976,-1.2262715101242065,0.012521328085748509,-0.08156901497110583,-0.9965890387414527,0.2672825753688812,0.004536226857453585,0.07311996072530746,2.6646759510040283,-9.556381225585938,6.358212471008301,0.24433517456054688,0.08487796783447266,0.27218279242515564,-1.3252695798873901,0.005531395319849253,-0.7257572412490845,0.1359960287809372,1.292462706565857,0.012779430486261845,0.7059205174446106,-0.1359960287809372,-0.726901650428772,0.06885633617639542,0.2153429538011551,0.9645609259605408,-0.27267202734947205,0.004639101214706898,-0.4541466534137726,-0.05092698708176613,-0.002861066721379757,0.689517080783844,-0.3875708281993866,-0.0627712607383728,-0.41936755180358887,-0.4402416944503784,1.114552617073059,0.11300397664308548,-0.01669880747795105,-0.669960618019104,-1.162717342376709,-0.13535082340240479,0.0008317888714373112,1.7122448682785034,-1.819730281829834,0.9017470479011536,0.7404555678367615,0.9387412667274475,-1.624953031539917,0.12237805128097534,0.09061384946107864,1.4116593599319458,-0.6584652662277222,0.003071662737056613,0.3846929669380188,-0.9809184074401855,0.006718502379953861,1741516786.8348107,1741516786073,-3.419935791015625,0.6128040771484375,-2.886128624650845,-1.6656434326171876,-2.271685302734375
1741516786.9648442,-1.212786316871643,0.00744532620513059,-0.08966430875124395,-0.9959442147298516,0.4341309368610382,-0.31648755073547363,0.5416062474250793,-8.23106575012207,-2.7773168087005615,12.597944259643555,0.23174667358398438,0.08258914947509766,0.28400853276252747,-1.3203104734420776,0.005531395319849253,-0.7421606779098511,0.12111848592758179,1.2859776020050049,0.011635004542768002,0.7318608164787292,-0.1668955534696579,-0.697528064250946,0.0715266615152359,0.23823148012161255,0.9222171306610107,-0.2779555320739746,0.00678000645712018,-0.4720759987831116,-0.057793546468019485,-0.007057297509163618,0.690280020236969,-0.4051087498664856,-0.06464121490716934,-0.3186766505241394,-0.04825039952993393,0.4790613651275635,0.2890467643737793,-0.052488405257463455,-0.8633328080177307,-0.9287922978401184,-0.5579538345336914,-0.02276279404759407,1.6310787200927734,-1.7169610261917114,1.340457558631897,0.14459174871444702,1.2276560068130493,-2.2737808227539062,-0.31912562251091003,0.14727069437503815,-0.8729025721549988,-0.29334720969200134,-0.27099093794822693,0.1216118335723877,-0.8448268175125122,-0.1182968020439148,1741516786.8348107,1741516786073,-3.419935791015625,0.6128040771484375,-2.886128624650845,-1.6656434326171876,-2.271685302734375
1741516786.9847388,-1.190311312675476,0.006044306775529725,-0.0963142859582705,-0.995332620120506,0.288019061088562,0.13361787796020508,1.2725439071655273,0.7596902847290039,4.959284782409668,9.32895565032959,0.20885753631591797,0.06733036041259766,0.28629741072654724,-1.3161141872406006,0.005531395319849253,-0.7600900530815125,0.11234454810619354,1.2749148607254028,0.013160906732082367,0.7551308274269104,-0.21190966665744781,-0.6654840707778931,0.07267109304666519,0.2794308364391327,0.8566033244132996,-0.2853315770626068,0.0010093915043398738,-0.44728007912635803,-0.06694895774126053,-0.02231631986796856,0.7028687000274658,-0.4205605983734131,-0.06068112328648567,-0.684206485748291,-0.46378403902053833,0.07843475788831711,0.3309999108314514,0.012165105901658535,-0.8616582155227661,-0.4365159273147583,-0.6681699752807617,0.0025336130056530237,1.6433875560760498,-2.0307703018188477,1.6188329458236694,0.04923543706536293,2.113917827606201,-3.4310600757598877,-0.3633342981338501,-0.3776373565196991,1.3328156471252441,-0.6290125250816345,-0.7696020007133484,0.5161841511726379,-0.8274542689323425,0.16405022144317627,1741516787.0316114,1741516786173,-3.438545166015625,0.6024096679687501,-2.9093630370366537,-1.614664306640625,-2.342466552734375
1741516787.00602,-1.1624990701675415,0.0007930579346033211,-0.09587470533735973,-0.9953930941771632,-0.062001440674066544,-0.19055800139904022,1.3480361700057983,3.2863247394561768,-4.5365824699401855,9.225841522216797,0.19398021697998047,0.060082435607910156,0.2821011543273926,-1.3065773248672485,0.005531395319849253,-0.777256429195404,0.11463340371847153,1.2669038772583008,0.012779430486261845,0.7734416723251343,-0.22793163359165192,-0.6242847442626953,0.07991912961006165,0.3084229826927185,0.777256429195404,-0.2947560250759125,-0.001225421903654933,-0.4499503970146179,-0.08030059933662415,-0.037193864583969116,0.7009612917900085,-0.4342900812625885,-0.0557592436671257,-0.45707055926322937,-0.2455221265554428,-0.2597546875476837,0.7040773034095764,-0.008764896541833878,-0.8363135457038879,0.24330535531044006,-0.5163695216178894,0.06635856628417969,1.1120214462280273,-0.49664703011512756,2.112400531768799,0.4264642000198364,1.4285982847213745,-4.057974338531494,-0.5281622409820557,-0.039886798709630966,-0.1456587165594101,-0.5510531663894653,-0.8496915698051453,-0.001359970890916884,-0.5927557945251465,0.4274493157863617,1741516787.0316114,1741516786173,-3.438545166015625,0.6024096679687501,-2.9093630370366537,-1.614664306640625,-2.342466552734375
1741516787.0247858,-1.1355170011520386,-0.00313166575843472,-0.08765281893027814,-0.9961461619677875,-0.44261178374290466,-0.04780921712517738,1.3479458093643188,0.24828104674816132,2.62394118309021,8.301899909973145,0.18139171600341797,0.047875404357910156,0.2748531401157379,-1.295896053314209,0.005531395319849253,-0.7978560924530029,0.12111848592758179,1.2619446516036987,0.013160906732082367,0.7898451089859009,-0.23289081454277039,-0.5807965397834778,0.08144503086805344,0.33360037207603455,0.6937133073806763,-0.3069935142993927,0.0033301804214715958,-0.4060807228088379,-0.08411535620689392,-0.057793546468019485,0.7036316394805908,-0.44305405020713806,-0.032784972339868546,-0.389420747756958,-0.337196946144104,-0.3909231424331665,0.7123932242393494,0.0022609145380556583,-1.0703957080841064,0.5093369483947754,-0.31043463945388794,-0.035549163818359375,1.1245782375335693,-0.1741517037153244,2.1166043281555176,0.0003855253744404763,1.233850359916687,-4.3110809326171875,-0.649614155292511,0.24178819358348846,2.4758870601654053,-0.05825163424015045,-0.9859686493873596,-0.03565323352813721,-0.5265240669250488,1.10968816280365,1741516787.0316114,1741516786173,-3.438545166015625,0.6024096679687501,-2.9093630370366537,-1.614664306640625,-2.342466552734375
1741516787.0448496,-1.1095229387283325,-0.008983941034189197,-0.07378653917773097,-0.9972335912110399,-0.7184719443321228,-0.23214074969291687,1.314587950706482,0.26176100969314575,0.032058682292699814,8.805612564086914,0.16765880584716797,0.049782752990722656,0.265697717666626,-1.2817814350128174,0.005531395319849253,-0.8180742859840393,0.1325627565383911,1.2649965286254883,0.013923857361078262,0.805867075920105,-0.2153429538011551,-0.5437933802604675,0.0707637146115303,0.35229265689849854,0.6162737607955933,-0.32801440358161926,0.0031046459916979074,-0.3774700462818146,-0.06656748056411743,-0.07915617525577545,0.6906614899635315,-0.4532030522823334,-0.02880880795419216,-0.41889050602912903,0.06549303978681564,-0.4595707952976227,0.9210144877433777,0.025876913219690323,-0.9748696088790894,0.8035318851470947,0.32791706919670105,0.07702993601560593,1.0889348983764648,0.9821124076843262,1.7251442670822144,-0.5305227041244507,0.828130304813385,-3.8289237022399902,-1.1683763265609741,-0.031057704240083694,1.1685138940811157,1.057421326637268,-1.0099048614501953,-0.5736094117164612,-0.4485885798931122,-0.15895169973373413,1741516787.0316114,1741516786173,-3.438545166015625,0.6024096679687501,-2.9093630370366537,-1.614664306640625,-2.342466552734375
1741516787.0648556,-1.0819350481033325,-0.011676856372711361,-0.054736858643377774,-0.9984325351925918,-0.9712430834770203,0.005325311329215765,1.4163336753845215,-1.3046804666519165,13.764697074890137,20.352048873901367,0.15583229064941406,0.044442176818847656,0.2584496736526489,-1.2726260423660278,0.005531395319849253,-0.8363851308822632,0.14744029939174652,1.2714815139770508,0.013542382046580315,0.8241779208183289,-0.2130540907382965,-0.5205233693122864,0.06504157930612564,0.35114824771881104,0.5766003131866455,-0.3468066155910492,0.008243036456406116,-0.3389410376548767,-0.0394827201962471,-0.07953765243291855,0.699053943157196,-0.4456145167350769,-0.019302470609545708,-0.38111284375190735,-0.1535540074110031,-0.36608967185020447,0.5621509552001953,0.005235543008893728,-0.8753526210784912,1.0497126579284668,0.3833158612251282,-0.030845779925584793,1.2620657682418823,-0.1410834789276123,1.0325548648834229,-0.16011102497577667,-0.37151557207107544,-1.044480800628662,-0.6434706449508667,0.26496270298957825,2.1254303455352783,1.1931064128875732,0.2850309908390045,0.5772253274917603,0.5120270848274231,0.8088035583496094,1741516787.0316114,1741516786173,-3.438545166015625,0.6024096679687501,-2.9093630370366537,-1.614664306640625,-2.342466552734375
1741516787.084855,-1.0560966730117798,-0.017041404013442587,-0.04472860799240287,-0.998853814217232,-0.2746627926826477,-0.23495858907699585,1.2603552341461182,-0.8529702425003052,-2.0247039794921875,7.666069030761719,0.15278053283691406,0.055123329162597656,0.2473868876695633,-1.2653779983520508,0.005531395319849253,-0.846684992313385,0.1680399775505066,1.2741519212722778,0.013160906732082367,0.8428702354431152,-0.21725031733512878,-0.501068115234375,0.0879301130771637,0.30231937766075134,0.5968185067176819,-0.3553232252597809,0.009194216690957546,-0.3286411762237549,-0.024605173617601395,-0.03643091395497322,0.7158388495445251,-0.4283285439014435,-0.02327548712491989,-0.1328687071800232,0.2407159060239792,-0.6918625235557556,0.3083738684654236,0.011110189370810986,-0.5520109534263611,1.4649676084518433,0.07148543745279312,-0.007783626206219196,1.2825185060501099,-0.060665812343358994,0.9408145546913147,0.9901066422462463,-2.583665370941162,1.0465830564498901,-0.49230659008026123,-0.18435253202915192,-0.06102268770337105,0.8878662586212158,2.455646276473999,0.953522801399231,0.9549035429954529,-0.20966114103794098,1741516787.0316114,1741516786173,-3.438545166015625,0.6024096679687501,-2.9093630370366537,-1.614664306640625,-2.342466552734375
1741516787.104887,-1.0422717332839966,-0.021618587417380444,-0.040857409418303,-0.9989310830951763,-0.18926727771759033,-0.06734956055879593,0.5846784114837646,3.6426868438720703,-5.02935266494751,12.383821487426758,0.13981056213378906,0.057030677795410156,0.22411687672138214,-1.2718631029129028,0.005531395319849253,-0.8615625500679016,0.18940261006355286,1.2672853469848633,0.013542382046580315,0.8619440197944641,-0.22297245264053345,-0.4850461483001709,0.07419699430465698,0.26874953508377075,0.6094071865081787,-0.3700754940509796,-0.01599271036684513,-0.35152971744537354,0.018120087683200836,0.050164032727479935,0.7921339869499207,-0.40078499913215637,-0.013857164420187473,-0.3778880834579468,0.0014309788821265101,-1.2067657709121704,-0.32573965191841125,-0.017667386680841446,-0.7918286323547363,1.1685329675674438,-0.47030025720596313,-0.011640239506959915,1.3005613088607788,-0.2655925452709198,0.6575319766998291,-0.8996168375015259,-1.4884140491485596,0.3026488125324249,-0.8533248901367188,-1.2759901285171509,-1.2872077226638794,2.1400158405303955,4.051788330078125,4.6335649490356445,1.3712557554244995,0.74235999584198,1741516787.1420126,1741516786373,-3.417388671875,0.57046826171875,-3.0994659203273205,-1.5277749023437501,-2.480748291015625
1741516787.1249385,-1.0377720594406128,-0.018098442767725764,-0.039338764621060625,-0.9990620140749382,-0.006955310702323914,0.20751985907554626,0.09374877065420151,-7.617581844329834,3.335728406906128,11.213400840759277,0.12302589416503906,0.058938026428222656,0.1981765478849411,-1.2699556350708008,0.005531395319849253,-0.8779659867286682,0.19092851877212524,1.2569855451583862,0.013542382046580315,0.889028787612915,-0.22487983107566833,-0.4842832088470459,0.0558861680328846,0.23327229917049408,0.612840473651886,-0.378652960062027,-0.021889343857765198,-0.43202105164527893,0.048638131469488144,0.1356145590543747,0.9447242021560669,-0.3851807117462158,0.0006614832673221827,-0.4816751778125763,0.0057883779518306255,-1.3020503520965576,0.1599920243024826,0.013138922862708569,-0.823845624923706,0.19135122001171112,-0.7119172811508179,0.016088178381323814,1.829271674156189,0.07817279547452927,-0.07770078629255295,-0.9069865942001343,-1.6727180480957031,0.28949058055877686,-0.34374895691871643,-0.2251424491405487,-4.529382705688477,1.372782588005066,3.97129225730896,7.916966438293457,0.5693340301513672,0.5019128918647766,1741516787.1420126,1741516786373,-3.417388671875,0.57046826171875,-3.0994659203273205,-1.5277749023437501,-2.480748291015625
1741516787.1449645,-1.0425652265548706,-0.008730096672640346,-0.04431297562509696,-0.9989795521447553,0.24394556879997253,0.46857500076293945,-0.24140289425849915,0.7276859879493713,-1.2397692203521729,8.29553508758545,0.11921119689941406,0.058938026428222656,0.1665140837430954,-1.2676668167114258,0.005531395319849253,-0.8958953022956848,0.1966506391763687,1.2463041543960571,0.013542382046580315,0.9206912517547607,-0.21725031733512878,-0.49458304047584534,0.04482337832450867,0.20542457699775696,0.6265735626220703,-0.38136327266693115,-0.019263355061411858,-0.5453193187713623,0.071908138692379,0.15621423721313477,1.1358433961868286,-0.4057677686214447,-0.015020654536783695,-0.13992252945899963,-0.01343696191906929,-1.7118557691574097,0.12212002277374268,0.008363335393369198,-0.9181533455848694,0.3954550325870514,-0.6683290004730225,-0.002886011265218258,2.0326623916625977,0.37952858209609985,-0.5947184562683105,-0.6032649278640747,-1.2237982749938965,0.7230975031852722,-0.143378347158432,0.21790988743305206,-5.777969837188721,1.117645263671875,0.5713121294975281,9.531726837158203,-1.3251471519470215,-0.83141028881073,1741516787.1420126,1741516786373,-3.417388671875,0.57046826171875,-3.0994659203273205,-1.5277749023437501,-2.480748291015625
1741516787.1650045,-1.0445820093154907,-0.0013840910051880983,-0.04906997651638682,-0.9987943840935283,0.24615947902202606,0.30485081672668457,-0.059047117829322815,0.050497084856033325,-0.7510711550712585,10.760714530944824,0.09479713439941406,0.06275272369384766,0.12340734153985977,-1.2642335891723633,0.005531395319849253,-0.9130617380142212,0.212672621011734,1.239819049835205,0.013542382046580315,0.9466315507888794,-0.21076524257659912,-0.5102235674858093,0.03528648987412453,0.17986571788787842,0.6406881809234619,-0.38661518692970276,-0.013493520207703114,-0.6624323129653931,0.07724879682064056,0.14476996660232544,1.2979705333709717,-0.4520169198513031,-0.018224654719233513,-0.6484167575836182,0.08657044917345047,-2.1868138313293457,0.23201528191566467,0.0007816959405317903,-0.8330804109573364,1.2525471448898315,-0.39745259284973145,-0.0012303905095905066,1.58845853805542,0.20414353907108307,-0.73814857006073,-0.21738865971565247,-1.3683055639266968,0.6975049376487732,-0.26138490438461304,0.3526538014411926,-5.590281963348389,0.03198644146323204,-0.6035682559013367,7.607531547546387,-2.3328564167022705,0.06275206059217453,1741516787.1420126,1741516786373,-3.417388671875,0.57046826171875,-3.0994659203273205,-1.5277749023437501,-2.480748291015625
1741516787.1849918,-1.0399709939956665,0.00539689033199583,-0.05453481726721382,-0.9984972845633463,0.23612132668495178,0.3159197270870209,0.3482723832130432,0.9602213501930237,-4.133236408233643,9.88127326965332,0.07801151275634766,0.06656742095947266,0.07610437273979187,-1.2604187726974487,0.005531395319849253,-0.927176296710968,0.24166475236415863,1.23600435256958,0.013160906732082367,0.9618905782699585,-0.21152819693088531,-0.5117494463920593,0.03757534176111221,0.15774014592170715,0.6605249047279358,-0.3971802890300751,-0.020236842334270477,-0.7391088604927063,0.07267109304666519,0.1337071806192398,1.3757915496826172,-0.499297559261322,-0.00969275739043951,-0.5059455037117004,0.1191619411110878,-2.3577518463134766,0.27000126242637634,0.0022540788631886244,-0.6419711709022522,2.0017781257629395,-0.22208265960216522,-0.0014271569671109319,0.8915625810623169,0.09071935713291168,-0.0803050547838211,0.15909482538700104,-0.9456348419189453,0.925349771976471,-0.6188939809799194,-0.6255477070808411,-3.5258476734161377,-0.12822531163692474,-0.4421899616718292,3.0389153957366943,-2.3590424060821533,0.4391934275627136,1741516787.1420126,1741516786373,-3.417388671875,0.57046826171875,-3.0994659203273205,-1.5277749023437501,-2.480748291015625
1741516787.2050626,-1.0238288640975952,0.003844754844107579,-0.051139971785732145,-0.998684094769684,-0.20495493710041046,-0.018891969695687294,0.8039433360099792,1.837454080581665,0.4305724799633026,9.056315422058105,0.060463905334472656,0.08373355865478516,0.03185320645570755,-1.2550780773162842,0.005531395319849253,-0.9370946884155273,0.2767605185508728,1.23905611038208,0.013542382046580315,0.9649423956871033,-0.2130540907382965,-0.5140383243560791,0.04406042397022247,0.1497291475534439,0.6807430982589722,-0.41816720366477966,-0.03366726264357567,-0.7681010365486145,0.07419699430465698,0.13218127191066742,1.3433661460876465,-0.5441855192184448,0.0004573696933221072,-0.540497899055481,0.5722063779830933,-2.1689541339874268,0.3198000192642212,-0.04575515538454056,-0.5072453022003174,2.3976387977600098,0.21115942299365997,0.038733914494514465,0.06946392357349396,-0.09544795751571655,-0.14295002818107605,0.36099445819854736,-0.4669785797595978,1.0818471908569336,-1.0312412977218628,-0.4571554362773895,-0.9233248829841614,0.08388210833072662,0.06777103990316391,-2.4019744396209717,-2.212531328201294,0.4321971833705902,1741516787.2443109,1741516786473,-3.407564453125,0.5307529296875,-3.001684251729589,-1.483475830078125,-2.5468603515625
1741516787.225019,-1.0025216341018677,0.00010522083883781456,-0.04462886431516535,-0.9990036303229902,-0.34366798400878906,-0.14138999581336975,1.1127641201019287,1.2534260749816895,3.0240728855133057,5.582509517669678,0.041771888732910156,0.09136295318603516,-0.0020981156267225742,-1.2535521984100342,0.005531395319849253,-0.9435797929763794,0.31376364827156067,1.2451597452163696,0.013542382046580315,0.959220290184021,-0.21076524257659912,-0.5205233693122864,0.04749370738863945,0.1371404528617859,0.7150759100914001,-0.4439677298069,-0.02517946995794773,-0.7406347990036011,0.07038223743438721,0.13866636157035828,1.196879506111145,-0.583593487739563,-0.00402322830632329,-0.5812140107154846,0.33125942945480347,-1.4871689081192017,0.06445040553808212,0.023922689259052277,-0.2835116386413574,2.442356586456299,0.4795228838920593,-0.0008688981761224568,-0.3768218457698822,0.1924360990524292,-0.3330714702606201,0.09747620671987534,-0.7047094702720642,1.7635239362716675,-1.3914793729782104,0.5819031000137329,1.66618812084198,-0.3041176497936249,0.38384950160980225,-7.980146408081055,-1.963890552520752,-0.41549959778785706,1741516787.2443109,1741516786473,-3.407564453125,0.5307529296875,-3.001684251729589,-1.483475830078125,-2.5468603515625
1741516787.2450988,-0.983390212059021,-0.002985179414414042,-0.03774608384439025,-0.9992829038156692,-0.35040920972824097,-0.07458321750164032,0.872454047203064,-6.165867805480957,8.698540687561035,3.776226043701172,0.031472206115722656,0.09746742248535156,-0.026131074875593185,-1.2531707286834717,0.005149920005351305,-0.9504463076591492,0.34542611241340637,1.2516448497772217,0.013923857361078262,0.9531166553497314,-0.1840619444847107,-0.5376898050308228,0.02689402550458908,0.14171816408634186,0.763523280620575,-0.474529892206192,-0.012784774415194988,-0.6807430982589722,0.0551232174038887,0.14095520973205566,0.9618905782699585,-0.6229277849197388,-0.009784857742488384,-0.3344680070877075,0.2217927873134613,-1.2262343168258667,0.018186083063483238,-0.023125726729631424,-0.3352099359035492,1.9872024059295654,0.33936819434165955,0.002518636640161276,-0.3857708275318146,1.5687849521636963,-0.871677041053772,-0.9987500905990601,0.38557615876197815,2.515047073364258,-1.5616592168807983,0.6250214576721191,3.1174681186676025,-0.9348722696304321,0.0065776691772043705,-11.918700218200684,-1.987014651298523,-0.09058017283678055,1741516787.2443109,1741516786473,-3.407564453125,0.5307529296875,-3.001684251729589,-1.483475830078125,-2.5468603515625
1741516787.265041,-0.9795795679092407,-0.004704607059502913,-0.03585451496281397,-0.9993459463214913,-0.13925842940807343,-0.2996208667755127,0.10311824828386307,-19.19793701171875,-1.6078165769577026,4.839807987213135,0.02155303955078125,0.10280799865722656,-0.03643091395497322,-1.2546966075897217,0.005149920005351305,-0.962272047996521,0.361829549074173,1.2489745616912842,0.013923857361078262,0.9477760195732117,-0.14324407279491425,-0.5453193187713623,0.06237125024199486,0.12607766687870026,0.8218890428543091,-0.5016034245491028,0.010615355335175991,-0.6227588057518005,0.032616160809993744,0.09632257372140884,0.9359502792358398,-0.5575717687606812,0.02638966031372547,-0.2762266993522644,0.2199883759021759,-0.39763614535331726,-0.33343878388404846,-0.02552170865237713,-0.5523912310600281,0.8572747111320496,-0.2572189271450043,0.056044913828372955,-0.40805116295814514,1.978398084640503,-0.012416794896125793,2.211097002029419,-0.8140336871147156,2.647418737411499,-1.2130682468414307,1.1862971782684326,2.791748523712158,-0.2762123942375183,-2.6763293743133545,1.1866470575332642,3.3114736080169678,0.8758524656295776,1741516787.2443109,1741516786473,-3.407564453125,0.5307529296875,-3.001684251729589,-1.483475830078125,-2.5468603515625
1741516787.2850735,-0.9922348260879517,0.0036326005790778327,-0.0269805200802097,-0.9996293591873111,-0.4487345218658447,0.27877312898635864,-0.6431213617324829,1.1589508056640625,8.172112464904785,-1.7584447860717773,-0.00209808349609375,0.08792972564697266,-0.01773861236870289,-1.2546966075897217,0.005531395319849253,-0.9649423956871033,0.3580147922039032,1.2455412149429321,0.013160906732082367,0.9359502792358398,-0.1180666834115982,-0.5392156839370728,0.056267641484737396,0.16193637251853943,0.8451590538024902,-0.5214921832084656,-0.004050598479807377,-0.6174181699752808,0.022697795182466507,0.10051880776882172,0.9199283123016357,-0.5270455479621887,0.011692749336361885,-0.7272188067436218,-0.13241373002529144,1.1935597658157349,0.09367591142654419,0.03785473480820656,-0.06169115751981735,-0.402698814868927,-0.2395087331533432,-0.06764379888772964,-0.6515899300575256,1.0181785821914673,0.07738390564918518,-0.7769775390625,2.0982589721679688,1.152961015701294,-0.8607478141784668,-0.9158172011375427,0.14883045852184296,-0.8350089192390442,1.020181655883789,-1.7353172302246094,1.1775586605072021,-0.5505555272102356,1741516787.2443109,1741516786473,-3.407564453125,0.5307529296875,-3.001684251729589,-1.483475830078125,-2.5468603515625
1741516787.3050997,-1.0107086896896362,0.01192446848895096,-0.03126156543242931,-0.999440104047246,0.33757051825523376,0.5070743560791016,-0.8873635530471802,-1.871024489402771,12.112282752990723,11.085039138793945,-0.00057220458984375,0.07190799713134766,0.03032730519771576,-1.2485930919647217,0.00476844422519207,-0.9603646993637085,0.3412298858165741,1.23905611038208,0.013160906732082367,0.9317540526390076,-0.11577782779932022,-0.5357823967933655,0.0707637146115303,0.1989395022392273,0.8749141693115234,-0.5223945379257202,-0.00278613087721169,-0.5556191205978394,0.02193484455347061,0.11425192654132843,0.8947508931159973,-0.5039615631103516,-0.012655272148549557,0.009492069482803345,-0.386679083108902,2.3792898654937744,0.40839052200317383,-0.050718069076538086,0.2591182291507721,-1.1091039180755615,-0.46994224190711975,-0.02158474363386631,-0.2212960124015808,-0.059204619377851486,0.18412131071090698,0.5522570610046387,1.8767637014389038,1.788726806640625,0.1480521261692047,0.24470755457878113,3.299417495727539,0.3554697036743164,0.3438200056552887,-0.6606545448303223,1.1618045568466187,-1.5282058715820312,1741516787.3387284,1741516786573,-3.402083984375,0.4866868286132813,-3.040626485658283,-1.4388240966796875,-2.6130842285156253
1741516787.3251426,-1.0227822065353394,0.013450279375812618,-0.04305211645304074,-0.9989822847546529,0.563612699508667,-0.10567133873701096,-0.6626247763633728,-1.0763152837753296,-0.21368174254894257,11.589187622070312,-0.01964569091796875,0.08258914947509766,0.07686731964349747,-1.2619446516036987,0.008201723918318748,-0.9531166553497314,0.33588922023773193,1.2283748388290405,0.012397955171763897,0.9225986003875732,-0.12455176562070847,-0.5392156839370728,0.07343403995037079,0.24013885855674744,0.925650417804718,-0.4955122768878937,-0.007292614318430424,-0.5422675013542175,0.03147173300385475,0.14591439068317413,0.8924620151519775,-0.4922756254673004,-0.029250387102365494,-0.42146995663642883,0.2567516267299652,2.3439478874206543,-1.096614122390747,0.12730634212493896,0.29705145955085754,-0.2873978316783905,-0.747217059135437,0.01682833582162857,-0.6291800141334534,-0.6695160865783691,-0.4255259335041046,-0.04963855445384979,2.0809409618377686,2.684885025024414,1.5862771272659302,-0.37675741314888,0.639220654964447,0.3028848171234131,1.8498505353927612,0.00707411440089345,0.6068335771560669,-0.019135016947984695,1741516787.3387284,1741516786573,-3.402083984375,0.4866868286132813,-3.040626485658283,-1.4388240966796875,-2.6130842285156253
1741516787.3451385,-1.0164793729782104,0.01376992251425966,-0.05797693458861348,-0.9982229531971598,0.7165835499763489,0.0753088891506195,0.4933408796787262,8.701518058776855,2.1492550373077393,7.638452529907227,-0.039101600646972656,0.08602237701416016,0.12417028844356537,-1.2741519212722778,0.005149920005351305,-0.9485389590263367,0.3236820101737976,1.2154046297073364,0.011635004542768002,0.9187838435173035,-0.1504921019077301,-0.5655375123023987,0.07343403995037079,0.27180132269859314,1.021400809288025,-0.45397910475730896,-0.007483820430934429,-0.5033569931983948,0.03185320645570755,0.16994735598564148,0.8882657885551453,-0.4729766547679901,-0.006697415374219418,-0.5200270414352417,0.06670769304037094,2.238436698913574,-0.7635174989700317,-0.009515015408396721,0.22146178781986237,-0.7800262570381165,-0.9085837006568909,-0.07211162149906158,-0.34262600541114807,-1.2344452142715454,-1.6344424486160278,-0.03353485092520714,1.2397139072418213,5.066071033477783,2.0602829456329346,0.13189776241779327,1.6778606176376343,0.028965862467885017,1.140660047531128,-0.4238262176513672,0.9501069784164429,0.42341485619544983,1741516787.3387284,1741516786573,-3.402083984375,0.4866868286132813,-3.040626485658283,-1.4388240966796875,-2.6130842285156253
1741516787.3652139,-1.0006297826766968,0.005603015442427041,-0.06434107361876816,-0.9979122368542918,0.26956722140312195,-0.29273736476898193,0.8687339425086975,-2.381519079208374,-2.3656065464019775,12.675548553466797,-0.052453041076660156,0.09823036193847656,0.17452506721019745,-1.2760592699050903,0.005531395319849253,-0.9462500810623169,0.3061341345310211,1.2054862976074219,0.013160906732082367,0.9130617380142212,-0.17528800666332245,-0.619325578212738,0.07534141838550568,0.28858625888824463,1.1381323337554932,-0.4183909595012665,0.00479935435578227,-0.47856107354164124,0.03185320645570755,0.1813916265964508,0.8726252913475037,-0.46123000979423523,-0.027024585753679276,-0.42307552695274353,0.30111995339393616,2.5466506481170654,-0.08960330486297607,-0.0026921702083200216,0.04731464758515358,-1.4385193586349487,-0.5159544348716736,0.07257897406816483,-0.3411772847175598,-1.124204158782959,-2.692723512649536,0.025570040568709373,0.9337480664253235,5.772955417633057,1.6859748363494873,0.48984766006469727,1.6993786096572876,0.0012102412292733788,0.3275531828403473,-0.6030013561248779,0.5529196262359619,-0.5770808458328247,1741516787.3387284,1741516786573,-3.402083984375,0.4866868286132813,-3.040626485658283,-1.4388240966796875,-2.6130842285156253
1741516787.3851893,-0.9828208684921265,0.005205144418548037,-0.06315618483056121,-0.9979900815084437,-0.11807245016098022,-0.017863700166344643,0.8443558812141418,3.4649887084960938,2.431178331375122,12.9694242477417,-0.06580448150634766,0.09098148345947266,0.2313649207353592,-1.2737704515457153,0.005531395319849253,-0.9477760195732117,0.265697717666626,1.2054862976074219,0.013160906732082367,0.9092469811439514,-0.19321736693382263,-0.6780728101730347,0.08297093212604523,0.290875107049942,1.2331197261810303,-0.39583855867385864,0.0005554712261073291,-0.4331654906272888,0.03147173300385475,0.1832990050315857,0.8501182794570923,-0.4638963043689728,-0.022210892289876938,-0.41970184445381165,-0.1141105592250824,2.7866287231445312,0.20818042755126953,-0.0007747575873509049,-0.028482140973210335,-2.8314976692199707,0.03629767894744873,0.026589881628751755,-0.20837320387363434,-0.7433061599731445,-2.904160261154175,0.5352910757064819,-0.0993492603302002,4.394131183624268,1.0354509353637695,-0.20805267989635468,1.980771780014038,-0.0386006124317646,0.12723787128925323,-1.3678460121154785,-0.3044392764568329,-0.05272174999117851,1741516787.3387284,1741516786573,-3.402083984375,0.4866868286132813,-3.040626485658283,-1.4388240966796875,-2.6130842285156253
1741516787.4052248,-0.9692631959915161,0.0011819707737230627,-0.05623460935687258,-0.9984168826975884,-0.38242942094802856,-0.08951310813426971,0.624190628528595,-0.0606590211391449,2.0681960582733154,8.893272399902344,-0.06961917877197266,0.08907413482666016,0.2943083941936493,-1.2688112258911133,0.005531395319849253,-0.9470130205154419,0.2138170450925827,1.211971402168274,0.013160906732082367,0.9096284508705139,-0.2004653960466385,-0.7295719981193542,0.09784847497940063,0.28820478916168213,1.276607871055603,-0.38513070344924927,-0.0016278993571177125,-0.3923476040363312,0.03032730519771576,0.182154580950737,0.813115119934082,-0.482201486825943,-0.022071218118071556,-0.15216095745563507,-0.09900244325399399,2.8788363933563232,0.32103800773620605,-0.02074607089161873,-0.011174273677170277,-3.5201640129089355,0.5369948744773865,-0.0026474972255527973,0.07149452716112137,-0.29070085287094116,-2.4734482765197754,0.7530133128166199,-0.08658360689878464,1.7550048828125,0.48186081647872925,-0.03847985714673996,2.228681802749634,-0.049997445195913315,-0.048978760838508606,-1.8626384735107422,-1.0002092123031616,0.3325022757053375,1741516787.4491496,1741516786673,-3.38336572265625,0.42102005004882814,-2.881837723177353,-1.4007425537109375,-2.67534619140625
1741516787.4252377,-0.9637871980667114,0.004154961708290026,-0.0492015529267815,-0.9987802278193115,-0.32282671332359314,0.15504324436187744,0.20403100550174713,1.9509048461914062,1.592079997062683,8.31151294708252,-0.07228946685791016,0.08220767974853516,0.3545815348625183,-1.2646150588989258,0.005531395319849253,-0.9466315507888794,0.1527809500694275,1.2241785526275635,0.013542382046580315,0.9130617380142212,-0.20771344006061554,-0.7742046117782593,0.11654078215360641,0.272945761680603,1.271267294883728,-0.3816131055355072,0.0022912698332220316,-0.3408484160900116,0.030708782374858856,0.1817730963230133,0.7719157934188843,-0.5093701481819153,-0.018556248396635056,-0.07422752678394318,-0.20809940993785858,2.710378646850586,0.2214835286140442,-0.006742711178958416,0.026571359485387802,-4.087427139282227,0.7524988651275635,0.01707119680941105,0.2191559374332428,-0.3206630051136017,-2.1224582195281982,1.0249663591384888,-0.9187081456184387,-0.5823603868484497,0.14265675842761993,0.2539481818675995,2.402653217315674,0.020467745140194893,-0.03892018273472786,-2.0502066612243652,-1.4058432579040527,-0.08454494178295135,1741516787.4491496,1741516786673,-3.38336572265625,0.42102005004882814,-2.881837723177353,-1.4007425537109375,-2.67534619140625
1741516787.4452543,-0.9642988443374634,0.006956978460083576,-0.04342270461872538,-0.9990325666234815,-0.31239187717437744,0.13435520231723785,-0.1175522431731224,-4.755044937133789,3.734278917312622,8.750783920288086,-0.07610416412353516,0.07648563385009766,0.4045548141002655,-1.2634705305099487,0.005531395319849253,-0.9466315507888794,0.08907453715801239,1.231045126914978,0.013160906732082367,0.9164950251579285,-0.20695048570632935,-0.8085374236106873,0.13866636157035828,0.2615014910697937,1.2323567867279053,-0.37861019372940063,0.004812438040971756,-0.309567391872406,0.03032730519771576,0.17605096101760864,0.7299534678459167,-0.5390211343765259,-0.035478778183460236,-0.12065842747688293,-0.1567242294549942,2.3683502674102783,0.0013272634241729975,-0.016370590776205063,-0.007254710420966148,-4.077786445617676,0.4204169511795044,-0.0013499975902959704,0.21795085072517395,0.02218710444867611,-1.7086565494537354,1.1740727424621582,-0.4772401750087738,-2.1046226024627686,0.1533106118440628,0.008213112130761147,1.5597789287567139,-0.015052961185574532,-0.3550874888896942,-2.057954788208008,-1.4791470766067505,-0.9977651238441467,1741516787.4491496,1741516786673,-3.38336572265625,0.42102005004882814,-2.881837723177353,-1.4007425537109375,-2.67534619140625
1741516787.4652576,-0.9679387807846069,0.013266565383714294,-0.03890016640521512,-0.9991550306616918,-0.1981586515903473,0.34604647755622864,-0.14900225400924683,2.5963141918182373,-0.1083206832408905,5.883548259735107,-0.07839298248291016,0.06733036041259766,0.44613564014434814,-1.2642335891723633,0.005912871100008488,-0.9443427324295044,0.03299763426184654,1.23753023147583,0.013160906732082367,0.9233615398406982,-0.21000228822231293,-0.8367666006088257,0.16956588625907898,0.2599755823612213,1.176279902458191,-0.3724686801433563,-0.004887375980615616,-0.2660791873931885,0.023460745811462402,0.1661325991153717,0.6994354128837585,-0.5570037364959717,-0.0345626138150692,-0.06935811787843704,-0.2676232159137726,2.1443216800689697,-0.07288898527622223,-0.011332688853144646,0.2027079164981842,-3.624119281768799,0.44835105538368225,0.010152469389140606,0.49672478437423706,-0.14785349369049072,-1.2503304481506348,1.6331322193145752,-0.020176613703370094,-2.861633539199829,0.3533391058444977,-0.46314942836761475,2.0114076137542725,-0.49202781915664673,-0.5585916042327881,-1.5484120845794678,-0.823847234249115,0.23031668365001678,1741516787.4491496,1741516786673,-3.38336572265625,0.42102005004882814,-2.881837723177353,-1.4007425537109375,-2.67534619140625
1741516787.4853222,-0.9650779962539673,0.018525833247663156,-0.037875864827423195,-0.9991107107653558,-0.024511761963367462,0.259733647108078,0.1381857991218567,-0.08835175633430481,2.563603401184082,9.559239387512207,-0.08030033111572266,0.06466007232666016,0.4819943606853485,-1.2634705305099487,0.005531395319849253,-0.9382390975952148,-0.007057297509163618,1.238293170928955,0.013160906732082367,0.9313725233078003,-0.21801327168941498,-0.84744793176651,0.1962691694498062,0.27065691351890564,1.11142897605896,-0.363128125667572,-0.001614039996638894,-0.23250934481620789,0.01201647985726595,0.1516365259885788,0.6658655405044556,-0.5683711767196655,-0.028066502884030342,-0.05953774228692055,-0.07360341399908066,1.6361955404281616,0.07479801774024963,0.006710365880280733,0.33346158266067505,-2.45756196975708,-0.054928332567214966,0.0026778196915984154,0.4481796622276306,-0.3855614960193634,-0.3287007212638855,1.2179627418518066,0.716434895992279,-3.357862949371338,0.46624964475631714,0.36953020095825195,1.8345129489898682,-0.5096344947814941,-0.7002682685852051,-1.5075786113739014,-0.5179433822631836,0.2752743065357208,1741516787.4491496,1741516786673,-3.38336572265625,0.42102005004882814,-2.881837723177353,-1.4007425537109375,-2.67534619140625
1741516787.5053113,-0.9576863050460815,0.02537429097017017,-0.03966982117295521,-0.9988906099497917,0.06310649961233139,0.33705905079841614,0.4524364769458771,5.622992038726807,0.14938431978225708,7.366293430328369,-0.08487796783447266,0.055886268615722656,0.49267566204071045,-1.2627075910568237,0.005531395319849253,-0.9309910535812378,-0.027656977996230125,1.23753023147583,0.013160906732082367,0.9401465058326721,-0.22411687672138214,-0.8363851308822632,0.20237277448177338,0.3061341345310211,1.0271228551864624,-0.35606223344802856,0.004167140461504459,-0.17910276353359222,0.00858320016413927,0.13866636157035828,0.6307697892189026,-0.5645754337310791,-0.012479781173169613,-0.136662095785141,-0.21693113446235657,0.3643375635147095,0.0846746414899826,-0.012912019155919552,0.3626933991909027,-1.1862154006958008,-0.022196583449840546,0.0015572026604786515,0.6066112518310547,-0.29834720492362976,0.6171541810035706,0.04535398632287979,1.844232439994812,-4.2339606285095215,0.2692958116531372,0.2388489693403244,2.826846122741699,-0.18253792822360992,-0.5882430672645569,-1.9036927223205566,0.32030314207077026,0.8650164008140564,1741516787.543508,1741516786773,-3.339004150390625,0.361287353515625,-2.7868958343735346,-1.36802490234375,-2.73093603515625
1741516787.5254285,-0.9379490613937378,0.02161057991440801,-0.041771866256018954,-0.9988934347693212,0.08687497675418854,-0.2438945472240448,1.083810806274414,-0.5888947248458862,2.184166669845581,9.054927825927734,-0.09250736236572266,0.059319496154785156,0.4865720570087433,-1.2577484846115112,0.005531395319849253,-0.9237430095672607,-0.03299763426184654,1.2348599433898926,0.013160906732082367,0.9485389590263367,-0.22716869413852692,-0.8134965896606445,0.20428015291690826,0.34618905186653137,0.924887478351593,-0.3618055582046509,0.007134751882404089,-0.11310750246047974,0.000572213320992887,0.13103684782981873,0.5876630544662476,-0.5484364032745361,-0.035690490156412125,-0.2207862138748169,0.027960198000073433,-0.4404813349246979,0.30829620361328125,-0.001273797475732863,0.3160299062728882,-0.15340198576450348,-0.22650375962257385,0.0052407486364245415,0.5608682036399841,-0.06612973660230637,1.4225825071334839,0.17076236009597778,1.8624601364135742,-5.187779426574707,-0.4269523620605469,0.23484916985034943,3.393453359603882,-0.3678140938282013,-0.5674835443496704,-2.0022544860839844,0.7791001796722412,-1.5074529647827148,1741516787.543508,1741516786773,-3.339004150390625,0.361287353515625,-2.7868958343735346,-1.36802490234375,-2.73093603515625
1741516787.545422,-0.9118269681930542,0.014688257915100663,-0.04254093266394858,-0.998986748724677,-0.014813247136771679,-0.296283483505249,1.2704893350601196,4.127537727355957,0.6979873180389404,5.2249932289123535,-0.09746742248535156,0.06885623931884766,0.45910581946372986,-1.2558410167694092,0.005531395319849253,-0.9203097820281982,-0.020027466118335724,1.2314265966415405,0.013160906732082367,0.953498125076294,-0.22411687672138214,-0.7650492191314697,0.19474326074123383,0.37899595499038696,0.8154039978981018,-0.391865998506546,0.007842759601771832,-0.048256658017635345,0.0032425422687083483,0.09975585341453552,0.572022557258606,-0.5382007360458374,-0.05599576607346535,-0.15263919532299042,0.23112446069717407,-1.5067343711853027,0.07255303114652634,-0.0017696991562843323,0.09715721756219864,0.9977378249168396,-0.24936462938785553,-0.006198937073349953,0.26325979828834534,0.28157293796539307,2.419790029525757,-0.5839818716049194,1.460336446762085,-5.526885986328125,-1.697213053703308,-0.013938287273049355,2.8484487533569336,0.28894099593162537,-1.6250892877578735,-0.4578549265861511,0.4767509996891022,-0.763047993183136,1741516787.543508,1741516786773,-3.339004150390625,0.361287353515625,-2.7868958343735346,-1.36802490234375,-2.73093603515625
1741516787.5654292,-0.892175555229187,0.007666418200725876,-0.037519485994101966,-0.9992664880814877,-0.3013751208782196,-0.22872993350028992,0.8971012234687805,0.8622065186500549,-12.102529525756836,32.91349792480469,-0.09746742248535156,0.06923770904541016,0.4247730076313019,-1.2558410167694092,0.005531395319849253,-0.9233615398406982,0.0013351644156500697,1.227993369102478,0.013160906732082367,0.955024003982544,-0.20313572883605957,-0.734912633895874,0.164988175034523,0.38281071186065674,0.7322422862052917,-0.42035767436027527,0.008556232787668705,-0.026131074875593185,0.01735713705420494,0.07915617525577545,0.6170367002487183,-0.5287131071090698,-0.06636188179254532,-0.011138730682432652,-0.009706673212349415,-1.7225279808044434,0.04236529767513275,-0.013235322199761868,-0.15955185890197754,1.415424108505249,-0.24414192140102386,0.00675784470513463,0.1114053800702095,1.1773213148117065,1.1602829694747925,-1.4981040954589844,-0.38145798444747925,-3.1222989559173584,-0.6297172904014587,0.19557569921016693,0.8036095499992371,0.5329239368438721,-0.753939688205719,2.9289066791534424,0.5772537589073181,-0.7159995436668396,1741516787.543508,1741516786773,-3.339004150390625,0.361287353515625,-2.7868958343735346,-1.36802490234375,-2.73093603515625
1741516787.5854688,-0.8837958574295044,0.010044012834747111,-0.03451547296697353,-0.9993536911084292,0.09459048509597778,0.350725382566452,0.42234134674072266,10.570352554321289,6.034046173095703,10.184074401855469,-0.10013771057128906,0.06275272369384766,0.38090333342552185,-1.2524077892303467,0.005531395319849253,-0.9195467829704285,0.01888304017484188,1.2253230810165405,0.012397955171763897,0.9554055333137512,-0.16155488789081573,-0.7207980751991272,0.12951095402240753,0.31757840514183044,0.7806897163391113,-0.41688480973243713,0.01557112019509077,-0.06046387553215027,0.024605173617601395,0.0883115902543068,0.7494087219238281,-0.5071589946746826,-0.08135862648487091,-0.10034047067165375,-0.19603246450424194,-2.462080240249634,0.18505391478538513,0.014340678229928017,0.16960136592388153,1.15718412399292,-0.1313154697418213,-0.0764738917350769,0.04999782517552376,2.295691967010498,0.07753749936819077,-1.6671020984649658,-3.1757123470306396,2.217484474182129,-0.2113044708967209,0.1926133930683136,-2.2533364295959473,0.8953946828842163,0.6766718029975891,7.115011692047119,1.3290971517562866,-0.6533148884773254,1741516787.543508,1741516786773,-3.339004150390625,0.361287353515625,-2.7868958343735346,-1.36802490234375,-2.73093603515625
1741516787.6054971,-0.889238715171814,0.01012536624369976,-0.039224103212189,-0.9991791364343184,0.15605251491069794,0.025536641478538513,-0.2842717468738556,-10.374935150146484,7.463181972503662,11.337404251098633,-0.10013771057128906,0.07267093658447266,0.3103303611278534,-1.2627075910568237,0.005531395319849253,-0.9233615398406982,0.039101243019104004,1.2241785526275635,0.013923857361078262,0.9557870030403137,-0.1180666834115982,-0.7288090586662292,0.11310750246047974,0.27141985297203064,0.7925154566764832,-0.4301691949367523,0.001287428429350257,-0.15735866129398346,0.059319447726011276,0.12569619715213776,0.9401465058326721,-0.4629591405391693,-0.08261764794588089,-0.07491514086723328,0.33278927206993103,-3.7332913875579834,-0.6443232297897339,-0.04049163684248924,-0.22798053920269012,1.358899712562561,-0.024532252922654152,0.0375397615134716,0.01376455556601286,2.026996612548828,0.21916905045509338,-1.006608486175537,-2.1976966857910156,0.36234357953071594,-0.5757986307144165,-0.5457134246826172,-4.975341796875,1.5813212394714355,2.1276278495788574,9.938048362731934,2.250986099243164,-0.18027149140834808,1741516787.653984,1741516786873,-3.288095458984375,0.2931809387207031,-3.0271872710972487,-1.3317919921875,-2.790266357421875
1741516787.635694,-0.9009660482406616,0.01824469400131792,-0.04570846167925365,-0.9987881996057595,0.4700346887111664,0.2638593018054962,-0.5600875616073608,-1.8562606573104858,0.2295103520154953,14.573948860168457,-0.11348915100097656,0.06694889068603516,0.23327229917049408,-1.2627075910568237,0.005912871100008488,-0.9222171306610107,0.06542305648326874,1.2291377782821655,0.013542382046580315,0.9569314122200012,-0.10128175467252731,-0.699816882610321,0.08335240930318832,0.2588311731815338,0.7887006998062134,-0.4298972487449646,-0.0038065784610807896,-0.28744181990623474,0.09479667246341705,0.16079194843769073,1.1549172401428223,-0.4159605801105499,-0.08426380157470703,-0.365714430809021,-0.13734644651412964,-3.7497923374176025,0.04214760288596153,0.061694949865341187,0.19930048286914825,1.9180984497070312,0.31201985478401184,0.0019185919081792235,0.058997806161642075,0.7945317029953003,1.136461615562439,-1.001572608947754,-0.43652215600013733,-0.3326544165611267,0.02293764241039753,-0.19855152070522308,-6.8967061042785645,1.5661423206329346,1.4037927389144897,10.611668586730957,2.2753477096557617,0.0925033763051033,1741516787.653984,1741516786873,-3.288095458984375,0.2931809387207031,-3.0271872710972487,-1.3317919921875,-2.790266357421875
1741516787.6454983,-0.9135202169418335,0.013878862874099887,-0.05976063808316753,-0.9981162473886569,0.6878884434700012,-0.21290338039398193,-0.6338183879852295,0.4900793433189392,-3.761932373046875,13.580933570861816,-0.10357093811035156,0.08449649810791016,0.15621423721313477,-1.2646150588989258,0.005531395319849253,-0.9214541912078857,0.10738536715507507,1.232571005821228,0.013542382046580315,0.9561684727668762,-0.0883115902543068,-0.6712062358856201,0.08144503086805344,0.25539788603782654,0.7837415337562561,-0.4293808937072754,-0.005893166642636061,-0.4335469603538513,0.1188296303153038,0.16269932687282562,1.3368810415267944,-0.39144250750541687,-0.03441518917679787,0.17409993708133698,0.22830668091773987,-3.8704724311828613,-0.13072533905506134,-0.04254382476210594,-0.06949538737535477,2.819754123687744,0.21930073201656342,0.00395058561116457,-0.07114063203334808,0.6621411442756653,1.8052003383636475,-0.08838950842618942,-0.06284912675619125,-0.07476217299699783,0.008931347168982029,-0.19523510336875916,-7.26999044418335,1.1307873725891113,-0.2373628467321396,8.525884628295898,1.049477219581604,2.924375295639038,1741516787.653984,1741516786873,-3.288095458984375,0.2931809387207031,-3.0271872710972487,-1.3317919921875,-2.790266357421875
1741516787.665529,-0.9268840551376343,0.010040564321153555,-0.07188112206380895,-0.9973626679192282,0.5848714113235474,-0.3222275972366333,-0.6895074248313904,3.100775718688965,-2.705023765563965,8.940168380737305,-0.12607765197753906,0.09632301330566406,0.07991912961006165,-1.2619446516036987,0.005531395319849253,-0.9252689480781555,0.15850308537483215,1.2386746406555176,0.013542382046580315,0.9554055333137512,-0.07610437273979187,-0.6288624405860901,0.07991912961006165,0.25387197732925415,0.7738231420516968,-0.43359440565109253,-0.015545499511063099,-0.570496678352356,0.12302586436271667,0.134470134973526,1.4532310962677002,-0.4069198668003082,-0.014192786067724228,-0.6274943947792053,0.30831775069236755,-3.7804226875305176,0.2540733218193054,-0.009481532499194145,-0.14690248668193817,3.5604612827301025,0.42199406027793884,0.0063505712896585464,-0.048006054013967514,0.6901487708091736,1.9838433265686035,-0.13287469744682312,-0.08590342104434967,-0.6181798577308655,-0.19583101570606232,-0.5687424540519714,-6.715055465698242,-0.006513651460409164,-1.2895232439041138,5.2833333015441895,-1.108994722366333,0.3910578489303589,1741516787.653984,1741516786873,-3.288095458984375,0.2931809387207031,-3.0271872710972487,-1.3317919921875,-2.790266357421875
1741516787.6858685,-0.9406126737594604,-0.001085006419025389,-0.0784344588882648,-0.9969186819495237,0.3064594864845276,-0.5565316081047058,-0.6676018834114075,0.24619780480861664,1.6060466766357422,6.493596076965332,-0.12912940979003906,0.09899330139160156,0.01506828423589468,-1.2535521984100342,0.005531395319849253,-0.9267948269844055,0.21839475631713867,1.2451597452163696,0.013542382046580315,0.9538795948028564,-0.05741206929087639,-0.5872815847396851,0.06885633617639542,0.2458609938621521,0.7654306888580322,-0.44074687361717224,-0.028069164603948593,-0.6891355514526367,0.10166323184967041,0.11387044936418533,1.4982452392578125,-0.4512132704257965,-0.01343190111219883,-0.13092593848705292,0.08720829337835312,-3.215893030166626,0.547596275806427,-0.00789228267967701,-0.0819944515824318,3.9719767570495605,0.4306592643260956,0.0005309845437295735,-0.13300451636314392,0.8596075773239136,2.121086835861206,-0.6346983909606934,-0.4598034918308258,-0.41751807928085327,-0.48489123582839966,-0.6827541589736938,-5.677591800689697,-0.9816976189613342,-1.093926191329956,1.7266498804092407,-2.2871506214141846,0.32425689697265625,1741516787.653984,1741516786873,-3.288095458984375,0.2931809387207031,-3.0271872710972487,-1.3317919921875,-2.790266357421875
1741516787.705601,-0.9515894651412964,-0.007749583301610731,-0.08505001636058337,-0.996346545472867,0.3319835960865021,-0.39222121238708496,-0.5459476709365845,1.149280309677124,-1.5908418893814087,5.317796230316162,-0.13752174377441406,0.09861183166503906,-0.032616160809993744,-1.2489745616912842,0.005531395319849253,-0.9275577664375305,0.2813382148742676,1.2478300333023071,0.013542382046580315,0.9531166553497314,-0.04558632895350456,-0.5567635893821716,0.0558861680328846,0.23594263195991516,0.7631418108940125,-0.45778486132621765,-0.039404865354299545,-0.7890821695327759,0.07801175117492676,0.11730372905731201,1.4738308191299438,-0.49842962622642517,0.003047499805688858,-0.2705005407333374,0.002383532002568245,-2.2304251194000244,0.30638039112091064,-0.006252958904951811,-0.04422711953520775,4.090831756591797,0.08852890878915787,-0.0017932530026882887,-0.05318484082818031,0.5729131698608398,1.242580771446228,-0.6288991570472717,-0.4489870071411133,-0.03765176609158516,-0.8707499504089355,-0.4407635033130646,-4.854489326477051,-1.2181485891342163,0.43849673867225647,-1.676087737083435,-2.3123111724853516,0.8818575143814087,1741516787.653984,1741516786873,-3.288095458984375,0.2931809387207031,-3.0271872710972487,-1.3317919921875,-2.790266357421875
1741516787.7256458,-0.9615057706832886,-0.010808171743314127,-0.09099839078688816,-0.9957923861416915,0.2710602581501007,-0.08249372988939285,-0.5352910161018372,-0.5820580124855042,-1.6948866844177246,5.961675643920898,-0.14553260803222656,0.07495975494384766,-0.07724879682064056,-1.2455412149429321,0.005531395319849253,-0.9313725233078003,0.3412298858165741,1.2463041543960571,0.013160906732082367,0.952735185623169,-0.024605173617601395,-0.5472266674041748,0.0558861680328846,0.23708705604076385,0.776493489742279,-0.47676724195480347,-0.05204351246356964,-0.8581292629241943,0.048256658017635345,0.14324407279491425,1.3899061679840088,-0.523069441318512,0.008883863687515259,-0.22067797183990479,-0.6275727152824402,-2.291762113571167,0.213382750749588,-0.014119572006165981,-0.26862823963165283,3.773862838745117,-0.11265012621879578,0.0014857026981189847,-0.019589174538850784,1.0439064502716064,0.6850026249885559,0.07861187309026718,0.008697989396750927,0.9585989713668823,-0.9325330853462219,-0.574281632900238,-3.0748090744018555,-1.541170358657837,1.363800048828125,-4.788453578948975,-0.9884344339370728,0.15593698620796204,1741516787.653984,1741516786873,-3.288095458984375,0.2931809387207031,-3.0271872710972487,-1.3317919921875,-2.790266357421875
1741516787.7456307,-0.9672178030014038,-0.0017305149907082943,-0.09531820266320556,-0.9954453503628027,0.17167524993419647,0.3895997703075409,-0.2506697177886963,-1.4111500978469849,-3.458578586578369,6.253979682922363,-0.15468788146972656,0.054360389709472656,-0.11348897218704224,-1.2402005195617676,0.005531395319849253,-0.9470130205154419,0.3877699077129364,1.2447782754898071,0.013160906732082367,0.9523537158966064,0.000572213320992887,-0.5460822582244873,0.0711451917886734,0.23441672325134277,0.811589241027832,-0.4978519380092621,-0.05624790117144585,-0.8936064839363098,0.016212711110711098,0.15697719156742096,1.2239643335342407,-0.5206078886985779,0.0013755072141066194,-0.2690443694591522,-0.6209381222724915,-1.7920602560043335,0.33619269728660583,0.003848517779260874,-0.7716159224510193,2.9388058185577393,-0.10423951596021652,-0.002475164597854018,-0.10219266265630722,1.3739959001541138,0.014477040618658066,0.5882683396339417,-0.10695395618677139,1.7320163249969482,-1.085921287536621,-0.03999168798327446,-1.4438519477844238,-1.6844499111175537,0.5033678412437439,-8.99941349029541,0.22457405924797058,-0.31787025928497314,1741516787.653984,1741516786873,-3.288095458984375,0.2931809387207031,-3.0271872710972487,-1.3317919921875,-2.790266357421875
1741516787.7657092,-0.968873143196106,0.00989703415575915,-0.09381609393332306,-0.9955403503796386,-0.08445177227258682,0.5638207197189331,-0.07447104156017303,-12.980122566223145,11.121405601501465,11.125462532043457,-0.15926647186279297,0.052071571350097656,-0.12989242374897003,-1.2340970039367676,0.005531395319849253,-0.9618905782699585,0.4205767810344696,1.2470670938491821,0.013923857361078262,0.9470130205154419,0.04253452271223068,-0.5533303022384644,0.06160829961299896,0.22449836134910583,0.8493552803993225,-0.5166998505592346,-0.05963028594851494,-0.8836880922317505,-0.03795681521296501,0.152399480342865,0.9851605892181396,-0.4921877384185791,0.0235272403806448,-0.13909661769866943,-0.09797580540180206,-0.6693515777587891,0.40173155069351196,-0.01160966232419014,-0.7257934808731079,2.3542120456695557,0.19666604697704315,0.08781789243221283,-0.4585808217525482,2.316697120666504,-0.20033861696720123,-0.7309983968734741,-0.7907731533050537,1.9244930744171143,-0.921143651008606,-0.061893220990896225,0.6470029354095459,-3.1514103412628174,-0.34327444434165955,-11.239378929138184,2.474334716796875,2.1383872032165527,1741516787.653984,1741516786873,-3.288095458984375,0.2931809387207031,-3.0271872710972487,-1.3317919921875,-2.790266357421875
1741516787.7857687,-0.9822393655776978,0.016981930910787795,-0.08190355848630868,-0.9964955700502742,-0.7541411519050598,0.30160632729530334,-0.9161860346794128,-2.563937187194824,5.780888080596924,5.7101664543151855,-0.16460704803466797,0.060845375061035156,-0.12188144028186798,-1.231045126914978,0.004386968910694122,-0.9710460305213928,0.4537651538848877,1.2508819103240967,0.014686808921396732,0.9222171306610107,0.09861142933368683,-0.5395971536636353,0.05130846053361893,0.16956588625907898,0.8756771087646484,-0.5339287519454956,-0.03694769740104675,-0.8382925391197205,-0.06580453366041183,0.07495994865894318,1.019874930381775,-0.38383346796035767,0.057457391172647476,-0.1706208735704422,0.5338584780693054,0.5990698337554932,0.08792318403720856,-0.0856996551156044,-0.3950549364089966,1.8374781608581543,0.33180177211761475,0.09584169089794159,-1.65850031375885,2.4302258491516113,0.5959177613258362,-0.8943575024604797,-2.5771188735961914,0.7070079445838928,-1.0298140048980713,1.3850805759429932,2.841960906982422,-0.3872857391834259,-3.433708906173706,1.2958519458770752,4.66353702545166,0.3464593291282654,1741516787.653984,1741516786873,-3.288095458984375,0.2931809387207031,-3.0271872710972487,-1.3317919921875,-2.790266357421875
1741516787.805741,-1.0007506608963013,0.028713032730165303,-0.06910534071444287,-0.9971960758226925,-0.63017338514328,0.38110044598579407,-0.966978132724762,-2.053922176361084,6.336251258850098,14.193244934082031,-0.16536998748779297,0.06923770904541016,-0.07648584991693497,-1.2306636571884155,0.005912871100008488,-0.9729533791542053,0.44728007912635803,1.2508819103240967,0.013923857361078262,0.9138246774673462,0.12111848592758179,-0.5189974904060364,0.02841992862522602,0.1203555315732956,0.8669031858444214,-0.5597310066223145,0.00392881641164422,-0.7963302135467529,-0.0707637146115303,0.06160829961299896,0.959220290184021,-0.34069111943244934,0.03396657109260559,-0.000995925860479474,0.5591870546340942,2.7004547119140625,0.046716902405023575,0.14363430440425873,-0.028349002823233604,-0.7745478749275208,-0.14007046818733215,-0.10960481315851212,-0.4218416213989258,0.7573005557060242,1.2332704067230225,-1.0391509532928467,-2.5287225246429443,-0.655160665512085,-1.1788148880004883,2.0766210556030273,1.9504092931747437,-0.23712781071662903,-0.3761816918849945,-3.6197431087493896,2.0546438694000244,-1.2555112838745117,1741516787.8516612,1741516786973,-3.257493896484375,0.21226063537597656,-2.77784928529788,-1.3005472412109376,-2.842347900390625
1741516787.8257668,-1.0170387029647827,0.036728851251846543,-0.06065801568531668,-0.9974826297328889,-0.36733278632164,0.4044075906276703,-0.7400093078613281,2.4035825729370117,-1.3814194202423096,4.21225643157959,-0.16308116912841797,0.059700965881347656,-0.02040894143283367,-1.233715534210205,0.004386968910694122,-0.9683756828308105,0.41409170627593994,1.2432523965835571,0.012397955171763897,0.9107728600502014,0.1035706102848053,-0.4686427116394043,0.011635004542768002,0.08258945494890213,0.8691920638084412,-0.5551562905311584,-0.009745554998517036,-0.7288090586662292,-0.042153049260377884,0.0715266615152359,0.9431982636451721,-0.3132193386554718,-0.017175473272800446,0.03002827800810337,-0.09653414040803909,2.583407163619995,-0.3409101068973541,-0.09955955296754837,0.23326294124126434,-2.2311952114105225,-0.5293285846710205,-0.09528356790542603,-0.3601742088794708,-1.1764096021652222,2.7541251182556152,-0.8004367351531982,-1.7140767574310303,0.4080125689506531,0.5016502141952515,-1.1111080646514893,3.0015907287597656,1.9144673347473145,0.6481336951255798,-0.5036404728889465,1.0270415544509888,-2.2378790378570557,1741516787.8516612,1741516786973,-3.257493896484375,0.21226063537597656,-2.77784928529788,-1.3005472412109376,-2.842347900390625
1741516787.845744,-1.0285295248031616,0.03184981222892227,-0.05504824103776389,-0.997975591194309,-0.2565735876560211,-0.3935779333114624,-0.4991437494754791,-20.3455867767334,3.553277015686035,14.064988136291504,-0.16880321502685547,0.08716678619384766,0.0398641936480999,-1.2558410167694092,0.005531395319849253,-0.9645609259605408,0.39463645219802856,1.2340970039367676,0.012779430486261845,0.9069581031799316,0.06466010212898254,-0.45643550157546997,-0.002861066721379757,0.08144503086805344,0.9107728600502014,-0.5174568891525269,-0.018664304167032242,-0.7001983523368835,-0.0036240178160369396,0.10051880776882172,0.9252689480781555,-0.3278879225254059,-0.030979597941040993,-0.17930321395397186,0.7467058897018433,2.9535412788391113,-1.455540418624878,-0.0981091856956482,0.23923029005527496,-1.2940970659255981,-0.6083986759185791,-0.052084095776081085,-0.2014823853969574,-2.016679286956787,0.2565440833568573,-0.6643655896186829,0.0745195597410202,2.765057325363159,1.9615910053253174,-0.22022098302841187,1.784155011177063,1.8386876583099365,1.5545746088027954,-0.8226944804191589,-0.9298350214958191,-0.5167533755302429,1741516787.8516612,1741516786973,-3.257493896484375,0.21226063537597656,-2.77784928529788,-1.3005472412109376,-2.842347900390625
1741516787.8658319,-1.0301073789596558,0.03473877316713995,-0.05008451642790872,-0.998140650836857,-0.2931452989578247,0.17359723150730133,-0.048377055674791336,6.669785976409912,1.0770494937896729,4.615869522094727,-0.16842174530029297,0.08373355865478516,0.1039520874619484,-1.2711000442504883,0.006294346414506435,-0.9573128819465637,0.3572518527507782,1.2260860204696655,0.012397955171763897,0.9088655114173889,0.03604944050312042,-0.4869535267353058,-0.018501564860343933,0.09021896868944168,1.038185715675354,-0.47384360432624817,-0.010742073878645897,-0.6490806341171265,0.03490501269698143,0.1203555315732956,0.9206912517547607,-0.355771005153656,-0.033401813358068466,0.019737115129828453,-0.13539786636829376,3.4060051441192627,-0.9282753467559814,0.12465807050466537,0.37938231229782104,-2.7495388984680176,-0.5158019661903381,0.019818248227238655,0.07086154073476791,-1.282710075378418,-2.201085329055786,-0.8384642601013184,0.3581044375896454,6.656697750091553,2.1657752990722656,0.4263871908187866,1.994344711303711,1.7817280292510986,0.8543396592140198,-0.36789512634277344,-1.4176706075668335,-0.3137173056602478,1741516787.8516612,1741516786973,-3.257493896484375,0.21226063537597656,-2.77784928529788,-1.3005472412109376,-2.842347900390625
1741516787.8858397,-1.0217143297195435,0.030598568704775377,-0.040601675652682925,-0.9987067795541459,-0.5252893567085266,-0.039882272481918335,0.4998381435871124,-8.912026405334473,10.555207252502441,12.840584754943848,-0.16842174530029297,0.08907413482666016,0.1661325991153717,-1.2787295579910278,0.005531395319849253,-0.9538795948028564,0.3061341345310211,1.219982385635376,0.013542382046580315,0.9111543297767639,0.02384222112596035,-0.5766003131866455,-0.02880140393972397,0.07457847148180008,1.1919203996658325,-0.4290364384651184,-0.004922914784401655,-0.622377336025238,0.038719769567251205,0.11959258466959,0.9084840416908264,-0.3874313533306122,-0.049231015145778656,0.03245748206973076,0.037489164620637894,3.2997848987579346,-0.4892907738685608,-0.015161068178713322,0.11665847152471542,-3.511849880218506,-0.36803120374679565,-0.07546517997980118,0.12051475048065186,-0.4867982268333435,-4.477470397949219,-0.6563960909843445,-0.9747860431671143,7.599277973175049,2.1720523834228516,0.33163899183273315,1.6555752754211426,0.04960068315267563,-0.2648158073425293,-0.37979722023010254,-1.4972635507583618,-0.5558253526687622,1741516787.8516612,1741516786973,-3.257493896484375,0.21226063537597656,-2.77784928529788,-1.3005472412109376,-2.842347900390625
1741516787.9058232,-1.009670615196228,0.03993410903419267,-0.029441577563718707,-0.9987684718923625,-0.6200593113899231,0.4017384946346283,0.6409319043159485,5.94058895111084,3.922415256500244,8.138282775878906,-0.16918468475341797,0.08373355865478516,0.22602425515651703,-1.2825443744659424,0.005912871100008488,-0.9523537158966064,0.2458609938621521,1.2188379764556885,0.01201647985726595,0.9115357995033264,0.02994582988321781,-0.6708247661590576,-0.06389715522527695,0.06542305648326874,1.3242924213409424,-0.4071424901485443,0.0058449343778193,-0.570496678352356,0.04558632895350456,0.09937438368797302,0.8882657885551453,-0.41167572140693665,-0.03119805082678795,-0.021864494308829308,-0.13779254257678986,2.9402992725372314,-0.12029509991407394,-0.001930435188114643,0.07376644015312195,-3.9482715129852295,-0.0769738256931305,-0.018152937293052673,-0.056836750358343124,0.40959182381629944,-4.835978031158447,-1.7268049716949463,-0.6047881841659546,6.038082122802734,0.879982590675354,0.39363735914230347,2.237666368484497,0.14693450927734375,-1.0426591634750366,-1.3227630853652954,-1.1759980916976929,1.0848695039749146,1741516787.8516612,1741516786973,-3.257493896484375,0.21226063537597656,-2.77784928529788,-1.3005472412109376,-2.842347900390625
1741516787.9259517,-0.9975858926773071,0.036243381960819034,-0.01685760242363,-0.999200799891878,-0.661516547203064,-0.10181263834238052,0.5504887104034424,-2.5947628021240234,-0.7725525498390198,9.504094123840332,-0.16155529022216797,0.08869266510009766,0.28973066806793213,-1.2810184955596924,0.005531395319849253,-0.9439612627029419,0.1806286722421646,1.219219446182251,0.013160906732082367,0.9111543297767639,0.045204851776361465,-0.7578011751174927,-0.09098191559314728,0.05741206929087639,1.3891432285308838,-0.40873441100120544,0.0060466257855296135,-0.5231937170028687,0.04558632895350456,0.07305257022380829,0.8585107326507568,-0.43768131732940674,-0.03443748131394386,0.21496202051639557,0.15468788146972656,3.055394411087036,0.03696364909410477,-0.0076609160751104355,0.4903036952018738,-4.409918308258057,0.039565201848745346,0.025069961324334145,0.06614680588245392,0.8099152445793152,-4.162906646728516,-1.124322533607483,-0.34841975569725037,2.6306331157684326,-0.20604921877384186,-0.10863036662340164,2.682884931564331,-0.0688844546675682,-1.2470072507858276,-1.2891558408737183,-1.3462026119232178,-0.3349173665046692,1741516787.9612498,1741516787173,-3.165188720703125,0.03501704406738281,-2.9119272349224885,-1.2509520263671876,-2.943925537109375
