Freshhhhh-LC/Legged_odom/data/4/segments/booster_seg_9.86s.csv
time,yaw,projected_gravity_x,projected_gravity_y,projected_gravity_z,ang_vel_x,ang_vel_y,ang_vel_z,lin_acc_x,lin_acc_y,lin_acc_z,q_0,q_1,q_2,q_3,q_4,q_5,q_6,q_7,q_8,q_9,q_10,q_11,q_12,q_13,q_14,q_15,q_16,q_17,q_18,q_19,q_20,q_21,q_22,dq_0,dq_1,dq_2,dq_3,dq_4,dq_5,dq_6,dq_7,dq_8,dq_9,dq_10,dq_11,dq_12,dq_13,dq_14,dq_15,dq_16,dq_17,dq_18,dq_19,dq_20,dq_21,dq_22,mocap_time,mocap_timestamp,robot_x,robot_y,robot_yaw,ball_x,ball_y
1741516845.2010677,0.651907742023468,0.01739057773068629,0.0568287449616809,-0.9982324686926753,0.38843590021133423,-0.05507489666342735,-0.9321324229240417,-2.285634994506836,-3.69657301902771,12.12224292755127,-0.01811981201171875,0.12188148498535156,0.1817730963230133,-1.2554595470428467,0.005531395319849253,-0.9195467829704285,0.1680399775505066,1.2405821084976196,0.013923857361078262,0.9573128819465637,0.08907453715801239,-0.6731135845184326,0.0036240178160369396,-0.040245670825242996,0.841725766658783,-0.3910198211669922,0.002417404903098941,-0.4987792670726776,0.05092698708176613,-0.13218127191066742,1.1591134071350098,-0.3680499196052551,0.003924611024558544,-0.13946513831615448,-0.0003998293250333518,-3.773369073867798,-0.15070663392543793,-0.035289064049720764,-0.09141349792480469,3.3627967834472656,0.20783251523971558,0.02135905809700489,-0.3971962332725525,0.06214597076177597,1.5039340257644653,-0.026761384680867195,0.2096836417913437,0.2611566185951233,-0.29569050669670105,0.015478093177080154,-4.9756269454956055,-0.5185182690620422,0.7804188132286072,7.862207889556885,-0.8770484328269958,0.48355770111083984,1741516845.2031877,1741516844393,-1.9267518310546876,-0.7432267456054688,-2.1989408815700644,0.9201895751953125,0.38418212890625003
1741516845.2030048,0.6278743743896484,0.01666418999554218,0.0486801953131975,-0.9986753943880171,0.42833462357521057,0.019503256306052208,-1.20913565158844,4.747199535369873,-0.8517276644706726,11.383016586303711,-0.02498626708984375,0.11615943908691406,0.10891126841306686,-1.2527892589569092,0.005531395319849253,-0.924124538898468,0.22411687672138214,1.2443968057632446,0.013542382046580315,0.951972246170044,0.086785688996315,-0.6441214680671692,0.013160906732082367,-0.032616160809993744,0.8398184180259705,-0.40044018626213074,-0.0018371433252468705,-0.5949110984802246,0.040245670825242996,-0.12645913660526276,1.280041217803955,-0.41225045919418335,-0.001043412834405899,-0.20823344588279724,-0.15768888592720032,-3.509338140487671,0.2242700159549713,0.0034875445999205112,-0.23188430070877075,3.7113215923309326,0.240860253572464,-0.014032654464244843,-0.34750112891197205,-0.20266704261302948,1.4063720703125,0.4494161605834961,0.3482958674430847,-0.09444734454154968,-0.45747488737106323,-0.25959083437919617,-4.702896595001221,-0.6186010837554932,0.25861576199531555,5.574088096618652,-2.3383185863494873,-0.04295770823955536,1741516845.2031877,1741516844393,-1.9267518310546876,-0.7432267456054688,-2.1989408815700644,0.9201895751953125,0.38418212890625003
1741516845.2131984,0.5768207907676697,0.027267929603705655,0.058647985650051276,-0.997906244992143,0.154776930809021,0.2637102007865906,-0.7553874850273132,1.7057791948318481,0.2799333930015564,7.436728000640869,-0.2813386917114258,0.20122814178466797,-0.12340734153985977,-1.218456506729126,0.005531395319849253,-0.9649423956871033,0.47779813408851624,1.2581299543380737,0.013542382046580315,0.9157320261001587,0.11081864684820175,-0.4373617172241211,0.08869306743144989,0.04177157208323479,0.8150225281715393,-0.49156951904296875,-0.004579754080623388,-0.7650492191314697,-0.03833829239010811,-0.2161058932542801,0.9927901029586792,-0.4195626974105835,0.013546839356422424,-0.06516501307487488,-0.04741985723376274,0.18063963949680328,0.1461067646741867,-0.003553106216713786,-0.605209231376648,1.712462067604065,-0.07800932228565216,0.00036644114879891276,-0.4693377614021301,1.1439262628555298,2.1772072315216064,-0.2560538649559021,-0.32209110260009766,-0.9489348530769348,-0.9775019884109497,-0.17775042355060577,0.3897360861301422,-1.6796603202819824,-1.4450650215148926,-6.009305953979492,2.219827890396118,-0.14404377341270447,1741516845.2031877,1741516844393,-1.9267518310546876,-0.7432267456054688,-2.1989408815700644,0.9201895751953125,0.38418212890625003
1741516845.2332683,0.5612075328826904,0.026671677310836764,0.05335809330881246,-0.9982191820977369,0.31091734766960144,0.0019640501122921705,-0.7480887770652771,4.577538967132568,1.7485685348510742,5.857322692871094,-0.2817201614379883,0.20084667205810547,-0.09746700525283813,-1.218456506729126,0.005531395319849253,-0.9691386222839355,0.4880979657173157,1.2554595470428467,0.013160906732082367,0.9096284508705139,0.13179980218410492,-0.38281071186065674,0.0711451917886734,0.02994582988321781,0.7909895181655884,-0.5054222941398621,-0.0031196768395602703,-0.7494087219238281,-0.0707637146115303,-0.25539788603782654,0.883306622505188,-0.3754819631576538,0.0031500542536377907,-0.02312645874917507,-0.02728162333369255,1.3959074020385742,-0.03385652229189873,0.007168089970946312,-0.17260408401489258,0.5105299353599548,-0.22473248839378357,0.008720644749701023,-0.3647361695766449,1.007707953453064,2.854400396347046,-0.9905188679695129,-0.7431662678718567,-1.2448577880859375,-0.5531724095344543,0.06701157987117767,0.8666884303092957,-1.5742595195770264,-2.000072956085205,-5.219356060028076,2.1254541873931885,-0.6063002347946167,1741516845.2031877,1741516844393,-1.9267518310546876,-0.7432267456054688,-2.1989408815700644,0.9201895751953125,0.38418212890625003
1741516845.2532647,0.5444318056106567,0.022783826063530025,0.04243348022946955,-0.9988394751037436,0.5933303833007812,-0.1636119931936264,-0.8469256162643433,4.2072553634643555,-3.152825355529785,3.773317575454712,-0.2813386917114258,0.20656871795654297,-0.05245288833975792,-1.219219446182251,0.005531395319849253,-0.9714275002479553,0.4819943606853485,1.2482116222381592,0.013160906732082367,0.9088655114173889,0.14782176911830902,-0.32063019275665283,0.04558632895350456,0.010109102353453636,0.763523280620575,-0.4919191598892212,-0.005617501679807901,-0.7211795449256897,-0.09708552807569504,-0.2935454249382019,0.7917525172233582,-0.3488710820674896,-0.007087549194693565,-5.512233474291861e-05,0.14056003093719482,2.514385938644409,-0.029999611899256706,0.0037158154882490635,-0.08374033123254776,-0.5144559144973755,-0.5262356400489807,0.012367655523121357,-0.013741962611675262,0.7354708909988403,3.0321567058563232,-1.2350901365280151,-1.043853521347046,-1.4037460088729858,0.9323951005935669,-0.22183899581432343,1.4429922103881836,-1.3164607286453247,-1.718078374862671,-4.56850528717041,1.1111682653427124,-0.36811986565589905,1741516845.2031877,1741516844393,-1.9267518310546876,-0.7432267456054688,-2.1989408815700644,0.9201895751953125,0.38418212890625003
1741516845.2732782,0.526813805103302,0.015688679065719805,0.03132631423997378,-0.9993860752408507,0.5553924441337585,-0.33204466104507446,-0.890816330909729,-1.1394442319869995,2.2622439861297607,8.02279281616211,-0.2824831008911133,0.21267223358154297,0.009727626107633114,-1.2188379764556885,0.005531395319849253,-0.9714275002479553,0.45872434973716736,1.2440153360366821,0.013542382046580315,0.9100099205970764,0.16117341816425323,-0.264934778213501,0.006294346414506435,-0.00667582219466567,0.7566567659378052,-0.4603765308856964,0.0022422149777412415,-0.690280020236969,-0.11577782779932022,-0.3114747703075409,0.7074463963508606,-0.3513134717941284,-0.010127970017492771,-0.031627628952264786,0.19389578700065613,3.307861566543579,-0.010084188543260098,-0.005000669974833727,-0.002210743958130479,-1.7425358295440674,-0.18785744905471802,0.0174336489289999,0.0629500299692154,0.7155172228813171,2.5540664196014404,-1.9341025352478027,-0.8123446106910706,-0.03167758509516716,1.347267746925354,0.5024296641349792,1.5617493391036987,-0.7208260297775269,-0.7353475689888,-4.292690753936768,-0.2373434603214264,-0.2594093680381775,1741516845.2031877,1741516844393,-1.9267518310546876,-0.7432267456054688,-2.1989408815700644,0.9201895751953125,0.38418212890625003
1741516845.2932727,0.5122439861297607,0.00516590553208526,0.016743721361437085,-0.9998464688215908,0.7548593878746033,-0.5888645052909851,-0.6562771797180176,-17.267465591430664,-9.822128295898438,17.43138885498047,-0.2840089797973633,0.22602462768554688,0.07648584991693497,-1.221508264541626,0.005531395319849253,-0.9706645011901855,0.4198138415813446,1.2432523965835571,0.013160906732082367,0.9088655114173889,0.17261768877506256,-0.2473868876695633,-0.0020981156267225742,-0.04291599988937378,0.811589241027832,-0.4462902545928955,0.00702994829043746,-0.6570916175842285,-0.11654078215360641,-0.2943083941936493,0.7089722752571106,-0.3484172224998474,-0.03237135335803032,-0.045170027762651443,0.4986976981163025,3.182425022125244,-0.296144962310791,0.007032433990389109,0.028677528724074364,-2.6488564014434814,-0.0959082692861557,-0.0034636298660188913,-0.16971047222614288,0.41246891021728516,0.4838264584541321,-0.2373816817998886,-1.9484362602233887,3.2984161376953125,0.7104634642601013,0.17888852953910828,2.0481131076812744,0.5064239501953125,0.9074395298957825,1.1356569528579712,0.2324068248271942,-1.108839988708496,1741516845.2031877,1741516844393,-1.9267518310546876,-0.7432267456054688,-2.1989408815700644,0.9201895751953125,0.38418212890625003
1741516845.31349,0.5029692649841309,0.005233460895734114,0.012991971774260315,-0.999901904966917,0.1401689201593399,-0.024514885619282722,-0.32758936285972595,5.2143168449401855,1.080954909324646,6.690298080444336,-0.3007936477661133,0.22564315795898438,0.14438849687576294,-1.2306636571884155,0.005912871100008488,-0.967994213104248,0.3583962619304657,1.2497375011444092,0.01430533267557621,0.9100099205970764,0.16994735598564148,-0.28400853276252747,-0.018120087683200836,-0.08907453715801239,0.9260318875312805,-0.4125465452671051,0.011493591591715813,-0.6399252414703369,-0.08945601433515549,-0.25310903787612915,0.7383459210395813,-0.35390806198120117,-0.04566289857029915,-0.549590528011322,0.10068929195404053,3.3097105026245117,-0.5608097910881042,0.02890036813914776,0.1713883876800537,-4.242033004760742,0.6535950899124146,0.10854639858007431,0.14311794936656952,-0.13045653700828552,-2.2220301628112793,-1.0112934112548828,-2.2932448387145996,6.126928329467773,1.8815754652023315,0.24165107309818268,0.30694568157196045,1.2103012800216675,2.1080284118652344,0.9422222971916199,-0.3372666835784912,-0.4262276589870453,1741516845.408006,1741516844593,-1.7530281982421876,-0.6416251831054688,-1.9489633970051834,1.0664720458984376,0.19188365173339844
1741516845.3333251,0.5023188591003418,0.005689496678126049,0.0151170268271557,-0.9998695440543514,-0.1700829416513443,0.14396263659000397,0.029293181374669075,-3.3699750900268555,-2.0280396938323975,11.487482070922852,-0.2965974807739258,0.22907638549804688,0.20923933386802673,-1.2363858222961426,0.005531395319849253,-0.9641794562339783,0.28362706303596497,1.2627075910568237,0.01430533267557621,0.9122987985610962,0.16994735598564148,-0.36640727519989014,-0.04329747334122658,-0.14400701224803925,1.0866330862045288,-0.36715149879455566,0.014335480518639088,-0.6204699873924255,-0.05359731614589691,-0.22182802855968475,0.7383459210395813,-0.35574978590011597,-0.05292663350701332,0.0651993602514267,0.0467119961977005,3.4202165603637695,-0.3645618259906769,0.0113271689042449,0.20428021252155304,-5.111473083496094,0.7406201958656311,-0.05155666917562485,0.1307196170091629,0.098955899477005,-4.2603535652160645,-1.3601161241531372,-2.7062995433807373,8.440601348876953,2.136723518371582,0.14155073463916779,1.217323899269104,1.9083709716796875,1.35446298122406,0.014877856709063053,0.03730086609721184,-0.27439218759536743,1741516845.408006,1741516844593,-1.7530281982421876,-0.6416251831054688,-1.9489633970051834,1.0664720458984376,0.19188365173339844
1741516845.3533597,0.5083529949188232,0.010939840862843152,0.025157815385629067,-0.9996236312767511,-0.5416728258132935,0.20639167726039886,0.33729249238967896,3.5698587894439697,2.161250114440918,9.22074031829834,-0.3076601028442383,0.23861312866210938,0.2660791873931885,-1.2405821084976196,0.005912871100008488,-0.9573128819465637,0.20313572883605957,1.2680482864379883,0.013923857361078262,0.9119172692298889,0.17414358258247375,-0.47512778639793396,-0.07419699430465698,-0.17948424816131592,1.2487602233886719,-0.36132529377937317,0.009417418390512466,-0.5971999764442444,-0.03643091395497322,-0.20542457699775696,0.7375829815864563,-0.3551397919654846,-0.05050193518400192,-0.29681190848350525,0.2513095438480377,2.7548980712890625,-0.2941845655441284,0.005140222143381834,0.3870584964752197,-5.36104154586792,0.33189770579338074,0.02122272364795208,-0.02157733589410782,0.1810550093650818,-5.435832500457764,-1.5992544889450073,-1.3820247650146484,7.99647855758667,-0.13495151698589325,-0.13044503331184387,1.0670483112335205,0.6984973549842834,0.6837193965911865,-0.02596546895802021,-0.0074979388155043125,0.11112862825393677,1741516845.408006,1741516844593,-1.7530281982421876,-0.6416251831054688,-1.9489633970051834,1.0664720458984376,0.19188365173339844
1741516845.373474,0.518316388130188,0.01329551578635169,0.03591653375355357,-0.9992663468080494,-0.5171473026275635,0.1320233941078186,0.4706481993198395,2.1402738094329834,1.1387561559677124,10.550289154052734,-0.3015565872192383,0.24700546264648438,0.31757840514183044,-1.2451597452163696,0.005531395319849253,-0.9481574892997742,0.12645913660526276,1.2711000442504883,0.013923857361078262,0.9126802682876587,0.17414358258247375,-0.5815594792366028,-0.10204470902681351,-0.17795833945274353,1.3654917478561401,-0.40034741163253784,0.012820749543607235,-0.5693522691726685,-0.032616160809993744,-0.20466163754463196,0.7372015118598938,-0.356448233127594,-0.047455865889787674,0.1306414157152176,0.22488173842430115,2.5452988147735596,-0.3140072226524353,-0.00624832883477211,0.4503214657306671,-5.031113624572754,0.10803785920143127,-0.0011269102105870843,0.04213901609182358,-0.006758380215615034,-5.103000640869141,-1.2627259492874146,0.3828606605529785,5.338356971740723,-2.154475688934326,0.1833438128232956,1.4524744749069214,0.1340155005455017,0.05565382167696953,-0.028898978605866432,-0.06666047126054764,0.10466828942298889,1741516845.408006,1741516844593,-1.7530281982421876,-0.6416251831054688,-1.9489633970051834,1.0664720458984376,0.19188365173339844
1741516845.3933904,0.5331308245658875,0.015801545094164787,0.039712841583601846,-0.9990861831623901,-0.12287648767232895,0.09351017326116562,0.7429484724998474,-1.265820026397705,8.787408828735352,10.258291244506836,-0.2996492385864258,0.24891281127929688,0.36488136649131775,-1.2516448497772217,0.005912871100008488,-0.9378576278686523,0.05893797054886818,1.2672853469848633,0.013542382046580315,0.9157320261001587,0.17109178006649017,-0.6754024624824524,-0.10433356463909149,-0.1497291475534439,1.41470205783844,-0.4517398774623871,0.007283270359039307,-0.541886031627655,-0.03147173300385475,-0.1962691694498062,0.7352941036224365,-0.3586762547492981,-0.04220898449420929,0.05159017816185951,0.08154567331075668,2.3246068954467773,-0.4529218375682831,0.004675110802054405,0.5103938579559326,-4.392302989959717,-0.3700374662876129,-0.023136766627430916,0.2430415004491806,-0.27944085001945496,-4.692178726196289,0.15277038514614105,1.402530312538147,1.947898507118225,-2.547236442565918,-0.260873407125473,1.3577934503555298,0.07851949334144592,0.44245636463165283,-0.05746258795261383,-0.1416090577840805,0.33997005224227905,1741516845.408006,1741516844593,-1.7530281982421876,-0.6416251831054688,-1.9489633970051834,1.0664720458984376,0.19188365173339844
1741516845.4134426,0.5388315320014954,0.01932662159189697,0.033781697317254805,-0.9992423522970837,0.3156822919845581,0.16337554156780243,0.26865512132644653,1.5466092824935913,0.6973832845687866,8.508556365966797,-0.2946901321411133,0.24280929565429688,0.3999771177768707,-1.2604187726974487,0.005531395319849253,-0.9313725233078003,0.005912871100008488,1.2539336681365967,0.013542382046580315,0.919165313243866,0.15850308537483215,-0.7524605393409729,-0.10433356463909149,-0.11158160120248795,1.3975356817245483,-0.4987809658050537,-0.004092308692634106,-0.5197604298591614,-0.024605173617601395,-0.17833982408046722,0.7360570430755615,-0.3699583113193512,-0.02790559083223343,0.10937877744436264,-0.12471932172775269,1.6527345180511475,-0.47649654746055603,-0.007370743900537491,0.27184808254241943,-3.3243110179901123,-0.9410019516944885,0.035378869622945786,0.22971534729003906,-0.4283671975135803,-3.7563188076019287,-0.02944008633494377,2.1100218296051025,-1.3527419567108154,-2.2209999561309814,-0.5962336659431458,1.0790977478027344,0.28024789690971375,1.0431312322616577,0.04572064056992531,-0.6530145406723022,0.7107332348823547,1741516845.408006,1741516844593,-1.7530281982421876,-0.6416251831054688,-1.9489633970051834,1.0664720458984376,0.19188365173339844
1741516845.4335024,0.5363916754722595,0.023064754588787182,0.02564215935494123,-0.9994050714096737,0.4281900227069855,0.2028002142906189,-0.17878352105617523,1.4970356225967407,-0.7220230102539062,9.681558609008789,-0.2973604202270508,0.23594284057617188,0.42706188559532166,-1.2634705305099487,0.005912871100008488,-0.9298466444015503,-0.043678950518369675,1.2459226846694946,0.013542382046580315,0.925650417804718,0.15812161564826965,-0.8093003630638123,-0.1028076633810997,-0.07763027399778366,1.3258183002471924,-0.5172836780548096,-0.008607447147369385,-0.5106050372123718,-0.01735713705420494,-0.16079194843769073,0.7391088604927063,-0.3888413608074188,-0.032566796988248825,-0.08571527898311615,-0.19678212702274323,1.3712953329086304,-0.2300899177789688,0.030292699113488197,0.07988966256380081,-3.663752555847168,-0.36028623580932617,0.012236839160323143,0.5098592042922974,-0.0119774229824543,-2.625591278076172,0.1863192319869995,1.4192181825637817,-3.8576371669769287,-0.6339182257652283,-0.08782834559679031,0.24011848866939545,0.23665355145931244,0.8519060015678406,0.17593535780906677,-0.9417466521263123,-0.3566998541355133,1741516845.408006,1741516844593,-1.7530281982421876,-0.6416251831054688,-1.9489633970051834,1.0664720458984376,0.19188365173339844
1741516845.4535816,0.5382046103477478,0.03003399795558404,0.01656277779889841,-0.999411643597566,0.41959360241889954,0.40756118297576904,0.10020437091588974,1.4161022901535034,0.572089672088623,8.062227249145508,-0.2962160110473633,0.22488021850585938,0.4545281231403351,-1.2657594680786133,0.005149920005351305,-0.925650417804718,-0.0883115902543068,1.2417265176773071,0.013542382046580315,0.9386205673217773,0.15659570693969727,-0.8451590538024902,-0.10090028494596481,-0.05664911866188049,1.2182421684265137,-0.4947578012943268,-0.01285285223275423,-0.4999237060546875,-0.01125352829694748,-0.1493476778268814,0.7497901916503906,-0.40858080983161926,-0.04207659512758255,0.020186269655823708,-0.3496924340724945,1.264428734779358,-0.13223251700401306,-0.040171559900045395,0.14982649683952332,-2.526430130004883,-0.3107338845729828,-0.02242271415889263,0.9661846160888672,-0.03440004587173462,-1.5681428909301758,0.07332877069711685,0.9327816963195801,-5.538668632507324,1.401084542274475,-0.2889792323112488,0.7304490208625793,0.23302842676639557,0.661584734916687,0.6244236826896667,-1.0231468677520752,-0.42916664481163025,1741516845.408006,1741516844593,-1.7530281982421876,-0.6416251831054688,-1.9489633970051834,1.0664720458984376,0.19188365173339844
1741516845.473564,0.5373318791389465,0.04205876132386779,0.010686028855390526,-0.9990579910011248,0.2845290005207062,0.652487576007843,-0.027718691155314445,4.174962997436523,2.322410821914673,6.7680158615112305,-0.3030824661254883,0.21915817260742188,0.4640650153160095,-1.2615631818771362,0.005531395319849253,-0.9218356609344482,-0.11120012402534485,1.23447847366333,0.012779430486261845,0.954261064529419,0.15316243469715118,-0.8535515666007996,-0.09479667246341705,-0.04444190114736557,1.0786221027374268,-0.4514588713645935,-0.012468574568629265,-0.4880979657173157,-0.002861066721379757,-0.1363775134086609,0.7585641145706177,-0.43136024475097656,-0.04707415774464607,-0.21356046199798584,-0.2088978886604309,0.3716389238834381,0.2948220372200012,-0.005213199183344841,0.20438894629478455,-1.4523102045059204,-0.5454967617988586,0.017891928553581238,1.002764105796814,-0.2875541150569916,-0.5297307968139648,0.36856672167778015,0.7153053879737854,-7.470707416534424,2.151913642883301,0.05984741449356079,0.6980281472206116,0.5388350486755371,0.5996561050415039,0.43116265535354614,-1.108608365058899,-0.22406436502933502,1741516845.408006,1741516844593,-1.7530281982421876,-0.6416251831054688,-1.9489633970051834,1.0664720458984376,0.19188365173339844
1741516845.4935324,0.5366290211677551,0.05175234850548443,0.008138837942387076,-0.9986267840094789,0.05657479166984558,0.4821757376194,-0.0483001209795475,3.441356897354126,-1.3779462575912476,5.363911151885986,-0.3030824661254883,0.22068405151367188,0.46215763688087463,-1.2569855451583862,0.005531395319849253,-0.9210727214813232,-0.11272602528333664,1.2276118993759155,0.013160906732082367,0.9657053351402283,0.14782176911830902,-0.8463035225868225,-0.07610437273979187,-0.024223696440458298,0.9218356609344482,-0.4079895615577698,-0.0009537708247080445,-0.4671168029308319,0.015449759550392628,-0.1199740618467331,0.7646677494049072,-0.45105063915252686,-0.047649890184402466,-0.022727003321051598,0.02428910881280899,-0.18867895007133484,0.2679019570350647,-0.006043632980436087,-0.03271102160215378,0.09747377783060074,-0.4213979244232178,-0.005946129094809294,0.6984090805053711,-0.22136779129505157,0.5655511617660522,1.0184829235076904,1.1731802225112915,-7.604395866394043,2.1182570457458496,0.6363561749458313,1.1076982021331787,0.929093599319458,0.8544492721557617,0.24248343706130981,-0.9350581765174866,0.18078097701072693,1741516845.408006,1741516844593,-1.7530281982421876,-0.6416251831054688,-1.9489633970051834,1.0664720458984376,0.19188365173339844
1741516845.5135233,0.5302666425704956,0.05625724023113855,0.013795818344440025,-0.9983209896209652,-0.2951446771621704,0.1602497398853302,-0.36014652252197266,0.5838528871536255,-1.908919334411621,4.1185688972473145,-0.3126192092895508,0.23594284057617188,0.4526207447052002,-1.2524077892303467,0.005531395319849253,-0.9225986003875732,-0.09594109654426575,1.2226526737213135,0.013160906732082367,0.9683756828308105,0.1508735716342926,-0.8226520419120789,-0.053215838968753815,0.0009536888683214784,0.7841230034828186,-0.38240882754325867,0.006693017203360796,-0.4354543387889862,0.04596780240535736,-0.10967422276735306,0.7658121585845947,-0.46033093333244324,-0.030543914064764977,-0.28523844480514526,0.4027843773365021,-0.5509600639343262,0.2837062478065491,-0.011674581095576286,-0.08362612873315811,1.3497769832611084,-0.25195518136024475,0.016102228313684464,0.15935850143432617,0.2769923806190491,1.2318977117538452,1.1280101537704468,1.2391170263290405,-6.541622161865234,1.03913152217865,0.17304114997386932,1.6531773805618286,1.5522061586380005,0.4431007504463196,0.04350600764155388,-0.40427365899086,0.8675605058670044,1741516845.6127117,1741516844793,-1.6021912841796875,-0.5384061889648437,-1.6992698848522891,1.2060521240234374,0.013438712120056153
1741516845.5335646,0.5212881565093994,0.05291310957361334,0.02664905089264632,-0.9982434727669256,-0.6442248821258545,-0.2029503434896469,-0.48399779200553894,-0.6312353610992432,-4.632445335388184,7.30887508392334,-0.3137636184692383,0.24853134155273438,0.43087664246559143,-1.2466856241226196,0.005531395319849253,-0.9222171306610107,-0.05893797054886818,1.2276118993759155,0.013542382046580315,0.9683756828308105,0.1653696447610855,-0.7936598658561707,-0.016975661739706993,0.0024795911740511656,0.700579822063446,-0.3744302988052368,0.007178429048508406,-0.3927290737628937,0.07381551712751389,-0.12378881871700287,0.7719157934188843,-0.448003351688385,-0.018639203161001205,-0.06890702992677689,0.37948688864707947,-1.12147855758667,0.4625028073787689,-0.01681216061115265,0.052578527480363846,2.6323201656341553,0.3613354563713074,0.002548700664192438,-0.026892326772212982,0.7794274687767029,1.2477701902389526,1.713255763053894,-0.06363589316606522,-3.2106692790985107,0.6032857894897461,0.06579817086458206,2.148707389831543,1.210893154144287,-0.8678993582725525,0.33994823694229126,0.7563817501068115,0.4981518089771271,1741516845.6127117,1741516844793,-1.6021912841796875,-0.5384061889648437,-1.6992698848522891,1.2060521240234374,0.013438712120056153
1741516845.553568,0.5129839777946472,0.04341315213314129,0.03959289109933436,-0.9982723582250793,-0.5474054217338562,-0.30702534317970276,-0.3629700243473053,-7.612377643585205,-3.98944354057312,16.111663818359375,-0.3156709671020508,0.2531089782714844,0.39692530035972595,-1.2371487617492676,0.005531395319849253,-0.919165313243866,-0.005912871100008488,1.233715534210205,0.012779430486261845,0.9657053351402283,0.18520638346672058,-0.7669565677642822,-0.0032425422687083483,-0.01735713705420494,0.7497901916503906,-0.3559332489967346,0.005547608248889446,-0.36678874492645264,0.06923781335353851,-0.14171816408634186,0.8047226667404175,-0.41792577505111694,-0.03468708321452141,-0.07062311470508575,0.09793170541524887,-1.9408705234527588,0.5987558364868164,-0.007486107759177685,0.12377909570932388,3.620547294616699,0.47788718342781067,-0.07046705484390259,-0.15563760697841644,1.152038812637329,0.9774384498596191,0.222928985953331,-1.1081790924072266,2.6608054637908936,0.7508692741394043,0.0173321682959795,1.048324704170227,-0.2397843301296234,-0.9680448770523071,1.9132241010665894,1.5536515712738037,-1.041305422782898,1741516845.6127117,1741516844793,-1.6021912841796875,-0.5384061889648437,-1.6992698848522891,1.2060521240234374,0.013438712120056153
1741516845.5736601,0.5028311610221863,0.03518630907924547,0.04559828076970197,-0.9983399823928857,-0.29046472907066345,-0.4775165915489197,-0.661832332611084,-3.640650749206543,-5.582702159881592,11.14702033996582,-0.3122377395629883,0.2611198425292969,0.32978561520576477,-1.233715534210205,0.005912871100008488,-0.9214541912078857,0.054741740226745605,1.238293170928955,0.013160906732082367,0.9603646993637085,0.1981765478849411,-0.7581826448440552,0.002861066721379757,-0.03681239113211632,0.7822155952453613,-0.35571157932281494,0.000878914084751159,-0.3919661343097687,0.06809338182210922,-0.1684214472770691,0.9027618765830994,-0.38406410813331604,-0.02992854081094265,0.06234787404537201,0.349042683839798,-3.484255313873291,0.05688757449388504,-0.006239426322281361,-0.16915768384933472,3.841475009918213,0.2583000361919403,0.08060958236455917,-0.4089246988296509,0.47802260518074036,0.9575739502906799,0.2097940742969513,-0.6732478141784668,1.4096522331237793,-0.05083470419049263,-0.25354957580566406,-1.6286122798919678,-0.15293729305267334,-1.0391596555709839,5.388302326202393,1.6682939529418945,0.48630356788635254,1741516845.6127117,1741516844793,-1.6021912841796875,-0.5384061889648437,-1.6992698848522891,1.2060521240234374,0.013438712120056153
1741516845.5937622,0.4846521019935608,0.028282403955207827,0.05050071450372499,-0.9983234863816075,-0.1424609273672104,-0.27747079730033875,-1.0290073156356812,-3.769761800765991,3.947934865951538,11.111244201660156,-0.3217744827270508,0.2557792663574219,0.25196459889411926,-1.236767292022705,0.005531395319849253,-0.9222171306610107,0.11196307092905045,1.2428709268569946,0.013923857361078262,0.9557870030403137,0.1974135935306549,-0.7238498330116272,0.01125352829694748,-0.0394827201962471,0.7959487438201904,-0.3550261855125427,0.00266419374383986,-0.45681697130203247,0.05092698708176613,-0.17681391537189484,1.052681803703308,-0.3677094876766205,0.0030177668668329716,-0.24190720915794373,-0.10228007286787033,-3.7276039123535156,-0.13433317840099335,0.0008942272397689521,0.05855471268296242,3.8457376956939697,0.39762750267982483,0.023008126765489578,-0.27876824140548706,-0.018308622762560844,1.3902875185012817,0.4598134160041809,-0.06836585700511932,0.5639728307723999,0.03812938928604126,0.08795619010925293,-3.3217310905456543,-0.8122238516807556,-0.40054652094841003,7.7007622718811035,0.47822099924087524,1.4480161666870117,1741516845.6127117,1741516844793,-1.6021912841796875,-0.5384061889648437,-1.6992698848522891,1.2060521240234374,0.013438712120056153
1741516845.6136522,0.45383960008621216,0.020854149622890658,0.04505393042191005,-0.9987668635858139,0.3141951560974121,-0.2454330027103424,-1.5809406042099,1.71543550491333,-2.7172131538391113,12.102583885192871,-0.3141450881958008,0.24929428100585938,0.17872129380702972,-1.2371487617492676,0.005531395319849253,-0.9218356609344482,0.17109178006649017,1.2470670938491821,0.013542382046580315,0.951972246170044,0.20275425910949707,-0.6952391862869263,0.025749599561095238,-0.03185320645570755,0.805867075920105,-0.3573891520500183,-0.00034068411332555115,-0.54264897108078,0.03223468363285065,-0.18558785319328308,1.196879506111145,-0.3953673541545868,-0.002931256080046296,0.16587664186954498,-0.2213868945837021,-3.6707816123962402,-0.004936588928103447,-0.004899628926068544,-0.0614294707775116,3.965097188949585,0.17583055794239044,-0.005800843238830566,-0.24576051533222198,0.31771576404571533,1.6148287057876587,0.8373821973800659,0.474021315574646,0.4983300566673279,-0.15691708028316498,-0.15824508666992188,-3.934978723526001,-0.9761069416999817,-0.5002868175506592,6.925215244293213,-1.643966794013977,-0.4295904040336609,1741516845.6127117,1741516844793,-1.6021912841796875,-0.5384061889648437,-1.6992698848522891,1.2060521240234374,0.013438712120056153
1741516845.6336584,0.41808366775512695,0.017626048895787907,0.0407588145408492,-0.9990135341613485,0.22935111820697784,-0.11253129690885544,-1.7914369106292725,3.185486078262329,0.13280507922172546,10.590324401855469,-0.3305482864379883,0.24319076538085938,0.1031891331076622,-1.2340970039367676,0.005531395319849253,-0.924124538898468,0.2283131182193756,1.2474485635757446,0.013542382046580315,0.9477760195732117,0.20656901597976685,-0.6540398001670837,0.04444190114736557,-0.009346150793135166,0.804341197013855,-0.3678435981273651,-0.007713305298238993,-0.6177996397018433,0.012779430486261845,-0.1981765478849411,1.2911039590835571,-0.4432517886161804,-0.002495068358257413,-0.42025458812713623,-0.21404972672462463,-3.6171019077301025,0.25772467255592346,-0.003933707717806101,-0.055190280079841614,3.870528221130371,0.032963287085294724,0.0005107289180159569,-0.32258862257003784,0.1302768439054489,2.022876262664795,1.0548489093780518,1.1474590301513672,-0.11819495260715485,-0.5454992651939392,-0.3893198072910309,-3.700458288192749,-1.0130401849746704,-0.5995646715164185,4.29367733001709,-2.482638359069824,0.24321900308132172,1741516845.6127117,1741516844793,-1.6021912841796875,-0.5384061889648437,-1.6992698848522891,1.2060521240234374,0.013438712120056153
1741516845.6537235,0.3814746141433716,0.01108439291859767,0.03596358100479878,-0.9992916276417697,0.2742525041103363,-0.2378930002450943,-1.8057951927185059,1.4580528736114502,-3.1669230461120605,9.75552749633789,-0.3343629837036133,0.23975753784179688,0.035667963325977325,-1.2291377782821655,0.005531395319849253,-0.9225986003875732,0.28515297174453735,1.2474485635757446,0.013542382046580315,0.9416723847389221,0.20618753135204315,-0.6147478222846985,0.06771191209554672,0.004386968910694122,0.8016708493232727,-0.3816303312778473,-0.021153997629880905,-0.6708247661590576,-0.008964675478637218,-0.21190966665744781,1.3185702562332153,-0.491615355014801,0.007290662731975317,-0.13430625200271606,-0.1280582696199417,-3.0859100818634033,0.3035852313041687,-0.0017331776907667518,0.09805960208177567,3.749220132827759,-0.0011398055357858539,-0.0022254406940191984,-0.39581945538520813,0.13971278071403503,2.024704694747925,1.156773328781128,0.6991463303565979,-0.11964546889066696,-0.714606523513794,-0.770244836807251,-2.4769539833068848,-0.9698916673660278,-0.709713876247406,0.9282580614089966,-2.4085006713867188,0.5780104398727417,1741516845.6127117,1741516844793,-1.6021912841796875,-0.5384061889648437,-1.6992698848522891,1.2060521240234374,0.013438712120056153
1741516845.6737082,0.3576371669769287,0.006249522155696493,0.0323960529240412,-0.9994555714126406,0.15727019309997559,-0.20456227660179138,-1.145339012145996,1.3453280925750732,-1.5070823431015015,8.624955177307129,-0.3397035598754883,0.23823165893554688,-0.01430533267557621,-1.2283748388290405,0.005531395319849253,-0.9222171306610107,0.3374151289463043,1.2474485635757446,0.012779430486261845,0.9355688095092773,0.20237277448177338,-0.5727855563163757,0.0864042118191719,0.020027466118335724,0.7921339869499207,-0.39819425344467163,-0.036244865506887436,-0.7070649266242981,-0.02841992862522602,-0.22449836134910583,1.2914854288101196,-0.5275989770889282,0.0025434098206460476,-0.15629148483276367,-0.04252256453037262,-2.3489270210266113,0.008837415836751461,-0.0035212417133152485,-0.044511277228593826,3.417243242263794,-0.017523974180221558,-0.025045502930879593,-0.4204913377761841,-0.2965250015258789,2.0599515438079834,0.8582533001899719,0.6578152179718018,-0.579802930355072,-0.8027051687240601,-0.651435375213623,-1.6603713035583496,-0.9941223859786987,-0.537933886051178,-1.6345279216766357,-1.6009167432785034,-0.21090875566005707,1741516845.715257,1741516844893,-1.5317825927734374,-0.47692758178710937,-2.0925316656457738,1.273628662109375,-0.0734097900390625
1741516845.6938238,0.340606689453125,0.0019206355624852968,0.03184587370819196,-0.9994909461755009,0.02866452932357788,-0.14545638859272003,-0.8560972213745117,0.4694617986679077,-1.4658493995666504,9.6521635055542,-0.3458080291748047,0.23556137084960938,-0.06618601083755493,-1.228756308555603,0.005531395319849253,-0.9267948269844055,0.38357365131378174,1.2489745616912842,0.013542382046580315,0.9298466444015503,0.19550621509552002,-0.5304417610168457,0.09746700525283813,0.02841992862522602,0.7803082466125488,-0.4123159646987915,-0.04705445468425751,-0.7288090586662292,-0.054741740226745605,-0.23708705604076385,1.2285419702529907,-0.5328570604324341,0.005136596038937569,-0.1768922060728073,-0.05573123320937157,-2.9024033546447754,-0.010075315833091736,0.012920510955154896,-0.26198095083236694,3.0918917655944824,0.10401710867881775,0.052361875772476196,-0.37949979305267334,-0.21903155744075775,2.2582409381866455,0.4798250198364258,0.298795223236084,-0.5142883658409119,-0.6413453817367554,-0.5155882835388184,-1.0114045143127441,-1.264162302017212,-0.6966109275817871,-3.24143123626709,0.000667500717099756,0.37334397435188293,1741516845.715257,1741516844893,-1.5317825927734374,-0.47692758178710937,-2.0925316656457738,1.273628662109375,-0.0734097900390625
1741516845.7138174,0.3230580687522888,0.0024633687687216736,0.03044754762577234,-0.999533330438703,0.07630695402622223,0.03876921534538269,-0.899814248085022,0.14565730094909668,-1.6831858158111572,8.265958786010742,-0.3507671356201172,0.23022079467773438,-0.10509651154279709,-1.228756308555603,0.00476844422519207,-0.9416723847389221,0.4373617172241211,1.2512633800506592,0.013542382046580315,0.9206912517547607,0.1993209719657898,-0.4869535267353058,0.09899290651082993,0.028038453310728073,0.7665750980377197,-0.42561861872673035,-0.0516713447868824,-0.7360570430755615,-0.0883115902543068,-0.25158312916755676,1.1400396823883057,-0.5072606205940247,0.016684086993336678,-0.1376492828130722,-0.11168158054351807,-1.7210673093795776,0.0001499055215390399,-0.027836967259645462,-0.7056019306182861,3.5712568759918213,0.06951192021369934,-0.03271925449371338,-0.6363124251365662,0.336017906665802,2.120805501937866,0.021432658657431602,-0.003209547372534871,-0.7414083480834961,-0.6819050908088684,-0.08017223328351974,-0.13369324803352356,-1.7312986850738525,-0.6861317157745361,-4.455286026000977,1.4678860902786255,0.4464607536792755,1741516845.715257,1741516844893,-1.5317825927734374,-0.47692758178710937,-2.0925316656457738,1.273628662109375,-0.0734097900390625
1741516845.7338274,0.3029898405075073,0.004756180798340131,0.030502424166838356,-0.9995233768472651,0.00864467490464449,0.13286985456943512,-1.0340330600738525,1.4226338863372803,-3.075362205505371,7.237924098968506,-0.3500041961669922,0.21763134002685547,-0.11768520623445511,-1.227230429649353,0.005149920005351305,-0.9546425342559814,0.4682612419128418,1.2489745616912842,0.013923857361078262,0.9149690866470337,0.21839475631713867,-0.44613564014434814,0.09746700525283813,0.025749599561095238,0.7490272521972656,-0.43622469902038574,-0.05145827308297157,-0.7238498330116272,-0.12378881871700287,-0.2763790488243103,1.035896897315979,-0.46408700942993164,0.017239686101675034,-0.009518425911664963,-0.2726271450519562,-0.4458850920200348,0.12308375537395477,-0.03569236397743225,-0.6483830213546753,1.7857913970947266,-0.13701695203781128,0.05141444131731987,-0.34669655561447144,1.0523250102996826,2.0688974857330322,-0.07835010439157486,-0.1885439157485962,-0.8902645707130432,-0.514472484588623,0.04282693564891815,0.664663553237915,-1.819536805152893,-1.3689696788787842,-5.377772808074951,2.134958267211914,-0.04683961719274521,1741516845.715336,1741516844973,-1.4644005126953126,-0.4535794982910156,-2.2719936999344488,1.3250794677734374,-0.13902032470703124
1741516845.7538624,0.2797137498855591,0.006587972706506566,0.028446666795348026,-0.9995736019742882,0.1444987803697586,0.09656446427106857,-1.1638177633285522,1.4411195516586304,-0.12452761083841324,7.050649166107178,-0.3446636199951172,0.21038341522216797,-0.10624094307422638,-1.2218897342681885,0.005531395319849253,-0.9641794562339783,0.4808499217033386,1.2485930919647217,0.013160906732082367,0.9107728600502014,0.24204623699188232,-0.39921414852142334,0.08869306743144989,0.012397955171763897,0.7288090586662292,-0.4443933665752411,-0.04984515160322189,-0.7017242908477783,-0.15850308537483215,-0.3122377395629883,0.9138246774673462,-0.4194554090499878,0.01205872930586338,0.14367829263210297,-0.14512690901756287,0.7409754395484924,0.3769001066684723,0.012230795808136463,-0.3986670970916748,0.672339916229248,-0.07678567618131638,-0.03420449420809746,-0.2896031141281128,1.149442195892334,2.3644888401031494,-0.4182279706001282,-0.7729601263999939,-1.055100917816162,-0.38106563687324524,0.12893733382225037,1.1835497617721558,-1.6717280149459839,-1.8462634086608887,-6.09780740737915,2.2233757972717285,-0.27654656767845154,1741516845.715336,1741516844973,-1.4644005126953126,-0.4535794982910156,-2.2719936999344488,1.3250794677734374,-0.13902032470703124
1741516845.7739751,0.2564464807510376,0.005369081908484693,0.02248183079674959,-0.9997328344330231,0.33298999071121216,-0.05818897858262062,-1.1699734926223755,3.139364242553711,0.6855097413063049,6.179561138153076,-0.3446636199951172,0.20809459686279297,-0.07457847148180008,-1.2180750370025635,0.005531395319849253,-0.9657053351402283,0.47894254326820374,1.2459226846694946,0.013160906732082367,0.9096284508705139,0.2573052644729614,-0.3416113555431366,0.06923781335353851,-0.00667582219466567,0.7059205174446106,-0.4486168622970581,-0.032973743975162506,-0.6712062358856201,-0.1802472025156021,-0.3557259440422058,0.7940413355827332,-0.38082730770111084,-0.0022023420315235853,-0.0011510844342410564,-0.07054417580366135,1.686158537864685,0.22483806312084198,-0.0074206930585205555,-0.023738037794828415,-0.23382824659347534,-0.21142740547657013,0.006427542306482792,-0.027616823092103004,0.6043579578399658,2.94830584526062,-1.0086464881896973,-1.0915683507919312,-1.1480658054351807,-0.1996670663356781,0.8754059076309204,1.5475503206253052,-1.0244802236557007,-2.0440962314605713,-5.839437961578369,1.747117042541504,-0.7057026624679565,1741516845.8174548,1741516845073,-1.3679320068359375,-0.4240119934082031,-2.2794427924567717,1.3874578857421875,-0.21632362365722657
1741516845.7938485,0.23343396186828613,0.00037081530049931,0.012057618587991151,-0.9999272355176648,0.5234184265136719,-0.2722509205341339,-1.1524523496627808,0.0843285322189331,-3.214999198913574,5.329726219177246,-0.3374147415161133,0.20923900604248047,-0.022697795182466507,-1.218456506729126,0.005531395319849253,-0.962272047996521,0.46139466762542725,1.2424894571304321,0.013542382046580315,0.9103913903236389,0.2580682039260864,-0.2790493667125702,0.03643091395497322,-0.03681239113211632,0.6849393248558044,-0.4363152086734772,-0.019832082092761993,-0.6395437717437744,-0.19245441257953644,-0.3843366205692291,0.6956206560134888,-0.35904818773269653,-0.015215465798974037,0.1991119235754013,0.029146933928132057,2.76855206489563,-0.07153136283159256,-0.007465262897312641,0.15597422420978546,-1.2835371494293213,-0.21090218424797058,0.011617724783718586,0.038528140634298325,-0.06784619390964508,3.0423879623413086,-1.7945468425750732,-1.5237936973571777,-0.9838517308235168,0.82430499792099,0.5756818056106567,1.442081332206726,-0.49193838238716125,-1.4125452041625977,-4.39903450012207,1.0806148052215576,-0.6285566687583923,1741516845.8174548,1741516845073,-1.3679320068359375,-0.4240119934082031,-2.2794427924567717,1.3874578857421875,-0.21632362365722657
1741516845.8139148,0.2112722396850586,-0.009038805813241851,0.005424982362257218,-0.9999444332340871,0.24587246775627136,-0.4864591062068939,-1.097748875617981,-0.7542538046836853,-4.481728553771973,14.632136344909668,-0.3355073928833008,0.22945785522460938,0.040627144277095795,-1.223797082901001,0.005531395319849253,-0.9573128819465637,0.42896926403045654,1.2402005195617676,0.013542382046580315,0.9092469811439514,0.2573052644729614,-0.22602425515651703,0.020027466118335724,-0.07877469807863235,0.6887540817260742,-0.4004373550415039,-0.015529797412455082,-0.6101701259613037,-0.17833982408046722,-0.39539939165115356,0.7001983523368835,-0.34396207332611084,-0.03909534960985184,0.08843974769115448,0.6076432466506958,3.0645039081573486,-0.43208953738212585,-0.004432915709912777,0.2452026903629303,-2.3411545753479004,-0.09678509831428528,0.01724204048514366,-0.10017631947994232,-0.12543310225009918,2.2231216430664062,-0.6493850946426392,-2.1070656776428223,0.331314355134964,1.6670953035354614,0.35917460918426514,1.6932640075683594,0.9052959680557251,-0.3183302879333496,0.9812471866607666,0.637648344039917,-1.195383906364441,1741516845.8174548,1741516845073,-1.3679320068359375,-0.4240119934082031,-2.2794427924567717,1.3874578857421875,-0.21632362365722657
1741516845.8339021,0.1896604299545288,-0.012678209026240507,0.007157490247202447,-0.9998940110577961,-0.05080026760697365,-0.01742728240787983,-0.818476140499115,-1.704254388809204,-1.4222114086151123,10.308085441589355,-0.3385591506958008,0.22678756713867188,0.11081864684820175,-1.227230429649353,0.005531395319849253,-0.9584572911262512,0.3740367889404297,1.2501189708709717,0.01430533267557621,0.9111543297767639,0.25120165944099426,-0.22411687672138214,0.012397955171763897,-0.13027389347553253,0.7444495558738708,-0.37550440430641174,-0.009799488820135593,-0.576218843460083,-0.16346226632595062,-0.36488136649131775,0.7211795449256897,-0.34844598174095154,-0.05542952939867973,-0.06645891070365906,-0.06516345590353012,3.624293804168701,-0.24774086475372314,0.018854795023798943,-0.0872940793633461,-3.904902219772339,0.8411845564842224,0.016533920541405678,0.17511162161827087,-0.16149020195007324,-0.28354915976524353,-0.5454565286636353,-2.7931644916534424,3.423412561416626,1.2539077997207642,0.1974707841873169,1.3494099378585815,0.6329177021980286,1.7443150281906128,0.6542311310768127,-0.24510033428668976,-0.7588739991188049,1741516845.8174548,1741516845073,-1.3679320068359375,-0.4240119934082031,-2.2794427924567717,1.3874578857421875,-0.21632362365722657
1741516845.8590877,0.17956602573394775,-0.006452984560082976,0.009088186057225514,-0.9999378800027812,-0.11367464065551758,0.3750854730606079,-0.42251405119895935,-3.3224759101867676,2.0811824798583984,12.275053024291992,-0.3286409378051758,0.23174667358398438,0.17414358258247375,-1.236767292022705,0.005531395319849253,-0.959983229637146,0.30498969554901123,1.2615631818771362,0.013923857361078262,0.9122987985610962,0.2470054179430008,-0.28286412358283997,-0.0078202486038208,-0.20695048570632935,0.8871213793754578,-0.339481383562088,-0.008048058487474918,-0.5609598159790039,-0.13981078565120697,-0.33588922023773193,0.7154573798179626,-0.3521612882614136,-0.06299955397844315,0.23527242243289948,0.14833217859268188,3.033675193786621,-0.6586059927940369,-0.0300056803971529,-0.04714930057525635,-4.664718151092529,0.6359767317771912,-0.023083727806806564,0.07550226897001266,-0.18986229598522186,-3.534008741378784,-1.2353637218475342,-3.890047073364258,7.8180460929870605,2.008286714553833,0.272236704826355,1.0024000406265259,1.5187864303588867,1.1525473594665527,-0.18197721242904663,-0.07620348781347275,-0.31112250685691833,1741516845.8174548,1741516845073,-1.3679320068359375,-0.4240119934082031,-2.2794427924567717,1.3874578857421875,-0.21632362365722657
1741516845.873963,0.18233132362365723,0.005375899091344331,0.016965287526798968,-0.9998416268230149,-0.4469432234764099,0.5509862899780273,0.2082529217004776,0.6966977715492249,-2.4377341270446777,8.635347366333008,-0.3309297561645508,0.23403549194335938,0.2309834510087967,-1.2436338663101196,0.005531395319849253,-0.9580758213996887,0.2317463904619217,1.2657594680786133,0.013542382046580315,0.9119172692298889,0.2470054179430008,-0.3927290737628937,-0.04749370738863945,-0.27180132269859314,1.0858701467514038,-0.3058055639266968,0.006290125194936991,-0.5453193187713623,-0.10929274559020996,-0.31910428404808044,0.7146944403648376,-0.35120147466659546,-0.06422176212072372,-0.07237895578145981,0.11127987504005432,2.7157561779022217,-0.4376780390739441,-0.013127416372299194,0.04852155223488808,-4.949901103973389,0.2457461953163147,0.02414814941585064,-0.03714204952120781,-0.026060275733470917,-5.742523193359375,-2.0413262844085693,-2.7931621074676514,10.016884803771973,1.3819310665130615,0.7714377045631409,0.6507390737533569,1.2558012008666992,0.7603645324707031,-0.11399587243795395,0.010388737544417381,-0.025081679224967957,1741516845.8174548,1741516845073,-1.3679320068359375,-0.4240119934082031,-2.2794427924567717,1.3874578857421875,-0.21632362365722657
1741516845.8939874,0.19533944129943848,0.01378237125299422,0.028395767977642285,-0.9995017391698748,-0.5813021659851074,0.44325464963912964,0.6980857253074646,0.27117979526519775,0.8144443035125732,9.096385955810547,-0.3233003616333008,0.24738693237304688,0.28286412358283997,-1.2482116222381592,0.005531395319849253,-0.9580758213996887,0.16002899408340454,1.2680482864379883,0.013923857361078262,0.9126802682876587,0.2450980395078659,-0.5243381261825562,-0.09327077120542526,-0.2939268946647644,1.2842373847961426,-0.31719475984573364,0.01717102900147438,-0.5308232307434082,-0.08945601433515549,-0.31567102670669556,0.7127870321273804,-0.3517751097679138,-0.06293191015720367,0.20616933703422546,0.388571172952652,2.6186957359313965,-0.29366618394851685,-0.009255826473236084,-0.025356879457831383,-4.823980331420898,0.11195435374975204,-0.041407521814107895,0.06309732049703598,-0.07514502853155136,-6.593189239501953,-2.169093370437622,-0.769036054611206,9.664324760437012,-0.9496892690658569,0.39262866973876953,0.8935955166816711,0.8640132546424866,0.12972740828990936,-0.0497528612613678,-0.0368155911564827,0.07085210084915161,1741516845.8174548,1741516845073,-1.3679320068359375,-0.4240119934082031,-2.2794427924567717,1.3874578857421875,-0.21632362365722657
1741516845.9140835,0.21288752555847168,0.0224163027256304,0.03912114719681832,-0.99898300546812,-0.5491063594818115,0.38263773918151855,0.8795074224472046,6.249704360961914,1.6521868705749512,9.537970542907715,-0.3126192092895508,0.2634086608886719,0.33131152391433716,-1.2505004405975342,0.005531395319849253,-0.9576943516731262,0.09098191559314728,1.2642335891723633,0.013542382046580315,0.9138246774673462,0.2508201599121094,-0.647936224937439,-0.13141833245754242,-0.2771419882774353,1.4223315715789795,-0.36616188287734985,0.01891448348760605,-0.507553219795227,-0.08411535620689392,-0.3114747703075409,0.7101167440414429,-0.35386180877685547,-0.057259805500507355,0.2934398353099823,0.4679432511329651,2.4360463619232178,-0.11353588849306107,-0.00603795750066638,0.05094730854034424,-4.51274299621582,-0.32764872908592224,0.0030596842989325523,0.09932974725961685,0.395879328250885,-5.920810222625732,-1.8062084913253784,1.1977332830429077,6.268581867218018,-2.5183539390563965,0.21067136526107788,1.1536719799041748,0.2052314281463623,0.19948801398277283,-0.10440676659345627,-0.08850327134132385,0.29944753646850586,1741516845.8174548,1741516845073,-1.3679320068359375,-0.4240119934082031,-2.2794427924567717,1.3874578857421875,-0.21632362365722657
1741516845.9364412,0.22356653213500977,0.02550661328091796,0.044358296380330724,-0.9986900190855881,-0.17190639674663544,0.15330681204795837,0.4130232632160187,-0.1476118117570877,6.474884033203125,11.059576034545898,-0.2950716018676758,0.2729454040527344,0.3751811981201172,-1.2531707286834717,0.005531395319849253,-0.9569314122200012,0.03337911143898964,1.2558410167694092,0.013923857361078262,0.9157320261001587,0.2508201599121094,-0.7490272521972656,-0.1493476778268814,-0.23823148012161255,1.4688715934753418,-0.42138007283210754,0.013703393749892712,-0.4861905872821808,-0.08411535620689392,-0.30498969554901123,0.7116426229476929,-0.35667648911476135,-0.04982006177306175,0.4816060960292816,0.30864831805229187,2.1335177421569824,-0.2862532138824463,0.005629046820104122,0.02590472623705864,-3.7073495388031006,-0.5329145193099976,0.0634099692106247,0.11790347099304199,0.0200201366096735,-4.910104751586914,-0.6284317970275879,1.915297508239746,1.6221784353256226,-2.7771852016448975,-0.3170909881591797,1.1510329246520996,0.05648986995220184,0.34484928846359253,0.10278843343257904,-0.1765347272157669,0.44869139790534973,1741516846.0143528,1741516845273,-1.1822342529296874,-0.37047586059570314,-2.1541117098708504,1.5092197265625,-0.3572163391113281
1741516845.9540355,0.2215191125869751,0.029774025681663235,0.03695266860219318,-0.9988733691904516,0.4159688651561737,0.19666442275047302,-0.21633055806159973,3.621760129928589,-2.139956474304199,9.651092529296875,-0.2752342224121094,0.2676048278808594,0.41294726729393005,-1.2619446516036987,0.005531395319849253,-0.955024003982544,-0.009727626107633114,1.2459226846694946,0.013160906732082367,0.9199283123016357,0.2573052644729614,-0.8157854676246643,-0.15316243469715118,-0.19474326074123383,1.428435206413269,-0.4715314209461212,0.00223520677536726,-0.46025025844573975,-0.07915617525577545,-0.28477150201797485,0.7120240926742554,-0.36741161346435547,-0.03414415940642357,0.6131687760353088,-0.10235023498535156,1.7850341796875,-0.6595656871795654,-0.028986580669879913,0.10584289580583572,-2.77337384223938,-0.654667317867279,-0.021388845518231392,0.2633282244205475,0.31065160036087036,-3.1083786487579346,-0.3281713128089905,2.39732027053833,-2.6557440757751465,-2.4043242931365967,-0.7437954545021057,1.2370680570602417,0.32698825001716614,1.0810606479644775,0.0011538851540535688,-0.6010423302650452,0.7062737941741943,1741516846.0143528,1741516845273,-1.1822342529296874,-0.37047586059570314,-2.1541117098708504,1.5092197265625,-0.3572163391113281
1741516845.9741683,0.22056591510772705,0.03241221188366933,0.02481516379359812,-0.9991664807061458,0.621039867401123,0.1596217006444931,0.07327184081077576,4.603421211242676,-0.8379707932472229,8.113577842712402,-0.2763786315917969,0.2649345397949219,0.44384679198265076,-1.2646150588989258,0.005531395319849253,-0.9473945498466492,-0.05855649709701538,1.2394375801086426,0.013160906732082367,0.9294651746749878,0.24967575073242188,-0.8493552803993225,-0.15812161564826965,-0.1501106321811676,1.3143739700317383,-0.4942726790904999,-0.014009012840688229,-0.4526207447052002,-0.0722896158695221,-0.26684215664863586,0.7162203192710876,-0.3914557695388794,-0.04362095892429352,0.013265987858176231,-0.06718220561742783,1.4439897537231445,-0.15884657204151154,-0.038737352937459946,0.459269255399704,-3.264220714569092,-0.4396488070487976,0.011186198331415653,0.6482483744621277,-0.5420116782188416,-1.3306633234024048,-0.07186891883611679,1.9802032709121704,-6.064289569854736,-0.8401584029197693,-0.61161869764328,0.17979693412780762,0.24874690175056458,0.9565624594688416,0.23174147307872772,-1.2729170322418213,-0.7139418721199036,1741516846.0143528,1741516845273,-1.1822342529296874,-0.37047586059570314,-2.1541117098708504,1.5092197265625,-0.3572163391113281
1741516845.994161,0.22422099113464355,0.04028607783787615,0.012631346490128583,-0.9991083429830255,0.5831841230392456,0.4520867168903351,0.09987632930278778,2.4270360469818115,-1.4440213441848755,6.857600212097168,-0.2656974792480469,0.2553977966308594,0.46101319789886475,-1.2646150588989258,0.005912871100008488,-0.9378576278686523,-0.08564125746488571,1.231045126914978,0.013160906732082367,0.9447242021560669,0.23365376889705658,-0.8554589152336121,-0.152399480342865,-0.12302586436271667,1.1610208749771118,-0.4837753474712372,-0.008362481370568275,-0.44155794382095337,-0.05893797054886818,-0.24204623699188232,0.7295719981193542,-0.4205341041088104,-0.05766669288277626,0.30056291818618774,-0.31073567271232605,0.6705347299575806,0.0377880334854126,0.0021458545234054327,0.46146464347839355,-1.561617136001587,-0.5284227728843689,-0.03830131143331528,1.0297695398330688,-0.7519234418869019,-0.06500570476055145,0.3972274661064148,1.1321589946746826,-8.01754093170166,0.7478364109992981,0.32239142060279846,0.5382014513015747,0.6540502905845642,1.3805978298187256,0.7085709571838379,-1.430869221687317,-0.453128457069397,1741516846.0143528,1741516845273,-1.1822342529296874,-0.37047586059570314,-2.1541117098708504,1.5092197265625,-0.3572163391113281
1741516846.014124,0.22430956363677979,0.05435981542664866,0.006396406652590415,-0.9985009246108465,0.23701520264148712,0.7762290835380554,-0.007375362329185009,4.3168721199035645,1.0467557907104492,4.602188587188721,-0.2664604187011719,0.24738693237304688,0.46215763688087463,-1.2630890607833862,0.005531395319849253,-0.9306095838546753,-0.10090028494596481,1.2241785526275635,0.013160906732082367,0.959983229637146,0.22144655883312225,-0.8390554785728455,-0.14248111844062805,-0.10738536715507507,0.9843976497650146,-0.4540402591228485,-0.00643556984141469,-0.4365987777709961,-0.03643091395497322,-0.21686884760856628,0.7410162687301636,-0.44760018587112427,-0.061484985053539276,0.005847644526511431,-0.283917099237442,-0.013846476562321186,0.13033105432987213,-0.006050895433872938,0.2925077974796295,-0.8482248187065125,-0.4708612561225891,0.025219986215233803,0.9825928807258606,-0.5680023431777954,0.5458744764328003,0.5291367769241333,0.7898700833320618,-8.993448257446289,1.5820415019989014,0.10006552934646606,0.4133895933628082,1.1503560543060303,1.2216717004776,0.6025945544242859,-1.2487210035324097,-0.17229828238487244,1741516846.0143528,1741516845273,-1.1822342529296874,-0.37047586059570314,-2.1541117098708504,1.5092197265625,-0.3572163391113281
1741516846.034101,0.22021770477294922,0.06646064769459409,0.010673993054872323,-0.9977319520694321,-0.3065221607685089,0.5680318474769592,-0.25885841250419617,1.123724341392517,0.66435706615448,5.87620210647583,-0.2618827819824219,0.24891281127929688,0.45681697130203247,-1.2566040754318237,0.005531395319849253,-0.926413357257843,-0.09594109654426575,1.2196009159088135,0.013160906732082367,0.967994213104248,0.22297245264053345,-0.8268482685089111,-0.12722209095954895,-0.09021896868944168,0.8203631639480591,-0.4299418032169342,0.0007522726082243025,-0.4217212200164795,-0.008201723918318748,-0.20580606162548065,0.7505531311035156,-0.4645047187805176,-0.05446621775627136,0.11636226624250412,-0.008197914808988571,-0.3573206961154938,0.43437492847442627,0.002858788939192891,0.17069722712039948,0.5300759673118591,-0.2453765869140625,-0.0062622930854558945,0.4069991409778595,0.14096644520759583,0.6821317672729492,0.7355603575706482,0.7682859897613525,-7.627389907836914,1.07931649684906,0.4098387062549591,0.804236650466919,1.4163439273834229,0.38850539922714233,0.42761296033859253,-0.7858415246009827,0.6106569170951843,1741516846.0143528,1741516845273,-1.1822342529296874,-0.37047586059570314,-2.1541117098708504,1.5092197265625,-0.3572163391113281
1741516846.0541055,0.21127605438232422,0.07027321847725004,0.026015149145872545,-0.9971884910987323,-0.7886842489242554,0.09533389657735825,-0.505765438079834,3.417496681213379,-9.17975902557373,11.845669746398926,-0.2630271911621094,0.2695121765136719,0.44308385252952576,-1.2463041543960571,0.005531395319849253,-0.9210727214813232,-0.0707637146115303,1.2211267948150635,0.013160906732082367,0.968757152557373,0.23517967760562897,-0.810826301574707,-0.08869306743144989,-0.09441519528627396,0.7181277275085449,-0.4108293950557709,0.000375039700884372,-0.3904402256011963,0.020027466118335724,-0.22449836134910583,0.7665750980377197,-0.4654563367366791,-0.026159191504120827,-0.02502467669546604,0.5996859669685364,-0.8356748819351196,0.7060585618019104,-0.00042635443969629705,0.2582172453403473,1.812930941581726,0.2016235738992691,0.01098285149782896,0.01397177018225193,0.6628022789955139,0.6644778847694397,2.1792945861816406,-0.3911099135875702,-4.184056282043457,1.231665015220642,-0.20519408583641052,1.6059058904647827,1.2779884338378906,-1.1205345392227173,0.8598954081535339,0.037829168140888214,1.1923696994781494,1741516846.0143528,1741516845273,-1.1822342529296874,-0.37047586059570314,-2.1541117098708504,1.5092197265625,-0.3572163391113281
1741516846.074227,0.2036367654800415,0.06364230198712642,0.044934657098780674,-0.9969606481648081,-0.8677538633346558,-0.16949129104614258,-0.3449573218822479,-3.442268133163452,6.805588722229004,11.003616333007812,-0.2561607360839844,0.2828645706176758,0.41638055443763733,-1.2348599433898926,0.005912871100008488,-0.9157320261001587,-0.028038453310728073,1.233715534210205,0.013542382046580315,0.9664682745933533,0.2439536154270172,-0.7825970649719238,-0.06733043491840363,-0.11425192654132843,0.7673380374908447,-0.37553927302360535,-0.01882493868470192,-0.36755168437957764,0.02079041674733162,-0.25272753834724426,0.811589241027832,-0.45051902532577515,-0.04132397100329399,0.1930375099182129,0.2871644198894501,-1.5037453174591064,0.7313616871833801,0.022605018690228462,0.26537784934043884,3.065152883529663,0.9661715030670166,-0.0018675144528970122,-0.1502922624349594,0.5991737246513367,1.3520753383636475,0.8186371922492981,-1.0798519849777222,2.6941378116607666,1.6550366878509521,-1.0303974151611328,1.0202977657318115,0.12723322212696075,-1.494924545288086,2.471597671508789,0.9718533158302307,-0.9900074005126953,1741516846.1246421,1741516845393,-1.0696251220703126,-0.32599224853515624,-2.2295877700019364,1.5820167236328124,-0.4347648620605469
1741516846.0941572,0.19495415687561035,0.05698815972752362,0.055776977864662396,-0.9968155688948458,-0.5033648610115051,-0.4110276997089386,-0.5590567588806152,-3.1049649715423584,-3.525967597961426,13.23101806640625,-0.24853134155273438,0.2889680862426758,0.3561074137687683,-1.225704550743103,0.005912871100008488,-0.9122987985610962,0.031090257689356804,1.2459226846694946,0.013542382046580315,0.962272047996521,0.2504386901855469,-0.767719566822052,-0.05359731614589691,-0.14667734503746033,0.7829785346984863,-0.34356483817100525,-0.059482499957084656,-0.3908216953277588,0.022697795182466507,-0.28477150201797485,0.9050507545471191,-0.41888323426246643,-0.03334394842386246,0.23552966117858887,0.235054612159729,-3.220261573791504,0.5862159132957458,-0.009745242074131966,0.0947040319442749,3.8996076583862305,0.6420313715934753,0.03717730566859245,-0.3412964642047882,0.19158078730106354,1.3164621591567993,0.5174252986907959,-1.521561622619629,0.45031604170799255,1.4649314880371094,-1.4858869314193726,-1.5815027952194214,-0.10604126751422882,-1.313079833984375,5.102073669433594,1.6569074392318726,0.5919666886329651,1741516846.1246421,1741516845393,-1.0696251220703126,-0.32599224853515624,-2.2295877700019364,1.5820167236328124,-0.4347648620605469
1741516846.1142023,0.1788957118988037,0.048618063781466256,0.06405673429898234,-0.9967612646291442,-0.2627968192100525,-0.36120128631591797,-0.8573988676071167,-0.35255250334739685,4.32546854019165,11.017579078674316,-0.2523460388183594,0.2870607376098633,0.2821011543273926,-1.224941611289978,0.005912871100008488,-0.9092469811439514,0.0883115902543068,1.2520263195037842,0.013542382046580315,0.9573128819465637,0.2439536154270172,-0.7227054238319397,-0.048256658017635345,-0.15812161564826965,0.7898451089859009,-0.31444913148880005,-0.028305497020483017,-0.4499503970146179,0.005531395319849253,-0.291638046503067,1.049248456954956,-0.3927244246006012,-0.0011639164295047522,-0.1179732009768486,0.004904473200440407,-3.6118686199188232,-0.07958667725324631,0.025525299832224846,0.21007467806339264,3.8462953567504883,0.4458751678466797,-0.004647033289074898,-0.33120909333229065,-0.27125951647758484,1.9035978317260742,0.27507689595222473,-0.6246222853660583,0.33253273367881775,1.5318520069122314,1.7699110507965088,-3.1714024543762207,-0.8274346590042114,-0.2540971040725708,7.488532543182373,1.143346905708313,1.5684541463851929,1741516846.1246421,1741516845393,-1.0696251220703126,-0.32599224853515624,-2.2295877700019364,1.5820167236328124,-0.4347648620605469
1741516846.1342037,0.15016961097717285,0.03725330723206455,0.06228417865699549,-0.9973629591023004,0.15628403425216675,-0.4041517376899719,-1.5092428922653198,-1.095852255821228,-5.809539318084717,11.248702049255371,-0.23937606811523438,0.2813386917114258,0.21076524257659912,-1.2314265966415405,0.005531395319849253,-0.9096284508705139,0.14705882966518402,1.2546966075897217,0.013542382046580315,0.954261064529419,0.2443350851535797,-0.691805899143219,-0.035667963325977325,-0.1676585078239441,0.7963302135467529,-0.2932693362236023,-0.015177099965512753,-0.5327305793762207,-0.007438773289322853,-0.291638046503067,1.1987868547439575,-0.4053293764591217,-0.005124897696077824,0.3225582540035248,-0.16395360231399536,-3.682626962661743,-0.4229413866996765,-0.007723464164882898,-0.11462359130382538,3.867225170135498,0.18628500401973724,0.006690413225442171,-0.17799967527389526,0.10817267000675201,1.7970784902572632,0.6115825176239014,-0.3451426923274994,0.3202996253967285,0.8831923604011536,0.13644303381443024,-3.686156749725342,-0.5403189063072205,-0.05390727519989014,7.122157573699951,-0.9443349838256836,-0.5998950004577637,1741516846.1246421,1741516845393,-1.0696251220703126,-0.32599224853515624,-2.2295877700019364,1.5820167236328124,-0.4347648620605469
1741516846.1542978,0.11349344253540039,0.03039197082931116,0.06230030502598736,-0.9975946070938733,0.030716195702552795,-0.26582545042037964,-1.8493801355361938,1.2824405431747437,-0.1213013231754303,11.578036308288574,-0.2512016296386719,0.2695121765136719,0.1363775134086609,-1.231808066368103,0.005531395319849253,-0.9138246774673462,0.20351719856262207,1.2554595470428467,0.013542382046580315,0.9531166553497314,0.24967575073242188,-0.6464102864265442,-0.01773861236870289,-0.16193637251853943,0.7959487438201904,-0.29190686345100403,-0.030807724222540855,-0.6040665507316589,-0.023460745811462402,-0.2946898639202118,1.2972075939178467,-0.4468860328197479,-0.01588647998869419,-0.2887708246707916,-0.32783743739128113,-3.77629017829895,0.05684484541416168,-0.003475036472082138,-0.19824784994125366,3.8612442016601562,0.053386565297842026,0.002605902263894677,-0.08445537835359573,0.22450010478496552,2.226463556289673,0.8040544986724854,0.4017658233642578,-0.03959036245942116,-0.04469054564833641,-0.6524472832679749,-3.3841488361358643,-0.819241464138031,-0.17177732288837433,4.218172550201416,-2.201599359512329,-0.2674582898616791,1741516846.1246421,1741516845393,-1.0696251220703126,-0.32599224853515624,-2.2295877700019364,1.5820167236328124,-0.4347648620605469
1741516846.1742263,0.0777822732925415,0.020092878529943934,0.06018314354607616,-0.9979851028273384,0.18409696221351624,-0.3869032859802246,-1.7455533742904663,-0.1970580816268921,-8.881696701049805,11.288067817687988,-0.2515830993652344,0.2660789489746094,0.06847485899925232,-1.229519248008728,0.005531395319849253,-0.9149690866470337,0.2622644305229187,1.2539336681365967,0.013542382046580315,0.9523537158966064,0.2462424635887146,-0.6094071865081787,0.007438773289322853,-0.1527809500694275,0.7948042750358582,-0.3019162118434906,-0.04254622012376785,-0.6555657386779785,-0.0394827201962471,-0.30384528636932373,1.3227664232254028,-0.4922877550125122,-0.0009615430026315153,-0.02763805165886879,-0.1544867604970932,-3.493298292160034,0.11452469974756241,-0.010201044380664825,-0.047802746295928955,3.909560203552246,-0.1580456793308258,-0.028017528355121613,-0.07131312042474747,-0.18046794831752777,1.8869946002960205,1.3080600500106812,0.54844069480896,-0.0510631799697876,-0.5458200573921204,-0.7128960490226746,-2.466304302215576,-0.7174462080001831,-0.4711728096008301,0.7707014679908752,-2.175485610961914,0.9412526488304138,1741516846.1246421,1741516845393,-1.0696251220703126,-0.32599224853515624,-2.2295877700019364,1.5820167236328124,-0.4347648620605469
1741516846.1943004,0.05683481693267822,0.013870186576896985,0.05723676451184003,-0.9982642789925613,0.15077655017375946,-0.22248071432113647,-0.9848973155021667,1.8519902229309082,-2.8519985675811768,8.933632850646973,-0.2546348571777344,0.2573051452636719,0.010109102353453636,-1.2299007177352905,0.005531395319849253,-0.9153505563735962,0.32024872303009033,1.2505004405975342,0.012397955171763897,0.9496833682060242,0.23746852576732635,-0.5674448609352112,0.02841992862522602,-0.14057374000549316,0.7890821695327759,-0.3208701014518738,-0.05741703510284424,-0.6937133073806763,-0.054741740226745605,-0.308041512966156,1.2937743663787842,-0.5197915434837341,0.008240648545324802,-0.06670215725898743,-0.22140446305274963,-2.9274964332580566,-0.012121319770812988,-0.03427738696336746,-0.04959430545568466,3.817795753479004,-0.2933863401412964,-0.05290331318974495,-0.23147042095661163,-0.5810050368309021,2.0618081092834473,1.013296127319336,0.5561069846153259,-0.3647652566432953,-0.9843748807907104,-0.6074591279029846,-1.7662086486816406,-0.8865393400192261,-0.13973499834537506,-1.7857909202575684,-1.1680132150650024,0.22113478183746338,1741516846.1246421,1741516845393,-1.0696251220703126,-0.32599224853515624,-2.2295877700019364,1.5820167236328124,-0.4347648620605469
1741516846.2144134,0.04662156105041504,0.01258645313488152,0.054709080511516794,-0.9984230053975458,0.14411580562591553,0.045248743146657944,-0.48889049887657166,1.026089072227478,-1.4844104051589966,11.054915428161621,-0.2557792663574219,0.24242782592773438,-0.05092698708176613,-1.230282187461853,0.005912871100008488,-0.918402373790741,0.3732738196849823,1.2485930919647217,0.012779430486261845,0.9435797929763794,0.21953918039798737,-0.5247195959091187,0.04406042397022247,-0.13179980218410492,0.7784008383750916,-0.3435477912425995,-0.06775099039077759,-0.7223239541053772,-0.07648584991693497,-0.3118562698364258,1.2300678491592407,-0.5161891579627991,0.0026144408620893955,-0.033144254237413406,-0.4139585494995117,-3.33085298538208,-0.01687595061957836,0.030543990433216095,-0.22701331973075867,3.4879019260406494,-0.0134574044495821,0.04063532501459122,-0.36691322922706604,-0.6831672191619873,2.2301011085510254,0.8012017011642456,0.3707970976829529,-0.47954362630844116,-1.0977602005004883,-0.47367870807647705,-1.3684511184692383,-1.0915387868881226,-0.23078255355358124,-3.28271484375,0.4627227187156677,-0.023500561714172363,1741516846.1246421,1741516845393,-1.0696251220703126,-0.32599224853515624,-2.2295877700019364,1.5820167236328124,-0.4347648620605469
1741516846.2344747,0.03534102439880371,0.018673532216942287,0.051295953528883116,-0.9985089004841696,0.18486590683460236,0.3236858546733856,-0.5470178723335266,-0.9194098114967346,-2.0402536392211914,7.850111484527588,-0.2565422058105469,0.21915817260742188,-0.10433356463909149,-1.230282187461853,0.005149920005351305,-0.9367132186889648,0.43202105164527893,1.2508819103240967,0.013542382046580315,0.9332799315452576,0.21763180196285248,-0.4842832088470459,0.05359731614589691,-0.12378881871700287,0.7654306888580322,-0.3695774972438812,-0.07369685173034668,-0.7364385724067688,-0.10662241280078888,-0.31757840514183044,1.1453803777694702,-0.48206037282943726,0.01611771248281002,-0.023243937641382217,-0.6689854264259338,-2.4219303131103516,-0.021729789674282074,-0.04246190935373306,-0.928895890712738,3.9088258743286133,0.07259093225002289,-0.01165111642330885,-0.7934679388999939,0.034443166106939316,1.9459593296051025,0.4734615385532379,0.305558443069458,-0.7318206429481506,-1.3434921503067017,-0.24808016419410706,-0.5400360822677612,-1.6501719951629639,-0.36241379380226135,-4.412334442138672,1.84609055519104,0.4848325550556183,1741516846.3207188,1741516845493,-0.9765115356445313,-0.31550820922851563,-2.394732011067939,1.6393206787109376,-0.49296484375
1741516846.2544653,0.02403390407562256,0.026296189907408864,0.04784455967999055,-0.9985085921039345,0.20335324108600616,0.3768712878227234,-0.5546308159828186,1.7838093042373657,-1.140624761581421,8.393281936645508,-0.2546348571777344,0.20466136932373047,-0.13141833245754242,-1.230282187461853,0.005531395319849253,-0.9523537158966064,0.4701686203479767,1.2505004405975342,0.013923857361078262,0.9229800701141357,0.23289081454277039,-0.44270238280296326,0.058175019919872284,-0.12302586436271667,0.7463569045066833,-0.39542073011398315,-0.07688471674919128,-0.735675573348999,-0.14515145123004913,-0.33245593309402466,1.0400930643081665,-0.43772947788238525,0.016618087887763977,0.04182610288262367,-0.4050191044807434,-1.137259840965271,-0.00010382967593614012,-0.012488593347370625,-0.7618752717971802,2.4061217308044434,-0.011928599327802658,0.05336365848779678,-0.7088784575462341,0.8350842595100403,2.153529644012451,0.19222448766231537,-0.07071217894554138,-1.0052942037582397,-1.259559154510498,-0.12015793472528458,0.030211031436920166,-1.9370617866516113,-0.8030118942260742,-5.279995918273926,2.222365379333496,-0.10935140401124954,1741516846.3207188,1741516845493,-0.9765115356445313,-0.31550820922851563,-2.394732011067939,1.6393206787109376,-0.49296484375
1741516846.274548,0.012122631072998047,0.029602121599274344,0.041817683386236086,-0.9986866354132463,0.3406413197517395,0.16742923855781555,-0.5987250804901123,2.9064879417419434,-1.424359917640686,7.078623294830322,-0.2504386901855469,0.20199108123779297,-0.13103684782981873,-1.230282187461853,0.005531395319849253,-0.9645609259605408,0.49076828360557556,1.2508819103240967,0.013542382046580315,0.9145876169204712,0.25349050760269165,-0.3919661343097687,0.05741206929087639,-0.1325627565383911,0.7223239541053772,-0.4171206057071686,-0.06770211458206177,-0.7200350761413574,-0.1844434291124344,-0.3561074137687683,0.9290837049484253,-0.39174795150756836,0.009599951095879078,0.10155072063207626,-0.0876917615532875,0.16070304811000824,-0.00819761585444212,-0.0016642003320157528,-0.5596538782119751,1.1905428171157837,-0.06101469323039055,-0.025159917771816254,-0.5280405879020691,1.0501713752746582,2.572122812271118,-0.058387331664562225,-0.531625509262085,-1.2387315034866333,-1.0538588762283325,0.6863344311714172,0.878189206123352,-1.8623157739639282,-1.21363365650177,-5.517742156982422,2.2737724781036377,-0.29729005694389343,1741516846.3207188,1741516845493,-0.9765115356445313,-0.31550820922851563,-2.394732011067939,1.6393206787109376,-0.49296484375
1741516846.294508,-0.0012079477310180664,0.02898788939699897,0.03324806170181005,-0.9990266606359313,0.46292242407798767,-0.03423792123794556,-0.6785098910331726,1.0351641178131104,0.9653242826461792,6.193563461303711,-0.24738693237304688,0.20275402069091797,-0.10624094307422638,-1.2306636571884155,0.005531395319849253,-0.9714275002479553,0.49267566204071045,1.2485930919647217,0.013542382046580315,0.9088655114173889,0.2740901708602905,-0.3278782367706299,0.05207141116261482,-0.14095520973205566,0.6944762468338013,-0.43315890431404114,-0.04302817955613136,-0.6937133073806763,-0.21190966665744781,-0.3923476040363312,0.8241779208183289,-0.3528713583946228,-0.001973759848624468,0.09241849929094315,0.05310409516096115,1.4012420177459717,-0.012687121517956257,-0.0026421721559017897,-0.32300809025764465,-0.028069619089365005,-0.1668158769607544,-0.0015818271785974503,-0.3327767252922058,1.0352864265441895,3.1807444095611572,-0.25594717264175415,-0.3951645493507385,-1.409562110900879,-0.7544370293617249,1.2587182521820068,1.3313263654708862,-1.369465947151184,-1.8725426197052002,-5.1350579261779785,1.7691463232040405,-0.48662644624710083,1741516846.3207188,1741516845493,-0.9765115356445313,-0.31550820922851563,-2.394732011067939,1.6393206787109376,-0.49296484375
1741516846.3147416,-0.017720580101013184,0.024968966297564836,0.021794895375630244,-0.9994506157172532,0.5913025736808777,-0.20018692314624786,-0.8101808428764343,19.487825393676758,-1.0357438325881958,9.304636001586914,-0.23746871948242188,0.20695018768310547,-0.057793546468019485,-1.2306636571884155,0.005531395319849253,-0.9729533791542053,0.47627222537994385,1.2455412149429321,0.013542382046580315,0.9088655114173889,0.2920195460319519,-0.2607385218143463,0.03643091395497322,-0.152399480342865,0.6776912808418274,-0.4309888184070587,-0.042690206319093704,-0.6662470698356628,-0.23250934481620789,-0.4205767810344696,0.7448310256004333,-0.32779571413993835,-0.02152087539434433,0.28601396083831787,0.0919942557811737,2.5719847679138184,-0.018824175000190735,0.0033583068288862705,-0.042495813220739365,-1.229699969291687,-0.2145220786333084,-0.00540488725528121,-0.003983728587627411,0.9308100938796997,3.2481045722961426,-0.6732358932495117,-0.5721456408500671,-0.6899227499961853,0.2164272964000702,-0.3421267867088318,1.3125693798065186,-1.0154588222503662,-1.426927089691162,-3.2137908935546875,1.2761197090148926,-1.078108310699463,1741516846.3207188,1741516845493,-0.9765115356445313,-0.31550820922851563,-2.394732011067939,1.6393206787109376,-0.49296484375
1741516846.3345733,-0.037938594818115234,0.01278498209264132,0.014065899242799424,-0.9998193310350537,0.33461737632751465,-0.5789259076118469,-1.0282227993011475,-8.501419067382812,-0.01966911554336548,13.148575782775879,-0.23289108276367188,0.22297286987304688,0.008964675478637218,-1.2314265966415405,0.005531395319849253,-0.970283031463623,0.44193941354751587,1.2440153360366821,0.013542382046580315,0.9092469811439514,0.29964902997016907,-0.21953918039798737,0.03528648987412453,-0.18558785319328308,0.6944762468338013,-0.40895622968673706,-0.062117431312799454,-0.6250476837158203,-0.2141985148191452,-0.4365987777709961,0.7558938264846802,-0.3145260512828827,-0.04612210392951965,0.1263950914144516,0.4170333445072174,3.506542682647705,-0.05255262181162834,0.017785420641303062,0.14132151007652283,-2.5261905193328857,-0.021061988547444344,0.03209744766354561,0.0881146565079689,0.2200993448495865,1.7123247385025024,-0.10045981407165527,-1.696919322013855,1.2452784776687622,1.1165146827697754,-0.4331238269805908,2.356074810028076,1.2207194566726685,-0.38161101937294006,0.6629635095596313,0.3632816970348358,-1.0940345525741577,1741516846.32078,1741516845593,-0.8671534423828126,-0.3244716491699219,-2.2131763927565737,1.6877144775390625,-0.5451934814453125
1741516846.3548112,-0.05756092071533203,0.014768075708514938,0.010107080021517492,-0.999839862614662,0.22627437114715576,0.17828147113323212,-0.9580301642417908,-0.4547654092311859,-0.9219249486923218,11.210871696472168,-0.23212814331054688,0.21305370330810547,0.08258945494890213,-1.232571005821228,0.005912871100008488,-0.9699015617370605,0.38128480315208435,1.2497375011444092,0.013542382046580315,0.9126802682876587,0.30003052949905396,-0.23250934481620789,0.03223468363285065,-0.23289081454277039,0.7871748208999634,-0.37651363015174866,-0.05206608399748802,-0.5849927663803101,-0.17833982408046722,-0.39387351274490356,0.7528420090675354,-0.3236143887042999,-0.06583540886640549,0.05127716436982155,-0.2581903338432312,3.516876220703125,-0.14367787539958954,0.022692006081342697,-0.007501999381929636,-4.161990165710449,0.43490275740623474,0.006237173452973366,0.18976454436779022,0.007452348712831736,-1.1437841653823853,-0.10257323831319809,-2.5931670665740967,5.253385066986084,1.7108566761016846,0.5349711775779724,1.5737279653549194,1.9011608362197876,2.2783470153808594,-0.22835497558116913,-0.42083486914634705,-1.1218675374984741,1741516846.32078,1741516845593,-0.8671534423828126,-0.3244716491699219,-2.2131763927565737,1.6877144775390625,-0.5451934814453125
1741516846.3748288,-0.06651616096496582,0.01827583223559024,0.01354766060525008,-0.9997411939338208,-0.28797563910484314,0.2150576263666153,-0.30976787209510803,-1.6966965198516846,1.896447777748108,10.564674377441406,-0.23136520385742188,0.21572399139404297,0.1520180106163025,-1.2371487617492676,0.005531395319849253,-0.9699015617370605,0.3107118308544159,1.2566040754318237,0.013542382046580315,0.9111543297767639,0.28744181990623474,-0.3110933005809784,0.00858320016413927,-0.28782328963279724,0.959220290184021,-0.3291564881801605,-0.04003805294632912,-0.5632486343383789,-0.12874799966812134,-0.3568703830242157,0.7455939650535583,-0.327576220035553,-0.07869263738393784,0.00022952580184210092,0.001740643521770835,3.279772996902466,-0.22203890979290009,-0.004159525502473116,0.0029056118801236153,-4.658012390136719,0.5299261212348938,-0.010465439409017563,-0.11725573241710663,-0.6034724116325378,-4.411327838897705,-1.4638583660125732,-2.767150640487671,9.186068534851074,2.429427146911621,0.6836055517196655,1.0762449502944946,2.60465931892395,1.6589194536209106,-0.3047696650028229,-0.14610332250595093,-0.5344009399414062,1741516846.32078,1741516845593,-0.8671534423828126,-0.3244716491699219,-2.2131763927565737,1.6877144775390625,-0.5451934814453125
1741516846.394832,-0.061020851135253906,0.02209690469361842,0.026080430347153884,-0.9994155982152112,-0.6701313853263855,0.14634019136428833,0.32296594977378845,0.5407335758209229,-1.6447652578353882,6.858319282531738,-0.22640609741210938,0.22945785522460938,0.21152819693088531,-1.238293170928955,0.005531395319849253,-0.969520092010498,0.23670557141304016,1.2649965286254883,0.013923857361078262,0.9103913903236389,0.2805752754211426,-0.4224841594696045,-0.03528648987412453,-0.33398184180259705,1.1789501905441284,-0.2997240126132965,0.004850142169743776,-0.5304417610168457,-0.07953765243291855,-0.3381780683994293,0.7360570430755615,-0.3270370364189148,-0.0727282166481018,0.16541022062301636,0.40441885590553284,2.747286319732666,-0.0965481549501419,0.005340809468179941,0.0013429460814222693,-4.961954593658447,0.45209163427352905,-0.0033596509601920843,-0.02196696773171425,-0.36049291491508484,-5.677150249481201,-2.2678658962249756,-2.0529468059539795,11.031492233276367,1.167704463005066,2.407198190689087,1.6230210065841675,2.226644992828369,0.7150201797485352,-0.5980972051620483,0.02905951254069805,0.3886137306690216,1741516846.32078,1741516845593,-0.8671534423828126,-0.3244716491699219,-2.2131763927565737,1.6877144775390625,-0.5451934814453125
1741516846.4148626,-0.04661762714385986,0.022096193336897652,0.040593872650858565,-0.9989313768939407,-0.7278866171836853,-0.049595605581998825,0.7249394059181213,0.8023200035095215,1.0610588788986206,11.717146873474121,-0.22144699096679688,0.24967575073242188,0.26836803555488586,-1.2405821084976196,0.005531395319849253,-0.9683756828308105,0.16384375095367432,1.2657594680786133,0.013542382046580315,0.9115357995033264,0.272945761680603,-0.5476081371307373,-0.09021896868944168,-0.3526741564273834,1.3784618377685547,-0.3154599964618683,0.028064949437975883,-0.4987792670726776,-0.057793546468019485,-0.33360037207603455,0.7188906669616699,-0.3222355544567108,-0.056196119636297226,0.1435413807630539,0.6544193625450134,2.715257167816162,-0.1536594033241272,-0.01609872467815876,0.11376725137233734,-4.70363187789917,-0.008408808149397373,-0.0001554009795654565,0.03808927163481712,-0.37858346104621887,-6.091388702392578,-2.8017237186431885,-0.541111171245575,9.331827163696289,-1.1267272233963013,0.5911704301834106,1.597968578338623,0.9620400667190552,0.1117154136300087,-0.6947040557861328,0.29658272862434387,0.8328290581703186,1741516846.32078,1741516845593,-0.8671534423828126,-0.3244716491699219,-2.2131763927565737,1.6877144775390625,-0.5451934814453125
1741516846.434947,-0.029414772987365723,0.024013380813815818,0.051802370057933284,-0.998368605274761,-0.5262857675552368,0.06416833400726318,0.8826476335525513,3.543750524520874,7.241374492645264,10.712211608886719,-0.21152782440185547,0.2512016296386719,0.3236820101737976,-1.2443968057632446,0.005531395319849253,-0.9611276388168335,0.09670405089855194,1.2604187726974487,0.013542382046580315,0.9126802682876587,0.26951247453689575,-0.6635767221450806,-0.13942931592464447,-0.3274967670440674,1.5077821016311646,-0.3628202974796295,0.02317132242023945,-0.46292057633399963,-0.04901960864663124,-0.33169299364089966,0.7146944403648376,-0.3173246681690216,-0.04341145604848862,0.29016175866127014,0.0942443236708641,2.6912593841552734,-0.25830137729644775,-0.009047024883329868,0.4212316572666168,-4.397665977478027,-0.42561784386634827,-0.0026151593774557114,0.0730343833565712,-0.10285916179418564,-5.689116954803467,-2.3118057250976562,1.5549589395523071,5.758423805236816,-2.391378164291382,-0.25089791417121887,1.702789068222046,0.4700189232826233,0.14751847088336945,-0.1808154135942459,0.18093939125537872,0.6066575646400452,1741516846.5345285,1741516845693,-0.7574205932617187,-0.34132080078125,-2.1821990318642785,1.7388944091796876,-0.59508251953125
1741516846.4548903,-0.017357587814331055,0.024869574761438227,0.05137339042527477,-0.9983698107451956,0.06292644888162613,0.0595104843378067,0.48909249901771545,-1.361620545387268,4.636252403259277,12.296442031860352,-0.19092845916748047,0.2519645690917969,0.3728923499584198,-1.2531707286834717,0.005531395319849253,-0.9481574892997742,0.038719769567251205,1.2505004405975342,0.013542382046580315,0.9134432077407837,0.25234606862068176,-0.7661936283111572,-0.152399480342865,-0.27027541399002075,1.5466926097869873,-0.4181240200996399,0.016744228079915047,-0.4381246566772461,-0.032616160809993744,-0.3130006790161133,0.7124055624008179,-0.32739466428756714,-0.034063588827848434,0.5888398885726929,-0.01132132112979889,2.309602975845337,-0.6082969903945923,-0.004805490840226412,0.5824901461601257,-3.723825216293335,-0.7113544940948486,0.0075594279915094376,0.032394327223300934,-0.8994497060775757,-4.986225605010986,-0.3228444457054138,2.7931807041168213,1.134543538093567,-2.7999653816223145,-0.42612212896347046,1.2320131063461304,0.8068127036094666,1.1951100826263428,-0.08101823180913925,-0.67266446352005,0.5068944096565247,1741516846.5345285,1741516845693,-0.7574205932617187,-0.34132080078125,-2.1821990318642785,1.7388944091796876,-0.59508251953125
1741516846.4749737,-0.016330838203430176,0.03041424521408131,0.042759891183558746,-0.9986223337148172,0.47134995460510254,0.2809453010559082,-0.03631610795855522,3.1858971118927,1.3491884469985962,6.406867504119873,-0.18406200408935547,0.24319076538085938,0.41180285811424255,-1.2619446516036987,0.005912871100008488,-0.9367132186889648,-0.0078202486038208,1.23905611038208,0.013542382046580315,0.916113555431366,0.23632410168647766,-0.8470664620399475,-0.15506981313228607,-0.20313572883605957,1.498626708984375,-0.4646400511264801,-0.001372634549625218,-0.41332876682281494,-0.013542382046580315,-0.2759975492954254,0.7104982137680054,-0.36024659872055054,-0.02750244364142418,0.22975853085517883,-0.2402910590171814,1.8855793476104736,-0.6459853053092957,-0.007203640881925821,0.5549500584602356,-3.0590591430664062,-0.6869631409645081,0.003838305827230215,0.19422033429145813,-0.6675378084182739,-4.002037525177002,-0.17839741706848145,3.5400044918060303,-3.0046699047088623,-2.184436559677124,-1.3100008964538574,1.1573314666748047,0.9470058083534241,1.6487524509429932,-0.1304904967546463,-1.826977014541626,0.23582999408245087,1741516846.5345285,1741516845693,-0.7574205932617187,-0.34132080078125,-2.1821990318642785,1.7388944091796876,-0.59508251953125
1741516846.4951239,-0.016782522201538086,0.037036131224421,0.031767493413763864,-0.9988088662732895,0.555850088596344,0.3706996440887451,0.0535736121237278,-4.734177589416504,2.3827741146087646,8.701229095458984,-0.17910289764404297,0.23479843139648438,0.4404135048389435,-1.2646150588989258,0.005912871100008488,-0.9267948269844055,-0.06618601083755493,1.23295259475708,0.013542382046580315,0.927176296710968,0.21725031733512878,-0.9016174674034119,-0.15468832850456238,-0.14324407279491425,1.3864728212356567,-0.47784772515296936,-0.015036121942102909,-0.4060807228088379,-0.008201723918318748,-0.2580682039260864,0.7082093358039856,-0.40678298473358154,-0.041280776262283325,0.1286165714263916,-0.28906479477882385,1.419339656829834,-0.18821926414966583,0.0011543811997398734,0.4779183268547058,-3.8212087154388428,-0.3640209436416626,0.018648920580744743,0.8169145584106445,-0.8865562677383423,-2.4392871856689453,0.08899381756782532,2.76867413520813,-5.833237171173096,-0.34765365719795227,-0.3678234815597534,0.24689790606498718,0.13766981661319733,0.6995663642883301,-0.06407428532838821,-2.3430593013763428,-1.0403380393981934,1741516846.5345285,1741516845693,-0.7574205932617187,-0.34132080078125,-2.1821990318642785,1.7388944091796876,-0.59508251953125
1741516846.51502,-0.016563892364501953,0.05106233993737827,0.019392142964042153,-0.9985071768552201,0.6070613861083984,0.7375501394271851,-0.022909607738256454,-1.3323365449905396,1.865540862083435,5.098404884338379,-0.17185497283935547,0.22602462768554688,0.46368351578712463,-1.2680482864379883,0.005531395319849253,-0.919165313243866,-0.10013733059167862,1.2283748388290405,0.012779430486261845,0.9439612627029419,0.20122835040092468,-0.9283207654953003,-0.1508735716342926,-0.10738536715507507,1.2388418912887573,-0.451352596282959,-0.01092523243278265,-0.3912031650543213,-0.004386968910694122,-0.2447165697813034,0.7146944403648376,-0.4449748992919922,-0.0604347325861454,0.22012744843959808,-0.2630969285964966,1.0311901569366455,-0.09959615021944046,-0.014257581904530525,0.34948214888572693,-2.0353457927703857,-0.3041354715824127,-0.07916209846735,1.1604758501052856,-0.6667839884757996,-0.9994383454322815,0.2435915321111679,1.5969488620758057,-7.474111557006836,1.5923718214035034,0.16187019646167755,0.6600139737129211,0.215475395321846,0.7093980312347412,0.2582971155643463,-1.7499579191207886,-0.7166496515274048,1741516846.5345285,1741516845693,-0.7574205932617187,-0.34132080078125,-2.1821990318642785,1.7388944091796876,-0.59508251953125
1741516846.5350928,-0.01775801181793213,0.06775967901888631,0.01027642073887131,-0.9976487463411434,0.40705636143684387,0.759620726108551,-0.025287633761763573,1.8870208263397217,-1.1703506708145142,5.900712966918945,-0.17071056365966797,0.22030258178710938,0.4713130295276642,-1.2653779983520508,0.005531395319849253,-0.9187838435173035,-0.1184481605887413,1.2226526737213135,0.013542382046580315,0.9603646993637085,0.1832990050315857,-0.9367132186889648,-0.13828489184379578,-0.09060044586658478,1.0645074844360352,-0.40669772028923035,-0.006524725817143917,-0.3755626678466797,0.010109102353453636,-0.2294575423002243,0.7166017889976501,-0.46913427114486694,-0.051693741232156754,0.04223997890949249,-0.14552563428878784,0.32856419682502747,0.21738184988498688,0.0026978489477187395,0.012016160413622856,-0.961333155632019,-0.40315404534339905,0.08500539511442184,0.9917416572570801,-0.872606635093689,-0.4206247627735138,0.7470170855522156,0.8223971724510193,-8.569944381713867,2.2325496673583984,0.3110589385032654,0.8303604125976562,0.7226279973983765,0.7986966371536255,0.1446542739868164,-1.0969724655151367,0.38429465889930725,1741516846.534618,1741516845793,-0.6663519897460938,-0.34350918579101564,-2.021361963126796,1.7904525146484376,-0.6452703247070313
1741516846.555105,-0.019191384315490723,0.07854802097657897,0.00938604758649975,-0.9968661447312608,-0.0086807981133461,0.5052745938301086,-0.08904340118169785,3.7400381565093994,-2.965137243270874,4.381629943847656,-0.17109203338623047,0.23289108276367188,0.4674982726573944,-1.2604187726974487,0.005531395319849253,-0.9206912517547607,-0.11043716967105865,1.219982385635376,0.012779430486261845,0.968757152557373,0.17071031033992767,-0.9260318875312805,-0.11501488089561462,-0.06237125024199486,0.9054322242736816,-0.3658265769481659,0.001956248190253973,-0.34657052159309387,0.03299763426184654,-0.21686884760856628,0.7158388495445251,-0.4853983223438263,-0.0393543504178524,-0.02589256875216961,0.3467366397380829,-0.24024127423763275,0.3926328122615814,-0.0050354027189314365,-0.10612048208713531,0.6813759207725525,-0.13848596811294556,-0.056052256375551224,0.43387046456336975,-0.5068029165267944,0.5675723552703857,1.275780200958252,1.643904209136963,-7.447780132293701,1.9290049076080322,0.3111405670642853,1.5744694471359253,1.183407187461853,0.5320242047309875,-0.1176798865199089,-0.7519177198410034,0.5399457812309265,1741516846.534618,1741516845793,-0.6663519897460938,-0.34350918579101564,-2.021361963126796,1.7904525146484376,-0.6452703247070313
1741516846.5750751,-0.02448570728302002,0.07876430969580607,0.017641386059137874,-0.9967371594437802,-0.4330842196941376,-0.038702964782714844,-0.3217702805995941,4.084096908569336,-2.4163708686828613,3.1737020015716553,-0.16994762420654297,0.2561607360839844,0.4552910625934601,-1.2516448497772217,0.005531395319849253,-0.9229800701141357,-0.08106355369091034,1.2211267948150635,0.013160906732082367,0.969520092010498,0.1668955534696579,-0.9061951637268066,-0.08411535620689392,-0.03643091395497322,0.7909895181655884,-0.3502456843852997,0.007699763402342796,-0.3072785437107086,0.06694895774126053,-0.2290760725736618,0.7185091972351074,-0.48432299494743347,-0.060196880251169205,0.03012445755302906,0.6779484748840332,-0.71745365858078,0.5575169324874878,-0.0016010612016543746,-0.10924752056598663,2.1712303161621094,0.0929497703909874,0.01263435184955597,-0.005889824591577053,-0.07179689407348633,1.0416802167892456,1.667693853378296,1.2724602222442627,-5.37589168548584,0.47648993134498596,0.23708009719848633,1.9552596807479858,1.7660819292068481,-0.7630282640457153,0.26366525888442993,0.24027536809444427,-1.406908631324768,1741516846.534618,1741516845793,-0.6663519897460938,-0.34350918579101564,-2.021361963126796,1.7904525146484376,-0.6452703247070313
1741516846.5951526,-0.03108513355255127,0.06976872184626247,0.03417046577174904,-0.9969777854701078,-0.8126932978630066,-0.49239423871040344,-0.38856685161590576,3.440084457397461,-6.354672431945801,5.479578971862793,-0.17223644256591797,0.2718009948730469,0.42858776450157166,-1.2436338663101196,0.005531395319849253,-0.9222171306610107,-0.03681239113211632,1.2299007177352905,0.013160906732082367,0.9683756828308105,0.17261768877506256,-0.8691920638084412,-0.030708782374858856,-0.05893797054886818,0.7047760486602783,-0.3740816116333008,0.008086186833679676,-0.2779049277305603,0.10051880776882172,-0.2576867341995239,0.7616159319877625,-0.470838338136673,-0.08714468777179718,-0.08800476789474487,0.45797809958457947,-1.5220694541931152,0.5588114857673645,0.00247668894007802,0.07337282598018646,3.0868606567382812,0.6797075867652893,0.03397854045033455,-0.07668288052082062,0.38314542174339294,1.8988115787506104,2.6525042057037354,-1.6262019872665405,-4.212705135345459,-1.4270137548446655,-0.10563089698553085,1.1236375570297241,1.5351063013076782,-1.4257649183273315,2.7648563385009766,0.6878305077552795,-1.1732162237167358,1741516846.636694,1741516845893,-0.55682470703125,-0.3466565856933594,-1.9202225857528061,1.8351943359375,-0.6909718627929687
1741516846.6151257,-0.041924357414245605,0.05094874370170916,0.05698653365265553,-0.9970740998027541,-1.1030995845794678,-0.9674094319343567,-0.6392567157745361,-7.679135799407959,2.3214969635009766,26.967016220092773,-0.17261791229248047,0.2916383743286133,0.3896772861480713,-1.23600435256958,0.005531395319849253,-0.919165313243866,0.018120087683200836,1.2428709268569946,0.013923857361078262,0.9660868048667908,0.17071031033992767,-0.8367666006088257,-0.02880140393972397,-0.1035706102848053,0.7207980751991272,-0.35533204674720764,-0.038630444556474686,-0.2969787120819092,0.09441519528627396,-0.26951247453689575,0.8791103959083557,-0.4470936059951782,-0.10231119394302368,-0.03321562707424164,0.6370718479156494,-1.9870243072509766,0.4741241931915283,0.011404230259358883,0.26720044016838074,3.554513931274414,0.9348125457763672,0.045615945011377335,-0.1656162440776825,-0.005461343564093113,1.6073445081710815,-0.5500448346138,-1.6732816696166992,2.4420053958892822,1.5887370109558105,-2.755178451538086,-1.3659626245498657,-0.7133551836013794,-0.465722918510437,6.463045597076416,1.3556267023086548,-0.640370786190033,1741516846.636694,1741516845893,-0.55682470703125,-0.3466565856933594,-1.9202225857528061,1.8351943359375,-0.6909718627929687
1741516846.6352172,-0.05048263072967529,0.043845335819016576,0.06264260611308586,-0.9970724599678192,-0.11632492393255234,-0.3548135459423065,-0.7034870386123657,0.19819548726081848,-4.187996864318848,6.631626605987549,-0.14209938049316406,0.2817201614379883,0.3244449496269226,-1.2291377782821655,0.005531395319849253,-0.9145876169204712,0.07915617525577545,1.2546966075897217,0.012397955171763897,0.9630350470542908,0.17185473442077637,-0.8287556171417236,-0.034142062067985535,-0.15964750945568085,0.775730550289154,-0.3052516579627991,-0.10670910775661469,-0.369840532541275,0.09060044586658478,-0.2805752754211426,1.0393301248550415,-0.40888071060180664,-0.09412828087806702,0.9742986559867859,-0.1960994303226471,-3.664341688156128,0.369086891412735,-0.07105470448732376,0.14111799001693726,4.222305774688721,0.587250828742981,-0.0637630745768547,-0.22085770964622498,-0.2294396460056305,0.7082893252372742,-0.08037833124399185,-2.9452097415924072,1.958072543144226,2.246469020843506,-2.2349929809570312,-4.068933010101318,0.04957592487335205,-0.3944700062274933,8.019201278686523,1.8133419752120972,0.7911282181739807,1741516846.636694,1741516845893,-0.55682470703125,-0.3466565856933594,-1.9202225857528061,1.8351943359375,-0.6909718627929687
1741516846.6552176,-0.06702160835266113,0.034022231395764345,0.06344677189928025,-0.9974051307800726,-0.09852110594511032,-0.35390934348106384,-0.7642613053321838,6.906660556793213,0.4123002588748932,13.231443405151367,-0.15964794158935547,0.2767601013183594,0.2290760725736618,-1.2371487617492676,0.005912871100008488,-0.9157320261001587,0.13790340721607208,1.2512633800506592,0.013542382046580315,0.9584572911262512,0.15392538905143738,-0.7806897163391113,-0.037193864583969116,-0.17757686972618103,0.7730602025985718,-0.2638237476348877,-0.07600066810846329,-0.4541466534137726,0.07801175117492676,-0.266460657119751,1.2037460803985596,-0.3918547034263611,-0.02818082831799984,-0.37106120586395264,-0.22791464626789093,-4.885590553283691,-0.4123094975948334,0.03839424252510071,-0.05451130121946335,3.8793649673461914,-0.25935259461402893,0.011394666507840157,-0.31250518560409546,-0.8546839952468872,2.6145501136779785,-0.08434616029262543,-0.585780918598175,-0.16947819292545319,2.0507421493530273,2.2458741664886475,-4.477087020874023,-0.873495876789093,0.7288163900375366,7.692935943603516,0.7064304351806641,3.4466803073883057,1741516846.636694,1741516845893,-0.55682470703125,-0.3466565856933594,-1.9202225857528061,1.8351943359375,-0.6909718627929687
1741516846.6751695,-0.08925890922546387,0.023753167164852526,0.05956950309617724,-0.9979415119888104,0.3752756118774414,-0.4416826367378235,-1.1579217910766602,-1.4301191568374634,-8.71224594116211,14.381462097167969,-0.15430641174316406,0.2790489196777344,0.1356145590543747,-1.2371487617492676,0.00476844422519207,-0.9126802682876587,0.1974135935306549,1.2520263195037842,0.013160906732082367,0.9538795948028564,0.14705882966518402,-0.7459754347801208,-0.02880140393972397,-0.20160982012748718,0.7810711860656738,-0.2202305942773819,-0.050441596657037735,-0.5365453362464905,0.06198977679014206,-0.25425344705581665,1.3101778030395508,-0.4134711027145386,-0.014597061090171337,0.10251376777887344,0.0668630599975586,-4.543148517608643,-0.04857669398188591,-0.06949307769536972,0.13804709911346436,4.093947887420654,-0.029619576409459114,0.03542637825012207,-0.2771507799625397,-0.1399068981409073,1.6463509798049927,0.37012895941734314,-1.1741082668304443,0.5141971707344055,1.9931296110153198,0.6047104597091675,-4.263786792755127,-0.5598310232162476,0.3271970748901367,4.928111553192139,-1.4334605932235718,0.041856057941913605,1741516846.636694,1741516845893,-0.55682470703125,-0.3466565856933594,-1.9202225857528061,1.8351943359375,-0.6909718627929687
1741516846.6952312,-0.11342835426330566,0.014437524972896276,0.054590906215569626,-0.9984044224818017,0.18744036555290222,-0.39136484265327454,-1.2517852783203125,0.6358040571212769,-2.244243860244751,10.660209655761719,-0.14743995666503906,0.2786674499511719,0.05741206929087639,-1.2363858222961426,0.005531395319849253,-0.9126802682876587,0.25616082549095154,1.2524077892303467,0.013542382046580315,0.9504463076591492,0.13752193748950958,-0.7017242908477783,-0.018120087683200836,-0.20504310727119446,0.7837415337562561,-0.2031945437192917,-0.07000192254781723,-0.6048294901847839,0.04444190114736557,-0.266460657119751,1.354810357093811,-0.45975086092948914,-0.014725932851433754,0.11489088088274002,-0.05571082979440689,-3.8213284015655518,0.1093316450715065,-0.005023289006203413,-0.014814551919698715,3.7962820529937744,0.15087437629699707,0.01863013580441475,-0.2180207371711731,-0.549320638179779,2.2143936157226562,0.528687596321106,-0.14178116619586945,-0.013838578946888447,0.6487118601799011,-0.8776871562004089,-3.2329113483428955,-0.8696151375770569,-0.4569944739341736,1.7524666786193848,-2.349169969558716,0.22753062844276428,1741516846.729849,1741516845993,-0.4679603271484375,-0.3595498352050781,-2.3728772851300284,1.8711900634765626,-0.7317932739257813
1741516846.715205,-0.13763773441314697,0.005530241161384787,0.053262886231353904,-0.9985652113823127,0.1114768236875534,-0.30303794145584106,-1.147501826286316,1.4156408309936523,4.750718116760254,9.917716979980469,-0.15697765350341797,0.2801933288574219,-0.005149920005351305,-1.231045126914978,0.005531395319849253,-0.9134432077407837,0.3076600432395935,1.2546966075897217,0.013542382046580315,0.9439612627029419,0.12531471252441406,-0.6761654019355774,-0.001716639962978661,-0.20466163754463196,0.7848859429359436,-0.2036726474761963,-0.08727458864450455,-0.6563286781311035,0.011635004542768002,-0.2660791873931885,1.347943902015686,-0.5061436891555786,-0.0025148873683065176,-0.2871495187282562,0.0001416197483194992,-3.147493839263916,0.3785083293914795,-0.028305526822805405,-0.015973608940839767,3.3837997913360596,0.13186144828796387,-0.008660019375383854,-0.44366100430488586,-0.4478573501110077,1.0176570415496826,0.7622642517089844,0.06126835569739342,0.14704914391040802,-0.132896289229393,-0.9232862591743469,-2.4979729652404785,-1.4051198959350586,-0.046703461557626724,-0.6273425817489624,-2.275656223297119,0.8908949494361877,1741516846.729849,1741516845993,-0.4679603271484375,-0.3595498352050781,-2.3728772851300284,1.8711900634765626,-0.7317932739257813
