Freshhhhh-LC/Legged_odom/data/4/segments/booster_seg_9.89s.csv
time,yaw,projected_gravity_x,projected_gravity_y,projected_gravity_z,ang_vel_x,ang_vel_y,ang_vel_z,lin_acc_x,lin_acc_y,lin_acc_z,q_0,q_1,q_2,q_3,q_4,q_5,q_6,q_7,q_8,q_9,q_10,q_11,q_12,q_13,q_14,q_15,q_16,q_17,q_18,q_19,q_20,q_21,q_22,dq_0,dq_1,dq_2,dq_3,dq_4,dq_5,dq_6,dq_7,dq_8,dq_9,dq_10,dq_11,dq_12,dq_13,dq_14,dq_15,dq_16,dq_17,dq_18,dq_19,dq_20,dq_21,dq_22,mocap_time,mocap_timestamp,robot_x,robot_y,robot_yaw,ball_x,ball_y
1741516856.9095876,1.7595019936561584,-0.014797225713516885,-0.05706838666065002,-0.9982606079351892,0.3639098107814789,-0.4304260015487671,-0.7012547254562378,-11.743169784545898,-6.900883674621582,12.968523979187012,-0.3274965286254883,0.11272621154785156,0.20656901597976685,-1.2276118993759155,0.005531395319849253,-0.9203097820281982,0.20656901597976685,1.2527892589569092,0.010872052982449532,0.9477760195732117,0.22259098291397095,-0.4346913993358612,-0.06656748056411743,-0.06580453366041183,0.8688105344772339,-0.5595179200172424,0.022138681262731552,-0.8093003630638123,-0.13179980218410492,-0.15697719156742096,1.3200961351394653,-0.5181193947792053,0.00848563201725483,0.1949801743030548,0.13727602362632751,-3.194371461868286,0.1711278259754181,-0.015917088836431503,-0.37011030316352844,3.9924840927124023,-0.663673996925354,0.0047547705471515656,0.5174939036369324,-0.4637710452079773,1.2003504037857056,0.10919369757175446,0.8211245536804199,-1.1441916227340698,-0.7885396480560303,0.3735007345676422,-2.1033899784088135,-0.30484604835510254,0.13612525165081024,3.2136335372924805,1.8741594552993774,-0.3916442394256592,1741516856.8764012,1741516856093,2.2482724609375,-0.49204168701171874,0.2860572070646266,1.3404578857421876,2.288679931640625
1741516856.9115705,1.7444703578948975,-0.018254830690411828,-0.06895132469033301,-0.9974529943711195,0.11958871781826019,-0.16453319787979126,-0.20772987604141235,-3.2073686122894287,2.0277302265167236,7.846547603607178,-0.3110933303833008,0.10814857482910156,0.05207141116261482,-1.227993369102478,0.005531395319849253,-0.9355688095092773,0.34580758213996887,1.2409635782241821,0.01201647985726595,0.9439612627029419,0.20084688067436218,-0.34847790002822876,-0.057793546468019485,-0.03681239113211632,0.8268482685089111,-0.6009702682495117,0.0264638289809227,-0.8829251527786255,-0.15926603972911835,-0.15430685877799988,1.3883802890777588,-0.4649311304092407,0.0034404739271849394,0.1862550675868988,0.18075017631053925,-3.208125114440918,-0.008536536246538162,-0.0012610681587830186,-0.29538699984550476,3.7390248775482178,-0.17499175667762756,0.09578939527273178,-0.3427804410457611,-0.01360614225268364,1.701501727104187,0.19002199172973633,0.4955529570579529,-0.8753235340118408,-0.8068426847457886,0.3253195881843567,-1.2214924097061157,-1.0172425508499146,0.046928390860557556,0.09945493191480637,0.6440306901931763,7.003917562542483e-05,1741516856.8764012,1741516856093,2.2482724609375,-0.49204168701171874,0.2860572070646266,1.3404578857421876,2.288679931640625
1741516856.9137948,1.9275544881820679,0.07247408757601904,-0.1217683587849509,-0.9899090733137277,-0.0029158613178879023,0.13219419121742249,0.7069795727729797,4.317602157592773,8.395795822143555,8.550640106201172,-0.15278053283691406,0.22144699096679688,0.13103684782981873,-1.2577484846115112,0.006294346414506435,-0.9645609259605408,0.32063019275665283,1.23447847366333,0.012397955171763897,0.9092469811439514,-0.14438849687576294,-0.4854276478290558,-0.03032730519771576,0.23289081454277039,1.128213882446289,-0.38627558946609497,0.025441551581025124,-0.7234683632850647,-0.016212711110711098,0.18711376190185547,0.9039062857627869,-0.2503993511199951,0.03742723539471626,-0.4959639608860016,0.07472138106822968,3.567591905593872,-1.3394461870193481,-0.003319957759231329,0.2608841061592102,-3.69940185546875,-0.5155218839645386,-0.09568031132221222,-0.14707084000110626,0.14635343849658966,-3.6477487087249756,0.8202639222145081,0.5842408537864685,7.506318092346191,1.722547173500061,-0.9629769325256348,1.251874327659607,-0.3542413115501404,1.1551951169967651,0.7871102094650269,1.3454537391662598,-0.8365511298179626,1741516856.8764012,1741516856093,2.2482724609375,-0.49204168701171874,0.2860572070646266,1.3404578857421876,2.288679931640625
1741516856.9307384,1.953502118587494,0.06488009598426034,-0.12565296541496376,-0.9899504560469171,0.1138010323047638,-0.12000912427902222,1.268792986869812,-6.613450050354004,2.5581953525543213,14.184268951416016,-0.14858436584472656,0.22831344604492188,0.19474326074123383,-1.2680482864379883,0.005531395319849253,-0.9569314122200012,0.266460657119751,1.2276118993759155,0.012397955171763897,0.9092469811439514,-0.1504921019077301,-0.5727855563163757,-0.02193484455347061,0.23632410168647766,1.2739375829696655,-0.373693585395813,-0.0038151596672832966,-0.7001983523368835,-0.02193484455347061,0.18863965570926666,0.9187838435173035,-0.26051366329193115,0.03171626850962639,0.16030527651309967,0.1980302780866623,2.8979883193969727,-0.7997722029685974,0.04252993315458298,0.37869977951049805,-3.6219828128814697,-0.4599100947380066,-0.0032307286746799946,-0.04110729321837425,-0.35635077953338623,-4.018303394317627,0.2838621139526367,0.26920780539512634,7.0731425285339355,0.3235279619693756,-1.139322280883789,1.5602812767028809,-0.2632017731666565,-0.030027730390429497,0.8650665879249573,-0.9573162794113159,-0.024097509682178497,1741516856.8764012,1741516856093,2.2482724609375,-0.49204168701171874,0.2860572070646266,1.3404578857421876,2.288679931640625
1741516856.955424,1.977169394493103,0.0655997533920492,-0.12434112482528108,-0.9900686627866201,-0.19254465401172638,0.06211138144135475,1.1907572746276855,-3.0894603729248047,5.783034324645996,12.975717544555664,-0.15011024475097656,0.23212814331054688,0.2618829607963562,-1.2783480882644653,0.005531395319849253,-0.952735185623169,0.20084688067436218,1.2211267948150635,0.012779430486261845,0.9096284508705139,-0.1516365259885788,-0.6582360863685608,-0.01583123579621315,0.25196459889411926,1.3662546873092651,-0.3932707905769348,0.008501986041665077,-0.6643396615982056,-0.032616160809993744,0.18825818598270416,0.918402373790741,-0.31132668256759644,0.03245834633708,-0.08195873349905014,0.17313052713871002,3.4390311241149902,-0.5052889585494995,-0.002986293751746416,0.21170499920845032,-4.428520679473877,-0.40130525827407837,0.05329863727092743,0.07114789634943008,0.055317044258117676,-4.418279647827148,0.2748717963695526,0.7617335319519043,4.070143699645996,-1.104263186454773,0.8097331523895264,1.6532628536224365,-0.7130063772201538,-0.039584022015333176,-0.35661545395851135,-2.676474094390869,0.2940814197063446,1741516856.8764012,1741516856093,2.2482724609375,-0.49204168701171874,0.2860572070646266,1.3404578857421876,2.288679931640625
1741516856.970749,1.9895846247673035,0.064771300960002,-0.11873935833504025,-0.9908105991329179,-0.3133055865764618,0.04647817835211754,0.523901641368866,-3.0446908473968506,6.007466793060303,12.978616714477539,-0.14476966857910156,0.23212814331054688,0.3290226459503174,-1.2821629047393799,0.005531395319849253,-0.9439612627029419,0.12722209095954895,1.218456506729126,0.013542382046580315,0.9107728600502014,-0.1501106321811676,-0.7288090586662292,-0.013160906732082367,0.25654229521751404,1.3830395936965942,-0.42106446623802185,0.00664759986102581,-0.6204699873924255,-0.050164032727479935,0.17910276353359222,0.8936064839363098,-0.3619000017642975,0.05697597190737724,0.1203918606042862,0.0562366284430027,3.413667678833008,-0.24091410636901855,0.004927834961563349,0.40190285444259644,-4.891925811767578,-0.13045287132263184,0.024376895278692245,0.09817671030759811,0.18211068212985992,-3.476188898086548,0.18198484182357788,0.2664809823036194,0.2673650085926056,-1.3445121049880981,-0.6099876165390015,2.553426742553711,-0.9547985196113586,-0.4265105724334717,-1.1719048023223877,-2.42777419090271,1.5062755346298218,1741516856.8764012,1741516856093,2.2482724609375,-0.49204168701171874,0.2860572070646266,1.3404578857421876,2.288679931640625
1741516856.9909003,1.9906127452850342,0.06986100996848021,-0.11324657320395874,-0.9911077907794612,-0.2940695583820343,0.2510829567909241,-0.02498825639486313,3.08125376701355,1.0847833156585693,7.009950160980225,-0.13904762268066406,0.22182846069335938,0.3923476040363312,-1.2829258441925049,0.005531395319849253,-0.9378576278686523,0.05207141116261482,1.2188379764556885,0.012397955171763897,0.9130617380142212,-0.1367589831352234,-0.778019368648529,-0.007438773289322853,0.25501641631126404,1.3376439809799194,-0.43637633323669434,-0.012687659822404385,-0.5632486343383789,-0.06923781335353851,0.1680399775505066,0.8653773069381714,-0.3956955373287201,0.06858313083648682,0.17723296582698822,-0.29360827803611755,2.994800329208374,-0.046069640666246414,-0.00845032837241888,0.3371443748474121,-4.950023651123047,0.012331540696322918,-0.04601351171731949,0.1354302316904068,0.6083953380584717,-2.450223684310913,0.3611254096031189,-0.0216183103621006,-2.6349411010742188,-0.6210761070251465,-0.7494771480560303,2.6880953311920166,-1.0391772985458374,-0.5524277687072754,-1.4861384630203247,-1.5760056972503662,0.2422703504562378,1741516856.8764012,1741516856093,2.2482724609375,-0.49204168701171874,0.2860572070646266,1.3404578857421876,2.288679931640625
1741516857.0107846,1.9936542510986328,0.07183358840927212,-0.10797199657186922,-0.991555335587748,-0.2890968322753906,0.18162482976913452,0.21886296570301056,0.4599476754665375,-1.7003452777862549,5.715394020080566,-0.13904762268066406,0.21763134002685547,0.44651713967323303,-1.2817814350128174,0.005531395319849253,-0.9294651746749878,-0.024986648932099342,1.2188379764556885,0.012779430486261845,0.9210727214813232,-0.134470134973526,-0.813878059387207,0.010872052982449532,0.25654229521751404,1.2571526765823364,-0.4308745861053467,-0.0041933320462703705,-0.5128938555717468,-0.08297093212604523,0.1527809500694275,0.8310444951057434,-0.4183122515678406,0.05964371934533119,0.01764020510017872,-0.12300293892621994,2.6256656646728516,0.07737043499946594,-0.018387682735919952,0.4102330505847931,-4.974342346191406,-0.003280014730989933,0.017392978072166443,0.5945841073989868,0.035297323018312454,-1.6805256605148315,1.070108413696289,0.0948416069149971,-4.001945972442627,0.4204176068305969,0.5025011897087097,2.6055281162261963,-0.6780745387077332,-0.6429555416107178,-1.7262110710144043,-1.0938599109649658,-0.4184081256389618,1741516856.8764012,1741516856093,2.2482724609375,-0.49204168701171874,0.2860572070646266,1.3404578857421876,2.288679931640625
1741516857.0308118,2.001556694507599,0.07677132121194513,-0.10236067202180704,-0.9917804480138819,-0.2937529683113098,0.2785782217979431,0.3376820981502533,4.199556350708008,0.9722533822059631,7.424593925476074,-0.14019203186035156,0.20656871795654297,0.48962387442588806,-1.2791110277175903,0.005531395319849253,-0.9222171306610107,-0.07953765243291855,1.2188379764556885,0.012397955171763897,0.9340428709983826,-0.13752193748950958,-0.8413442969322205,0.04253452271223068,0.2584496736526489,1.1690318584442139,-0.40578651428222656,-0.0051504322327673435,-0.4488059878349304,-0.0879301130771637,0.14362554252147675,0.7951858043670654,-0.4371514618396759,0.054459501057863235,-0.0358305387198925,-0.274921715259552,2.0623416900634766,0.2569619417190552,0.0010172984329983592,0.3913954198360443,-3.4317972660064697,0.020443351939320564,-0.003938673995435238,0.8675820231437683,-0.10907473415136337,-1.16898775100708,1.672895908355713,0.056666627526283264,-4.328960418701172,1.4064888954162598,-0.2671147584915161,2.963991165161133,-0.06733395159244537,-0.46115362644195557,-1.8985764980316162,-0.9346566200256348,-0.15340708196163177,1741516856.8764012,1741516856093,2.2482724609375,-0.49204168701171874,0.2860572070646266,1.3404578857421876,2.288679931640625
1741516857.0508204,2.011551320552826,0.07568008958925602,-0.09548113519810442,-0.9925501885854656,-0.41882845759391785,-0.03266425058245659,0.49541282653808594,2.0889358520507812,-1.5831232070922852,6.334305763244629,-0.14324378967285156,0.20504283905029297,0.5151827335357666,-1.2711000442504883,0.005531395319849253,-0.917639434337616,-0.11196307092905045,1.219982385635376,0.012779430486261845,0.9454871416091919,-0.14476996660232544,-0.8520256280899048,0.08068207651376724,0.2660791873931885,1.0736628770828247,-0.3690151572227478,-0.007598009426146746,-0.4015030264854431,-0.08564125746488571,0.1367589831352234,0.7570382356643677,-0.45609384775161743,0.047385599464178085,-0.09316133707761765,-0.0579955130815506,1.1597368717193604,0.5201703310012817,-0.007428530137985945,0.14565199613571167,-1.8817061185836792,0.11609745770692825,0.012979372404515743,0.6993952989578247,-0.4115926921367645,-0.3692029118537903,1.9345505237579346,0.528048574924469,-4.923603534698486,1.8501684665679932,0.06075190752744675,2.489840507507324,0.1922975778579712,-0.22353540360927582,-1.8698680400848389,-0.9104737043380737,-0.44907185435295105,1741516857.0816398,1741516856293,2.160799072265625,-0.31342880249023436,0.4786862923377451,1.30194873046875,2.294204833984375
1741516857.070856,2.0230143070220947,0.07313901849864243,-0.08523317455803871,-0.9936729793688738,-0.547385036945343,-0.09569742530584335,0.528328537940979,-1.9945622682571411,-1.9615238904953003,8.05505084991455,-0.14629554748535156,0.20046520233154297,0.5212863087654114,-1.2638521194458008,0.005531395319849253,-0.916876494884491,-0.11768520623445511,1.224560022354126,0.012779430486261845,0.9554055333137512,-0.15468832850456238,-0.8375295400619507,0.11043716967105865,0.2924010157585144,0.9718089699745178,-0.3351275324821472,0.004266912117600441,-0.33207446336746216,-0.07534141838550568,0.1359960287809372,0.7196536064147949,-0.4674925208091736,0.0395628958940506,-0.10129368305206299,-0.14104607701301575,0.1393481343984604,0.44745519757270813,-0.010961644351482391,0.014324243180453777,-0.20298254489898682,0.30600714683532715,0.001769043505191803,0.6513363122940063,-0.47307971119880676,0.9776687622070312,1.2318840026855469,1.3979707956314087,-5.102507591247559,1.6194669008255005,0.5844191908836365,3.433436870574951,0.6035239696502686,-0.011316347867250443,-1.8585584163665771,-0.4464476406574249,-0.3695700168609619,1741516857.0816398,1741516856293,2.160799072265625,-0.31342880249023436,0.4786862923377451,1.30194873046875,2.294204833984375
1741516857.0908668,2.033554196357727,0.06422413948660921,-0.07197340354409605,-0.9953366712271197,-0.6840103268623352,-0.48834726214408875,0.498350590467453,1.405922532081604,5.914597034454346,2.672207832336426,-0.14934730529785156,0.20466136932373047,0.5117494463920593,-1.2569855451583862,0.005531395319849253,-0.916113555431366,-0.10662241280078888,1.224941611289978,0.012779430486261845,0.9626535177230835,-0.164988175034523,-0.812352180480957,0.1363775134086609,0.31757840514183044,0.8524070978164673,-0.32256147265434265,0.008833437226712704,-0.266460657119751,-0.06427863240242004,0.1367589831352234,0.6906614899635315,-0.46433791518211365,0.04565244913101196,-0.10236712545156479,0.12068284302949905,-0.600180983543396,0.46889978647232056,-0.015849336981773376,0.046116121113300323,0.99957275390625,-0.01884523034095764,0.005931667517870665,0.3947497606277466,-0.45529478788375854,1.3518061637878418,1.405088186264038,0.9312413930892944,-6.161351203918457,0.35959574580192566,0.18029776215553284,3.266572952270508,0.4592852294445038,0.0454663410782814,-1.1310700178146362,0.3762798607349396,0.7779324054718018,1741516857.0816398,1741516856293,2.160799072265625,-0.31342880249023436,0.4786862923377451,1.30194873046875,2.294204833984375
1741516857.110934,2.042134940624237,0.05468411803902232,-0.06073217141950678,-0.9966550308852938,-0.6348066329956055,-0.44515690207481384,0.4052540361881256,-0.6573615074157715,-1.8799587488174438,7.704176425933838,-0.14743995666503906,0.19893932342529297,0.4804684519767761,-1.2554595470428467,0.005531395319849253,-0.9164950251579285,-0.07686731964349747,1.224560022354126,0.012779430486261845,0.9657053351402283,-0.1676585078239441,-0.7681010365486145,0.14362554252147675,0.33131152391433716,0.7219424843788147,-0.3427566885948181,0.017408320680260658,-0.2145799994468689,-0.049782559275627136,0.1356145590543747,0.7024872303009033,-0.4478691518306732,0.06407097727060318,0.03537631407380104,-0.1519528180360794,-1.7002599239349365,0.04782778024673462,-0.00938631221652031,-0.014321655035018921,1.9828903675079346,-0.05294845625758171,0.00038127959123812616,0.1511170119047165,-0.12544454634189606,2.1535589694976807,0.17177347838878632,0.6315363049507141,-6.427164077758789,-1.1434683799743652,0.5332682728767395,2.2520689964294434,0.6788211464881897,-0.06862515956163406,1.0062122344970703,0.7458266019821167,0.6629711985588074,1741516857.0816398,1741516856293,2.160799072265625,-0.31342880249023436,0.4786862923377451,1.30194873046875,2.294204833984375
1741516857.1309571,2.0528047680854797,0.04237029761040644,-0.044937052656999016,-0.9980908872336766,-0.7435401678085327,-0.5781000256538391,0.5509103536605835,-23.175851821899414,8.177576065063477,21.894126892089844,-0.15812206268310547,0.20389842987060547,0.4335469603538513,-1.2527892589569092,0.005912871100008488,-0.9122987985610962,-0.034142062067985535,1.224941611289978,0.012779430486261845,0.9630350470542908,-0.1646067053079605,-0.728427529335022,0.1192111074924469,0.33169299364089966,0.7196536064147949,-0.32882916927337646,0.08661531656980515,-0.20428015291690826,-0.056267641484737396,0.14362554252147675,0.7742046117782593,-0.4315863847732544,0.0604088120162487,-0.34010860323905945,0.20440243184566498,-2.4931254386901855,0.2545909583568573,0.008538268506526947,0.2852592468261719,3.030789375305176,0.16432346403598785,-0.006743608508259058,-0.23434863984584808,0.35706785321235657,2.3789803981781006,-1.7692455053329468,-0.17221574485301971,1.5376535654067993,1.2001677751541138,4.0979180335998535,0.17276668548583984,-0.23384864628314972,0.4213332235813141,4.039357662200928,0.9544249773025513,-0.299533486366272,1741516857.0816398,1741516856293,2.160799072265625,-0.31342880249023436,0.4786862923377451,1.30194873046875,2.294204833984375
1741516857.150952,2.062666118144989,0.043927916643543244,-0.045824118049664936,-0.9979832104521239,0.06447245925664902,-0.04627332463860512,0.4380236268043518,-4.961161136627197,-2.4996747970581055,5.16907262802124,-0.13981056213378906,0.18635082244873047,0.3568703830242157,-1.2569855451583862,0.00667582219466567,-0.9096284508705139,0.02040894143283367,1.2276118993759155,0.012779430486261845,0.9618905782699585,-0.13942931592464447,-0.7108796834945679,0.08869306743144989,0.28973066806793213,0.7421606779098511,-0.2896679639816284,0.1712910532951355,-0.24204623699188232,-0.03833829239010811,0.1493476778268814,0.9008545279502869,-0.39216315746307373,0.049782056361436844,0.5634550452232361,-0.36091551184654236,-4.106934070587158,-0.553156852722168,0.054435983300209045,0.012331046164035797,3.667767286300659,0.03330719470977783,0.061068277806043625,-0.1210978701710701,1.3066036701202393,0.615600049495697,-1.5742580890655518,-2.2814087867736816,0.10632973164319992,1.909954309463501,2.8250179290771484,-2.478829860687256,1.117221713066101,0.490864098072052,6.70610237121582,2.061279535293579,-0.40316590666770935,1741516857.0816398,1741516856293,2.160799072265625,-0.31342880249023436,0.4786862923377451,1.30194873046875,2.294204833984375
1741516857.1710176,2.067346513271332,0.045914320036852065,-0.04168084394302011,-0.998075439264864,-0.25982144474983215,0.17542238533496857,0.1971004754304886,-6.426460266113281,4.7983856201171875,11.935029983520508,-0.16155529022216797,0.17071056365966797,0.2584496736526489,-1.2611817121505737,0.004386968910694122,-0.9153505563735962,0.0722896158695221,1.224941611289978,0.013542382046580315,0.959220290184021,-0.12264438718557358,-0.6803616285324097,0.06313420087099075,0.2454795092344284,0.7047760486602783,-0.24449782073497772,0.12053243815898895,-0.3236820101737976,-0.007438773289322853,0.17795833945274353,1.0770962238311768,-0.34966275095939636,0.023727044463157654,-0.6116394400596619,-0.5334954261779785,-4.882215976715088,-0.08914732933044434,-0.07623012363910675,-0.2575225234031677,3.4197824001312256,-0.12887907028198242,-0.0023408536799252033,-0.1521216630935669,0.991181492805481,1.8419345617294312,-0.9056529998779297,-2.0096282958984375,-1.4796561002731323,2.3232967853546143,-3.0076446533203125,-4.323531627655029,1.4195274114608765,1.5472040176391602,9.065506935119629,1.9544380903244019,-1.6852341890335083,1741516857.0816398,1741516856293,2.160799072265625,-0.31342880249023436,0.4786862923377451,1.30194873046875,2.294204833984375
1741516857.1909864,2.0588310956954956,0.05034031758348799,-0.043137315187122605,-0.9978000924353738,0.1734040230512619,0.0999758318066597,-0.5439621806144714,5.692867279052734,-5.6695098876953125,10.79493236541748,-0.14667701721191406,0.17032909393310547,0.17452506721019745,-1.2588928937911987,0.005531395319849253,-0.9138246774673462,0.12149996310472488,1.2321895360946655,0.013923857361078262,0.9565499424934387,-0.09670405089855194,-0.6616693139076233,0.04940108209848404,0.22487983107566833,0.7120240926742554,-0.19951607286930084,0.10146983712911606,-0.4236285984516144,0.03833829239010811,0.19245441257953644,1.2453268766403198,-0.3416993319988251,-0.020024577155709267,0.33917030692100525,-0.07427681237459183,-4.09368371963501,0.06617517024278641,0.04637039452791214,0.07306242734193802,3.30442476272583,0.4976140558719635,0.10565464198589325,-0.2137477844953537,1.4449266195297241,0.7974556088447571,-0.40436646342277527,-0.6811623573303223,0.4628567695617676,2.013637065887451,-0.26078012585639954,-5.1352338790893555,2.654205322265625,0.2273930460214615,8.117905616760254,0.060185257345438004,-1.8951197862625122,1741516857.0816398,1741516856293,2.160799072265625,-0.31342880249023436,0.4786862923377451,1.30194873046875,2.294204833984375
1741516857.2110374,2.0417420268058777,0.049470374203773565,-0.04230092874003885,-0.9978794082973497,-0.06125187873840332,-0.020628444850444794,-0.9227299094200134,3.1384265422821045,-3.8859214782714844,11.097350120544434,-0.15354347229003906,0.17681407928466797,0.09899290651082993,-1.2562226057052612,0.005531395319849253,-0.9153505563735962,0.17376211285591125,1.2402005195617676,0.013923857361078262,0.9531166553497314,-0.06160829961299896,-0.6376363635063171,0.04940108209848404,0.22220951318740845,0.7192721366882324,-0.18292322754859924,0.1028752475976944,-0.5167086124420166,0.08030059933662415,0.15812161564826965,1.3632028102874756,-0.3737274706363678,-0.01847640983760357,-0.19906450808048248,0.09589708596467972,-3.83457350730896,0.24506977200508118,-0.01728040911257267,-0.11880206316709518,3.4430928230285645,0.5599151253700256,-0.038744352757930756,-0.2092834860086441,1.8819477558135986,1.339725136756897,0.007046470418572426,-0.3099870979785919,0.3450288474559784,0.6540080308914185,-0.04956904798746109,-4.6560282707214355,1.824328064918518,-1.854629397392273,5.420860290527344,-1.848716378211975,0.22078457474708557,1741516857.0816398,1741516856293,2.160799072265625,-0.31342880249023436,0.4786862923377451,1.30194873046875,2.294204833984375
1741516857.2310526,2.020389139652252,0.0483952262167195,-0.03520591661028525,-0.9982076164381146,-0.3126305937767029,-0.1206163540482521,-1.125722050666809,0.8250455856323242,0.10342592746019363,10.93220043182373,-0.17032909393310547,0.18444347381591797,0.03299763426184654,-1.2485930919647217,0.005149920005351305,-0.916876494884491,0.22755016386508942,1.2485930919647217,0.013923857361078262,0.9496833682060242,-0.016975661739706993,-0.621614396572113,0.03795681521296501,0.20542457699775696,0.7364385724067688,-0.1877865344285965,0.1002376526594162,-0.6059738993644714,0.08564125746488571,0.11081864684820175,1.4173723459243774,-0.4249000549316406,-0.012186930514872074,-0.425598680973053,0.12810498476028442,-3.3362815380096436,0.5229772925376892,-0.01565472222864628,-0.09948255121707916,3.5673561096191406,0.6022939682006836,0.029531583189964294,-0.21051844954490662,2.211965560913086,0.6794118285179138,-0.7400291562080383,-0.9617976546287537,0.9607478380203247,-0.4488852918148041,-0.17297321557998657,-4.513948917388916,0.10367609560489655,-2.4898908138275146,2.1915535926818848,-2.536156415939331,0.21361668407917023,1741516857.0816398,1741516856293,2.160799072265625,-0.31342880249023436,0.4786862923377451,1.30194873046875,2.294204833984375
1741516857.2511349,1.995777666568756,0.04833980668167398,-0.026525538248950743,-0.9984786722362085,-0.3977106809616089,0.01992344669997692,-1.2782331705093384,0.4302196800708771,-1.6906788349151611,8.794251441955566,-0.16994762420654297,0.18673229217529297,-0.018501564860343933,-1.2405821084976196,0.005531395319849253,-0.9229800701141357,0.2782863974571228,1.2550780773162842,0.013923857361078262,0.9439612627029419,0.019645990803837776,-0.613603413105011,0.02040894143283367,0.17147326469421387,0.7558938264846802,-0.2206680029630661,0.09684476256370544,-0.6898985505104065,0.08182650804519653,0.05092698708176613,1.410887360572815,-0.47546061873435974,0.00039909363840706646,-0.026613177731633186,0.05981538072228432,-2.440197467803955,0.5127152800559998,-0.016306240111589432,-0.39136889576911926,3.292771816253662,0.32315096259117126,-0.017206326127052307,-0.4271150529384613,1.6483712196350098,0.39544421434402466,-0.9521574974060059,-1.4732176065444946,0.9287640452384949,-1.8459506034851074,-0.11969726532697678,-3.835219621658325,-0.1958121955394745,-3.011453151702881,-0.7409088015556335,-2.4364705085754395,0.6309609413146973,1741516857.2863283,1741516856493,2.01784130859375,-0.1725250701904297,0.2695249061939511,1.285387451171875,2.298080810546875
1741516857.2710803,1.973565936088562,0.054788545051305836,-0.015905252012822144,-0.9983712928012152,-0.47405433654785156,0.33613067865371704,-1.0578893423080444,1.3502814769744873,-0.9647970199584961,11.383601188659668,-0.17872142791748047,0.18291759490966797,-0.06694895774126053,-1.2340970039367676,0.006294346414506435,-0.9336614012718201,0.3236820101737976,1.2562226057052612,0.013542382046580315,0.9409094452857971,0.04596780240535736,-0.6124590039253235,0.015449759550392628,0.15926603972911835,0.768482506275177,-0.2683573067188263,0.10744687914848328,-0.7642862796783447,0.07305257022380829,0.010490577667951584,1.3639658689498901,-0.5062339305877686,0.006869377102702856,-0.25890055298805237,-0.06750872731208801,-2.4770355224609375,0.4157671332359314,0.08048221468925476,-0.5164450407028198,3.020071029663086,0.058670975267887115,-0.022495761513710022,-0.15455538034439087,1.260755181312561,-0.004334751982241869,-0.15035101771354675,-0.47140777111053467,0.5917448401451111,-2.4057936668395996,0.726279616355896,-3.519632577896118,-0.4593184292316437,-1.7941111326217651,-2.5495948791503906,-1.25190269947052,0.1496548354625702,1741516857.2863283,1741516856493,2.01784130859375,-0.1725250701904297,0.2695249061939511,1.285387451171875,2.298080810546875
1741516857.291078,1.9626737236976624,0.06542936039370573,-0.010764872832692169,-0.9977991362550713,-0.1811933070421219,0.5877935290336609,-0.3970549702644348,-0.40304237604141235,1.93977689743042,7.2952752113342285,-0.18406200408935547,0.16994762420654297,-0.10929274559020996,-1.231045126914978,0.005531395319849253,-0.9485389590263367,0.3622110188007355,1.2558410167694092,0.013160906732082367,0.9405279755592346,0.04901960864663124,-0.6010147333145142,0.015449759550392628,0.15583276748657227,0.7852674126625061,-0.31093811988830566,0.11785473674535751,-0.8196002244949341,0.06542305648326874,-0.009727626107633114,1.2861448526382446,-0.5017703771591187,0.009157027117908001,-0.17707699537277222,-0.3348923623561859,-2.106938362121582,0.09645704925060272,-0.0005613035173155367,-0.7771157622337341,2.4786205291748047,0.01816299930214882,-0.07121869176626205,0.007943127304315567,0.03257114812731743,0.6698466539382935,-0.02705777809023857,-0.043357785791158676,0.7894034385681152,-2.0293145179748535,0.25121796131134033,-2.510237216949463,-0.34394600987434387,-0.8943740725517273,-4.279516696929932,0.49273601174354553,0.16813579201698303,1741516857.2863283,1741516856493,2.01784130859375,-0.1725250701904297,0.2695249061939511,1.285387451171875,2.298080810546875
1741516857.3111248,1.961108386516571,0.07773496671535496,-0.008230389992445611,-0.9969400862791781,-0.13587504625320435,0.5497854948043823,-0.04704074561595917,-0.9053354859352112,3.1412997245788574,9.153809547424316,-0.18711376190185547,0.17490673065185547,-0.1371404528617859,-1.231808066368103,0.005531395319849253,-0.962272047996521,0.3999771177768707,1.2539336681365967,0.013923857361078262,0.9367132186889648,0.048256658017635345,-0.579270601272583,0.01506828423589468,0.15659570693969727,0.7936598658561707,-0.3430972099304199,0.10235456377267838,-0.8604180812835693,0.04749370738863945,-0.025749599561095238,1.1751353740692139,-0.4659288227558136,0.013856354169547558,-0.11917835474014282,0.15229050815105438,-1.1402438879013062,-0.013020825572311878,-0.014326450414955616,-0.6350461840629578,2.8095359802246094,-0.08302057534456253,0.1287861317396164,-0.40351423621177673,-0.00837650801986456,1.1940319538116455,-0.0902525782585144,0.005045755300670862,0.42123129963874817,-1.5578882694244385,-0.7975608110427856,-1.8957743644714355,-1.1090863943099976,-0.803208589553833,-5.705223560333252,1.9269996881484985,0.11698397248983383,1741516857.2863283,1741516856493,2.01784130859375,-0.1725250701904297,0.2695249061939511,1.285387451171875,2.298080810546875
1741516857.331129,1.9595487713813782,0.08372173595498593,-0.005503603441611534,-0.9964739742099846,-0.13080494105815887,0.24737854301929474,-0.10334355384111404,5.380915641784668,-1.2921693325042725,11.340252876281738,-0.19092845916748047,0.18635082244873047,-0.1367589831352234,-1.231808066368103,0.005531395319849253,-0.967994213104248,0.44308385252952576,1.2550780773162842,0.013160906732082367,0.927176296710968,0.05703059583902359,-0.5464637279510498,0.007438773289322853,0.15506981313228607,0.7948042750358582,-0.3709120750427246,0.082977794110775,-0.8707179427146912,0.010872052982449532,-0.05207141116261482,1.050011396408081,-0.4211782217025757,0.009865795262157917,-0.11645951122045517,0.36483141779899597,0.1309245228767395,0.00020743832283187658,-0.01182419154793024,-0.24711225926876068,2.4549036026000977,-0.02876102179288864,-0.06453286856412888,-0.57899409532547,0.49212518334388733,1.8268890380859375,-0.503207266330719,-0.09623678773641586,0.012588072568178177,-1.3855839967727661,-0.8451682925224304,-0.2597982585430145,-1.8739062547683716,-1.5197479724884033,-6.271337509155273,2.226163148880005,-0.15706020593643188,1741516857.2863283,1741516856493,2.01784130859375,-0.1725250701904297,0.2695249061939511,1.285387451171875,2.298080810546875
1741516857.3511958,1.9578161835670471,0.0824715015224553,-0.003630158841793727,-0.9965868117647428,-0.07189105451107025,-0.09593256562948227,-0.12290873378515244,1.1276161670684814,0.09926234930753708,8.913823127746582,-0.19207286834716797,0.20809459686279297,-0.11387044936418533,-1.2314265966415405,0.005531395319849253,-0.9706645011901855,0.45948728919029236,1.2550780773162842,0.013923857361078262,0.919165313243866,0.07343403995037079,-0.49229419231414795,-0.005531395319849253,0.14744029939174652,0.7902265787124634,-0.39761292934417725,0.0661342442035675,-0.8596551418304443,-0.03643091395497322,-0.09937438368797302,0.9279392957687378,-0.3736940026283264,0.0038127454463392496,-0.035178106278181076,0.6108947992324829,1.3314695358276367,0.005715092644095421,-0.01591719686985016,-0.1261797845363617,0.9611390233039856,0.053512632846832275,0.008610756136476994,-0.525440514087677,0.9229611754417419,2.814098596572876,-0.6628566384315491,-0.49140554666519165,-0.2982209026813507,-1.2762811183929443,-0.9419720768928528,0.6836658120155334,-2.4402194023132324,-2.5393764972686768,-5.9524688720703125,2.412532329559326,-0.3735271692276001,1741516857.3900492,1741516856593,1.9543627929687502,-0.09447136688232421,0.17621997345198645,1.2865078125,2.297027587890625
1741516857.371194,1.9503345489501953,0.07534244236423282,-0.005452020495383694,-0.9971428141701218,0.1652756929397583,-0.43193599581718445,-0.3836611807346344,0.9268572926521301,0.8131774067878723,9.962152481079102,-0.19169139862060547,0.21724987030029297,-0.06466010212898254,-1.2314265966415405,0.005531395319849253,-0.9710460305213928,0.45910581946372986,1.2527892589569092,0.013542382046580315,0.9138246774673462,0.09136339277029037,-0.4346913993358612,-0.029564354568719864,0.1359960287809372,0.7745860815048218,-0.4139564037322998,0.055925220251083374,-0.8348592519760132,-0.07801175117492676,-0.15926603972911835,0.8272297382354736,-0.3274593949317932,0.0005456370417959988,-0.004017309285700321,0.3314210772514343,2.793517827987671,-0.04102299362421036,-0.009505230002105236,-0.000394917355151847,-0.1641233265399933,-0.18711479008197784,0.006191326770931482,-0.3580317199230194,0.9283943772315979,2.8619308471679688,-1.2805054187774658,-0.5284041166305542,-0.8520522117614746,-0.6191163063049316,-0.04367631673812866,1.3330776691436768,-1.9121840000152588,-2.894822597503662,-4.726391315460205,2.1776905059814453,-0.08413206785917282,1741516857.3900492,1741516856593,1.9543627929687502,-0.09447136688232421,0.17621997345198645,1.2865078125,2.297027587890625
1741516857.3911977,1.9389926195144653,0.06123651596384661,-0.013168807603631608,-0.9980364079626094,0.4499886929988861,-0.745801568031311,-0.583136260509491,0.2664492726325989,-1.5686379671096802,7.297807693481445,-0.19207286834716797,0.21686840057373047,0.004005493130534887,-1.2333340644836426,0.005531395319849253,-0.9706645011901855,0.44117647409439087,1.2466856241226196,0.013542382046580315,0.9107728600502014,0.10471503436565399,-0.36564430594444275,-0.05436026677489281,0.12684062123298645,0.7597085237503052,-0.40574005246162415,0.09242057055234909,-0.7967116832733154,-0.11196307092905045,-0.20122835040092468,0.7425421476364136,-0.30060848593711853,-0.0036228697281330824,-0.01565377600491047,0.011658882722258568,3.5728676319122314,-0.12408506870269775,-0.005217565223574638,0.003939840476959944,-1.3518707752227783,-0.39178481698036194,0.02920282632112503,-0.18015550076961517,0.5874587297439575,3.462766647338867,-1.2420469522476196,-0.44286635518074036,-0.6337798833847046,0.5605478286743164,1.836647868156433,1.9908190965652466,-1.5926240682601929,-1.5916568040847778,-4.275909423828125,1.063659429550171,-0.29683804512023926,1741516857.3900492,1741516856593,1.9543627929687502,-0.09447136688232421,0.17621997345198645,1.2865078125,2.297027587890625
1741516857.4112353,1.9268109202384949,0.0415885720782821,-0.02583767734421401,-0.9988006833707843,0.6925156116485596,-1.0336060523986816,-0.5787123441696167,1.5632075071334839,-1.0544780492782593,5.242681980133057,-0.19054698944091797,0.21992111206054688,0.08373387902975082,-1.2356228828430176,0.005531395319849253,-0.968757152557373,0.4091325104236603,1.2440153360366821,0.013542382046580315,0.9103913903236389,0.11348897218704224,-0.3255893886089325,-0.08411535620689392,0.11158160120248795,0.7742046117782593,-0.3924969434738159,0.11678430438041687,-0.7459754347801208,-0.13218127191066742,-0.18520638346672058,0.6589990258216858,-0.312395840883255,-0.010458570905029774,0.05117812380194664,0.10570637881755829,4.0242743492126465,-0.17953689396381378,0.002017582068219781,0.1540127545595169,-2.215052366256714,-0.1537909060716629,0.012798735871911049,-0.016660252586007118,0.3292730748653412,1.454451084136963,-1.6500370502471924,-0.8703036904335022,1.1245819330215454,0.6056820154190063,1.0900565385818481,2.566661834716797,-0.7894100546836853,1.148913860321045,-4.164644718170166,-0.9365416169166565,-0.2619715631008148,1741516857.3900492,1741516856593,1.9543627929687502,-0.09447136688232421,0.17621997345198645,1.2865078125,2.297027587890625
1741516857.4312506,1.9230183959007263,0.02276747069484707,-0.04226004618473574,-0.9988472009144457,0.8057008385658264,-0.8355787992477417,-0.08631725609302521,7.67327356338501,4.241655349731445,15.43677806854248,-0.18863964080810547,0.21877670288085938,0.16269932687282562,-1.238293170928955,0.005531395319849253,-0.9649423956871033,0.36526283621788025,1.2424894571304321,0.013160906732082367,0.9100099205970764,0.12569619715213776,-0.325970858335495,-0.11081864684820175,0.07419699430465698,0.8691920638084412,-0.3723655641078949,0.12571021914482117,-0.7078278660774231,-0.12378881871700287,-0.1359960287809372,0.6177996397018433,-0.322599321603775,0.006360171362757683,0.059771087020635605,-0.04489287734031677,3.7935125827789307,-0.14729705452919006,-0.027271511033177376,0.19812215864658356,-2.9927549362182617,-0.09456838667392731,-0.009901044890284538,-0.1143842563033104,0.6645739674568176,-0.49697592854499817,-0.6529147028923035,-2.0392205715179443,5.419809341430664,1.1414177417755127,0.28459346294403076,1.7002437114715576,0.5442968606948853,2.3011813163757324,-0.6272404789924622,0.09050165861845016,1.1605377197265625,1741516857.3900492,1741516856593,1.9543627929687502,-0.09447136688232421,0.17621997345198645,1.2865078125,2.297027587890625
1741516857.45129,1.9252679944038391,0.014896108232566246,-0.04371630597691303,-0.9989329259521165,-0.14590221643447876,-0.2034744918346405,0.1719490885734558,6.578064441680908,-2.787719249725342,5.855229377746582,-0.20923900604248047,0.21763134002685547,0.2298390120267868,-1.23905611038208,0.005531395319849253,-0.9580758213996887,0.30384528636932373,1.2455412149429321,0.01430533267557621,0.9069581031799316,0.13103684782981873,-0.3854810297489166,-0.12226291000843048,0.013542382046580315,1.0145342350006104,-0.3380308747291565,0.11180281639099121,-0.6815060377120972,-0.09555962681770325,-0.09060044586658478,0.6681544184684753,-0.3159502148628235,0.016679691150784492,-0.6648391485214233,-0.09337060153484344,3.476269006729126,0.03249668702483177,-0.007305703591555357,0.35633325576782227,-4.426821231842041,0.44283702969551086,0.11557698994874954,-0.11799225211143494,0.4576438069343567,-3.431102991104126,-0.9695129990577698,-3.089712619781494,7.531356334686279,1.6554484367370605,-1.1788095235824585,0.8353267908096313,1.1880310773849487,2.384491443634033,2.1981053352355957,0.0610610693693161,0.2963266670703888,1741516857.4912484,1741516856693,1.90048779296875,-0.01592777729034424,0.016185153269846837,1.291358642578125,2.2958671875
1741516857.4713614,1.9340394139289856,0.00877961319616,-0.03371434518398732,-0.9993929464034358,-0.5203620791435242,-0.14951060712337494,0.40039125084877014,-1.474613904953003,7.63856315612793,9.433209419250488,-0.19169139862060547,0.22259140014648438,0.28858625888824463,-1.2340970039367676,0.004386968910694122,-0.954261064529419,0.22373540699481964,1.2634705305099487,0.015449759550392628,0.9103913903236389,0.16231784224510193,-0.4800869822502136,-0.14705882966518402,-0.04253452271223068,1.1732280254364014,-0.3237769901752472,0.03403066471219063,-0.6616693139076233,-0.09098191559314728,-0.06847485899925232,0.6811245679855347,-0.3233959674835205,0.030460091307759285,0.4400724768638611,0.11568748205900192,2.830089807510376,0.38794180750846863,-0.12899677455425262,0.15065737068653107,-5.404207706451416,1.0499032735824585,0.01681956835091114,0.26043158769607544,1.6291395425796509,-4.785707473754883,-1.2448415756225586,-2.7437591552734375,7.50839900970459,0.648708701133728,-3.919323444366455,1.5293505191802979,0.33811062574386597,0.699373722076416,0.6343826055526733,-0.27661335468292236,0.8785806894302368,1741516857.4912484,1741516856693,1.90048779296875,-0.01592777729034424,0.016185153269846837,1.291358642578125,2.2958671875
1741516857.4913232,1.9464300274848938,0.008441167288364611,-0.022218276334825753,-0.9997175075447658,-0.5849396586418152,-0.06383781135082245,0.7046526074409485,2.303493022918701,1.7254209518432617,7.98426628112793,-0.19169139862060547,0.22259140014648438,0.33588922023773193,-1.227993369102478,0.005531395319849253,-0.9481574892997742,0.13904783129692078,1.2661409378051758,0.012779430486261845,0.9145876169204712,0.19054703414440155,-0.579270601272583,-0.15697719156742096,-0.08030059933662415,1.2975890636444092,-0.34777411818504333,0.018012382090091705,-0.6280995011329651,-0.08983749151229858,-0.0707637146115303,0.692568838596344,-0.32287344336509705,0.037652235478162766,-0.008569242432713509,0.01092139445245266,2.281897783279419,0.3563535213470459,0.04406900331377983,0.4282909631729126,-5.519289970397949,0.04954984039068222,-0.18245075643062592,0.21303905546665192,1.4226351976394653,-4.945845127105713,-0.32445386052131653,-1.4399536848068237,5.6630072593688965,-1.573071837425232,-0.2660723924636841,1.3588355779647827,-0.21540239453315735,-0.02992434799671173,0.4569505751132965,-0.0137385418638587,0.1953924000263214,1741516857.4912484,1741516856693,1.90048779296875,-0.01592777729034424,0.016185153269846837,1.291358642578125,2.2958671875
1741516857.5134034,1.9632346034049988,0.0022903302218511613,-0.010358142607372738,-0.9999437300514465,-0.5616943836212158,-0.2753359079360962,0.8292333483695984,-2.5728414058685303,4.796760082244873,9.782320022583008,-0.18902111053466797,0.23556137084960938,0.3747997283935547,-1.230282187461853,0.005531395319849253,-0.9401465058326721,0.06313420087099075,1.2646150588989258,0.013160906732082367,0.917639434337616,0.2149614691734314,-0.6685358881950378,-0.1493476778268814,-0.08106355369091034,1.356717824935913,-0.3991067707538605,0.021447060629725456,-0.6059738993644714,-0.09555962681770325,-0.06351567804813385,0.7024872303009033,-0.32412293553352356,0.041177280247211456,0.034111518412828445,0.36155393719673157,1.868349313735962,-0.30463001132011414,-0.030350016430020332,0.35181593894958496,-4.832215785980225,-0.15861360728740692,0.053885672241449356,0.22996990382671356,1.0750885009765625,-4.200464725494385,0.16269899904727936,0.2836683690547943,2.4943251609802246,-2.667747735977173,0.08288656920194626,1.326690435409546,-0.20640791952610016,0.5058457255363464,0.5877442955970764,-0.08363889157772064,0.2598068416118622,1741516857.4912484,1741516856693,1.90048779296875,-0.01592777729034424,0.016185153269846837,1.291358642578125,2.2958671875
1741516857.5313725,1.9773347973823547,0.001158663161686854,-0.006018638280496782,-0.9999812165700546,-0.1253765970468521,-0.07153027504682541,0.7425285577774048,2.466207265853882,4.660465717315674,6.93267297744751,-0.18368053436279297,0.23670578002929688,0.4018844962120056,-1.239819049835205,0.005912871100008488,-0.9328984618186951,0.005149920005351305,1.2581299543380737,0.013160906732082367,0.9233615398406982,0.21992065012454987,-0.7372015118598938,-0.135233074426651,-0.06237125024199486,1.356717824935913,-0.4523855149745941,0.012568693608045578,-0.577744722366333,-0.09365224838256836,-0.053215838968753815,0.7112611532211304,-0.32957062125205994,0.05356023833155632,0.1262868195772171,0.07979772239923477,1.2690932750701904,-0.5400820970535278,0.012658731080591679,0.37851813435554504,-3.6714987754821777,-0.48252493143081665,0.0074991341680288315,0.3829517960548401,0.38028040528297424,-3.2629692554473877,0.7797760963439941,1.0821828842163086,-0.5054382085800171,-2.6741533279418945,-0.6398667097091675,1.1482549905776978,0.11903885006904602,0.5886049270629883,0.4023876488208771,-0.30189651250839233,0.6649126410484314,1741516857.4912484,1741516856693,1.90048779296875,-0.01592777729034424,0.016185153269846837,1.291358642578125,2.2958671875
1741516857.551452,1.9862515926361084,-0.0019885069624346516,-0.007651739828745921,-0.999968747870479,0.07881820946931839,-0.13533440232276917,0.40410083532333374,-12.588593482971191,-1.0846996307373047,7.582728385925293,-0.16994762420654297,0.23861312866210938,0.4194323718547821,-1.2508819103240967,0.005531395319849253,-0.9294651746749878,-0.03681239113211632,1.2482116222381592,0.012779430486261845,0.927176296710968,0.22678720951080322,-0.7837415337562561,-0.12149996310472488,-0.054741740226745605,1.2994964122772217,-0.4943777024745941,-0.009086739271879196,-0.5796520709991455,-0.08945601433515549,-0.03643091395497322,0.7265201807022095,-0.3372907340526581,0.06514348089694977,0.32017239928245544,0.04559832438826561,0.8076215386390686,-0.8378427028656006,-0.03163865581154823,0.12051769345998764,-2.827380895614624,-0.5955800414085388,0.009783743880689144,0.25170597434043884,0.23434953391551971,-2.1152217388153076,0.6669020056724548,0.27910488843917847,-3.277853488922119,-1.8499925136566162,-1.1150434017181396,-0.012481545098125935,0.21180368959903717,0.9208419322967529,0.9567389488220215,-0.4124513864517212,0.5236178636550903,1741516857.5856466,1741516856793,1.8539742431640625,0.043816741943359376,-0.2333766846294951,1.2968134765625001,2.29599609375
1741516857.5714285,1.9977045059204102,0.003429854083176811,-0.009596326606957892,-0.9999480719600496,0.09358838945627213,0.3146807551383972,0.6483433842658997,3.2586593627929688,2.246744155883789,5.244532585144043,-0.17566967010498047,0.23174667358398438,0.4346913993358612,-1.2569855451583862,0.005531395319849253,-0.9283207654953003,-0.08335240930318832,1.2417265176773071,0.013160906732082367,0.9374761581420898,0.22259098291397095,-0.7990005612373352,-0.11158160120248795,-0.061226826161146164,1.191157341003418,-0.5077627897262573,-0.008863866329193115,-0.5743114352226257,-0.08602273464202881,-0.012397955171763897,0.7608529925346375,-0.350863516330719,0.0675826147198677,-0.14170058071613312,-0.2297412008047104,0.7570479512214661,-0.2715514600276947,-0.0028137469198554754,0.08191026002168655,-2.88238525390625,-0.4631621539592743,0.009222445078194141,0.8133584856987,-0.18476004898548126,-0.42867255210876465,0.4814760386943817,-0.427450031042099,-5.763707637786865,-0.4768977165222168,0.32187455892562866,-0.032945550978183746,0.26260191202163696,1.1780791282653809,1.6445876359939575,-0.7107642292976379,0.10576900094747543,1741516857.5856466,1741516856793,1.8539742431640625,0.043816741943359376,-0.2333766846294951,1.2968134765625001,2.29599609375
1741516857.5914478,2.0050068497657776,0.0075837820228246864,-0.014466741457162388,-0.9998665909219299,0.29637637734413147,0.2482224404811859,0.29263439774513245,-2.0916619300842285,-0.5804970264434814,6.492033958435059,-0.17185497283935547,0.23441696166992188,0.44346532225608826,-1.2577484846115112,0.005912871100008488,-0.925650417804718,-0.11272602528333664,1.23295259475708,0.013160906732082367,0.9546425342559814,0.21686884760856628,-0.7887006998062134,-0.09746700525283813,-0.06847485899925232,1.0290303230285645,-0.505014955997467,0.0006830048514530063,-0.5842298269271851,-0.06466010212898254,0.0036240178160369396,0.8024337887763977,-0.3677765429019928,0.07043001055717468,0.07313396781682968,0.06882835924625397,0.3380478024482727,-0.12300296872854233,0.004039760213345289,0.12374202907085419,-1.9166758060455322,-0.5860009789466858,0.005485926289111376,1.1675103902816772,-0.31267285346984863,0.8580179810523987,0.9042852520942688,-0.3515310287475586,-8.350714683532715,0.1565965861082077,0.386321485042572,-0.40997591614723206,1.2029521465301514,0.7628704309463501,2.325054407119751,-0.8602147102355957,-0.013855506666004658,1741516857.5856466,1741516856793,1.8539742431640625,0.043816741943359376,-0.2333766846294951,1.2968134765625001,2.29599609375
1741516857.6115158,2.0035669803619385,0.014465586516608637,-0.016097287213178147,-0.9997657846471376,-0.03900736942887306,0.221025750041008,-0.21917827427387238,-23.814571380615234,1.2320603132247925,36.498565673828125,-0.16918468475341797,0.23823165893554688,0.44232088327407837,-1.2573670148849487,0.005149920005351305,-0.9225986003875732,-0.12531471252441406,1.224941611289978,0.013160906732082367,0.967231273651123,0.20466163754463196,-0.7528420090675354,-0.07534141838550568,-0.034142062067985535,0.9096284508705139,-0.45490914583206177,0.010341454297304153,-0.5907148718833923,-0.04482337832450867,0.01888304017484188,0.8615625500679016,-0.3894033432006836,0.04993949085474014,0.08675849437713623,0.10162511467933655,-0.021114429458975792,0.08798779547214508,-0.03747865557670593,0.245602548122406,-0.4928564727306366,-0.5384112596511841,0.02918759174644947,0.662689208984375,-0.7235181331634521,1.6735479831695557,1.028153657913208,2.8937816619873047,-3.0663251876831055,3.608821392059326,0.6755433082580566,-0.3165637254714966,0.4141266345977783,0.9448527693748474,2.8669440746307373,-1.0908921957015991,-1.1618232727050781,1741516857.5856466,1741516856793,1.8539742431640625,0.043816741943359376,-0.2333766846294951,1.2968134765625001,2.29599609375
1741516857.6315174,2.0049896836280823,0.017825376483945606,-0.024252304093213477,-0.9995469382171984,0.5050467848777771,0.5119898915290833,0.19401560723781586,2.5173606872558594,13.964088439941406,11.780824661254883,-0.16498851776123047,0.24090194702148438,0.43202105164527893,-1.2554595470428467,0.005912871100008488,-0.9122987985610962,-0.11043716967105865,1.219982385635376,0.011635004542768002,0.9733348488807678,0.22411687672138214,-0.7112611532211304,-0.061226826161146164,0.009727626107633114,0.9351872801780701,-0.38719192147254944,0.07429251819849014,-0.5849927663803101,-0.04711223021149635,0.02231631986796856,0.8916990756988525,-0.41770684719085693,0.01773756556212902,0.14720697700977325,-0.3503633141517639,-0.8212584853172302,-0.015504775568842888,-0.003092419821768999,0.3147091567516327,1.4073610305786133,-0.2586512863636017,-0.1645287424325943,0.4541676938533783,1.1175754070281982,1.533555030822754,0.7581255435943604,1.274176001548767,0.14698968827724457,3.036306619644165,2.9138386249542236,0.36734139919281006,0.4993385970592499,-0.3616436719894409,1.380792498588562,-1.494096279144287,-1.5491421222686768,1741516857.5856466,1741516856793,1.8539742431640625,0.043816741943359376,-0.2333766846294951,1.2968134765625001,2.29599609375
1741516857.6515067,1.9999876022338867,0.022686883684043015,-0.03270460623526347,-0.9992075430258236,0.3335106372833252,0.07593166083097458,-0.16743186116218567,-5.954814910888672,-1.9630331993103027,15.773844718933105,-0.17185497283935547,0.2672233581542969,0.3896772861480713,-1.2604187726974487,0.005912871100008488,-0.9119172692298889,-0.07305257022380829,1.2203638553619385,0.011635004542768002,0.9718089699745178,0.23708705604076385,-0.6765468716621399,-0.04558632895350456,-0.0020981156267225742,0.8928435444831848,-0.34729185700416565,0.08199732005596161,-0.5811780095100403,-0.03833829239010811,0.010490577667951584,0.9092469811439514,-0.4456803500652313,-0.0028221982065588236,-0.24557723104953766,0.6148672103881836,-2.3593692779541016,-0.1834881752729416,0.034425798803567886,0.01988166756927967,2.4618184566497803,0.036730363965034485,0.06192826107144356,-0.22342482209205627,0.793617844581604,2.40228533744812,0.5488815307617188,-0.14908568561077118,-1.631404995918274,2.1503820419311523,-0.8587880730628967,0.27539175748825073,0.13352258503437042,-0.3482794463634491,1.0602366924285889,-1.210713505744934,-0.755582332611084,1741516857.5856466,1741516856793,1.8539742431640625,0.043816741943359376,-0.2333766846294951,1.2968134765625001,2.29599609375
1741516857.671606,1.993399441242218,0.022231959846999483,-0.02640581698828864,-0.9994040588223275,-0.26080775260925293,-0.21579788625240326,-0.4221346080303192,7.632772922515869,5.769626617431641,8.038446426391602,-0.18673229217529297,0.2992677688598633,0.34542611241340637,-1.2531707286834717,0.00476844422519207,-0.9088655114173889,-0.02384222112596035,1.2306636571884155,0.012397955171763897,0.9645609259605408,0.25539788603782654,-0.6292439103126526,-0.046730753034353256,-0.001716639962978661,0.882543683052063,-0.3137803375720978,0.046901170164346695,-0.572022557258606,-0.04177157208323479,-0.010872052982449532,0.954261064529419,-0.4492267072200775,0.0060079642571508884,-0.37089240550994873,0.9862655997276306,-2.0357038974761963,0.5430650115013123,-0.02740512602031231,0.23394447565078735,3.3942606449127197,1.0024785995483398,0.05543338879942894,-0.4615280032157898,0.8448961973190308,1.7779457569122314,0.06485495716333389,-0.26558196544647217,-0.6422095894813538,1.3667353391647339,-0.9704733490943909,-0.01165230106562376,-0.18576323986053467,-1.522646188735962,2.2639663219451904,-0.03851025179028511,0.5042082071304321,1741516857.5856466,1741516856793,1.8539742431640625,0.043816741943359376,-0.2333766846294951,1.2968134765625001,2.29599609375
1741516857.6966588,1.9831808805465698,0.010872014811051886,-0.025724068034285005,-0.9996099597431568,-0.05440756678581238,-0.40557900071144104,-0.5097435116767883,-5.272890567779541,-5.519725322723389,11.751202583312988,-0.16956615447998047,0.3095674514770508,0.30270084738731384,-1.2432523965835571,0.005149920005351305,-0.9100099205970764,0.042153049260377884,1.2493560314178467,0.01430533267557621,0.9565499424934387,0.27103838324546814,-0.5907148718833923,-0.05283436179161072,-0.01583123579621315,0.8794918656349182,-0.31692561507225037,0.05714481323957443,-0.5941481590270996,-0.0551232174038887,-0.06733043491840363,1.0172045230865479,-0.43824446201324463,0.004811471793800592,0.38621145486831665,0.27504536509513855,-2.3652737140655518,0.6715092658996582,0.008795064873993397,-0.23171959817409515,4.46816349029541,1.102005958557129,0.061033945530653,-0.515150785446167,0.8022976517677307,2.2680652141571045,-0.42070215940475464,-0.5267957448959351,-0.052196793258190155,-0.42243343591690063,0.4082266390323639,-1.091468095779419,-0.6522282958030701,-2.9060006141662598,3.5068771839141846,0.5957868099212646,-0.2323082685470581,1741516857.5856466,1741516856793,1.8539742431640625,0.043816741943359376,-0.2333766846294951,1.2968134765625001,2.29599609375
1741516857.711611,1.9680189490318298,0.010019489551446482,-0.022859133264507874,-0.9996884864074028,-0.0701044425368309,-0.18486756086349487,-0.7847296595573425,-1.7850030660629272,0.34392961859703064,12.303035736083984,-0.18635082244873047,0.3152894973754883,0.24128328263759613,-1.2333340644836426,0.005912871100008488,-0.9142061471939087,0.11005569249391556,1.2634705305099487,0.013923857361078262,0.9515907764434814,0.2790493667125702,-0.5498970150947571,-0.0551232174038887,-0.01430533267557621,0.8707179427146912,-0.34530872106552124,0.050317153334617615,-0.6441214680671692,-0.07572289556264877,-0.12188144028186798,1.1057069301605225,-0.4260285496711731,-0.002270597731694579,-0.42004895210266113,0.1938096284866333,-2.8457460403442383,0.5605477094650269,0.032172709703445435,-0.1358838975429535,4.5501861572265625,0.8838242888450623,0.026929305866360664,-0.31117531657218933,0.4312290549278259,1.6614394187927246,0.02636054717004299,0.15302860736846924,-0.5190948247909546,-1.5640820264816284,-0.3676453232765198,-2.675079822540283,-1.1379379034042358,-2.455193281173706,4.604635715484619,0.6326360106468201,-0.14309464395046234,1741516857.5856466,1741516856793,1.8539742431640625,0.043816741943359376,-0.2333766846294951,1.2968134765625001,2.29599609375
1741516857.7316573,1.9514134526252747,0.010490245559751176,-0.028467429153845602,-0.9995396741627953,0.30349406599998474,0.12092870473861694,-0.8336961269378662,1.4093681573867798,0.28511717915534973,8.980734825134277,-0.17719554901123047,0.3133821487426758,0.17338064312934875,-1.2333340644836426,0.005531395319849253,-0.916113555431366,0.1832990050315857,1.2688112258911133,0.013542382046580315,0.9485389590263367,0.28629741072654724,-0.5144197940826416,-0.051689937710762024,-0.0013351644156500697,0.8642328381538391,-0.38229385018348694,0.04644451662898064,-0.7146944403648376,-0.09822995215654373,-0.1501106321811676,1.19916832447052,-0.4166053831577301,0.0029015876352787018,0.24374188482761383,-0.011211554519832134,-3.5621962547302246,0.004475119058042765,-0.009231103584170341,-0.11402648687362671,4.845669269561768,0.2764335870742798,-0.03993593156337738,-0.2024846374988556,0.27978065609931946,1.9737225770950317,0.14632642269134521,0.6248202919960022,-0.30382269620895386,-1.8298319578170776,-0.32772502303123474,-3.528231143951416,-1.0519590377807617,-1.2998851537704468,4.491178035736084,0.43590646982192993,0.2714529037475586,1741516857.5856466,1741516856793,1.8539742431640625,0.043816741943359376,-0.2333766846294951,1.2968134765625001,2.29599609375
1741516857.7516973,1.935908555984497,0.017101020458507,-0.036757568458837396,-0.9991778801896445,0.4210878014564514,0.2844766676425934,-0.7552568316459656,4.075579643249512,-4.626773834228516,7.721503257751465,-0.18749523162841797,0.3107118606567383,0.10204470902681351,-1.231045126914978,0.005531395319849253,-0.9180209040641785,0.25577935576438904,1.2680482864379883,0.013542382046580315,0.9447242021560669,0.2821011543273926,-0.47856107354164124,-0.0555046908557415,0.0032425422687083483,0.8539330363273621,-0.4163292944431305,0.03442708030343056,-0.7871748208999634,-0.1188296303153038,-0.1501106321811676,1.275081992149353,-0.4123302102088928,0.004896537400782108,-0.27187737822532654,-0.03808591142296791,-3.437180757522583,0.17222215235233307,-0.006078029982745647,-0.11791840195655823,4.7942423820495605,-0.10085805505514145,0.017122864723205566,-0.2561377286911011,-0.14046621322631836,1.7227786779403687,-0.2374098002910614,0.26636597514152527,-0.4798522889614105,-1.713945984840393,-0.5211715698242188,-3.4959254264831543,-0.9729702472686768,0.07645914703607559,3.462660551071167,0.150985449552536,-0.0055040172301232815,1741516857.5856466,1741516856793,1.8539742431640625,0.043816741943359376,-0.2333766846294951,1.2968134765625001,2.29599609375
1741516857.7716727,1.9275015592575073,0.021483111454008476,-0.044162682638956646,-0.9987933386764178,0.3597956597805023,0.21990208327770233,-0.42933374643325806,0.19264185428619385,-1.1355841159820557,8.21603012084961,-0.19398021697998047,0.3122377395629883,0.03681239113211632,-1.231045126914978,0.005531395319849253,-0.924124538898468,0.3229190409183502,1.2642335891723633,0.013542382046580315,0.9435797929763794,0.291638046503067,-0.44308385252952576,-0.05741206929087639,0.01201647985726595,0.8455405235290527,-0.4510391652584076,0.03778567537665367,-0.8470664620399475,-0.14171816408634186,-0.13866636157035828,1.3097963333129883,-0.4102058708667755,0.00019496165623422712,-0.17228318750858307,0.034532301127910614,-3.070671558380127,-0.0033066789619624615,-0.014181985519826412,-0.3914364278316498,4.456484317779541,-0.26308026909828186,-0.013798280619084835,-0.09597110748291016,0.34755685925483704,1.8034937381744385,-0.04893142357468605,0.29149723052978516,-0.45931413769721985,-1.6572316884994507,0.09823808819055557,-2.7749547958374023,-1.2769861221313477,0.4784374535083771,1.3749721050262451,0.11692390590906143,-0.2364979088306427,1741516857.5856466,1741516856793,1.8539742431640625,0.043816741943359376,-0.2333766846294951,1.2968134765625001,2.29599609375
1741516857.7916975,1.9222252368927002,0.02619968785723515,-0.04953312620238567,-0.9984287885296588,0.2756534814834595,0.19645589590072632,-0.13221395015716553,3.7078511714935303,0.16463637351989746,9.11375617980957,-0.20618724822998047,0.3179597854614258,-0.013923857361078262,-1.231045126914978,0.005531395319849253,-0.9306095838546753,0.37861448526382446,1.2611817121505737,0.013542382046580315,0.9405279755592346,0.2931639552116394,-0.4007400572299957,-0.061226826161146164,0.016212711110711098,0.8344777822494507,-0.4790602922439575,0.03172236680984497,-0.889028787612915,-0.17681391537189484,-0.1325627565383911,1.3056000471115112,-0.4069982171058655,-0.0028706660959869623,-0.37585267424583435,0.18781675398349762,-2.421807050704956,-0.03195770084857941,0.012082837522029877,-0.32144665718078613,3.6424853801727295,-0.0992642343044281,-0.013582429848611355,-0.20442593097686768,0.15933135151863098,2.133863687515259,-0.2701793611049652,0.37735646963119507,-0.6030794978141785,-1.4119855165481567,-0.23097817599773407,-1.958311915397644,-1.8738898038864136,0.2275257408618927,-0.5035437345504761,0.17851276695728302,-0.04780194163322449,1741516857.5856466,1741516856793,1.8539742431640625,0.043816741943359376,-0.2333766846294951,1.2968134765625001,2.29599609375
1741516857.8117845,1.9129122495651245,0.0271798554187033,-0.05310103002269515,-0.9982191823792744,0.18135863542556763,0.011938570067286491,-0.6188433766365051,3.1713881492614746,2.190673589706421,9.523938179016113,-0.20008373260498047,0.3282594680786133,-0.05130846053361893,-1.2314265966415405,0.00476844422519207,-0.9393835067749023,0.43125811219215393,1.2608002424240112,0.01430533267557621,0.9321355223655701,0.30231937766075134,-0.3576333224773407,-0.06389715522527695,0.030708782374858856,0.8127336502075195,-0.5047811269760132,0.03487761691212654,-0.9122987985610962,-0.21992065012454987,-0.1359960287809372,1.2682154178619385,-0.40056827664375305,0.006713042035698891,0.11515502631664276,0.3079630136489868,-1.8791574239730835,0.03317337855696678,-0.08786855638027191,-0.4682113826274872,3.603135108947754,-0.0949651226401329,0.04801449924707413,-0.6667094826698303,0.4568839371204376,2.1929662227630615,-0.058710139244794846,0.7136762738227844,-1.2208831310272217,-1.179457664489746,0.09602238237857819,-0.9926453232765198,-2.2030344009399414,-0.288720965385437,-2.1391172409057617,0.37168145179748535,0.5235167741775513,1741516857.5856466,1741516856793,1.8539742431640625,0.043816741943359376,-0.2333766846294951,1.2968134765625001,2.29599609375
1741516857.8344097,1.8905935287475586,0.02527296763867964,-0.057955576196689694,-0.997999212572056,0.31035375595092773,-0.18681584298610687,-1.092353105545044,2.597327947616577,1.0999685525894165,10.4608154296875,-0.19932079315185547,0.3351259231567383,-0.06809338182210922,-1.2306636571884155,0.005531395319849253,-0.9481574892997742,0.4720759987831116,1.2550780773162842,0.013160906732082367,0.9229800701141357,0.3072785437107086,-0.2969787120819092,-0.06351567804813385,0.04787518084049225,0.7810711860656738,-0.5183629989624023,0.033052507787942886,-0.9142061471939087,-0.2603570520877838,-0.15926603972911835,1.203364610671997,-0.39140334725379944,0.0052802409045398235,0.008648972027003765,0.2288043349981308,-0.6675733923912048,0.007547240704298019,0.002131179440766573,-0.4971887469291687,2.4515397548675537,-0.4271090626716614,-0.061605386435985565,-0.6217396855354309,0.07102824002504349,3.2457220554351807,0.028422562405467033,0.8074964284896851,-1.6114778518676758,-0.5825920701026917,-0.09451597929000854,0.061300233006477356,-1.935714840888977,-1.2936975955963135,-3.290570020675659,0.47622552514076233,-0.30375853180885315,1741516857.5856466,1741516856793,1.8539742431640625,0.043816741943359376,-0.2333766846294951,1.2968134765625001,2.29599609375
1741516857.851786,1.863576352596283,0.020141070306721152,-0.06411975116910675,-0.9977389412050186,0.3222266435623169,-0.36536696553230286,-1.3777104616165161,1.8240851163864136,0.3734617829322815,10.328906059265137,-0.20046520233154297,0.3366518020629883,-0.06427863240242004,-1.2306636571884155,0.005531395319849253,-0.9554055333137512,0.49305713176727295,1.2451597452163696,0.013160906732082367,0.9153505563735962,0.29850462079048157,-0.21877622604370117,-0.06275273114442825,0.07572289556264877,0.7375829815864563,-0.5169922709465027,0.043993983417749405,-0.8886472582817078,-0.28286412358283997,-0.20122835040092468,1.1160067319869995,-0.37908363342285156,-0.0024818559177219868,-0.04627738893032074,0.06072039529681206,0.36394739151000977,-0.008652796037495136,-0.0002865321293938905,-0.29870855808258057,1.1785153150558472,-0.6470216512680054,0.017557231709361076,-0.4541771113872528,-0.4808361530303955,3.789172649383545,-0.049423012882471085,1.4661303758621216,-2.239579200744629,0.15582385659217834,0.8794898986816406,1.5496351718902588,-0.9301526546478271,-2.247009754180908,-4.4487738609313965,0.5765187740325928,-0.26918578147888184,1741516857.5856466,1741516856793,1.8539742431640625,0.043816741943359376,-0.2333766846294951,1.2968134765625001,2.29599609375
1741516857.8718212,1.831495225429535,0.012409584578900524,-0.07168470211111444,-0.9973501419731285,0.3697613775730133,-0.4713742434978485,-1.4391684532165527,0.4299929738044739,-3.4428062438964844,7.698424339294434,-0.20160961151123047,0.3389406204223633,-0.04444190114736557,-1.231045126914978,0.005531395319849253,-0.959983229637146,0.49496451020240784,1.239819049835205,0.013160906732082367,0.9100099205970764,0.28248265385627747,-0.1325627565383911,-0.06618601083755493,0.10204470902681351,0.6956206560134888,-0.5069735646247864,0.06965991109609604,-0.84592205286026,-0.28591591119766235,-0.2466239482164383,1.0038528442382812,-0.37389183044433594,-1.9849771888402756e-06,-0.048114337027072906,0.05642180144786835,1.1481962203979492,-0.037510719150304794,0.0016938572516664863,-0.22909554839134216,-0.00551711767911911,-0.3250007927417755,0.01515387836843729,-0.35924237966537476,-0.8072826266288757,4.280970096588135,-0.310627281665802,1.1324957609176636,-1.874656319618225,0.48990997672080994,1.1795135736465454,2.1183180809020996,-0.06464254856109619,-2.06839656829834,-5.833965301513672,0.15610699355602264,0.09109760075807571,1741516857.5856466,1741516856793,1.8539742431640625,0.043816741943359376,-0.2333766846294951,1.2968134765625001,2.29599609375
1741516857.8918104,1.8056808710098267,0.0014805922230346506,-0.07593189885558385,-0.9971119067501172,0.19760650396347046,-0.6392144560813904,-1.290526032447815,-2.846771717071533,-5.137808322906494,4.834141731262207,-0.20237255096435547,0.3461894989013672,-0.012397955171763897,-1.2314265966415405,0.005531395319849253,-0.960746169090271,0.4827573001384735,1.23753023147583,0.013542382046580315,0.9084840416908264,0.2618829607963562,-0.071908138692379,-0.07839322835206985,0.1024261862039566,0.6914244294166565,-0.4941856563091278,0.08202536404132843,-0.7917525172233582,-0.2756160795688629,-0.2599755823612213,0.8684290647506714,-0.38870885968208313,-0.007454339414834976,-0.021778153255581856,0.21780753135681152,1.6581138372421265,-0.004992723930627108,-0.0023410378489643335,-0.02123897708952427,-1.0107673406600952,-0.06659157574176788,0.02621603198349476,-0.030346328392624855,-1.0555765628814697,2.646362781524658,-0.7238090634346008,-0.35676109790802,0.33001869916915894,0.6922871470451355,0.5253390669822693,2.8178224563598633,0.6227121353149414,-0.3438401222229004,-6.91154670715332,-0.957687497138977,-0.3387625515460968,1741516857.5856466,1741516856793,1.8539742431640625,0.043816741943359376,-0.2333766846294951,1.2968134765625001,2.29599609375
1741516857.9119387,1.7872570157051086,-0.004786356237601251,-0.08033375509521254,-0.9967565292418552,0.2735605835914612,-0.31611767411231995,-0.889163076877594,9.36877155303955,-9.079141616821289,15.010655403137207,-0.20466136932373047,0.3442821502685547,0.02231631986796856,-1.231045126914978,0.005531395319849253,-0.960746169090271,0.4552910625934601,1.2402005195617676,0.013542382046580315,0.9111543297767639,0.2481498420238495,-0.06351567804813385,-0.10738536715507507,0.06389715522527695,0.770771324634552,-0.471858948469162,0.08685892820358276,-0.7475013136863708,-0.23517967760562897,-0.23250934481620789,0.7597085237503052,-0.3970974087715149,0.0017329296097159386,-0.042471013963222504,-0.060579992830753326,1.726355791091919,0.032375168055295944,6.260014197323471e-05,0.030029386281967163,-1.9290330410003662,0.10949521511793137,0.01033557578921318,0.12795938551425934,-0.5581096410751343,-0.0579083114862442,-1.2666653394699097,-2.2050232887268066,4.660452365875244,1.2218555212020874,0.22308196127414703,1.7504912614822388,2.262986660003662,1.5110018253326416,-3.8753092288970947,0.40116578340530396,0.6452856659889221,1741516857.5856466,1741516856793,1.8539742431640625,0.043816741943359376,-0.2333766846294951,1.2968134765625001,2.29599609375
1741516857.9319334,1.7727802991867065,-0.005969782756424276,-0.07269607666140163,-0.997336273346097,-0.6529861688613892,0.07461319118738174,-0.7375274896621704,2.5733137130737305,-7.59863805770874,0.3559848964214325,-0.22106552124023438,0.3500041961669922,0.056267641484737396,-1.23600435256958,0.005149920005351305,-0.9588387608528137,0.41218432784080505,1.2394375801086426,0.01430533267557621,0.9050507545471191,0.22297245264053345,-0.11959258466959,-0.1203555315732956,-0.016212711110711098,0.9134432077407837,-0.43661558628082275,0.09304244071245193,-0.7322422862052917,-0.17032882571220398,-0.17910276353359222,0.8146410584449768,-0.35650932788848877,0.05019848421216011,-0.46770235896110535,0.13340725004673004,1.847662329673767,-0.25635862350463867,-0.0032342495396733284,0.07634846866130829,-3.2555277347564697,0.17685095965862274,0.1140907034277916,-0.34615302085876465,-1.1974372863769531,-3.533329486846924,-1.3084666728973389,-4.324808120727539,7.396730899810791,1.9516881704330444,0.24184109270572662,0.3773854374885559,2.843975782394409,3.450330972671509,2.4254300594329834,1.797803521156311,2.505857467651367,1741516857.5856466,1741516856793,1.8539742431640625,0.043816741943359376,-0.2333766846294951,1.2968134765625001,2.29599609375
1741516857.951894,1.768934577703476,-0.010024934721050337,-0.054673752514264554,-0.9984539455928089,-0.8160650134086609,-0.14058859646320343,-0.164140984416008,-5.6575822830200195,3.0267350673675537,11.086882591247559,-0.21839427947998047,0.3599224090576172,0.09479667246341705,-1.23295259475708,0.005149920005351305,-0.959220290184021,0.3419928252696991,1.2577484846115112,0.01583123579621315,0.9092469811439514,0.2161058932542801,-0.21725031733512878,-0.15506981313228607,-0.09594109654426575,1.0908293724060059,-0.3869057893753052,0.0984196811914444,-0.7230868935585022,-0.14476996660232544,-0.11196307092905045,0.8085374236106873,-0.339306116104126,0.07378702610731125,0.14393243193626404,0.24706906080245972,1.8902931213378906,0.21995697915554047,-0.06277258694171906,-0.039817288517951965,-4.881588935852051,1.214229941368103,0.0400218665599823,0.36049485206604004,-0.2653883993625641,-4.964881896972656,-2.069437265396118,-3.7421693801879883,8.882061004638672,2.499629259109497,0.3503555655479431,1.0710053443908691,1.5354199409484863,2.6993985176086426,-0.6027461290359497,0.7551236152648926,0.44854748249053955,1741516857.9951434,1741516857193,1.6425744628906251,0.3223040466308594,-0.3788847134198803,1.3042725830078126,2.297830078125
1741516857.9719083,1.7742928862571716,-0.004882952351731211,-0.04516862201215824,-0.9989674430940447,-0.42523229122161865,0.2052639275789261,0.3245667815208435,0.22696389257907867,-2.583150625228882,8.55539608001709,-0.20695018768310547,0.3507671356201172,0.13218127191066742,-1.2356228828430176,0.005912871100008488,-0.959220290184021,0.2618829607963562,1.2611817121505737,0.012397955171763897,0.916113555431366,0.2130540907382965,-0.33207446336746216,-0.1832990050315857,-0.15468832850456238,1.261348843574524,-0.34908339381217957,0.07263252139091492,-0.6940947771072388,-0.10814831405878067,-0.10662241280078888,0.8024337887763977,-0.317399263381958,0.03213563561439514,0.2897082269191742,-0.2561502754688263,1.9028563499450684,-0.4532041847705841,0.02299310453236103,0.018468081951141357,-5.233579158782959,0.010864152573049068,-0.24641363322734833,0.3326627016067505,-0.032596439123153687,-5.964221000671387,-0.967738151550293,-2.737755298614502,8.225502014160156,1.6128838062286377,-1.8282052278518677,1.085060954093933,1.3005417585372925,0.6441753506660461,-0.2514079809188843,1.1909986734390259,-2.1524717807769775,1741516857.9951434,1741516857193,1.6425744628906251,0.3223040466308594,-0.3788847134198803,1.3042725830078126,2.297830078125
1741516857.991978,1.7771988809108734,-0.0080436941811664,-0.031107041813299853,-0.9994836921798902,-0.7481340765953064,-0.10704757273197174,0.1051381304860115,-4.489701747894287,4.382742881774902,11.534904479980469,-0.20847606658935547,0.3713665008544922,0.1817730963230133,-1.2463041543960571,0.005149920005351305,-0.959220290184021,0.19321736693382263,1.2539336681365967,0.012397955171763897,0.9164950251579285,0.2290760725736618,-0.4667353332042694,-0.20084688067436218,-0.17566949129104614,1.3838025331497192,-0.34492793679237366,0.019044483080506325,-0.6822690367698669,-0.10624094307422638,-0.08869306743144989,0.80357825756073,-0.29648929834365845,0.026677796617150307,-0.0025197751820087433,0.5363617539405823,2.593947172164917,-0.4873673617839813,-0.029321394860744476,0.004107806831598282,-4.58204984664917,-0.4864097237586975,0.03558586165308952,0.07119548320770264,0.8859876990318298,-6.626988887786865,-0.8708356022834778,-0.5138323307037354,5.637669086456299,-0.12330186367034912,-2.0724408626556396,0.9300993084907532,0.08853880316019058,0.6336278319358826,0.22072987258434296,0.9778731465339661,0.31993192434310913,1741516857.9951434,1741516857193,1.6425744628906251,0.3223040466308594,-0.3788847134198803,1.3042725830078126,2.297830078125
1741516858.0119593,1.7764134109020233,-0.007092845292131899,-0.02432969278479166,-0.9996788272213529,-0.2329772561788559,0.00045075148227624595,-0.0828348770737648,7.120737075805664,2.5414323806762695,7.070133209228516,-0.19817638397216797,0.3725109100341797,0.23861294984817505,-1.2485930919647217,0.006294346414506435,-0.9584572911262512,0.12417028844356537,1.2508819103240967,0.012779430486261845,0.9203097820281982,0.2462424635887146,-0.5922408103942871,-0.21038375794887543,-0.1672770231962204,1.4501793384552002,-0.38409584760665894,0.024652406573295593,-0.6540398001670837,-0.10776684433221817,-0.08869306743144989,0.8054856061935425,-0.28903862833976746,0.03955521807074547,0.306466668844223,0.05482783913612366,2.8521437644958496,-0.3327673077583313,0.09291928261518478,0.07710566371679306,-4.585952281951904,-0.24083763360977173,0.019324811175465584,0.27741023898124695,0.7776224613189697,-6.2887163162231445,-0.15484796464443207,0.12305492907762527,2.727703094482422,-2.1755897998809814,0.31252825260162354,1.0341638326644897,-0.1794838309288025,0.039796460419893265,0.07570385932922363,0.24351412057876587,0.456283837556839,1741516857.9951434,1741516857193,1.6425744628906251,0.3223040466308594,-0.3788847134198803,1.3042725830078126,2.297830078125
1741516858.0331695,1.7746042907238007,-0.010808318883685828,-0.02314263524415478,-0.9996737461176344,-0.1041962206363678,-0.11831297725439072,-0.05295424163341522,3.0845158100128174,-4.500201225280762,4.980002403259277,-0.18024730682373047,0.3774700164794922,0.30117493867874146,-1.2615631818771362,0.005531395319849253,-0.9538795948028564,0.05970092490315437,1.2447782754898071,0.013160906732082367,0.924124538898468,0.2595941126346588,-0.7051575779914856,-0.1993209719657898,-0.1646067053079605,1.4471274614334106,-0.4365072250366211,0.01740719936788082,-0.6540398001670837,-0.11272602528333664,-0.08869306743144989,0.8184558153152466,-0.29374828934669495,0.04630627483129501,0.45928943157196045,0.04826821759343147,2.9594600200653076,-0.7793301343917847,-0.06901136785745621,0.15684911608695984,-4.278750419616699,-0.3948339819908142,0.003976354841142893,0.2445979118347168,0.582362174987793,-5.239285945892334,0.2501913011074066,0.35189390182495117,-0.611683189868927,-2.6589162349700928,-0.6266987323760986,0.04269819334149361,-0.0992644801735878,-0.0335528589785099,0.7730095982551575,-0.34651416540145874,0.506762683391571,1741516857.9951434,1741516857193,1.6425744628906251,0.3223040466308594,-0.3788847134198803,1.3042725830078126,2.297830078125
1741516858.0520146,1.773073136806488,-0.008418342314407147,-0.016658392453728296,-0.9998257995638716,-0.2733059227466583,0.10253579914569855,-0.038181230425834656,-2.0101776123046875,3.0840377807617188,7.042113304138184,-0.18062877655029297,0.3751811981201172,0.3591592311859131,-1.2596558332443237,0.005531395319849253,-0.9515907764434814,-0.0024795911740511656,1.2466856241226196,0.012779430486261845,0.9306095838546753,0.2634088695049286,-0.7970931529998779,-0.18902114033699036,-0.1684214472770691,1.3879988193511963,-0.48214608430862427,-0.004818685818463564,-0.6509880423545837,-0.12340734153985977,-0.08297093212604523,0.8436331748962402,-0.30975863337516785,0.06520126014947891,-0.023122452199459076,-0.03637930750846863,2.7880890369415283,0.2422240674495697,0.02548748254776001,0.1269892156124115,-4.1273603439331055,0.14454098045825958,0.003724707057699561,0.4100921154022217,0.15435342490673065,-4.4165520668029785,0.5004915595054626,-0.27627018094062805,-3.236734628677368,-2.1007864475250244,-0.9896900057792664,-0.1410512626171112,-0.47145307064056396,0.15466444194316864,1.2832363843917847,-0.8446436524391174,1.0585930347442627,1741516857.9951434,1741516857193,1.6425744628906251,0.3223040466308594,-0.3788847134198803,1.3042725830078126,2.297830078125
1741516858.0720432,1.76973158121109,0.0028922526820456362,-0.013615509596531298,-0.9999031216937219,-0.18519602715969086,0.7269901037216187,-0.2056909203529358,6.529784202575684,6.340424060821533,7.4221930503845215,-0.16994762420654297,0.3568706512451172,0.4037918746471405,-1.2600373029708862,0.005912871100008488,-0.9454871416091919,-0.06008239835500717,1.2451597452163696,0.013160906732082367,0.9393835067749023,0.2607385218143463,-0.8501182794570923,-0.17261768877506256,-0.18673227727413177,1.280041217803955,-0.4991081655025482,-0.008977409452199936,-0.6700618267059326,-0.12912946939468384,-0.08907453715801239,0.8836880922317505,-0.3282811641693115,0.08250695466995239,0.29111918807029724,-0.6033825278282166,2.0626349449157715,-0.11181680113077164,0.0028607400599867105,0.2896941006183624,-3.7559492588043213,-0.16918876767158508,-0.00034396673436276615,0.6019216179847717,-0.2993212938308716,-2.511320114135742,1.0262116193771362,-1.036190390586853,-5.968780040740967,-0.6990993618965149,0.12956102192401886,-0.8424026966094971,-0.2934192419052124,-0.17412415146827698,2.3444762229919434,-0.9326454997062683,0.6617491841316223,1741516857.9951434,1741516857193,1.6425744628906251,0.3223040466308594,-0.3788847134198803,1.3042725830078126,2.297830078125
1741516858.0921092,1.7594642043113708,0.016529118400059068,-0.010226922209827806,-0.9998110813083794,-0.198958158493042,0.6656184792518616,-0.5522263646125793,0.5866209268569946,0.034996651113033295,7.6547088623046875,-0.16041088104248047,0.3534374237060547,0.43240252137184143,-1.2608002424240112,0.006294346414506435,-0.9416723847389221,-0.10433356463909149,1.2405821084976196,0.012779430486261845,0.951972246170044,0.24166475236415863,-0.8623254895210266,-0.1348516047000885,-0.2130540907382965,1.0923552513122559,-0.49920517206192017,-0.00019264065485913306,-0.6994354128837585,-0.12531471252441406,-0.08487831056118011,0.9386205673217773,-0.35154369473457336,0.06849348545074463,0.2917972207069397,-0.2203807532787323,1.3765206336975098,-0.045524902641773224,0.03747190907597542,0.1381194144487381,-2.753469944000244,-0.33406680822372437,0.00031350748031400144,0.8886297345161438,-1.0893003940582275,-0.03787263110280037,2.0750980377197266,-1.267128825187683,-10.009987831115723,0.03174211457371712,0.2513524293899536,-1.5136733055114746,0.4837832748889923,0.20970389246940613,2.758388042449951,-1.2322909832000732,-0.964796781539917,1741516857.9951434,1741516857193,1.6425744628906251,0.3223040466308594,-0.3788847134198803,1.3042725830078126,2.297830078125
1741516858.1121356,1.7487873435020447,0.021509374268571864,-0.004115396607772645,-0.9997601764069897,-0.21336062252521515,-0.13326583802700043,-0.476761132478714,-5.110698699951172,6.826849937438965,26.286893844604492,-0.14667701721191406,0.3782329559326172,0.4701686203479767,-1.2585114240646362,0.005531395319849253,-0.925650417804718,-0.12760357558727264,1.2333340644836426,0.013160906732082367,0.962272047996521,0.20199130475521088,-0.8344777822494507,-0.09250781685113907,-0.15850308537483215,1.0248340368270874,-0.4101691246032715,-0.080904021859169,-0.7158388495445251,-0.12378881871700287,-0.07267109304666519,0.996604859828949,-0.3770882487297058,0.040597233921289444,0.3978041708469391,0.6956791281700134,1.973050594329834,0.29384681582450867,0.025073837488889694,1.1520373821258545,-1.2173267602920532,-0.4045324921607971,0.04918797314167023,0.5468770861625671,-2.043029308319092,1.8219890594482422,2.0034077167510986,3.406282424926758,0.15199226140975952,5.231548309326172,-3.5103321075439453,-0.5796633362770081,-0.6907958388328552,0.7325320243835449,2.7027485370635986,-1.2776479721069336,-1.2652643918991089,1741516857.9951434,1741516857193,1.6425744628906251,0.3223040466308594,-0.3788847134198803,1.3042725830078126,2.297830078125
1741516858.1321208,1.7512800991535187,0.035663889365083246,-0.011063962128935814,-0.9993025946815931,0.4328981041908264,0.573783814907074,0.24655340611934662,8.312382698059082,7.760189056396484,3.171489715576172,-0.12188148498535156,0.3774700164794922,0.4827573001384735,-1.2516448497772217,0.005912871100008488,-0.9100099205970764,-0.11654078215360641,1.236767292022705,0.011635004542768002,0.9653238654136658,0.1810101419687271,-0.813115119934082,-0.06809338182210922,-0.14362554252147675,1.0072861909866333,-0.34180566668510437,-0.06595415621995926,-0.7207980751991272,-0.11501488089561462,-0.07915617525577545,1.0194933414459229,-0.4142587184906006,0.012622194364666939,0.737459659576416,0.20192043483257294,0.19055552780628204,0.3494642674922943,0.019336648285388947,0.6021590828895569,1.2073222398757935,0.15461868047714233,-0.06779509037733078,0.16361355781555176,-1.2669049501419067,0.8475694060325623,1.282189965248108,-0.3656966984272003,-2.1735682487487793,2.827284336090088,1.1271283626556396,-0.42560362815856934,0.6728181838989258,-0.6892328858375549,1.1392921209335327,-1.9132705926895142,-1.3205901384353638,1741516857.9951434,1741516857193,1.6425744628906251,0.3223040466308594,-0.3788847134198803,1.3042725830078126,2.297830078125
1741516858.152149,1.7488615214824677,0.04145771872554465,-0.01243939571012419,-0.9990628203433659,-0.06326805055141449,0.31408149003982544,0.07214333117008209,-11.686269760131836,-10.075642585754395,19.905580520629883,-0.13332557678222656,0.3953990936279297,0.4503318965435028,-1.2516448497772217,0.005531395319849253,-0.9088655114173889,-0.08335240930318832,1.2394375801086426,0.012779430486261845,0.962272047996521,0.1508735716342926,-0.7555122971534729,-0.05397878959774971,-0.13981078565120697,0.9763866662979126,-0.29000458121299744,-0.025727981701493263,-0.7207980751991272,-0.12188144028186798,-0.10738536715507507,1.0378042459487915,-0.45052218437194824,-0.007110182661563158,-0.3378356695175171,0.5318372249603271,-1.8628547191619873,0.10216517746448517,-0.00944448634982109,0.022025814279913902,2.1210057735443115,0.33525872230529785,0.09473592042922974,-0.21785922348499298,-0.7615528702735901,3.207486152648926,0.10798675566911697,0.5892589688301086,-1.064408302307129,2.4225032329559326,2.3880093097686768,0.21475854516029358,-0.19377414882183075,-1.547020673751831,0.9843683242797852,-1.7052699327468872,-0.5367859601974487,1741516858.199975,1741516857393,1.5165498046875001,0.446859130859375,-0.5036472227608972,1.1128583984375,2.241422119140625
1741516858.172186,1.7415347397327423,0.038856292356844076,-0.0018336670579481218,-0.9992431266760857,-0.5318776369094849,-0.3269207179546356,-0.6445484757423401,-5.05300760269165,-2.7419135570526123,14.656514167785645,-0.11348915100097656,0.4251546859741211,0.4179064631462097,-1.2470670938491821,0.004005493130534887,-0.9081025123596191,-0.04482337832450867,1.2592743635177612,0.01583123579621315,0.9554055333137512,0.17185473442077637,-0.7185091972351074,-0.05397878959774971,-0.14591439068317413,0.960746169090271,-0.2814719080924988,0.016039500012993813,-0.7112611532211304,-0.12836651504039764,-0.15888457000255585,1.0629816055297852,-0.4643222987651825,0.01036690641194582,0.5481128692626953,1.0521060228347778,-1.4166361093521118,0.24886737763881683,-0.148782417178154,0.031116163358092308,2.608898878097534,1.4395192861557007,0.30012544989585876,-0.5225816369056702,1.0316963195800781,1.8904006481170654,0.09278465807437897,-0.6364026069641113,-0.9545301795005798,-0.016375593841075897,1.561087965965271,0.3822167217731476,-0.36630359292030334,-2.7222583293914795,1.2370597124099731,-0.4802931249141693,1.0212842226028442,1741516858.199975,1741516857393,1.5165498046875001,0.446859130859375,-0.5036472227608972,1.1128583984375,2.241422119140625
1741516858.1922395,1.7304521203041077,0.033759175936133874,0.009042313394937097,-0.9993890906992035,-0.5181870460510254,-0.2753537893295288,-0.5037896037101746,1.3924081325531006,-3.8096206188201904,11.787444114685059,-0.08525943756103516,0.4331655502319336,0.3919661343097687,-1.23753023147583,0.005149920005351305,-0.9103913903236389,0.004005493130534887,1.2798740863800049,0.016594186425209045,0.9500648379325867,0.19245441257953644,-0.6681544184684753,-0.0558861680328846,-0.1661325991153717,0.9367132186889648,-0.3141843378543854,0.007985243573784828,-0.7120240926742554,-0.12836651504039764,-0.21686884760856628,1.104180932044983,-0.4544326364994049,0.010029199533164501,0.8157687783241272,0.35303518176078796,-1.4801348447799683,0.8439302444458008,0.025421489030122757,-0.08430079370737076,3.475656747817993,1.233563780784607,0.015794139355421066,-0.31707656383514404,1.133865475654602,2.330105781555176,-0.12636491656303406,-0.9928313493728638,-1.2663625478744507,-1.7999553680419922,-0.6495940089225769,-0.2331436723470688,0.07763341814279556,-2.670710802078247,2.2366087436676025,0.6261381506919861,-0.25748956203460693,1741516858.199975,1741516857393,1.5165498046875001,0.446859130859375,-0.5036472227608972,1.1128583984375,2.241422119140625
1741516858.2152882,1.7169423699378967,0.02612248715846596,0.018414083694138925,-0.9994891381032418,-0.4130920171737671,-0.28683605790138245,-0.8013092875480652,-1.7486718893051147,-6.918044567108154,6.388708591461182,-0.07572269439697266,0.4396505355834961,0.33665215969085693,-1.219219446182251,0.005531395319849253,-0.9122987985610962,0.06656748056411743,1.2897924184799194,0.015449759550392628,0.9447242021560669,0.21648737788200378,-0.620851457118988,-0.05359731614589691,-0.17833982408046722,0.9142061471939087,-0.35463881492614746,0.006797430571168661,-0.7391088604927063,-0.12417028844356537,-0.25387197732925415,1.1591134071350098,-0.42799845337867737,0.002019220497459173,0.32196688652038574,0.2017277628183365,-3.1934731006622314,1.1928867101669312,-0.022336704656481743,-0.09967303276062012,4.244514465332031,0.6320278644561768,-0.035264961421489716,-0.3647112548351288,1.1853028535842896,2.4944655895233154,0.17926840484142303,-0.4096600413322449,-1.1461912393569946,-1.9712144136428833,0.1124325767159462,-1.4743731021881104,0.2811695337295532,-1.5941492319107056,2.766749382019043,1.4141371250152588,-0.18182577192783356,1741516858.199975,1741516857393,1.5165498046875001,0.446859130859375,-0.5036472227608972,1.1128583984375,2.241422119140625
1741516858.232283,1.7052884101867676,0.021806608774104258,0.022753746047403215,-0.9995032460450459,-0.1765577346086502,-0.25695618987083435,-0.5909839868545532,1.4113588333129883,-1.8667454719543457,6.846640586853027,-0.056649208068847656,0.4350728988647461,0.2641718089580536,-1.2081565856933594,0.005531395319849253,-0.9119172692298889,0.13179980218410492,1.292462706565857,0.01506828423589468,0.9451056718826294,0.2283131182193756,-0.568970799446106,-0.04558632895350456,-0.182154580950737,0.8852140307426453,-0.38807499408721924,0.015572555363178253,-0.775730550289154,-0.11539635062217712,-0.2660791873931885,1.2186236381530762,-0.392819881439209,0.008034524507820606,0.5845522880554199,-0.06795764714479446,-3.5169622898101807,0.6341150999069214,0.004352888558059931,0.039627112448215485,4.332344055175781,0.06664541363716125,-0.04952274635434151,0.06362267583608627,0.5446128249168396,2.5640335083007812,0.39585986733436584,-0.14033789932727814,-1.5168628692626953,-1.5861940383911133,0.3982970714569092,-1.8379582166671753,0.3257972300052643,-0.4566792845726013,2.8352324962615967,1.7544809579849243,0.12750443816184998,1741516858.199975,1741516857393,1.5165498046875001,0.446859130859375,-0.5036472227608972,1.1128583984375,2.241422119140625
1741516858.2522545,1.6973445415496826,0.014544586023920853,0.02327243755189762,-0.9996233534025631,-0.009627480059862137,-0.33453771471977234,-0.392465204000473,-0.16769486665725708,-1.113015055656433,7.4260711669921875,-0.040246009826660156,0.4369802474975586,0.18902114033699036,-1.2062492370605469,0.005531395319849253,-0.9115357995033264,0.20275425910949707,1.2867405414581299,0.013923857361078262,0.9462500810623169,0.23746852576732635,-0.5163271427154541,-0.03604944050312042,-0.1806286722421646,0.8554589152336121,-0.4144479036331177,0.014235499314963818,-0.8096818327903748,-0.10814831405878067,-0.26798656582832336,1.2479972839355469,-0.35697779059410095,0.004568953532725573,0.5076501965522766,0.05258963257074356,-3.713944435119629,0.004546536598354578,-0.009227970615029335,-0.010907550342381,4.72852087020874,-0.44877463579177856,-0.06851812452077866,0.014783943071961403,0.41199058294296265,2.659698486328125,0.5079424381256104,0.08321329951286316,-1.4479697942733765,-1.3102173805236816,-0.05961020290851593,-1.505998134613037,0.36745569109916687,-0.10760804265737534,1.1356723308563232,1.8069452047348022,-0.1515631377696991,1741516858.199975,1741516857393,1.5165498046875001,0.446859130859375,-0.5036472227608972,1.1128583984375,2.241422119140625
1741516858.2722964,1.6903841495513916,0.009208434502967162,0.023665502466044062,-0.9996775223676054,-0.03115828149020672,-0.2786897122859955,-0.3538401424884796,0.6592061519622803,-1.4635573625564575,6.954831600189209,-0.02841949462890625,0.4312582015991211,0.11196307092905045,-1.2108269929885864,0.005531395319849253,-0.9134432077407837,0.2733272314071655,1.2779666185379028,0.013923857361078262,0.9451056718826294,0.23861294984817505,-0.465209424495697,-0.02231631986796856,-0.17338064312934875,0.8245593905448914,-0.44126611948013306,0.016072068363428116,-0.8333333134651184,-0.10814831405878067,-0.266460657119751,1.2415121793746948,-0.3256775736808777,-0.001979398773983121,0.37340354919433594,-0.13611595332622528,-3.9116032123565674,-0.3182043135166168,0.00047105143312364817,-0.1038883626461029,4.677065849304199,-0.5741592645645142,0.010631143115460873,-0.0806540846824646,0.0034700417891144753,2.469320297241211,0.6354169845581055,0.5006924867630005,-1.6431007385253906,-1.3463340997695923,0.14517472684383392,-1.139968991279602,-0.10147416591644287,0.12707054615020752,-0.5278691649436951,1.5295584201812744,-0.20071862637996674,1741516858.3024764,1741516857493,1.4598060302734375,0.5116337585449219,-0.47299802246423156,0.9614539794921875,2.19814599609375
1741516858.2923405,1.685101956129074,0.0056788108555364935,0.022822006653453714,-0.999723415310243,0.0777762308716774,-0.14454267919063568,-0.23248140513896942,0.7486534714698792,-0.44503241777420044,6.769542217254639,-0.01316070556640625,0.4236288070678711,0.04177157208323479,-1.215786099433899,0.005531395319849253,-0.916113555431366,0.33665215969085693,1.2691926956176758,0.013542382046580315,0.9458686113357544,0.23899443447589874,-0.422102689743042,-0.007438773289322853,-0.15506981313228607,0.7955672740936279,-0.46581515669822693,0.019360577687621117,-0.8554589152336121,-0.11692225188016891,-0.2588311731815338,1.2182421684265137,-0.302670419216156,0.0005574814276769757,0.4506723880767822,-0.22772890329360962,-3.3041319847106934,-0.36541327834129333,-0.004538992419838905,-0.15559259057044983,4.018922328948975,-0.5425657033920288,-0.021943556144833565,0.03427380695939064,0.02204078622162342,2.0774316787719727,0.7356951236724854,1.0060478448867798,-1.3796663284301758,-1.1954728364944458,0.13433459401130676,-1.1759954690933228,-0.4588152766227722,0.3517450988292694,-1.2385368347167969,1.0732061862945557,0.1594557911157608,1741516858.3024764,1741516857493,1.4598060302734375,0.5116337585449219,-0.47299802246423156,0.9614539794921875,2.19814599609375
1741516858.3123522,1.6827133893966675,0.004877244809297497,0.01823334781863574,-0.9998218628887823,0.24270012974739075,-0.02218836359679699,-0.10412019491195679,-0.6546062231063843,-2.2257184982299805,7.667827606201172,0.00820159912109375,0.4171438217163086,-0.012397955171763897,-1.224560022354126,0.005531395319849253,-0.9218356609344482,0.3900587558746338,1.2596558332443237,0.013542382046580315,0.9451056718826294,0.23250934481620789,-0.3866254687309265,0.0013351644156500697,-0.1325627565383911,0.7711527943611145,-0.4881170094013214,0.016587095335125923,-0.8813992738723755,-0.1337071806192398,-0.24967575073242188,1.189631462097168,-0.28908130526542664,0.0025487833190709352,0.6018168330192566,-0.19491496682167053,-2.5415666103363037,-0.5557651519775391,-0.004351160954684019,-0.343765527009964,3.4912474155426025,-0.6855953931808472,0.0055312504991889,-0.055561937391757965,-0.3731124699115753,1.8455328941345215,0.35130947828292847,1.106029748916626,-1.2313326597213745,-1.1157548427581787,-0.07607227563858032,-1.3028079271316528,-0.8281217217445374,0.36058270931243896,-1.394599199295044,0.596126914024353,0.054688453674316406,1741516858.3024764,1741516857493,1.4598060302734375,0.5116337585449219,-0.47299802246423156,0.9614539794921875,2.19814599609375
1741516858.3323777,1.676439642906189,0.008625246737229893,0.013572647550455268,-0.9998706858175176,0.2351534068584442,0.18834288418293,-0.40481582283973694,2.538727283477783,0.04495964199304581,8.977362632751465,0.02994537353515625,0.4045543670654297,-0.051689937710762024,-1.2283748388290405,0.00476844422519207,-0.9321355223655701,0.44537270069122314,1.2505004405975342,0.013542382046580315,0.9393835067749023,0.2294575423002243,-0.343137264251709,0.004386968910694122,-0.11348897218704224,0.7452124953269958,-0.5083985328674316,0.02004997991025448,-0.9054322242736816,-0.15735866129398346,-0.247768372297287,1.1629282236099243,-0.2821335792541504,-0.00032132421620190144,0.6487817168235779,-0.40400758385658264,-1.9830548763275146,-0.2532877027988434,-0.04468415305018425,-0.5182298421859741,3.558652639389038,-0.6023149490356445,0.0004283410089556128,-0.4427397847175598,-0.06823141127824783,2.1718974113464355,0.11814691126346588,0.8802921175956726,-1.393949270248413,-1.0249522924423218,0.3369539976119995,-1.0823086500167847,-1.2132471799850464,0.09813470393419266,-1.3470734357833862,0.32513031363487244,-0.058131519705057144,1741516858.3024764,1741516857493,1.4598060302734375,0.5116337585449219,-0.47299802246423156,0.9614539794921875,2.19814599609375
1741516858.3524587,1.6626222431659698,0.01315416735177167,0.008508486887516847,-0.9998772792358902,0.2793285548686981,0.24804149568080902,-0.7055782675743103,1.8342843055725098,-0.7651100158691406,10.305295944213867,0.048638343811035156,0.3938732147216797,-0.07610437273979187,-1.231045126914978,0.005149920005351305,-0.9470130205154419,0.47741663455963135,1.2409635782241821,0.013542382046580315,0.9321355223655701,0.230601966381073,-0.2962157726287842,0.0032425422687083483,-0.09861142933368683,0.7181277275085449,-0.5240078568458557,0.022303009405732155,-0.9069581031799316,-0.1848248988389969,-0.25425344705581665,1.1232547760009766,-0.2806791067123413,-0.0010560037335380912,0.56303471326828,-0.3368425965309143,-1.0955244302749634,-0.1131996363401413,-0.04889688640832901,-0.818248987197876,1.8908177614212036,-0.5983463525772095,0.0016139752697199583,-0.4663688540458679,0.03146211430430412,2.4124672412872314,-0.04864220693707466,0.7397865056991577,-1.2646421194076538,-0.7280213832855225,-0.04769325628876686,0.0821583941578865,-1.4016218185424805,-0.5108489394187927,-2.115435838699341,0.022078707814216614,-0.07580359280109406,1741516858.3024764,1741516857493,1.4598060302734375,0.5116337585449219,-0.47299802246423156,0.9614539794921875,2.19814599609375
1741516858.3725092,1.644821971654892,0.014715771797854814,0.0037358980663874048,-0.999884737920342,0.24405011534690857,-0.017393874004483223,-0.8988364934921265,4.115933895111084,-2.6926217079162598,6.564265727996826,0.06923770904541016,0.3927288055419922,-0.08182650804519653,-1.2306636571884155,0.005531395319849253,-0.959983229637146,0.49382010102272034,1.235241413116455,0.013542382046580315,0.924124538898468,0.2298390120267868,-0.23517967760562897,0.0032425422687083483,-0.09365224838256836,0.6857023239135742,-0.5282838344573975,0.01515115424990654,-0.8997100591659546,-0.20275425910949707,-0.2786678969860077,1.0683223009109497,-0.28503552079200745,-0.0026975388173013926,0.5882222652435303,-0.03753599524497986,-0.06415070593357086,0.00596357136964798,0.03308970853686333,-0.5786644816398621,0.9479082226753235,-0.3508892357349396,-0.0032103462144732475,-0.5516112446784973,-0.11744051426649094,3.1485772132873535,-0.036746684461832047,0.2356490194797516,-1.776031255722046,-0.03229071572422981,-0.2594941556453705,0.546151876449585,-0.7705368995666504,-1.3314824104309082,-2.9023633003234863,-0.2660968005657196,-0.008893299847841263,1741516858.4031906,1741516857593,1.430996826171875,0.5781824340820313,-0.8632013497339662,0.8432152099609376,2.16379736328125
1741516858.392467,1.630649596452713,0.0074823089257187066,0.0008918915429071191,-0.9999716093882945,0.12747356295585632,-0.38848161697387695,-0.6701310276985168,2.768681049346924,-6.036245346069336,6.231588840484619,0.08335208892822266,0.4083700180053711,-0.07038223743438721,-1.2306636571884155,0.005531395319849253,-0.9649423956871033,0.4968718886375427,1.2348599433898926,0.013542382046580315,0.916876494884491,0.2141985148191452,-0.15621423721313477,-0.0013351644156500697,-0.08983749151229858,0.6406881809234619,-0.5057757496833801,0.007431161589920521,-0.8684290647506714,-0.20160982012748718,-0.31757840514183044,1.0000381469726562,-0.29977482557296753,-0.0018073244718834758,0.4440847635269165,0.49223020672798157,0.6591067910194397,-0.007454528473317623,-0.003853460308164358,-0.21759814023971558,0.0732748955488205,0.014077981933951378,-0.0010481212520971894,-0.44384878873825073,-0.8992677927017212,4.08317232131958,-0.29012423753738403,0.18563446402549744,-2.2512521743774414,1.2462977170944214,0.02630547434091568,1.6753833293914795,0.1270834356546402,-1.8012419939041138,-3.563809394836426,-0.8537083268165588,-0.06345059722661972,1741516858.4031906,1741516857593,1.430996826171875,0.5781824340820313,-0.8632013497339662,0.8432152099609376,2.16379736328125
1741516858.4124882,1.623924881219864,-0.003841111537098409,0.0016380756748247893,-0.9999912812471133,-0.04973374307155609,-0.5917904376983643,-0.30986645817756653,-0.38216179609298706,-0.03145419433712959,8.671232223510742,0.09556007385253906,0.4186697006225586,-0.048256658017635345,-1.2306636571884155,0.005531395319849253,-0.9637979865074158,0.4888609051704407,1.2394375801086426,0.013542382046580315,0.9122987985610962,0.1844434291124344,-0.08487831056118011,-0.009346150793135166,-0.08297093212604523,0.6162737607955933,-0.48437419533729553,0.04887118935585022,-0.8211261034011841,-0.19512474536895752,-0.344663143157959,0.9206912517547607,-0.33281469345092773,-0.008103343658149242,0.3743407130241394,0.33979907631874084,1.2340087890625,0.001349370228126645,-0.004036402329802513,0.0936112031340599,-0.6812079548835754,0.33989137411117554,0.020474614575505257,-0.26210126280784607,-1.6330677270889282,3.3420250415802,-0.5179038047790527,0.4854699373245239,-0.9403698444366455,0.9448811411857605,1.8263087272644043,2.484656810760498,0.2936498522758484,-1.2162408828735352,-3.913123846054077,-1.8211028575897217,-0.35731300711631775,1741516858.4031906,1741516857593,1.430996826171875,0.5781824340820313,-0.8632013497339662,0.8432152099609376,2.16379736328125
1741516858.432521,1.6246996521949768,-0.012825226829138553,-0.0025271674751454276,-0.9999145598406564,0.2468295842409134,-0.40183499455451965,0.05643490329384804,-6.1806864738464355,-3.569077253341675,8.897722244262695,0.12493324279785156,0.4198141098022461,-0.01583123579621315,-1.231808066368103,0.005531395319849253,-0.9596017599105835,0.4674982726573944,1.2466856241226196,0.013542382046580315,0.9107728600502014,0.14476996660232544,-0.04749370738863945,-0.04100862145423889,-0.071908138692379,0.6418325901031494,-0.47169938683509827,0.06284965574741364,-0.7623788714408875,-0.17719538509845734,-0.34771496057510376,0.8234149813652039,-0.38656312227249146,-0.007674221880733967,0.841199517250061,0.08004020899534225,1.6043188571929932,-0.12814651429653168,-0.0007825169595889747,0.22032631933689117,-1.5256261825561523,0.481187641620636,-0.0021615680307149887,-0.14708945155143738,-2.0400969982147217,1.5044857263565063,-1.683891773223877,0.6765686869621277,1.784204363822937,0.6179929375648499,0.5621702671051025,2.871917486190796,1.0162148475646973,-0.0036832746118307114,-4.923699855804443,-2.7227096557617188,0.06294162571430206,1741516858.4031906,1741516857593,1.430996826171875,0.5781824340820313,-0.8632013497339662,0.8432152099609376,2.16379736328125
