Freshhhhh-LC/Legged_odom/data/4/segments/booster_seg_9.83s.csv
time,yaw,projected_gravity_x,projected_gravity_y,projected_gravity_z,ang_vel_x,ang_vel_y,ang_vel_z,lin_acc_x,lin_acc_y,lin_acc_z,q_0,q_1,q_2,q_3,q_4,q_5,q_6,q_7,q_8,q_9,q_10,q_11,q_12,q_13,q_14,q_15,q_16,q_17,q_18,q_19,q_20,q_21,q_22,dq_0,dq_1,dq_2,dq_3,dq_4,dq_5,dq_6,dq_7,dq_8,dq_9,dq_10,dq_11,dq_12,dq_13,dq_14,dq_15,dq_16,dq_17,dq_18,dq_19,dq_20,dq_21,dq_22,mocap_time,mocap_timestamp,robot_x,robot_y,robot_yaw,ball_x,ball_y
1741516798.1752336,0.211944580078125,0.019681512767086014,0.018775609192991715,-0.99962998882318,-0.17278937995433807,0.06070169806480408,0.1902674436569214,-2.4096007347106934,0.09249978512525558,12.838906288146973,-0.08030033111572266,0.08449649810791016,0.15774014592170715,-1.2436338663101196,0.005531395319849253,-0.9580758213996887,0.3236820101737976,1.2485930919647217,0.013923857361078262,0.9103913903236389,0.11043716967105865,-0.3572518527507782,-0.005912871100008488,-0.08869306743144989,1.046959638595581,-0.4133005142211914,0.010602472350001335,-0.6322957277297974,-0.0398641936480999,-0.18596932291984558,0.7959487438201904,-0.346884161233902,-0.0533299557864666,0.17934797704219818,0.18017055094242096,3.054187774658203,-0.38478684425354004,-0.01407677587121725,-0.11470820009708405,-4.5662102699279785,0.48777320981025696,-0.05961019545793533,-0.025236977264285088,-0.13908588886260986,-3.939915895462036,-0.8527623414993286,-2.4275479316711426,7.986841201782227,2.1742587089538574,0.44564422965049744,1.6435456275939941,2.053764820098877,1.4646611213684082,0.14645101130008698,0.11742441356182098,-0.42021864652633667,1741516798.2014256,1741516797373,2.164236083984375,-1.4062772216796875,-2.8955792936464935,4.00867431640625,0.7608755493164062
1741516798.1773345,0.2683929204940796,0.018818936406329968,0.04388505541987959,-0.9988593242010251,-0.18475084006786346,-0.105513796210289,1.1432929039001465,2.253527879714966,6.386122703552246,10.87839412689209,-0.061608314514160156,0.10128211975097656,0.3381780683994293,-1.2493560314178467,0.005912871100008488,-0.9561684727668762,0.09479667246341705,1.2485930919647217,0.013160906732082367,0.9134432077407837,0.11577782779932022,-0.6876096725463867,-0.07610437273979187,-0.11348897218704224,1.4745937585830688,-0.44909313321113586,0.011046787723898888,-0.5228122472763062,-0.010490577667951584,-0.17452506721019745,0.7887006998062134,-0.3471829295158386,-0.046929437667131424,0.16822472214698792,0.19188810884952545,2.9564998149871826,-0.11549035459756851,0.002216473687440157,0.055391814559698105,-4.574514865875244,-0.33610329031944275,-0.00406366353854537,0.14842501282691956,0.2679649293422699,-4.838191986083984,-0.2644803524017334,1.1124874353408813,3.115708827972412,-2.336280584335327,-0.08875012397766113,1.8715311288833618,-0.03185371682047844,-0.0738212987780571,-0.2363031655550003,-0.13370175659656525,0.23721261322498322,1741516798.2014256,1741516797373,2.164236083984375,-1.4062772216796875,-2.8955792936464935,4.00867431640625,0.7608755493164062
1741516798.1793635,0.580386757850647,0.0024906210462956177,0.04984950713011661,-0.99875363501,0.37210914492607117,0.11835046112537384,0.001346534350886941,-0.2509063184261322,4.243837833404541,9.389110565185547,0.2664604187011719,0.2504386901855469,0.15354390442371368,-1.2672853469848633,0.005149920005351305,-0.9134432077407837,0.14400701224803925,1.2306636571884155,0.013542382046580315,0.954261064529419,-0.24280919134616852,-0.6521324515342712,0.13981078565120697,0.26951247453689575,0.7673380374908447,-0.38541921973228455,0.06381725519895554,-0.33436331152915955,0.12569619715213776,0.2607385218143463,1.1434729099273682,-0.3209197521209717,-0.005988065619021654,0.02736067585647106,0.4816262125968933,-4.467480659484863,-0.27423620223999023,0.004451896995306015,-0.11217755079269409,3.146308422088623,0.41118577122688293,-0.05941733345389366,-0.021158181130886078,-0.07786891609430313,1.3019248247146606,-1.7413501739501953,-0.48460593819618225,-0.1474318653345108,0.5411891937255859,-0.07742173969745636,-5.352095127105713,1.917751669883728,2.93277907371521,8.76323413848877,1.971590518951416,0.13272136449813843,1741516798.2014256,1741516797373,2.164236083984375,-1.4062772216796875,-2.8955792936464935,4.00867431640625,0.7608755493164062
1741516798.197675,0.5749804377555847,-0.0023511274942835244,0.03320742112700871,-0.9994457160754651,0.8549606800079346,-0.25289273262023926,-0.2658553421497345,-1.2925397157669067,-3.2570576667785645,12.745664596557617,0.2809562683105469,0.2683677673339844,0.07839322835206985,-1.2711000442504883,0.005912871100008488,-0.9130617380142212,0.19512474536895752,1.235241413116455,0.013542382046580315,0.9538795948028564,-0.2458609938621521,-0.6277180314064026,0.1325627565383911,0.26760509610176086,0.763523280620575,-0.3760441541671753,0.06781157106161118,-0.44346532225608826,0.15926603972911835,0.28820478916168213,1.28080415725708,-0.3270476162433624,-0.011546340771019459,0.39857423305511475,0.5108389854431152,-3.5719492435455322,-0.25314760208129883,-0.001866389880888164,-0.030509985983371735,3.4587254524230957,0.2075965255498886,0.0044174897484481335,-0.029198184609413147,-0.12826156616210938,1.448740005493164,-0.3322778642177582,0.1424136757850647,-0.03508496284484863,0.44943055510520935,0.13079345226287842,-5.406460762023926,1.6134941577911377,1.0228623151779175,6.299372673034668,-0.7045544385910034,-0.34229907393455505,1741516798.2014256,1741516797373,2.164236083984375,-1.4062772216796875,-2.8955792936464935,4.00867431640625,0.7608755493164062
1741516798.2177136,0.5696680545806885,-0.007329486342129028,0.02086853911805589,-0.999755361428504,0.5369619727134705,-0.22474151849746704,-0.28738945722579956,3.9010655879974365,-4.13370418548584,8.278032302856445,0.2767601013183594,0.2676048278808594,0.01773861236870289,-1.2676668167114258,0.005531395319849253,-0.9157320261001587,0.2462424635887146,1.238293170928955,0.013160906732082367,0.952735185623169,-0.25234606862068176,-0.5945296287536621,0.12836651504039764,0.2744716703891754,0.7623788714408875,-0.37149471044540405,0.056055858731269836,-0.5449378490447998,0.17719538509845734,0.26989394426345825,1.3555734157562256,-0.3722301721572876,-0.014968118630349636,-0.07037205249071121,0.013668560422956944,-2.791193962097168,0.3077808618545532,-0.004415632225573063,-0.14996391534805298,3.428394079208374,0.27529504895210266,-0.015376130118966103,-0.11204158514738083,-0.33465591073036194,1.5204432010650635,-0.16465558111667633,0.25223463773727417,-0.11371052265167236,0.14657722413539886,-0.44909435510635376,-4.980712413787842,0.7184408903121948,-1.0961666107177734,3.2666471004486084,-2.4198853969573975,-0.2263491451740265,1741516798.2014925,1741516797473,2.229145263671875,-1.352380126953125,-3.0078221045875764,3.8767431640625003,0.892444091796875
1741516798.2377121,0.5652213096618652,-0.01153089815070377,0.019210717935667726,-0.9997489618420387,0.02875390462577343,-0.14498835802078247,-0.12576577067375183,0.7308833003044128,-1.9659667015075684,7.774135112762451,0.2706565856933594,0.2622642517089844,-0.031090257689356804,-1.2573670148849487,0.005149920005351305,-0.9218356609344482,0.2943083941936493,1.2474485635757446,0.01430533267557621,0.951209306716919,-0.248531311750412,-0.5716410875320435,0.12722209095954895,0.2725642919540405,0.7654306888580322,-0.37615007162094116,0.054008472710847855,-0.6383993029594421,0.17681391537189484,0.23479819297790527,1.3651102781295776,-0.4268169403076172,-0.010438283905386925,-0.16014529764652252,-0.16606946289539337,-2.4273993968963623,0.7007192969322205,-0.019505301490426064,-0.39668211340904236,3.222456932067871,0.6281160712242126,0.047934308648109436,-0.12140300869941711,0.4137713313102722,1.1375654935836792,-0.08147984743118286,-0.10044441372156143,0.2889588475227356,-0.2688450515270233,-0.09716224670410156,-4.660529136657715,-0.02546093240380287,-1.73484206199646,-0.009325583465397358,-2.767670154571533,0.5199123024940491,1741516798.2014925,1741516797473,2.229145263671875,-1.352380126953125,-3.0078221045875764,3.8767431640625003,0.892444091796875
1741516798.2577531,0.5626411437988281,-0.008987329048930435,0.024407647913683536,-0.9996616900931474,-0.26242995262145996,0.14747557044029236,-0.1278984397649765,-0.42610180377960205,-2.3188397884368896,5.977169990539551,0.2752342224121094,0.24433517456054688,-0.08144503086805344,-1.2466856241226196,0.005149920005351305,-0.9367132186889648,0.3389410376548767,1.2596558332443237,0.013923857361078262,0.9477760195732117,-0.24319066107273102,-0.5624856948852539,0.12684062123298645,0.2622644305229187,0.7810711860656738,-0.38886693120002747,0.053825877606868744,-0.7139315009117126,0.17681391537189484,0.19398032128810883,1.3197146654129028,-0.4763386845588684,0.0029444878455251455,0.07467076182365417,-0.5286843180656433,-2.301706552505493,0.728645920753479,-0.05135289952158928,-0.8443698883056641,2.9074013233184814,0.7628576159477234,-0.005910261068493128,-0.2850252389907837,0.19537249207496643,0.20992963016033173,-0.005926780868321657,-0.5159012079238892,0.8675793409347534,-0.7300490736961365,0.05746453255414963,-3.54900860786438,0.11160822212696075,-1.930086612701416,-2.5731444358825684,-2.3320090770721436,0.7129371166229248,1741516798.29568,1741516797573,2.294230712890625,-1.3197452392578126,-2.971891302721505,3.743871826171875,1.0233494262695313
1741516798.2778215,0.5653887987136841,-0.005576753487456966,0.03171101309849557,-0.999481521324335,-0.40746626257896423,0.17376287281513214,0.12166409939527512,-2.830343246459961,-2.1208746433258057,9.353903770446777,0.2748527526855469,0.23403549194335938,-0.11768520623445511,-1.2363858222961426,0.005531395319849253,-0.9546425342559814,0.3767071068286896,1.2680482864379883,0.01430533267557621,0.9412909150123596,-0.24319066107273102,-0.572022557258606,0.13141833245754242,0.2576867341995239,0.80663001537323,-0.41045188903808594,0.06419793516397476,-0.7688639760017395,0.1806286722421646,0.1665140837430954,1.2323567867279053,-0.49672573804855347,0.01094930712133646,-0.01568308286368847,-0.23170070350170135,-1.5890476703643799,0.6691389679908752,-0.010582921095192432,-0.8810873627662659,2.4126734733581543,0.48280733823776245,0.03655552864074707,-0.4021512269973755,-0.010757760144770145,-0.1307564526796341,0.23733606934547424,-0.29186323285102844,1.4285130500793457,-1.100654125213623,0.5128335952758789,-2.514390707015991,0.0921248346567154,-1.210437297821045,-4.5080037117004395,-0.7559589743614197,0.24052216112613678,1741516798.29568,1741516797573,2.294230712890625,-1.3197452392578126,-2.971891302721505,3.743871826171875,1.0233494262695313
1741516798.2977784,0.5704585909843445,0.007117027869372207,0.038773140260896545,-0.9992226936517282,-0.3208358883857727,0.5744063258171082,0.26161667704582214,-2.223680019378662,-6.530545711517334,3.2770485877990723,0.2790489196777344,0.22564315795898438,-0.1356145590543747,-1.227230429649353,0.005531395319849253,-0.968757152557373,0.4079881012439728,1.2726260423660278,0.013923857361078262,0.9370946884155273,-0.2450980395078659,-0.5735484957695007,0.1348516047000885,0.2458609938621521,0.8371480703353882,-0.43437910079956055,0.06902967393398285,-0.7955672740936279,0.17910276353359222,0.1512550562620163,1.1087586879730225,-0.48744040727615356,0.00516089890152216,0.09688558429479599,-0.15976153314113617,-0.7480452060699463,0.5526092648506165,0.005648443941026926,-0.607702910900116,2.221311569213867,0.22960706055164337,0.0006024684407748282,-0.3509671092033386,-0.043825533241033554,-0.11853611469268799,0.09449587762355804,-0.6860108971595764,1.4314155578613281,-1.202364444732666,0.1652938574552536,-1.292531967163086,-0.0960339680314064,-0.6737709641456604,-6.5109453201293945,0.6462429165840149,-0.2686851918697357,1741516798.29568,1741516797573,2.294230712890625,-1.3197452392578126,-2.971891302721505,3.743871826171875,1.0233494262695313
1741516798.318119,0.5777463912963867,0.01635540552285317,0.04139807631157068,-0.9990088588135164,-0.09583895653486252,0.4043164551258087,0.36473819613456726,0.08054282516241074,0.21949473023414612,7.167822360992432,0.2836275100708008,0.22488021850585938,-0.12989242374897003,-1.2211267948150635,0.005531395319849253,-0.9748607873916626,0.44117647409439087,1.2722445726394653,0.013542382046580315,0.9290837049484253,-0.2450980395078659,-0.576218843460083,0.12455176562070847,0.23937590420246124,0.8688105344772339,-0.4547005593776703,0.07077993452548981,-0.7982375621795654,0.17109178006649017,0.14057374000549316,0.9424353241920471,-0.4679069519042969,0.0046247998252511024,0.12678922712802887,-0.04395504295825958,0.38463255763053894,0.3882189989089966,-0.010207724757492542,-0.2080732136964798,2.07675838470459,-0.13101191818714142,-0.028702886775135994,-0.48826655745506287,-0.03663265332579613,-0.06915223598480225,-0.4635286331176758,-0.4333037734031677,1.6169662475585938,-1.0166056156158447,0.14319372177124023,0.18928109109401703,-0.4705716669559479,-0.547228991985321,-8.63694953918457,0.9140847325325012,-0.09679843485355377,1741516798.29568,1741516797573,2.294230712890625,-1.3197452392578126,-2.971891302721505,3.743871826171875,1.0233494262695313
1741516798.337813,0.5893805027008057,0.02383452122979096,0.03700567659680512,-0.9990307780530885,0.24115411937236786,0.3093692362308502,0.6160759925842285,5.512829303741455,-1.1669645309448242,6.661074638366699,0.2916383743286133,0.23441696166992188,-0.10547798871994019,-1.2188379764556885,0.005531395319849253,-0.9733348488807678,0.45796138048171997,1.2665224075317383,0.013542382046580315,0.9233615398406982,-0.2500572204589844,-0.5701152086257935,0.09899290651082993,0.23708705604076385,0.8966583013534546,-0.4729221761226654,0.06311178207397461,-0.776493489742279,0.14438849687576294,0.1340886503458023,0.7719157934188843,-0.4540392756462097,-0.0008482151315547526,0.2498234361410141,0.27589792013168335,1.3694384098052979,0.0517737902700901,-0.005505817010998726,0.10265600681304932,1.0905054807662964,-0.4288199543952942,0.006695782765746117,-0.4398009479045868,-0.3061339855194092,0.4297367334365845,-1.4268790483474731,0.030443331226706505,1.292051911354065,-0.882850170135498,-0.5000935196876526,1.0261201858520508,-1.4978437423706055,-0.2830762565135956,-7.991634368896484,0.9098211526870728,0.06108732521533966,1741516798.29568,1741516797573,2.294230712890625,-1.3197452392578126,-2.971891302721505,3.743871826171875,1.0233494262695313
1741516798.3578777,0.6021034121513367,0.020988292174255224,0.02944475490050962,-0.9993460351652259,0.3126842975616455,-0.2473541796207428,0.6305720806121826,-20.349409103393555,11.195097923278809,25.33871078491211,0.2943086624145508,0.2595939636230469,-0.06160829961299896,-1.224560022354126,0.005531395319849253,-0.9683756828308105,0.45948728919029236,1.2562226057052612,0.013542382046580315,0.9122987985610962,-0.2573052644729614,-0.5487525463104248,0.09098191559314728,0.2302204966545105,0.9111543297767639,-0.48382094502449036,0.05253523960709572,-0.7547493577003479,0.12874799966812134,0.12531471252441406,0.770008385181427,-0.40176787972450256,0.025194160640239716,0.08121342211961746,0.8303772807121277,2.3080337047576904,-0.5210768580436707,-0.006412991322577,0.216500386595726,-0.1355668604373932,-0.6725287437438965,0.007136611267924309,-0.8623348474502563,-0.5828341841697693,1.2002841234207153,0.10295656323432922,-0.43985921144485474,0.3964080810546875,-0.5624697804450989,-0.5682495832443237,1.6884549856185913,-0.7627192139625549,-0.32256320118904114,1.5107091665267944,2.7447993755340576,1.4500759840011597,1741516798.29568,1741516797573,2.294230712890625,-1.3197452392578126,-2.971891302721505,3.743871826171875,1.0233494262695313
1741516798.3779166,0.6085649728775024,0.028648509316961952,0.02735436590831695,-0.9992151928286869,0.041335806250572205,0.2545302212238312,0.43647894263267517,5.089585304260254,5.331459045410156,4.753824234008789,0.2962160110473633,0.24624252319335938,0.00667582219466567,-1.2321895360946655,0.005912871100008488,-0.9645609259605408,0.42591744661331177,1.2520263195037842,0.013923857361078262,0.9077210426330566,-0.28286412358283997,-0.5102235674858093,0.07457847148180008,0.2458609938621521,0.9046692848205566,-0.4949950873851776,0.014462132938206196,-0.7314793467521667,0.10585946589708328,0.14858472347259521,0.7909895181655884,-0.36031442880630493,0.048618294298648834,0.06454101949930191,-0.24404822289943695,3.5442724227905273,-0.4262307584285736,0.07933347672224045,0.2515574097633362,-2.6004669666290283,-0.19973443448543549,0.029932107776403427,-0.22707334160804749,-1.0907585620880127,1.8340907096862793,-0.9841262102127075,0.9241535663604736,-0.31519848108291626,-0.4959704279899597,-1.8134634494781494,0.8678008913993835,-1.2059829235076904,1.4314091205596924,0.12132550776004791,1.7637438774108887,0.8046470880508423,1741516798.29568,1741516797573,2.294230712890625,-1.3197452392578126,-2.971891302721505,3.743871826171875,1.0233494262695313
1741516798.3979561,0.6138639450073242,0.025283370911762512,0.021168699475484595,-0.9994561707838192,0.4273224174976349,-0.22302071750164032,0.18390987813472748,-1.3930209875106812,7.354991436004639,17.87384033203125,0.3103303909301758,0.2622642517089844,0.0875486359000206,-1.236767292022705,0.005149920005351305,-0.955024003982544,0.3778515160083771,1.2497375011444092,0.013542382046580315,0.9092469811439514,-0.2935454249382019,-0.4861905872821808,0.06847485899925232,0.2653162479400635,0.9290837049484253,-0.5009029507637024,0.00885308813303709,-0.691042959690094,0.09060044586658478,0.1676585078239441,0.7612344622612,-0.32987889647483826,0.04767771065235138,0.37378817796707153,0.2952570617198944,4.043354034423828,-0.4609224498271942,-0.07538365572690964,0.4513928294181824,-3.1645543575286865,-0.3071981370449066,-0.06854165345430374,0.0724262148141861,-0.3951526880264282,0.9612849950790405,-0.04545173421502113,0.8778087496757507,1.6476339101791382,-0.24922695755958557,-0.04689306393265724,2.4016783237457275,-0.3457801342010498,0.5019112825393677,-1.1280677318572998,1.6509276628494263,-0.14318373799324036,1741516798.29568,1741516797573,2.294230712890625,-1.3197452392578126,-2.971891302721505,3.743871826171875,1.0233494262695313
1741516798.4179258,0.6243718266487122,0.020725146492784785,0.013530833735295237,-0.9996936454940987,0.21881641447544098,-0.24696366488933563,0.6859453916549683,6.538248062133789,2.47491192817688,9.646300315856934,0.3160524368286133,0.2698936462402344,0.17261768877506256,-1.2546966075897217,0.006294346414506435,-0.9428167939186096,0.3248264193534851,1.2413450479507446,0.012397955171763897,0.9073395729064941,-0.30041199922561646,-0.5018310546875,0.09212634712457657,0.28820478916168213,1.0126268863677979,-0.5014442205429077,0.0072904545813798904,-0.6540398001670837,0.09403372555971146,0.18635080754756927,0.760471522808075,-0.2999933660030365,0.033024098724126816,0.18304988741874695,0.14368385076522827,4.187138557434082,-1.1290514469146729,0.026952851563692093,0.6425354480743408,-3.7473113536834717,-0.5221893787384033,-0.025528814643621445,-0.12406887859106064,-0.3934684097766876,-1.266493558883667,1.2555317878723145,1.2328940629959106,4.466927528381348,-0.01487580593675375,-0.25944703817367554,1.5843558311462402,0.0024366378784179688,1.2350726127624512,-0.06578938663005829,1.3619896173477173,-0.7609076499938965,1741516798.5086038,1741516797653,2.360748291015625,-1.285993408203125,-2.547159823750613,3.64860107421875,1.1259703369140626
1741516798.4379346,0.651292085647583,0.016367661949729304,0.013392438495885442,-0.9997763461061846,-0.009732299484312534,-0.2117442637681961,1.4578089714050293,-6.137856960296631,3.3802809715270996,6.229908466339111,0.3099489212036133,0.2664604187011719,0.23975738883018494,-1.2577484846115112,0.005149920005351305,-0.9336614012718201,0.2641718089580536,1.2333340644836426,0.012397955171763897,0.9073395729064941,-0.3103303611278534,-0.5624856948852539,0.11081864684820175,0.3068970739841461,1.1366063356399536,-0.5045391917228699,-0.0004914681776426733,-0.6227588057518005,0.09784847497940063,0.1977950781583786,0.7536049485206604,-0.2863062024116516,0.02806629054248333,-0.04378950968384743,-0.14241664111614227,3.241635322570801,-0.05431070551276207,-0.0024151152465492487,0.47861236333847046,-3.980490207672119,-0.5373328924179077,-0.01116393506526947,-0.04619554430246353,-0.4490665793418884,-3.0885064601898193,0.922882616519928,0.8418340682983398,6.408502578735352,-0.15917806327342987,-0.2137753665447235,1.5565589666366577,-0.0394635871052742,0.28280314803123474,-0.36367231607437134,0.5830440521240234,-0.17785409092903137,1741516798.5086038,1741516797653,2.360748291015625,-1.285993408203125,-2.547159823750613,3.64860107421875,1.1259703369140626
1741516798.45798,0.6879932284355164,0.017491568025474902,0.015360987969352757,-0.9997290058293875,-0.19088593125343323,0.03262222185730934,1.8773057460784912,-0.073863685131073,1.168351650238037,12.520912170410156,0.3233003616333008,0.2607383728027344,0.2958342730998993,-1.2562226057052612,0.005531395319849253,-0.9245060086250305,0.20618753135204315,1.2291377782821655,0.012779430486261845,0.9054322242736816,-0.31605249643325806,-0.6368734240531921,0.1329442262649536,0.3133821487426758,1.256771206855774,-0.5090468525886536,0.00684973644092679,-0.5960555672645569,0.08449683338403702,0.1848248988389969,0.7494087219238281,-0.2833591401576996,0.030348792672157288,0.3541601300239563,-0.16642792522907257,2.835530996322632,-0.005628874525427818,0.0030878365505486727,0.4830605685710907,-3.928098440170288,-0.22112582623958588,0.02077459916472435,-0.16178038716316223,-0.2771329879760742,-3.596860408782959,1.1445412635803223,0.21998895704746246,5.6523637771606445,-0.20369960367679596,0.2709466516971588,1.2516206502914429,-0.8767988085746765,-0.6791195273399353,-0.10165346413850784,0.1006150171160698,0.21579624712467194,1741516798.5086038,1741516797653,2.360748291015625,-1.285993408203125,-2.547159823750613,3.64860107421875,1.1259703369140626
1741516798.4819388,0.7304859161376953,0.01995038308053969,0.02194393331790904,-0.9995601262582852,-0.38602086901664734,0.08900967240333557,2.127556085586548,1.7791746854782104,2.7464406490325928,10.244138717651367,0.3255891799926758,0.2542533874511719,0.343900203704834,-1.2566040754318237,0.005531395319849253,-0.9107728600502014,0.14438849687576294,1.2291377782821655,0.012779430486261845,0.9012359976768494,-0.31490805745124817,-0.7024872303009033,0.14858472347259521,0.3133821487426758,1.3258183002471924,-0.5073249936103821,-0.0022836560383439064,-0.572022557258606,0.06313420087099075,0.16346226632595062,0.7490272521972656,-0.28763940930366516,0.03573734313249588,0.10303477942943573,-0.19349433481693268,2.317185640335083,0.018110154196619987,-0.010211859829723835,0.6996642351150513,-4.23026180267334,0.0029087825678288937,0.006039780098944902,-0.30610716342926025,0.16523811221122742,-3.105050802230835,0.7512628436088562,0.014695719815790653,2.9142704010009766,0.12186913192272186,-0.5070905685424805,1.300857424736023,-1.0327855348587036,-1.0935429334640503,-0.027900779619812965,-0.23042713105678558,0.3357619047164917,1741516798.5086038,1741516797653,2.360748291015625,-1.285993408203125,-2.547159823750613,3.64860107421875,1.1259703369140626
1741516798.498058,0.7654064297676086,0.021332709395052392,0.027786565529474356,-0.9993862227817344,-0.30567696690559387,0.028021352365612984,1.5646499395370483,3.799259662628174,2.8244082927703857,9.50583267211914,0.3400850296020508,0.2515830993652344,0.37899595499038696,-1.2569855451583862,0.005149920005351305,-0.892080545425415,0.0871671661734581,1.2299007177352905,0.012779430486261845,0.8916990756988525,-0.3133821487426758,-0.7413977384567261,0.15850308537483215,0.308041512966156,1.332684874534607,-0.4992586374282837,-0.002926419023424387,-0.5334935784339905,0.04291599988937378,0.14667734503746033,0.7425421476364136,-0.2959839701652527,0.04406533017754555,0.4249824285507202,-0.07066746056079865,1.566582441329956,-0.0744524598121643,-0.027970174327492714,0.9864917397499084,-3.713308095932007,0.042503926903009415,0.04231525585055351,-0.7215302586555481,0.15444603562355042,-1.7378029823303223,0.5372686386108398,-0.3037996292114258,-0.16320356726646423,0.453474223613739,0.20159810781478882,1.9450769424438477,-0.9250861406326294,-0.7922196388244629,-0.34936270117759705,-0.4208252429962158,0.37286651134490967,1741516798.5086038,1741516797653,2.360748291015625,-1.285993408203125,-2.547159823750613,3.64860107421875,1.1259703369140626
1741516798.5180125,0.7860557436943054,0.017898011780479936,0.03116703374337774,-0.9993539298876775,-0.19850163161754608,-0.2078157514333725,0.9362136721611023,1.2074179649353027,-1.8403561115264893,9.561872482299805,0.3522930145263672,0.2580680847167969,0.41676202416419983,-1.2619446516036987,0.005531395319849253,-0.8642328381538391,0.04100862145423889,1.231808066368103,0.012779430486261845,0.8756771087646484,-0.30231937766075134,-0.7578011751174927,0.17261768877506256,0.3061341345310211,1.2884336709976196,-0.4820936620235443,-0.0021384155843406916,-0.4961089491844177,0.03376058489084244,0.13904783129692078,0.733386754989624,-0.3039114475250244,0.04817023128271103,0.3368668258190155,0.240116149187088,2.079683542251587,-0.5079020857810974,-0.040503378957509995,1.4170143604278564,-2.938642978668213,0.15551595389842987,-0.005090251099318266,-1.1324329376220703,0.5333583950996399,-0.7111610174179077,0.7176102995872498,-0.0469537153840065,-2.4870030879974365,0.9499995112419128,-0.12659390270709991,1.8314738273620605,-0.38344335556030273,-0.3307231664657593,-0.4680338501930237,-0.34934449195861816,0.27714112401008606,1741516798.5086038,1741516797653,2.360748291015625,-1.285993408203125,-2.547159823750613,3.64860107421875,1.1259703369140626
1741516798.5380402,0.8058301210403442,0.012539575918862665,0.03567482928081837,-0.999284777023827,-0.240325465798378,-0.31478819251060486,1.0094424486160278,1.0606276988983154,-0.08184154331684113,8.706877708435059,0.3549633026123047,0.2588310241699219,0.4530022144317627,-1.2653779983520508,0.005531395319849253,-0.8337147831916809,-0.010490577667951584,1.2348599433898926,0.012397955171763897,0.8627069592475891,-0.29812315106391907,-0.760471522808075,0.19283588230609894,0.3061341345310211,1.2132829427719116,-0.4541515111923218,-0.007982420735061169,-0.4514763057231903,0.030708782374858856,0.13828489184379578,0.7227054238319397,-0.3119071125984192,0.0448070764541626,0.08764985203742981,0.09671970456838608,1.5567119121551514,-0.1272626668214798,0.00730397691950202,1.4323893785476685,-3.6118438243865967,0.21859073638916016,-0.00091948063345626,-0.7889651656150818,0.14990514516830444,-0.02557622641324997,1.0317803621292114,-0.009189443662762642,-3.924865245819092,1.4358903169631958,-0.2618730068206787,2.2780838012695312,-0.13992266356945038,-0.09281226247549057,-0.5679113268852234,-0.4852646291255951,-0.255847692489624,1741516798.5086038,1741516797653,2.360748291015625,-1.285993408203125,-2.547159823750613,3.64860107421875,1.1259703369140626
1741516798.558085,0.8271380662918091,0.008700900818847699,0.04071251538647738,-0.9991330168780563,-0.2555479109287262,-0.24203608930110931,1.030834674835205,-0.5657305717468262,1.4897475242614746,10.485498428344727,0.3561077117919922,0.2550163269042969,0.46215763688087463,-1.2657594680786133,0.005531395319849253,-0.8062485456466675,-0.045204851776361465,1.2402005195617676,0.013160906732082367,0.8516441583633423,-0.29926756024360657,-0.7490272521972656,0.21763180196285248,0.3065156042575836,1.1217288970947266,-0.41700467467308044,-0.0028553300071507692,-0.41409170627593994,0.023460745811462402,0.12836651504039764,0.7104982137680054,-0.3250046372413635,0.03709626942873001,0.027692893519997597,-0.09446291625499725,0.3961573839187622,-0.0813203975558281,-0.013206210918724537,1.3490333557128906,-2.048828601837158,0.3153418302536011,-0.0033868683967739344,-0.7121776342391968,-0.12650662660598755,0.5678598880767822,1.1480751037597656,0.05175589397549629,-4.639891624450684,1.9395233392715454,0.2515603303909302,1.788737177848816,-0.4712015688419342,-0.6131990551948547,-0.49498090147972107,-0.6934513449668884,-0.42773160338401794,1741516798.6008978,1741516797773,2.43114990234375,-1.235266357421875,3.055820021652687,3.509939697265625,1.28129736328125
1741516798.5780706,0.846510261297226,0.008088385966278786,0.044964383774334274,-0.9989558459733118,-0.22016312181949615,-0.03921827673912048,0.9713402390480042,0.5153595805168152,1.6738954782485962,8.504426002502441,0.3606853485107422,0.24738693237304688,0.45948728919029236,-1.2714815139770508,0.005531395319849253,-0.7810711860656738,-0.06198977679014206,1.2436338663101196,0.012779430486261845,0.841725766658783,-0.30537116527557373,-0.7211795449256897,0.23517967760562897,0.31376364827156067,1.0160601139068604,-0.3707132637500763,-0.0012873141095042229,-0.38014039397239685,0.01201647985726595,0.11463340371847153,0.7097352743148804,-0.3453137278556824,0.03368759527802467,0.13228453695774078,-0.2017722874879837,-0.310024231672287,-0.3687201738357544,-0.010430125519633293,1.186908483505249,-0.9088028073310852,0.2606809437274933,0.01680942252278328,-0.677452564239502,-0.304908812046051,1.5840953588485718,0.8041680455207825,0.3993852138519287,-5.509058952331543,2.2700955867767334,0.1630634367465973,1.6646783351898193,-0.4553145170211792,-0.5981844663619995,-0.0763653814792633,-1.1292099952697754,-0.24579225480556488,1741516798.6008978,1741516797773,2.43114990234375,-1.235266357421875,3.055820021652687,3.509939697265625,1.28129736328125
1741516798.5981185,0.8635980188846588,0.010447808447107831,0.049607941178939886,-0.9987141209929092,-0.23429542779922485,0.052164822816848755,0.8384848237037659,3.260331869125366,-0.3839632272720337,7.178154945373535,0.3702220916748047,0.23517990112304688,0.4396505653858185,-1.2783480882644653,0.005531395319849253,-0.7623788714408875,-0.06046387553215027,1.2501189708709717,0.012779430486261845,0.8302815556526184,-0.31414511799812317,-0.6864652633666992,0.2439536154270172,0.325970858335495,0.8958953022956848,-0.32635602355003357,0.0002490157203283161,-0.3423742949962616,0.015449759550392628,0.11272602528333664,0.7078278660774231,-0.3713042438030243,0.02959945611655712,0.2738877832889557,-0.3273765742778778,-1.0290858745574951,-0.48087143898010254,-0.0110374316573143,0.918942391872406,0.23603065311908722,0.4803209602832794,0.011080999858677387,-0.794072151184082,-0.4546576142311096,1.5756704807281494,0.19450469315052032,0.7687543630599976,-6.112006664276123,2.104076623916626,0.11091570556163788,2.0382614135742188,0.23897938430309296,0.07906711101531982,-0.06501554697751999,-1.2651355266571045,-0.17725615203380585,1741516798.6008978,1741516797773,2.43114990234375,-1.235266357421875,3.055820021652687,3.509939697265625,1.28129736328125
1741516798.6181264,0.8807957470417023,0.00994042699644222,0.054785053282293036,-0.998448689642079,-0.29579243063926697,-0.06013857200741768,0.8874634504318237,8.022930145263672,4.112751483917236,3.4415135383605957,0.3706035614013672,0.23136520385742188,0.40951400995254517,-1.2859776020050049,0.005531395319849253,-0.7520790696144104,-0.0394827201962471,1.2524077892303467,0.012779430486261845,0.8184558153152466,-0.32101166248321533,-0.6498435735702515,0.248531311750412,0.34504464268684387,0.7703898549079895,-0.29891255497932434,0.00782060343772173,-0.29964902997016907,0.021171892061829567,0.11730372905731201,0.7078278660774231,-0.38725408911705017,0.03029489889740944,0.027909576892852783,-0.12262673676013947,-1.65732741355896,-0.4137207269668579,-0.006990526802837849,0.40599051117897034,1.6277920007705688,0.04514167085289955,0.004410207737237215,-0.7624267935752869,-0.3293408751487732,1.8447299003601074,0.23356960713863373,0.6766000986099243,-6.117040157318115,1.2794387340545654,0.4994877576828003,2.063615322113037,0.2604841887950897,0.3047172725200653,0.10223069787025452,-0.630425214767456,0.011159513145685196,1741516798.6019552,1741516797813,2.446123291015625,-1.2151180419921874,-2.8294990368788255,3.4629462890625002,1.3320870361328125
1741516798.6381984,0.8982725441455841,0.0034891936444014786,0.061348360394579075,-0.998110316650724,-0.3289264440536499,-0.4663509130477905,0.8896082639694214,-11.526107788085938,2.2799830436706543,19.735462188720703,0.3694591522216797,0.23632431030273438,0.3709849715232849,-1.2871220111846924,0.005912871100008488,-0.7497901916503906,-0.0009536888683214784,1.2493560314178467,0.012779430486261845,0.8093003630638123,-0.33016708493232727,-0.6185625791549683,0.24166475236415863,0.36297398805618286,0.7410162687301636,-0.2717953026294708,0.03492281585931778,-0.2615014910697937,0.023079270496964455,0.12912946939468384,0.726901650428772,-0.3787359297275543,0.044312067329883575,-0.04144484922289848,0.11897038668394089,-2.004696846008301,-0.0837385505437851,0.018935617059469223,0.09047065675258636,2.6746160984039307,-0.18154248595237732,0.004969704896211624,-0.5834569931030273,-0.42266929149627686,1.5932897329330444,-0.8750371932983398,0.8676465749740601,-0.20415769517421722,1.3041472434997559,1.4423754215240479,1.8298366069793701,0.057801686227321625,0.8570214509963989,1.0197311639785767,0.543032705783844,0.8309234380722046,1741516798.6019552,1741516797813,2.446123291015625,-1.2151180419921874,-2.8294990368788255,3.4629462890625002,1.3320870361328125
1741516798.6581995,0.9192889630794525,0.002935668195008394,0.06262056526724921,-0.9980330889594087,-0.12303166091442108,-0.04828823730349541,1.2572543621063232,-0.2776021659374237,10.001911163330078,7.383111953735352,0.3797588348388672,0.24052047729492188,0.31414511799812317,-1.293225646018982,0.005912871100008488,-0.7578011751174927,0.050164032727479935,1.2501189708709717,0.012779430486261845,0.8096818327903748,-0.3213931620121002,-0.5991073250770569,0.2157244235277176,0.34618905186653137,0.7551308274269104,-0.2742971181869507,0.052996013313531876,-0.25577935576438904,0.03681239113211632,0.1665140837430954,0.767719566822052,-0.3535694181919098,0.043835580348968506,0.30074992775917053,0.0841558575630188,-2.8304200172424316,-0.3910941183567047,-0.0042022354900836945,-0.5076311826705933,3.4073758125305176,0.11427540332078934,0.007859894074499607,0.13903523981571198,0.4468623399734497,0.720359206199646,-1.1377872228622437,-1.4492729902267456,0.4305804371833801,-0.35771864652633667,0.7368766665458679,-0.058879923075437546,0.7630510926246643,2.1567325592041016,2.3796281814575195,1.2822705507278442,-0.092498779296875,1741516798.7133932,1741516797973,2.479500732421875,-1.122885009765625,-0.8107875837054843,3.288186767578125,1.5285378417968751
1741516798.678197,0.9407490491867065,0.008421191129177764,0.06606144492969819,-0.9977800203620868,-0.16213612258434296,0.35367998480796814,0.9818944334983826,-3.0337653160095215,-3.411219596862793,11.616036415100098,0.3698406219482422,0.23327255249023438,0.24357213079929352,-1.294751524925232,0.005531395319849253,-0.7803082466125488,0.10090028494596481,1.2604187726974487,0.01430533267557621,0.8165484070777893,-0.31948578357696533,-0.5781261920928955,0.19054703414440155,0.28591591119766235,0.7551308274269104,-0.2857155501842499,0.06621314585208893,-0.2931639552116394,0.0558861680328846,0.23289081454277039,0.8642328381538391,-0.3186619281768799,0.03563016280531883,-0.26077336072921753,-0.24010613560676575,-3.5880606174468994,-0.0641188770532608,-0.006092856638133526,-1.2186259031295776,3.3836159706115723,0.7868605256080627,0.12551751732826233,0.531226396560669,0.15611012279987335,1.0961720943450928,-1.2255631685256958,-2.569451332092285,0.015635626390576363,-0.43394196033477783,0.6792011857032776,-2.125652313232422,0.9572356343269348,3.31352162361145,5.409365177154541,1.8645315170288086,-0.33293724060058594,1741516798.7133932,1741516797973,2.479500732421875,-1.122885009765625,-0.8107875837054843,3.288186767578125,1.5285378417968751
1741516798.6982598,0.9512966275215149,0.01864789923326331,0.065490710521765,-0.9976789176330932,0.09047066420316696,0.4080323576927185,0.332650750875473,-7.763124465942383,-5.280031204223633,12.860773086547852,0.3786144256591797,0.23517990112304688,0.17757686972618103,-1.2955145835876465,0.005531395319849253,-0.8093003630638123,0.14782176911830902,1.2760592699050903,0.01430533267557621,0.8295185565948486,-0.3118562698364258,-0.5727855563163757,0.1657511293888092,0.2630273997783661,0.7555122971534729,-0.28939154744148254,0.07975226640701294,-0.3767071068286896,0.09670405089855194,0.2962157726287842,1.0114823579788208,-0.28038233518600464,0.008760089054703712,0.23378030955791473,0.11836835741996765,-3.1954145431518555,-0.0983969196677208,-0.013727908954024315,-1.4778789281845093,2.961127996444702,0.9909260272979736,0.04427160695195198,0.8849408626556396,0.2573792636394501,0.29748082160949707,-1.4150612354278564,-1.1495720148086548,0.023816077038645744,-0.12240102887153625,0.5930152535438538,-4.423729419708252,2.3455817699432373,2.9293718338012695,7.557143211364746,1.7772467136383057,-1.600076675415039,1741516798.7133932,1741516797973,2.479500732421875,-1.122885009765625,-0.8107875837054843,3.288186767578125,1.5285378417968751
1741516798.7182376,0.9462464153766632,0.027383068844040778,0.05684258756318504,-0.9980075589792916,0.4129849672317505,0.39152535796165466,-0.1762928068637848,3.882702112197876,-0.7665117383003235,6.509383678436279,0.3759441375732422,0.24433517456054688,0.12188144028186798,-1.2920812368392944,0.005531395319849253,-0.840199887752533,0.18635080754756927,1.2817814350128174,0.013542382046580315,0.84744793176651,-0.3122377395629883,-0.5594338774681091,0.14438849687576294,0.25349050760269165,0.7543678879737854,-0.29094603657722473,0.07050424814224243,-0.47856107354164124,0.1363775134086609,0.31757840514183044,1.1766613721847534,-0.27533093094825745,-0.02136790007352829,-0.06617941707372665,0.29086577892303467,-2.7828123569488525,0.2632986009120941,-0.0037174206227064133,-1.6665551662445068,2.680455207824707,0.28994616866111755,-0.06483117491006851,1.272367238998413,0.035665858536958694,0.7392322421073914,-1.1495455503463745,-0.4346759021282196,-0.1393599659204483,-0.14794637262821198,-0.40291717648506165,-5.270816326141357,1.9416887760162354,0.7455023527145386,7.989706516265869,-0.08858994394540787,-1.1430928707122803,1741516798.7133932,1741516797973,2.479500732421875,-1.122885009765625,-0.8107875837054843,3.288186767578125,1.5285378417968751
1741516798.73825,0.9381964206695557,0.030175209969253745,0.04793672815933249,-0.9983944745423473,0.4630545377731323,0.18407583236694336,-0.405631422996521,-0.46247318387031555,-2.531691789627075,12.983231544494629,0.3671703338623047,0.2565422058105469,0.0707637146115303,-1.2852146625518799,0.005531395319849253,-0.8714808821678162,0.2309834510087967,1.2833073139190674,0.013542382046580315,0.8688105344772339,-0.3110933005809784,-0.5457007884979248,0.12989242374897003,0.2504386901855469,0.7475013136863708,-0.29638415575027466,0.0709756538271904,-0.5891889929771423,0.16155488789081573,0.30460822582244873,1.3040741682052612,-0.30945709347724915,-0.017646227031946182,-0.2620440125465393,0.34324023127555847,-2.5431020259857178,0.46233513951301575,-0.019875168800354004,-1.6313583850860596,3.0287935733795166,0.09927867352962494,0.03216889873147011,1.4200621843338013,-0.0013376151910051703,0.7172629833221436,-0.7518960237503052,-0.17073239386081696,-0.27818623185157776,-0.2834944427013397,0.06220173463225365,-5.392340183258057,1.0980700254440308,-0.9003719091415405,5.84998893737793,-1.9792442321777344,0.35447970032691956,1741516798.7133932,1741516797973,2.479500732421875,-1.122885009765625,-0.8107875837054843,3.288186767578125,1.5285378417968751
1741516798.758265,0.9355182945728302,0.0347401395234527,0.03849493834029979,-0.9986547263334148,0.4625401496887207,0.23157460987567902,0.03928195312619209,3.273787021636963,-4.034130573272705,8.978017807006836,0.3576335906982422,0.2576866149902344,0.023460745811462402,-1.2768222093582153,0.006294346414506435,-0.9023804068565369,0.2782863974571228,1.2836887836456299,0.013542382046580315,0.8909361362457275,-0.31567102670669556,-0.5273899435997009,0.12226291000843048,0.24166475236415863,0.7478827834129333,-0.30749839544296265,0.06977775692939758,-0.6849393248558044,0.17872129380702972,0.2630273997783661,1.3673990964889526,-0.36533910036087036,-0.012703760527074337,-0.2975154519081116,0.052805304527282715,-2.305192708969116,0.4934162497520447,0.05778159946203232,-1.4983227252960205,3.1336305141448975,-0.008523218333721161,-0.028494421392679214,1.480245590209961,-0.08037588745355606,0.7969396710395813,-0.3338738679885864,-0.316672146320343,0.004595954902470112,-0.565057635307312,-0.1219349056482315,-4.4610090255737305,0.870602548122406,-2.111457109451294,2.632606267929077,-2.754138231277466,0.11624674499034882,1741516798.7133932,1741516797973,2.479500732421875,-1.122885009765625,-0.8107875837054843,3.288186767578125,1.5285378417968751
1741516798.778436,0.9423407018184662,0.03801056899322723,0.037464952815332735,-0.9985747713393104,-0.03551292046904564,0.18498016893863678,0.42416805028915405,-2.075100898742676,-1.3676085472106934,10.678399085998535,0.3473339080810547,0.2561607360839844,-0.016975661739706993,-1.2665224075317383,0.004386968910694122,-0.9298466444015503,0.3244449496269226,1.2848331928253174,0.013923857361078262,0.9088655114173889,-0.3213931620121002,-0.5140383243560791,0.11539635062217712,0.23327229917049408,0.7494087219238281,-0.3272314965724945,0.07141098380088806,-0.76276034116745,0.18711376190185547,0.21725031733512878,1.3586251735687256,-0.4214937686920166,-0.00319686415605247,-0.32275310158729553,-0.02599858120083809,-2.0416431427001953,0.8060532808303833,-0.11298829317092896,-1.3828679323196411,3.0674750804901123,0.15307843685150146,0.04936355724930763,1.1583772897720337,-0.2994571328163147,0.735182523727417,-0.2878943085670471,-0.43773776292800903,0.12527520954608917,-1.07260000705719,0.13346314430236816,-3.5869691371917725,0.25531694293022156,-2.1961281299591064,-0.9399734735488892,-2.6448051929473877,0.3597063720226288,1741516798.807802,1741516798073,2.525521240234375,-1.06200927734375,-0.6488890692082805,3.183900390625,1.650604736328125
1741516798.7983112,0.9519328474998474,0.04596126868329445,0.04281076174539662,-0.9980254508076439,-0.31668776273727417,0.39151135087013245,0.41158154606819153,1.797711968421936,-2.787126302719116,7.867447853088379,0.3416109085083008,0.2500572204589844,-0.057793546468019485,-1.2527892589569092,0.005912871100008488,-0.954261064529419,0.36678874492645264,1.2890294790267944,0.01430533267557621,0.9225986003875732,-0.31834134459495544,-0.4980163276195526,0.11234454810619354,0.21686884760856628,0.7585641145706177,-0.3537113070487976,0.0734964907169342,-0.8077744841575623,0.18520638346672058,0.17452506721019745,1.2907224893569946,-0.4603055417537689,0.009821338579058647,-0.17087872326374054,-0.14898274838924408,-1.968846321105957,0.9140998721122742,0.032016899436712265,-1.2950153350830078,2.7467963695526123,0.1975734829902649,0.00985913909971714,0.831998348236084,0.17032992839813232,0.6503360867500305,-0.1904841959476471,-0.6579887866973877,0.45353928208351135,-1.4018033742904663,0.06081698462367058,-1.9697233438491821,0.057792048901319504,-2.289257764816284,-3.796488046646118,-1.727615237236023,0.6324253082275391,1741516798.807802,1741516798073,2.525521240234375,-1.06200927734375,-0.6488890692082805,3.183900390625,1.650604736328125
1741516798.8184543,0.9611508846282959,0.050257106925973065,0.05131301216015145,-0.9974172637299213,-0.4592658281326294,0.16869506239891052,0.4143323004245758,-1.9132728576660156,-4.75010347366333,9.491637229919434,0.3381776809692383,0.24090194702148438,-0.08564125746488571,-1.2386746406555176,0.005149920005351305,-0.9718089699745178,0.39883267879486084,1.2882665395736694,0.01430533267557621,0.9302281141281128,-0.308804452419281,-0.5029755234718323,0.10662241280078888,0.20122835040092468,0.767719566822052,-0.38404136896133423,0.07751914858818054,-0.8257037997245789,0.18825818598270416,0.13828489184379578,1.1751353740692139,-0.4686020314693451,0.006648138165473938,-0.10506297647953033,-0.2367352992296219,-1.2078759670257568,0.9383302927017212,0.020115500316023827,-0.7910323143005371,1.925340175628662,-0.09872985631227493,-0.0010847094235941768,0.429360032081604,0.5129244923591614,-0.31005412340164185,-0.32240766286849976,-0.9263525009155273,0.5029573440551758,-1.4907840490341187,0.15074267983436584,-0.7111015319824219,0.010470234788954258,-1.699939489364624,-5.963964939117432,-0.17358551919460297,-0.33395591378211975,1741516798.807802,1741516798073,2.525521240234375,-1.06200927734375,-0.6488890692082805,3.183900390625,1.650604736328125
1741516798.8385427,0.9715272486209869,0.05745286837592851,0.05826104552323477,-0.9966467872270085,-0.35077986121177673,0.38929569721221924,0.4818747639656067,6.97601318359375,-1.2256232500076294,4.863393783569336,0.3328371047973633,0.23365402221679688,-0.09555962681770325,-1.227230429649353,0.005531395319849253,-0.9790570139884949,0.4240100681781769,1.2852146625518799,0.013542382046580315,0.9332799315452576,-0.2958342730998993,-0.4953460097312927,0.09174486994743347,0.17757686972618103,0.7867932915687561,-0.4124395549297333,0.07652275264263153,-0.8184558153152466,0.1813916265964508,0.11234454810619354,1.0313191413879395,-0.45375359058380127,0.004391609225422144,-0.1554688662290573,-0.22851981222629547,-0.3873676657676697,0.7313727140426636,-0.0002513827639631927,-0.30199551582336426,1.6444991827011108,-0.24550184607505798,-0.04607973247766495,0.12147745490074158,0.6119963526725769,0.2452160120010376,-0.8162078857421875,-1.1668000221252441,0.8704401850700378,-1.4596725702285767,-0.05600689351558685,0.5708639621734619,-0.39977899193763733,-1.1892364025115967,-7.331681728363037,0.8562332987785339,-0.016918407753109932,1741516798.807802,1741516798073,2.525521240234375,-1.06200927734375,-0.6488890692082805,3.183900390625,1.650604736328125
1741516798.8585258,0.9842571318149567,0.06460979844610967,0.06050682459152903,-0.996074544460706,-0.11573600023984909,0.35676294565200806,0.6578158736228943,5.941981315612793,1.4339154958724976,6.9142866134643555,0.3355073928833008,0.23136520385742188,-0.0879301130771637,-1.219982385635376,0.005531395319849253,-0.9775310754776001,0.44079500436782837,1.2756778001785278,0.013542382046580315,0.9325169920921326,-0.28896772861480713,-0.49229419231414795,0.07457847148180008,0.16346226632595062,0.8047226667404175,-0.43838685750961304,0.07499563694000244,-0.7925154566764832,0.17223620414733887,0.10013733059167862,0.8680475950241089,-0.43674448132514954,0.00295714708045125,0.024656103923916817,-0.07763084769248962,0.4891965091228485,0.4447503983974457,-0.0034939120523631573,0.07513681054115295,0.9319303631782532,-0.7025497555732727,-0.002492303727194667,-0.0387495793402195,0.24545817077159882,0.371979683637619,-1.0216712951660156,-0.5274595022201538,1.0159392356872559,-1.2013314962387085,0.04604720696806908,1.1968356370925903,-0.5027305483818054,-0.5120079517364502,-8.191062927246094,0.769625723361969,-0.1875762641429901,1741516798.807802,1741516798073,2.525521240234375,-1.06200927734375,-0.6488890692082805,3.183900390625,1.650604736328125
1741516798.8785646,0.9990626573562622,0.0698542688010793,0.05369206915065606,-0.9961112100767604,0.35623568296432495,0.17501933872699738,0.7646082639694214,4.013734817504883,2.4369664192199707,3.562931776046753,0.3370332717895508,0.23632431030273438,-0.06275273114442825,-1.217693567276001,0.005531395319849253,-0.9683756828308105,0.44384679198265076,1.2630890607833862,0.013542382046580315,0.9298466444015503,-0.291638046503067,-0.481612890958786,0.04291599988937378,0.17872129380702972,0.8253223299980164,-0.45485737919807434,0.06089482456445694,-0.7623788714408875,0.15354390442371368,0.10013733059167862,0.7139315009117126,-0.4358820617198944,-0.0076332394964993,0.03804142400622368,0.133672833442688,1.4506134986877441,0.060650452971458435,0.0009361085831187665,0.5406146049499512,0.13299022614955902,-0.8574844002723694,-0.005562991369515657,-0.20657874643802643,-0.14735589921474457,0.5286818742752075,-1.659510612487793,0.9321549534797668,0.9699779748916626,-0.7320495843887329,-0.8698485493659973,1.577166199684143,-1.005683183670044,0.13395173847675323,-7.346920013427734,-0.07306648045778275,-0.50443035364151,1741516798.807802,1741516798073,2.525521240234375,-1.06200927734375,-0.6488890692082805,3.183900390625,1.650604736328125
1741516798.8985658,1.013878583908081,0.06428132349560552,0.035949062510079566,-0.9972841001210737,0.921025276184082,-0.4689099192619324,0.8094934225082397,-9.787201881408691,14.162936210632324,28.382566452026367,0.3377962112426758,0.2553977966308594,-0.01773861236870289,-1.2218897342681885,0.005531395319849253,-0.9523537158966064,0.4358358085155487,1.2489745616912842,0.013542382046580315,0.9210727214813232,-0.2969787120819092,-0.45948728919029236,0.03490501269698143,0.19054703414440155,0.8527885675430298,-0.46013176441192627,0.03785083070397377,-0.7444495558738708,0.12684062123298645,0.1203555315732956,0.6673914790153503,-0.4101463556289673,0.01503780297935009,0.01896221563220024,0.5748870372772217,2.364103078842163,-0.35943642258644104,-0.003142090979963541,0.8645928502082825,-0.6783909201622009,-0.9331510066986084,0.008693259209394455,-0.7205184102058411,-0.1990066021680832,1.0546358823776245,0.008705011568963528,0.3786035180091858,1.4195096492767334,-0.15696075558662415,-0.8877989053726196,0.873583197593689,-1.1226041316986084,0.9546297788619995,-0.3192726969718933,1.688246726989746,1.259752631187439,1741516798.807802,1741516798073,2.525521240234375,-1.06200927734375,-0.6488890692082805,3.183900390625,1.650604736328125
1741516798.918564,1.0195244550704956,0.06069628279798732,0.023190112314006254,-0.9978868572866217,0.5159931182861328,-0.07470932602882385,0.2372666299343109,8.206753730773926,-5.8285675048828125,4.486507415771484,0.3271150588989258,0.23937606811523438,0.04406042397022247,-1.235241413116455,0.005149920005351305,-0.9294651746749878,0.4026474356651306,1.2386746406555176,0.013923857361078262,0.8989471197128296,-0.3107118308544159,-0.44270238280296326,0.03299763426184654,0.22144655883312225,0.881017804145813,-0.4436485469341278,0.015400688163936138,-0.7299534678459167,0.10662241280078888,0.14858472347259521,0.728427529335022,-0.3655012249946594,0.05353561043739319,-0.331416517496109,-0.48505574464797974,3.405946731567383,-0.8087466359138489,-0.014587215147912502,1.1996537446975708,-2.607783317565918,-0.6466941833496094,0.053756825625896454,-1.458304524421692,-0.7283346652984619,0.6561479568481445,-0.42579925060272217,1.9091380834579468,1.5729484558105469,0.9649085402488708,-1.315522313117981,0.2261829376220703,-1.1981537342071533,1.5140385627746582,2.365229606628418,2.2876193523406982,2.121274948120117,1741516799.0206337,1741516798173,2.565169189453125,-1.0048594360351564,3.093966770942793,3.078140869140625,1.7684364013671876
1741516798.938606,1.027871012687683,0.048612999656452625,0.012213449458533695,-0.9987430139513995,0.604116678237915,-0.6257708072662354,0.5023427605628967,-7.324305534362793,4.692194938659668,14.588376998901367,0.3274965286254883,0.24700546264648438,0.1188296303153038,-1.2428709268569946,0.005531395319849253,-0.9027618765830994,0.3385595381259918,1.2333340644836426,0.013542382046580315,0.8794918656349182,-0.30308231711387634,-0.46139466762542725,0.02994582988321781,0.2611200213432312,0.955024003982544,-0.423063188791275,-0.0011194177204743028,-0.700579822063446,0.08335240930318832,0.16422522068023682,0.7188906669616699,-0.3265511095523834,0.061764560639858246,0.04695998132228851,0.0913764089345932,3.645570993423462,-0.5259163975715637,-0.04016276076436043,1.3023009300231934,-4.42484712600708,-0.2894238829612732,-0.046870891004800797,-1.2201251983642578,0.5959611535072327,-1.1921008825302124,0.2603558301925659,1.918981671333313,4.297107696533203,0.9121772050857544,-0.3584077060222626,2.0567359924316406,-1.1917140483856201,0.3896012306213379,-0.5884497165679932,2.030207872390747,-0.19703197479248047,1741516799.0206337,1741516798173,2.565169189453125,-1.0048594360351564,3.093966770942793,3.078140869140625,1.7684364013671876
1741516798.9586685,1.0455645471811295,0.03938705623246064,0.002696662115338021,-0.9992203900115213,0.2827128767967224,-0.5002464056015015,1.0565780401229858,0.6134036183357239,-1.830300211906433,9.893451690673828,0.3274965286254883,0.23746871948242188,0.1832990050315857,-1.2585114240646362,0.005912871100008488,-0.8756771087646484,0.2733272314071655,1.233715534210205,0.01201647985726595,0.8566033244132996,-0.2977416515350342,-0.507553219795227,0.06504157930612564,0.28820478916168213,1.0790035724639893,-0.42685437202453613,0.01598988100886345,-0.6643396615982056,0.0707637146115303,0.16918440163135529,0.7219424843788147,-0.27762237191200256,0.02720668725669384,-0.03438583388924599,-0.2941276431083679,3.18680739402771,-1.0302252769470215,-0.013895390555262566,1.3070908784866333,-3.976759672164917,0.07488983869552612,-0.03305553272366524,-1.6478835344314575,0.11443798989057541,-2.5626819133758545,1.8396856784820557,1.45525324344635,6.353462219238281,-0.3550102710723877,0.6866730451583862,1.3873262405395508,-0.712885320186615,0.4126879870891571,0.20718418061733246,2.3655099868774414,-1.2439509630203247,1741516799.0206337,1741516798173,2.565169189453125,-1.0048594360351564,3.093966770942793,3.078140869140625,1.7684364013671876
1741516798.9787536,1.080922693014145,0.029639786376204885,0.003952881158918693,-0.999552828916069,-0.13658061623573303,-0.4388869106769562,1.8099015951156616,-4.847053050994873,3.7043960094451904,10.493388175964355,0.3061342239379883,0.22831344604492188,0.23899443447589874,-1.2646150588989258,0.005531395319849253,-0.8520256280899048,0.21801327168941498,1.2379117012023926,0.01201647985726595,0.8348592519760132,-0.30346378684043884,-0.5807965397834778,0.0879301130771637,0.3084229826927185,1.2075608968734741,-0.4575590491294861,0.006553198676556349,-0.6395437717437744,0.05741206929087639,0.17071031033992767,0.7192721366882324,-0.24535620212554932,0.022417273372411728,-0.5489847660064697,-0.3490689694881439,2.75921630859375,-0.28491315245628357,0.016703307628631592,1.1249682903289795,-3.701087236404419,0.2902500331401825,-0.010046185925602913,-1.4066567420959473,-0.28805479407310486,-3.7010889053344727,1.2200318574905396,0.9074664115905762,6.405263423919678,-1.6721380949020386,-0.5925447344779968,1.4484530687332153,-0.9546658992767334,-0.043749045580625534,-0.12764789164066315,1.4290540218353271,-0.010536300018429756,1741516799.0206337,1741516798173,2.565169189453125,-1.0048594360351564,3.093966770942793,3.078140869140625,1.7684364013671876
1741516798.9987228,1.1236786544322968,0.026267490874577637,0.00458155734758342,-0.9996444509201384,-0.12932126224040985,-0.20883962512016296,2.1501102447509766,2.0006425380706787,0.5916814804077148,10.938971519470215,0.3206300735473633,0.21610546112060547,0.28515297174453735,-1.2672853469848633,0.005531395319849253,-0.8306630253791809,0.16155488789081573,1.239819049835205,0.012397955171763897,0.8169298768043518,-0.3061341345310211,-0.6460288166999817,0.10929274559020996,0.3217746317386627,1.2979705333709717,-0.4989563524723053,-0.004615070763975382,-0.6090257167816162,0.037193864583969116,0.1493476778268814,0.7200350761413574,-0.23089665174484253,0.032663196325302124,0.34757107496261597,-0.35873812437057495,2.237009048461914,-0.2890031039714813,0.007162647321820259,1.065799593925476,-3.710261106491089,0.07546517997980118,0.010105367749929428,-1.1534397602081299,-0.10401858389377594,-3.1821255683898926,0.9979954361915588,0.5884866118431091,4.065351963043213,-2.0799214839935303,-0.29686546325683594,1.3751853704452515,-1.1847378015518188,-1.116676926612854,0.051207736134529114,0.5807334780693054,0.4533167779445648,1741516799.0206337,1741516798173,2.565169189453125,-1.0048594360351564,3.093966770942793,3.078140869140625,1.7684364013671876
1741516799.01872,1.1671984791755676,0.01958301831447093,0.009604125687657568,-0.9997621047846686,-0.3454538583755493,-0.3409539759159088,2.125783920288086,-4.916569232940674,6.983676433563232,12.984848976135254,0.3141450881958008,0.20733165740966797,0.3229190409183502,-1.2714815139770508,0.005531395319849253,-0.8096818327903748,0.11234454810619354,1.239819049835205,0.012397955171763897,0.8001449704170227,-0.3065156042575836,-0.6876096725463867,0.12607766687870026,0.3240634799003601,1.3220034837722778,-0.5300105810165405,0.0035193224903196096,-0.5956740379333496,0.007057297509163618,0.12607766687870026,0.7215610146522522,-0.23154079914093018,0.039094384759664536,-0.143153116106987,-0.25398045778274536,1.7298814058303833,-0.21571029722690582,-0.024844801053404808,0.9996469020843506,-3.1959621906280518,0.0014893915504217148,-0.002173189539462328,-1.1343677043914795,-0.05000235512852669,-1.848394513130188,0.6617907881736755,0.1462084949016571,0.6770472526550293,-1.3431918621063232,0.30908992886543274,0.7853729128837585,-1.3978322744369507,-1.118288278579712,0.11470656841993332,-0.07395195215940475,0.3312434256076813,1741516799.0206337,1741516798173,2.565169189453125,-1.0048594360351564,3.093966770942793,3.078140869140625,1.7684364013671876
1741516799.0387404,1.1967427656054497,0.016873559119834698,0.01605959146759433,-0.9997286494467004,-0.30189356207847595,-0.13166485726833344,1.3730506896972656,2.722407102584839,5.060624122619629,10.014698028564453,0.3179597854614258,0.19588756561279297,0.35152971744537354,-1.2726260423660278,0.005912871100008488,-0.7898451089859009,0.07457847148180008,1.2409635782241821,0.012397955171763897,0.7837415337562561,-0.30231937766075134,-0.7066834568977356,0.13866636157035828,0.3240634799003601,1.2869077920913696,-0.5352745056152344,-0.009907640516757965,-0.5582894682884216,-0.016212711110711098,0.10967422276735306,0.7272831201553345,-0.23824892938137054,0.05114695429801941,0.07496562600135803,-0.34095823764801025,1.454101324081421,-0.09258132427930832,0.04216892272233963,1.014978051185608,-2.4504265785217285,0.056769803166389465,-0.002080427249893546,-1.0555126667022705,0.39583083987236023,-0.7918031215667725,0.67046719789505,-0.041058141738176346,-2.1392338275909424,-0.09930455684661865,-0.5463491082191467,1.7640801668167114,-1.070373296737671,-0.6501709222793579,0.15552733838558197,-0.37248289585113525,0.6906217336654663,1741516799.020888,1741516798273,2.602441162109375,-0.962573486328125,-1.35483040654839,2.97677490234375,1.881478271484375
1741516799.0587428,1.2174677029252052,0.01407305632713483,0.017554233554796888,-0.9997468669467873,-0.05239606648683548,-0.13221727311611176,1.033090353012085,-0.9371204972267151,0.8159449100494385,10.519145965576172,0.3175783157348633,0.19169139862060547,0.39654383063316345,-1.2806370258331299,0.005531395319849253,-0.7665750980377197,0.03299763426184654,1.2459226846694946,0.012397955171763897,0.775730550289154,-0.2977416515350342,-0.7089722752571106,0.15583276748657227,0.3236820101737976,1.2155718803405762,-0.519303560256958,-0.009434916079044342,-0.5315861701965332,-0.025749599561095238,0.1039520874619484,0.7265201807022095,-0.25030532479286194,0.07166872173547745,-0.01272381842136383,-0.11256521940231323,2.23527193069458,-0.5427291989326477,-0.018951447680592537,1.0636042356491089,-3.1093177795410156,0.4231082499027252,0.0003153504221700132,-0.33552074432373047,0.12326784431934357,-0.18344619870185852,0.863065242767334,0.07878918200731277,-3.809385061264038,0.9153338670730591,0.18057949841022491,1.5129280090332031,-0.45347046852111816,-0.18440285325050354,0.0934489294886589,-0.6368202567100525,1.0330342054367065,1741516799.020888,1741516798273,2.602441162109375,-0.962573486328125,-1.35483040654839,2.97677490234375,1.881478271484375
1741516799.0788379,1.2369961850345135,0.01604138985591747,0.019377886798513114,-0.9996835355824935,-0.11887069046497345,0.08052456378936768,0.9279085993766785,0.898223340511322,0.712774932384491,10.909394264221191,0.3191041946411133,0.18329906463623047,0.4217212200164795,-1.2825443744659424,0.005531395319849253,-0.7585641145706177,-0.010109102353453636,1.2516448497772217,0.013160906732082367,0.7833600640296936,-0.30041199922561646,-0.7028687000274658,0.17948424816131592,0.3248264193534851,1.1198214292526245,-0.4847062826156616,-0.009854129515588284,-0.50030517578125,-0.034142062067985535,0.1035706102848053,0.728427529335022,-0.2650873363018036,0.0852760374546051,0.007750303018838167,-0.22747433185577393,1.0442386865615845,-0.07588855922222137,-0.0051110852509737015,0.24593587219715118,-2.6066129207611084,0.3463760316371918,0.028409063816070557,0.6108468174934387,-0.13859231770038605,0.42806240916252136,1.262943983078003,0.08226398378610611,-4.911642074584961,1.8406529426574707,-0.06902444362640381,1.4063589572906494,-0.354153573513031,-0.06326014548540115,0.03434868901968002,-0.7859749794006348,0.6477249264717102,1741516799.1230302,1741516798373,2.609600341796875,-0.9114710083007813,-1.592185687945215,2.878256103515625,1.9943480224609376
1741516799.0988405,1.2533650659024715,0.01797557474551391,0.02217790880327632,-0.9995924264787533,-0.14261440932750702,0.11367521435022354,0.8148815035820007,0.5358808040618896,2.1016838550567627,10.735611915588379,0.3091859817504883,0.18101024627685547,0.4381246566772461,-1.2859776020050049,0.005531395319849253,-0.76276034116745,-0.032616160809993744,1.2516448497772217,0.012779430486261845,0.7982375621795654,-0.3133821487426758,-0.6857023239135742,0.21000228822231293,0.33360037207603455,1.0126268863677979,-0.4405505955219269,-0.006573054473847151,-0.47779813408851624,-0.03604944050312042,0.10204470902681351,0.7291905283927917,-0.2832541763782501,0.09510878473520279,-0.3071117699146271,-0.09550856053829193,0.763588011264801,-0.2999659776687622,-0.007518576458096504,-0.2738194167613983,-1.2940329313278198,-0.0681624636054039,0.004503041040152311,1.034833312034607,-0.66750568151474,0.9546184539794922,1.5708086490631104,0.43836691975593567,-5.406440258026123,2.2205328941345215,0.29828840494155884,1.170064926147461,-0.11692144721746445,-0.021658021956682205,0.035512544214725494,-0.934860348701477,0.4929046928882599,1741516799.1230302,1741516798373,2.609600341796875,-0.9114710083007813,-1.592185687945215,2.878256103515625,1.9943480224609376
1741516799.118877,1.2679730597883463,0.023304727283406143,0.026761671333340297,-0.9993701529632013,-0.27156054973602295,0.24750259518623352,0.7238190770149231,2.674727201461792,-1.9823511838912964,10.51141357421875,0.3049898147583008,0.17338085174560547,0.4381246566772461,-1.2867405414581299,0.005531395319849253,-0.7776378989219666,-0.03833829239010811,1.2485930919647217,0.012779430486261845,0.8192187547683716,-0.3274967670440674,-0.6620507836341858,0.23594263195991516,0.35076677799224854,0.9054322242736816,-0.3954428732395172,0.0005093715153634548,-0.4499503970146179,-0.03490501269698143,0.1028076633810997,0.7280460596084595,-0.3047042787075043,0.09388474375009537,-0.12892970442771912,-0.23309670388698578,-0.12870024144649506,-0.02816786617040634,-0.007871342822909355,-0.7763186097145081,-0.24655988812446594,-0.18855656683444977,0.0016724528977647424,1.4124805927276611,-0.7652541399002075,1.197960376739502,1.1149144172668457,0.9913445115089417,-5.259068012237549,2.2203457355499268,0.26486271619796753,1.4115878343582153,0.08811721950769424,0.029806841164827347,-0.10561951249837875,-1.0849125385284424,-0.07807721197605133,1741516799.1230302,1741516798373,2.609600341796875,-0.9114710083007813,-1.592185687945215,2.878256103515625,1.9943480224609376
1741516799.1388853,1.2844931203871965,0.02501676546282831,0.03683098429557533,-0.9990083283144324,-0.5459131598472595,-0.018003148958086967,0.8643501996994019,9.139165878295898,10.472779273986816,9.548656463623047,0.2924013137817383,0.17299938201904297,0.42782482504844666,-1.2836887836456299,0.005531395319849253,-0.7982375621795654,-0.02689402550458908,1.2497375011444092,0.012779430486261845,0.8424887657165527,-0.34504464268684387,-0.6422140598297119,0.2504386901855469,0.3892957866191864,0.8436331748962402,-0.3499830961227417,0.020589103922247887,-0.41180285811424255,-0.03376058489084244,0.10738536715507507,0.7211795449256897,-0.32734623551368713,0.08928804099559784,-0.37245309352874756,-0.03161770850419998,-0.6072020530700684,0.27301838994026184,0.0031387764029204845,-1.0721008777618408,1.0067471265792847,0.10599778592586517,0.0004849482502322644,1.526921272277832,-0.8393845558166504,0.8970268368721008,0.6095643043518066,2.211186170578003,-2.263976573944092,2.2300777435302734,1.076718807220459,2.1316945552825928,-0.08385468274354935,0.34981510043144226,-0.35538819432258606,-1.0952032804489136,-0.09739215672016144,1741516799.1230302,1741516798373,2.609600341796875,-0.9114710083007813,-1.592185687945215,2.878256103515625,1.9943480224609376
1741516799.1589472,1.307842817157507,0.022520139462341906,0.042336526492777075,-0.9988495691760211,-0.27077603340148926,-0.044321589171886444,1.216650128364563,-2.2274832725524902,-1.6812701225280762,8.774576187133789,0.2866792678833008,0.17910289764404297,0.39806973934173584,-1.2817814350128174,0.005531395319849253,-0.8237964510917664,0.007057297509163618,1.2508819103240967,0.012779430486261845,0.8657587766647339,-0.3545815348625183,-0.6021591424942017,0.2443350851535797,0.4064621925354004,0.8299000263214111,-0.32743707299232483,0.035866428166627884,-0.35191118717193604,-0.026131074875593185,0.12417028844356537,0.7063019871711731,-0.35000079870224,0.06852924823760986,-0.19483579695224762,0.17685431241989136,-1.6890325546264648,0.03967299312353134,0.010326170362532139,-1.4148434400558472,2.4574952125549316,-0.0094657177105546,0.001856913440860808,1.5984078645706177,-0.4308196008205414,2.0452702045440674,-0.5511441826820374,0.32193008065223694,-1.003643274307251,0.7720589637756348,0.5469362139701843,3.103198289871216,0.6026307344436646,1.0646194219589233,-0.693833589553833,-1.1164911985397339,-1.2317320108413696,1741516799.1230302,1741516798373,2.609600341796875,-0.9114710083007813,-1.592185687945215,2.878256103515625,1.9943480224609376
1741516799.1789594,1.336904626339674,0.024303151742346624,0.048923442836812436,-0.9985068119729488,-0.36489659547805786,-0.004833870567381382,1.4747426509857178,-5.552315711975098,-0.33597463369369507,14.656744003295898,0.2821016311645508,0.18291759490966797,0.34695202112197876,-1.2791110277175903,0.005531395319849253,-0.8531700372695923,0.0555046908557415,1.2497375011444092,0.012779430486261845,0.8867399096488953,-0.3614480793476105,-0.5678263306617737,0.22030213475227356,0.3778515160083771,0.80357825756073,-0.32902684807777405,0.0500611886382103,-0.3107118308544159,-0.0020981156267225742,0.17299915850162506,0.7150759100914001,-0.3696834146976471,0.024997210130095482,-0.19056324660778046,0.12023341655731201,-2.579176902770996,0.17751073837280273,-0.0015868322225287557,-1.384993314743042,3.2637906074523926,-0.020259466022253036,0.000268680538283661,1.379516363143921,-0.3037608563899994,1.6995203495025635,-1.1839771270751953,-1.5970343351364136,-1.0255742073059082,-0.07745349407196045,0.9195399880409241,1.6833698749542236,1.2000588178634644,2.7147347927093506,0.8452710509300232,-0.8550900816917419,-2.165269374847412,1741516799.2254374,1741516798473,2.6004323730468752,-0.8407645263671876,-2.085483797385539,2.7822736816406253,2.1025732421875
1741516799.198926,1.3639687895774841,0.029035430158627907,0.05354978206531161,-0.9981429580156649,-0.21996474266052246,0.2005184143781662,1.212870478630066,8.463706970214844,-4.156183242797852,5.119589805603027,0.2721824645996094,0.18978404998779297,0.28324559330940247,-1.2787295579910278,0.005531395319849253,-0.8821622133255005,0.10624094307422638,1.2527892589569092,0.013923857361078262,0.9061951637268066,-0.3591592311859131,-0.5292973518371582,0.17605096101760864,0.32940414547920227,0.7990005612373352,-0.3390699625015259,0.0762886106967926,-0.3217746317386627,0.03643091395497322,0.25158312916755676,0.7867932915687561,-0.3601117730140686,0.010793428868055344,-0.28912869095802307,0.17776457965373993,-3.0836517810821533,-0.030044686049222946,0.007725960109382868,-1.4662350416183472,3.3275647163391113,0.19225895404815674,0.08496423065662384,1.2507706880569458,0.0994163453578949,1.5643454790115356,-2.3608906269073486,-2.295879602432251,-0.2684858441352844,-0.5077183842658997,1.1197941303253174,-0.8869081139564514,2.230839490890503,3.7586145401000977,3.9997658729553223,0.7781611084938049,-0.3603993356227875,1741516799.2254374,1741516798473,2.6004323730468752,-0.8407645263671876,-2.085483797385539,2.7822736816406253,2.1025732421875
1741516799.2189732,1.3777628168463707,0.027776671068100025,0.05524680513122103,-0.9980862923951853,-0.08498445898294449,-0.00712066562846303,0.5821085572242737,-2.717257022857666,3.2221617698669434,7.9166259765625,0.2664604187011719,0.20237255096435547,0.22030213475227356,-1.2787295579910278,0.005531395319849253,-0.9077210426330566,0.14782176911830902,1.2531707286834717,0.013923857361078262,0.924887478351593,-0.35114824771881104,-0.5128938555717468,0.13141833245754242,0.28896772861480713,0.7871748208999634,-0.3434503674507141,0.08124920725822449,-0.38166627287864685,0.08297093212604523,0.3068970739841461,0.9405279755592346,-0.33234915137290955,0.009123279713094234,-0.20357784628868103,0.27093249559402466,-3.1800334453582764,0.03995870426297188,-0.014948934316635132,-1.2690329551696777,2.7273049354553223,0.02400447055697441,-0.030688555911183357,1.1926125288009644,0.43716514110565186,1.0500644445419312,-2.280190944671631,-2.0533368587493896,-0.49487996101379395,-0.10733403265476227,0.21248704195022583,-3.214294672012329,2.3342792987823486,2.5220577716827393,8.313189506530762,1.385657548904419,-0.3053438365459442,1741516799.2254374,1741516798473,2.6004323730468752,-0.8407645263671876,-2.085483797385539,2.7822736816406253,2.1025732421875
1741516799.2389371,1.3746895641088486,0.030210628775413494,0.05085918661459194,-0.9982487971672674,0.2727552056312561,0.07050362974405289,-0.21663379669189453,-1.3435560464859009,-4.43568229675293,10.310662269592285,0.2645530700683594,0.21152782440185547,0.15697719156742096,-1.2760592699050903,0.005531395319849253,-0.9275577664375305,0.1836804747581482,1.2516448497772217,0.013923857361078262,0.9420538544654846,-0.3385595381259918,-0.49496451020240784,0.09174486994743347,0.2615014910697937,0.778782308101654,-0.34043169021606445,0.07150574028491974,-0.4869535267353058,0.13218127191066742,0.31567102670669556,1.1453803777694702,-0.3218928873538971,-0.006531442515552044,-0.07103046029806137,0.2394067496061325,-3.360694408416748,0.16982275247573853,0.0008753568399697542,-0.9015680551528931,2.3889503479003906,-0.17554225027561188,0.01600480265915394,1.0994571447372437,0.7086609601974487,0.7027029991149902,-1.9135899543762207,-1.2439578771591187,-0.48902106285095215,0.16579210758209229,-0.494228720664978,-5.345061302185059,2.4285240173339844,0.16220685839653015,10.283550262451172,0.3436491787433624,-0.6909403800964355,1741516799.2254374,1741516798473,2.6004323730468752,-0.8407645263671876,-2.085483797385539,2.7822736816406253,2.1025732421875
1741516799.2590494,1.3654695972800255,0.03059699923012107,0.04324350347853197,-0.998595925810342,0.4069231450557709,0.07305704802274704,-0.4400242865085602,-0.031464871019124985,-3.4413580894470215,10.506782531738281,0.2519645690917969,0.21305370330810547,0.09670405089855194,-1.2714815139770508,0.005531395319849253,-0.9390020370483398,0.21839475631713867,1.2463041543960571,0.013542382046580315,0.9538795948028564,-0.3278782367706299,-0.482375830411911,0.06427863240242004,0.2439536154270172,0.7722972631454468,-0.3408171236515045,0.07065989077091217,-0.6063553690910339,0.17109178006649017,0.2946898639202118,1.3330663442611694,-0.34024959802627563,-0.007530461065471172,-0.37303394079208374,0.058292172849178314,-3.047983169555664,0.4002070426940918,-0.008774664252996445,-0.5393295884132385,2.357518434524536,-0.28024742007255554,-0.018032487481832504,0.7200847864151001,0.5430737733840942,0.723312258720398,-1.203600287437439,-0.8928271532058716,-0.20354004204273224,-0.12289198487997055,0.1374589502811432,-5.950210094451904,1.874887228012085,-1.183603286743164,8.969433784484863,-1.1179615259170532,-0.05236542597413063,1741516799.2254374,1741516798473,2.6004323730468752,-0.8407645263671876,-2.085483797385539,2.7822736816406253,2.1025732421875
1741516799.279069,1.356420360505581,0.03467269654517001,0.035682799914543525,-0.9987615040161216,0.37216219305992126,0.2434704303741455,-0.38590148091316223,2.5068154335021973,-5.24939489364624,12.88737964630127,0.23975753784179688,0.21190929412841797,0.0398641936480999,-1.2646150588989258,0.005531395319849253,-0.9439612627029419,0.2569237947463989,1.2459226846694946,0.013542382046580315,0.9569314122200012,-0.31643396615982056,-0.4678797721862793,0.04940108209848404,0.22602425515651703,0.7719157934188843,-0.35101574659347534,0.06743133813142776,-0.7139315009117126,0.19359883666038513,0.25463491678237915,1.4478904008865356,-0.3799154460430145,-0.003531468566507101,-0.37212079763412476,-0.025779664516448975,-2.8082950115203857,0.39486879110336304,-0.017158949747681618,-0.18838010728359222,2.6236743927001953,-0.023867258802056313,0.012608706951141357,0.15229877829551697,0.7209271192550659,0.7488677501678467,-0.6573566198348999,-0.8321558833122253,-0.017213769257068634,-0.5813823342323303,-0.22211702167987823,-5.244658946990967,1.0200139284133911,-2.0399768352508545,4.979989528656006,-2.081768751144409,0.20390978455543518,1741516799.3196213,1741516798573,2.6013957519531252,-0.771205810546875,-2.508764287546051,2.6870151367187503,2.20899853515625
1741516799.299062,1.3631699085235596,0.03927070492201581,0.03501352019101248,-0.9986149734200672,-0.036239270120859146,0.23345880210399628,0.3939821422100067,-0.24677088856697083,-2.4846508502960205,10.486125946044922,0.21724987030029297,0.21038341522216797,-0.005912871100008488,-1.2569855451583862,0.005531395319849253,-0.9473945498466492,0.29850462079048157,1.2489745616912842,0.013542382046580315,0.9557870030403137,-0.3065156042575836,-0.4537651538848877,0.03681239113211632,0.21076524257659912,0.770008385181427,-0.3727297782897949,0.06861425191164017,-0.8012893795967102,0.20771344006061554,0.21000228822231293,1.4696345329284668,-0.4232367277145386,0.0016000375617295504,-0.6621468663215637,-0.028611240908503532,-2.2029669284820557,0.5485116243362427,-0.011343973688781261,-0.19268903136253357,2.8192684650421143,0.281352162361145,0.013691872358322144,-0.1011960431933403,0.39745524525642395,0.7952101230621338,-0.5278390645980835,-0.8469092845916748,-0.16991965472698212,-1.1678684949874878,0.08364173769950867,-4.307648658752441,0.5444331765174866,-2.1864359378814697,0.43300268054008484,-2.1227362155914307,0.32073500752449036,1741516799.3196213,1741516798573,2.6013957519531252,-0.771205810546875,-2.508764287546051,2.6870151367187503,2.20899853515625
1741516799.3190339,1.3779742643237114,0.047709954404443325,0.03996910360997347,-0.9980612361009424,-0.32198983430862427,0.3981015980243683,0.7349104881286621,1.5920937061309814,-3.9010703563690186,9.159367561340332,0.20656871795654297,0.20771312713623047,-0.05855649709701538,-1.2516448497772217,0.005912871100008488,-0.9504463076591492,0.3397039771080017,1.2577484846115112,0.01430533267557621,0.951972246170044,-0.30041199922561646,-0.4358358085155487,0.026512550190091133,0.19130998849868774,0.7639048099517822,-0.3984034061431885,0.07411657273769379,-0.8604180812835693,0.21114671230316162,0.1672770231962204,1.4105058908462524,-0.4521280825138092,0.004601530730724335,-0.32186391949653625,-0.06131906434893608,-2.7372050285339355,0.29814353585243225,0.03583920747041702,-0.17508207261562347,2.76114821434021,0.5898958444595337,0.07419269531965256,-0.32367759943008423,0.36201316118240356,0.8513500690460205,-0.5522085428237915,-0.9711155295372009,-0.32373711466789246,-1.3060795068740845,0.4306994676589966,-2.7264902591705322,0.08874005824327469,-2.193359851837158,-3.4112398624420166,-1.231002688407898,0.22923627495765686,1741516799.3196213,1741516798573,2.6013957519531252,-0.771205810546875,-2.508764287546051,2.6870151367187503,2.20899853515625
1741516799.3390746,1.3941631242632866,0.05544239609440691,0.04860103955175986,-0.9972783361077284,-0.48624688386917114,0.33710864186286926,0.7133523225784302,0.20680518448352814,1.0993529558181763,9.089566230773926,0.19588756561279297,0.20389842987060547,-0.09937438368797302,-1.2447782754898071,0.005149920005351305,-0.9580758213996887,0.3751811981201172,1.2684297561645508,0.013923857361078262,0.9431982636451721,-0.28820478916168213,-0.43011367321014404,0.01735713705420494,0.17719538509845734,0.7551308274269104,-0.4220157265663147,0.09316524863243103,-0.8924620151519775,0.1981765478849411,0.12874799966812134,1.2953002452850342,-0.45055633783340454,0.007394299376755953,-0.318636953830719,-0.07780077308416367,-1.7644472122192383,0.5113581418991089,0.012969031929969788,-0.335866242647171,2.216604232788086,0.6474369168281555,-0.004164081998169422,-0.6393919587135315,0.6777944564819336,0.16185659170150757,-0.3840738832950592,-0.6946290731430054,-0.46465668082237244,-1.1086353063583374,0.9197048544883728,-1.3083248138427734,-0.8323671817779541,-1.8183010816574097,-6.019835948944092,0.28893324732780457,0.12255630642175674,1741516799.3196213,1741516798573,2.6013957519531252,-0.771205810546875,-2.508764287546051,2.6870151367187503,2.20899853515625
1741516799.3591318,1.4054978042840958,0.06559651193567775,0.056817994488610864,-0.9962272898913003,-0.41137754917144775,0.5270301699638367,0.5149046778678894,3.78277850151062,1.3126918077468872,6.580635070800781,0.18596935272216797,0.19283580780029297,-0.11348897218704224,-1.235241413116455,0.005149920005351305,-0.9630350470542908,0.3995956480503082,1.2722445726394653,0.013923857361078262,0.9355688095092773,-0.26722362637519836,-0.41485464572906494,0.009727626107633114,0.15926603972911835,0.7490272521972656,-0.4360540509223938,0.09034912288188934,-0.8985656499862671,0.17299915850162506,0.09403372555971146,1.1545357704162598,-0.42364245653152466,0.008582151494920254,-0.311691552400589,-0.3234785199165344,-0.5642893314361572,0.5919959545135498,-0.00994157325476408,-0.21904997527599335,1.568779468536377,0.2137397676706314,-0.028453035280108452,-0.5246790647506714,1.0383260250091553,0.8215110301971436,-0.4272664487361908,-0.9006848931312561,-0.2889760434627533,-0.6492623090744019,-0.3553819954395294,-0.07658237218856812,-1.2707630395889282,-1.6695263385772705,-7.042412281036377,1.4646520614624023,-0.11936306208372116,1741516799.3196213,1741516798573,2.6013957519531252,-0.771205810546875,-2.508764287546051,2.6870151367187503,2.20899853515625
1741516799.3791296,1.4125172942876816,0.0758036962607982,0.059721354331109325,-0.9953326878336001,-0.10355116426944733,0.5040580034255981,0.3365929126739502,0.6893830895423889,-3.024592399597168,6.985584259033203,0.18253612518310547,0.19130992889404297,-0.10624094307422638,-1.227230429649353,0.005149920005351305,-0.9626535177230835,0.4205767810344696,1.2711000442504883,0.013542382046580315,0.9283207654953003,-0.25463491678237915,-0.39883267879486084,-0.00667582219466567,0.14591439068317413,0.7402533292770386,-0.44917020201683044,0.08671768009662628,-0.8806362748146057,0.14782176911830902,0.06427863240242004,0.9977492690086365,-0.38694608211517334,0.0043148985132575035,-0.14036867022514343,-0.06792416423559189,0.5008893609046936,0.4811969995498657,-0.015257476828992367,0.07161011546850204,1.3014260530471802,-0.14928646385669708,-0.014289992861449718,-0.40841373801231384,0.5755167603492737,0.9977802634239197,-0.7533465623855591,-0.5964664220809937,-0.31468692421913147,-0.6612473130226135,0.025220837444067,0.8596382141113281,-1.2235487699508667,-1.4784070253372192,-7.834529399871826,1.8314095735549927,-0.1692790538072586,1741516799.3196213,1741516798573,2.6013957519531252,-0.771205810546875,-2.508764287546051,2.6870151367187503,2.20899853515625
1741516799.399138,1.4177234470844269,0.08201358077215504,0.054956432943255445,-0.9951148491742462,0.27010178565979004,0.1969262808561325,0.22846153378486633,-0.7333332896232605,1.4005464315414429,7.688941955566406,0.17719554901123047,0.19779491424560547,-0.07648584991693497,-1.224941611289978,0.005531395319849253,-0.9584572911262512,0.42706188559532166,1.2634705305099487,0.013542382046580315,0.9222171306610107,-0.25196459889411926,-0.368314653635025,-0.026131074875593185,0.14591439068317413,0.7310978770256042,-0.46016043424606323,0.07460407167673111,-0.8707179427146912,0.12951095402240753,0.03681239113211632,0.8634698987007141,-0.35881856083869934,-0.0012054545804858208,-0.16348601877689362,0.23049381375312805,1.6811813116073608,0.13556841015815735,-0.013138914480805397,0.22468341886997223,0.3100332021713257,-0.5687652230262756,0.011199388653039932,-0.3458418846130371,0.0178983211517334,1.5258574485778809,-0.9158423542976379,0.09322132170200348,-0.5112040638923645,-0.534829318523407,-0.9120849370956421,0.5870463848114014,-1.018370270729065,-1.2063028812408447,-6.365014553070068,1.279199242591858,-0.3280255198478699,1741516799.3196213,1741516798573,2.6013957519531252,-0.771205810546875,-2.508764287546051,2.6870151367187503,2.20899853515625
1741516799.4191658,1.4195124357938766,0.07955607147532873,0.04377344583512839,-0.995868825162798,0.5714660286903381,-0.20658506453037262,0.12894904613494873,2.8345935344696045,2.4521541595458984,5.1061835289001465,0.17185497283935547,0.21305370330810547,-0.024986648932099342,-1.224941611289978,0.005531395319849253,-0.9576943516731262,0.4217212200164795,1.2520263195037842,0.013542382046580315,0.918402373790741,-0.25654229521751404,-0.33169299364089966,-0.050164032727479935,0.1668955534696579,0.733386754989624,-0.46460267901420593,0.06504064798355103,-0.8443961143493652,0.09708552807569504,0.0394827201962471,0.7639048099517822,-0.3587772846221924,-0.008657600730657578,-0.16312941908836365,0.475820928812027,2.5913116931915283,-0.01852843537926674,-0.003377150744199753,-0.03475475683808327,-0.4461239278316498,-0.7319604158401489,-0.002983215730637312,-0.21916857361793518,-0.22791410982608795,1.6985738277435303,-1.2571264505386353,1.2279020547866821,0.274942547082901,-0.10323871672153473,-0.1425977349281311,1.4168816804885864,-1.7136372327804565,0.40414559841156006,-4.948275566101074,-0.29850494861602783,-0.29877206683158875,1741516799.3196213,1741516798573,2.6013957519531252,-0.771205810546875,-2.508764287546051,2.6870151367187503,2.20899853515625
1741516799.4391816,1.4214673936367035,0.0668944513210395,0.026688149080303848,-0.9974030655061796,0.8948149681091309,-0.6503826379776001,0.17788442969322205,1.6717249155044556,1.9236053228378296,1.9265249967575073,0.16346263885498047,0.22259140014648438,0.04139009863138199,-1.2260860204696655,0.005531395319849253,-0.959220290184021,0.404173344373703,1.2424894571304321,0.013542382046580315,0.918402373790741,-0.2569237947463989,-0.31452658772468567,-0.07801175117492676,0.20733195543289185,0.7722972631454468,-0.45045921206474304,0.07453962415456772,-0.7982375621795654,0.07000076025724411,0.08220797777175903,0.6754024624824524,-0.39859068393707275,-0.008685360662639141,-0.24282658100128174,0.2959752678871155,3.2569949626922607,-0.08723820000886917,-0.005002680700272322,-0.0187566839158535,-1.25600266456604,-0.5876705050468445,-0.007823551073670387,0.029722534120082855,0.05611830949783325,0.5620105862617493,-1.2835652828216553,1.9565961360931396,2.438311815261841,0.8656916618347168,0.3856968581676483,2.4943838119506836,-1.179111123085022,2.4035327434539795,-4.335346698760986,-2.2077476978302,0.10523254424333572,1741516799.532726,1741516798773,2.61818017578125,-0.623887451171875,-2.1134719525139345,2.505955322265625,2.410611083984375
1741516799.4680622,1.4306387156248093,0.052799122514807215,0.0026581991608154187,-0.9986016155799508,1.1683342456817627,-0.6973908543586731,0.580812931060791,-15.538680076599121,5.538113594055176,23.296281814575195,0.16308116912841797,0.21877670288085938,0.11234454810619354,-1.231045126914978,0.005531395319849253,-0.9588387608528137,0.37823301553726196,1.233715534210205,0.013160906732082367,0.9180209040641785,-0.25425344705581665,-0.33550775051116943,-0.08030059933662415,0.25272753834724426,0.8802548050880432,-0.42373335361480713,0.08347301185131073,-0.7616159319877625,0.05130846053361893,0.1363775134086609,0.6422140598297119,-0.402273565530777,0.0511433482170105,-0.0395682193338871,-0.12570400536060333,3.547795534133911,-0.3760271370410919,-0.02471119910478592,0.012743160128593445,-1.8326663970947266,-0.6286988258361816,-0.041396256536245346,-0.09107635170221329,0.04771596938371658,-1.3332061767578125,0.19416473805904388,2.2692878246307373,6.014172077178955,1.3391926288604736,0.25159716606140137,1.1239635944366455,-0.3886069357395172,2.042750358581543,-0.12658871710300446,1.0194313526153564,3.966360569000244,1741516799.532726,1741516798773,2.61818017578125,-0.623887451171875,-2.1134719525139345,2.505955322265625,2.410611083984375
1741516799.4805446,1.4394428133964539,0.04643392007098984,-0.005089767846000166,-0.9989083968663567,0.22875471413135529,-0.13124030828475952,0.5372247695922852,3.2105181217193604,-3.7149503231048584,2.412684202194214,0.13065528869628906,0.20542430877685547,0.1802472025156021,-1.2356228828430176,0.005149920005351305,-0.959220290184021,0.33093002438545227,1.227993369102478,0.014686808921396732,0.9096284508705139,-0.2588311731815338,-0.39806973934173584,-0.05283436179161072,0.28515297174453735,1.022926688194275,-0.4029812514781952,0.039175622165203094,-0.7673380374908447,0.04444190114736557,0.16079194843769073,0.7047760486602783,-0.33971744775772095,0.1340009570121765,-1.0434465408325195,-0.5494881272315979,3.5143320560455322,-0.1928630769252777,-0.0032184342853724957,-0.018793150782585144,-3.5655977725982666,-0.30420243740081787,0.09806645661592484,-0.43680140376091003,0.043182168155908585,-3.6099705696105957,1.23576819896698,1.3744888305664062,6.985896587371826,0.9544417858123779,-2.645747184753418,-0.10220742970705032,-1.0976660251617432,1.5429787635803223,2.6179659366607666,3.051759719848633,3.1496427059173584,1741516799.532726,1741516798773,2.61818017578125,-0.623887451171875,-2.1134719525139345,2.505955322265625,2.410611083984375
1741516799.4992912,1.461402788758278,0.0393235743505686,-0.0031035061982913783,-0.9992217095067403,-0.10483505576848984,-0.3212045729160309,1.0206013917922974,-1.0756757259368896,3.3932881355285645,12.323902130126953,0.13752174377441406,0.20733165740966797,0.24280919134616852,-1.23447847366333,0.005149920005351305,-0.959220290184021,0.2576867341995239,1.229519248008728,0.012779430486261845,0.9107728600502014,-0.23785001039505005,-0.4827573001384735,-0.037193864583969116,0.29812315106391907,1.1739909648895264,-0.41237255930900574,-0.00042895349906757474,-0.735675573348999,0.018120087683200836,0.1676585078239441,0.6921873688697815,-0.2903214693069458,0.12097010761499405,0.104684017598629,-0.013704263605177402,2.8136048316955566,0.14255797863006592,-0.08978909254074097,0.0045651462860405445,-5.045814514160156,0.2299572080373764,-0.11273755133152008,0.0769457221031189,0.9810549020767212,-4.297258377075195,0.8340820074081421,0.5036395192146301,7.323988437652588,-0.9162942171096802,-1.1557365655899048,2.0492751598358154,-1.4103771448135376,-0.023093413561582565,-0.9743556380271912,2.3481204509735107,-1.2692539691925049,1741516799.532726,1741516798773,2.61818017578125,-0.623887451171875,-2.1134719525139345,2.505955322265625,2.410611083984375
1741516799.5193174,1.4928960651159286,0.03374798037123728,-0.002218017041467799,-0.9994279134691338,-0.2094850391149521,-0.3201345205307007,1.7277498245239258,-4.237298011779785,0.5749830007553101,14.95394229888916,0.12874794006347656,0.19703197479248047,0.2943083941936493,-1.233715534210205,0.006294346414506435,-0.9561684727668762,0.17681391537189484,1.231045126914978,0.012779430486261845,0.9122987985610962,-0.2443350851535797,-0.5632486343383789,0.000572213320992887,0.2965972423553467,1.2979705333709717,-0.45605725049972534,0.004773696884512901,-0.7036316394805908,0.009727626107633114,0.16308079659938812,0.6879911422729492,-0.23013591766357422,0.09483789652585983,-0.25494325160980225,-0.21721266210079193,2.517585515975952,-0.019881855696439743,0.097136951982975,0.13577508926391602,-5.267032146453857,0.035276252776384354,0.004488144535571337,-0.037710051983594894,-0.47878018021583557,-3.8842692375183105,1.9589695930480957,0.07145348936319351,5.813384532928467,-2.2968506813049316,0.07974272221326828,1.2690939903259277,-0.37984222173690796,-0.00968234147876501,-0.04146062582731247,2.892716884613037,-1.1829140186309814,1741516799.532726,1741516798773,2.61818017578125,-0.623887451171875,-2.1134719525139345,2.505955322265625,2.410611083984375
1741516799.5393512,1.5335177779197693,0.02912729606156945,0.007721509101586156,-0.9995458863510649,-0.5722953081130981,-0.21709631383419037,1.9283441305160522,1.545400857925415,2.731712818145752,9.442720413208008,0.11387062072753906,0.19016551971435547,0.33665215969085693,-1.232571005821228,0.005149920005351305,-0.9573128819465637,0.11272602528333664,1.2340970039367676,0.013160906732082367,0.9115357995033264,-0.2447165697813034,-0.6418325901031494,0.046730753034353256,0.30155640840530396,1.3788433074951172,-0.5039144158363342,-0.00775334145873785,-0.6769283413887024,0.0013351644156500697,0.16422522068023682,0.6788357496261597,-0.18991719186306,0.09670393168926239,-0.4460064470767975,-0.18650372326374054,2.0864641666412354,0.10109054297208786,-0.033102020621299744,-0.043880391865968704,-4.2249650955200195,0.1780945211648941,0.0024682756047695875,-0.021595360711216927,0.15400782227516174,-3.965820074081421,2.399606704711914,0.1742767095565796,3.635711908340454,-2.3471360206604004,-0.5534400939941406,1.4620779752731323,-0.38691020011901855,-0.017972327768802643,-0.5181821584701538,1.8125412464141846,0.26050180196762085,1741516799.532726,1741516798773,2.61818017578125,-0.623887451171875,-2.1134719525139345,2.505955322265625,2.410611083984375
1741516799.55932,1.5658680498600006,0.027216461475339803,0.01705417352121711,-0.9994840766066609,-0.5349758863449097,-0.0833018496632576,1.4333873987197876,3.3862571716308594,4.236191749572754,12.319469451904297,0.12073707580566406,0.18482494354248047,0.3740367889404297,-1.2321895360946655,0.005149920005351305,-0.9576943516731262,0.058175019919872284,1.2340970039367676,0.013160906732082367,0.9115357995033264,-0.23899443447589874,-0.700579822063446,0.09517814964056015,0.2950713336467743,1.4032578468322754,-0.5478817820549011,-0.012035846710205078,-0.650225043296814,-0.005912871100008488,0.15430685877799988,0.6723506450653076,-0.16658805310726166,0.1183161810040474,0.14597782492637634,-0.15528859198093414,1.8172045946121216,-0.027935704216361046,-0.004526582546532154,-0.0499693788588047,-3.604557991027832,-0.03601028397679329,0.02217029593884945,-0.07264398038387299,0.2438736855983734,-2.6937215328216553,2.4437124729156494,-0.4541841745376587,0.70215904712677,-2.131227970123291,0.11573890596628189,1.1039050817489624,-0.4381925165653229,-0.5231066942214966,-0.22270047664642334,1.0769915580749512,1.108142614364624,1741516799.532726,1741516798773,2.61818017578125,-0.623887451171875,-2.1134719525139345,2.505955322265625,2.410611083984375
1741516799.5793428,1.584019035100937,0.026344695003473778,0.02944093849501164,-0.9992192893382847,-0.6843386888504028,0.001699236803688109,0.7364700436592102,3.766094207763672,6.0382513999938965,9.146318435668945,0.11654090881347656,0.17757701873779297,0.4068436622619629,-1.2340970039367676,0.005531395319849253,-0.9569314122200012,0.009727626107633114,1.233715534210205,0.013160906732082367,0.9119172692298889,-0.22526131570339203,-0.7307164072990417,0.13790340721607208,0.2798123061656952,1.3685435056686401,-0.5737627744674683,0.0022482187487185,-0.6361104846000671,-0.01888304017484188,0.14362554252147675,0.6765468716621399,-0.15710115432739258,0.129079207777977,-0.12008228898048401,-0.20890367031097412,1.656276822090149,-0.20255312323570251,0.011593923904001713,0.026863347738981247,-3.2438697814941406,0.06772516667842865,0.009253004565834999,0.05042225867509842,0.657136857509613,-1.5974754095077515,1.975529670715332,-0.5011407136917114,-2.2185935974121094,-1.0705519914627075,0.5036287903785706,1.0759789943695068,-0.667332649230957,-0.5161168575286865,0.36685386300086975,0.37435653805732727,0.3785610795021057,1741516799.532726,1741516798773,2.61818017578125,-0.623887451171875,-2.1134719525139345,2.505955322265625,2.410611083984375
1741516799.5993564,1.599098414182663,0.027897586230490917,0.03768917633234372,-0.9989000203573439,-0.3835087716579437,0.04642722010612488,0.8214684724807739,-1.0134602785110474,2.844399929046631,9.462418556213379,0.11234474182128906,0.17452526092529297,0.4491874575614929,-1.2409635782241821,0.005531395319849253,-0.9477760195732117,-0.05054550990462303,1.236767292022705,0.013542382046580315,0.9206912517547607,-0.22030213475227356,-0.7452124953269958,0.17223620414733887,0.25425344705581665,1.274319052696228,-0.5694931745529175,-0.01577301323413849,-0.6132219433784485,-0.035667963325977325,0.12836651504039764,0.6864652633666992,-0.15926504135131836,0.13384127616882324,-0.14670217037200928,-0.0827782079577446,2.0118658542633057,-0.4093509018421173,-0.01774681732058525,0.47145983576774597,-3.7607500553131104,0.11526062339544296,0.023379193618893623,0.662346363067627,0.12293900549411774,-0.4967905879020691,1.66155207157135,-1.3243463039398193,-5.1020965576171875,0.41413554549217224,-0.8561400771141052,1.0238240957260132,-0.8297777771949768,-0.7125438451766968,0.490197092294693,-0.1471373736858368,0.35066157579421997,1741516799.6348763,1741516798873,2.597556396484375,-0.5768794555664063,-1.9808833665116874,2.423443115234375,2.505916748046875
1741516799.619397,1.6128116846084595,0.030079660550433606,0.04132633870881268,-0.998692819514637,-0.18592625856399536,0.11516813933849335,0.6641684770584106,1.1919054985046387,-1.7773090600967407,7.446005344390869,0.11043739318847656,0.16918468475341797,0.4674982726573944,-1.2470670938491821,0.005912871100008488,-0.9374761581420898,-0.08907453715801239,1.2340970039367676,0.013160906732082367,0.9378576278686523,-0.22602425515651703,-0.7310978770256042,0.19359883666038513,0.2309834510087967,1.117914080619812,-0.5502198934555054,-0.008186879567801952,-0.6048294901847839,-0.04940108209848404,0.12455176562070847,0.7097352743148804,-0.16783903539180756,0.14128495752811432,-0.05785948410630226,-0.1363803595304489,0.7105116248130798,-0.4602096676826477,0.0003353404754307121,0.48532745242118835,-2.4140431880950928,-0.17129093408584595,-0.01697905920445919,1.0922574996948242,-0.4733017385005951,0.9134414196014404,0.9586738348007202,-1.0974607467651367,-8.060811996459961,0.9976548552513123,0.6050524711608887,0.3417528569698334,-0.6430655121803284,-0.09645627439022064,1.3150399923324585,-0.5379959940910339,0.3377692997455597,1741516799.6348763,1741516798873,2.597556396484375,-0.5768794555664063,-1.9808833665116874,2.423443115234375,2.505916748046875
1741516799.6394866,1.6306373476982117,0.03308100454038704,0.042402206445373784,-0.9985528028237479,-0.08490535616874695,0.004637741483747959,0.9089983701705933,-3.181871175765991,-3.4850504398345947,18.374116897583008,0.10395240783691406,0.16346263885498047,0.4674982726573944,-1.2512633800506592,0.005531395319849253,-0.9260318875312805,-0.10471503436565399,1.2283748388290405,0.013160906732082367,0.9538795948028564,-0.2576867341995239,-0.6960021257400513,0.20504310727119446,0.2740901708602905,1.0076676607131958,-0.48994988203048706,0.016348520293831825,-0.6013962030410767,-0.05092698708176613,0.1348516047000885,0.7402533292770386,-0.18879607319831848,0.1366754025220871,-0.17797735333442688,-0.12970079481601715,-0.058956265449523926,-0.15215572714805603,-0.018644893541932106,0.6342375874519348,-0.6436495780944824,-0.48811644315719604,0.002766238059848547,0.9830793142318726,-1.7190028429031372,1.8791929483413696,0.49189087748527527,3.9696507453918457,-2.822349786758423,3.8512227535247803,1.6098911762237549,0.32074713706970215,-0.20869886875152588,0.7859011888504028,1.4848195314407349,-1.167159914970398,-0.29102006554603577,1741516799.6348763,1741516798873,2.597556396484375,-0.5768794555664063,-1.9808833665116874,2.423443115234375,2.505916748046875
1741516799.6597617,1.6618089973926544,0.03541635501766855,0.033354525586032635,-0.9988158776372115,0.45030561089515686,0.19413426518440247,1.6149952411651611,1.2750295400619507,-4.957664966583252,8.86250114440918,0.10318946838378906,0.16193675994873047,0.44651713967323303,-1.2558410167694092,0.005912871100008488,-0.916113555431366,-0.08945601433515549,1.219982385635376,0.01125352829694748,0.9645609259605408,-0.2821011543273926,-0.6437399983406067,0.19130998849868774,0.3263523280620575,0.9767681360244751,-0.43992480635643005,0.0856049582362175,-0.5910963416099548,-0.037193864583969116,0.17376211285591125,0.7711527943611145,-0.22273017466068268,0.11221922188997269,0.00666544446721673,-0.13277575373649597,-1.4057328701019287,-0.43293607234954834,-0.013895656913518906,0.34203916788101196,1.2440797090530396,-0.5266951322555542,-0.08389249444007874,0.7552695870399475,-1.0188028812408447,2.292511224746704,-0.5291292667388916,1.4513071775436401,-2.7972960472106934,2.170285940170288,3.09773588180542,0.3352591097354889,1.0153474807739258,2.195427894592285,1.547722578048706,-1.788478970527649,-1.6039118766784668,1741516799.6348763,1741516798873,2.597556396484375,-0.5768794555664063,-1.9808833665116874,2.423443115234375,2.505916748046875
1741516799.679876,1.6907297372817993,0.04136646785526833,0.025013441475372412,-0.9988308881300864,0.36005011200904846,0.29634326696395874,1.3965630531311035,-1.8940297365188599,-16.433605194091797,15.90101432800293,0.09098148345947266,0.16308116912841797,0.39578089118003845,-1.2569855451583862,0.005531395319849253,-0.9149690866470337,-0.0551232174038887,1.212734341621399,0.01201647985726595,0.9676127433776855,-0.2973601818084717,-0.6006332635879517,0.16155488789081573,0.32063019275665283,0.9309910535812378,-0.3974781036376953,0.10085941851139069,-0.5876630544662476,-0.007057297509163618,0.2454795092344284,0.8127336502075195,-0.2643498182296753,0.058376140892505646,-0.36339208483695984,0.057992395013570786,-2.6885530948638916,-0.044661469757556915,0.010083530098199844,0.05820530280470848,2.1161746978759766,-0.4474647641181946,0.0450584851205349,0.11612111330032349,-0.4208836555480957,2.2820920944213867,-1.9616377353668213,-0.14341363310813904,-1.4126358032226562,2.100271463394165,-0.14086362719535828,0.22117671370506287,1.4721778631210327,3.5565147399902344,2.2656209468841553,-2.2142324447631836,-2.9793903827667236,1741516799.6348763,1741516798873,2.597556396484375,-0.5768794555664063,-1.9808833665116874,2.423443115234375,2.505916748046875
1741516799.700369,1.713187962770462,0.053204950647987914,0.02225629065327117,-0.9983355601965214,0.07732054591178894,0.4004128575325012,0.9061122536659241,-3.6405222415924072,-6.862777233123779,10.690241813659668,0.08068180084228516,0.15774059295654297,0.3435187339782715,-1.2562226057052612,0.005531395319849253,-0.9126802682876587,-0.022697795182466507,1.2108269929885864,0.012397955171763897,0.9664682745933533,-0.2786678969860077,-0.5655375123023987,0.12989242374897003,0.29926756024360657,0.9000915288925171,-0.37043604254722595,0.10045277327299118,-0.5903334021568298,0.02689402550458908,0.2954528033733368,0.881780743598938,-0.31065604090690613,0.0029436114709824324,-0.3140874207019806,-0.1428947001695633,-2.4493825435638428,0.06825479865074158,0.02908375859260559,0.1327192783355713,2.2282166481018066,0.02577473595738411,0.05706438794732094,-0.10133566707372665,1.2443749904632568,1.2811455726623535,-1.5052869319915771,-1.0703946352005005,-2.006394386291504,1.1539928913116455,0.49207907915115356,-0.2944285571575165,1.7567250728607178,1.992252230644226,3.599221706390381,-2.369124412536621,-2.814729928970337,1741516799.6348763,1741516798873,2.597556396484375,-0.5768794555664063,-1.9808833665116874,2.423443115234375,2.505916748046875
