Freshhhhh-LC/Legged_odom/data/4/segments/booster_seg_9.92s.csv
time,yaw,projected_gravity_x,projected_gravity_y,projected_gravity_z,ang_vel_x,ang_vel_y,ang_vel_z,lin_acc_x,lin_acc_y,lin_acc_z,q_0,q_1,q_2,q_3,q_4,q_5,q_6,q_7,q_8,q_9,q_10,q_11,q_12,q_13,q_14,q_15,q_16,q_17,q_18,q_19,q_20,q_21,q_22,dq_0,dq_1,dq_2,dq_3,dq_4,dq_5,dq_6,dq_7,dq_8,dq_9,dq_10,dq_11,dq_12,dq_13,dq_14,dq_15,dq_16,dq_17,dq_18,dq_19,dq_20,dq_21,dq_22,mocap_time,mocap_timestamp,robot_x,robot_y,robot_yaw,ball_x,ball_y
1741516763.0457735,-0.9941152334213257,0.05989398028546668,-0.05747714436211116,-0.9965485883796842,0.955856442451477,0.1062748059630394,0.4779408574104309,5.407388687133789,-9.041958808898926,7.898473739624023,0.7417793273925781,0.19779491424560547,0.1848248988389969,-1.3855427503585815,0.005531395319849253,-0.5357823967933655,0.1501106321811676,1.3313732147216797,0.012397955171763897,0.5479896068572998,-0.11768520623445511,-0.6685358881950378,-0.020027466118335724,0.1367589831352234,0.734149694442749,-0.3571831285953522,0.0033591981045901775,-0.6109330654144287,0.01430533267557621,0.07381551712751389,0.7578011751174927,-0.24565374851226807,-0.02668025717139244,-0.5659400224685669,-0.14973889291286469,-0.007309615612030029,-0.24211464822292328,0.010417398996651173,0.1247209832072258,0.12425084412097931,-0.9296999573707581,0.0034153852611780167,0.059540361166000366,-1.649057149887085,0.23645980656147003,-0.009867057204246521,1.8108937740325928,1.2793868780136108,-2.471240758895874,-0.28866973519325256,1.8088915348052979,-0.5936770439147949,0.7940119504928589,-1.0949516296386719,1.1889774799346924,0.37409403920173645,1741516763.0775836,1741516762253,-4.7622578125,-0.09710453796386719,-2.214245581894429,-0.5991585083007812,-1.304305908203125
1741516763.0477176,-0.9748040437698364,0.052934109366175645,-0.07821219882830241,-0.9955304274707287,0.41881462931632996,-0.046196747571229935,0.7381376028060913,-1.000787615776062,2.35530948638916,9.513832092285156,0.7120237350463867,0.18101024627685547,0.1844434291124344,-1.3870686292648315,0.005531395319849253,-0.5350194573402405,0.15621423721313477,1.312680959701538,0.012397955171763897,0.5457007884979248,-0.12569619715213776,-0.7032501697540283,-0.0024795911740511656,0.17261768877506256,0.8260852694511414,-0.3813903331756592,-0.012561601586639881,-0.5872815847396851,0.009727626107633114,0.0555046908557415,0.7089722752571106,-0.2299126833677292,-0.030380481854081154,-0.8269216418266296,-0.4889327883720398,-0.027482090517878532,0.07639762759208679,-0.005769393872469664,0.01960781216621399,0.27732306718826294,-0.6176267862319946,0.0065170289017260075,-0.051193851977586746,-0.14390766620635986,-1.6101619005203247,0.6057762503623962,0.6961389780044556,3.6440138816833496,-0.09021776169538498,-0.3297659158706665,1.6793758869171143,-0.6595401763916016,-0.946139931678772,-0.9322187900543213,0.5721093416213989,-0.27668535709381104,1741516763.0775836,1741516762253,-4.7622578125,-0.09710453796386719,-2.214245581894429,-0.5991585083007812,-1.304305908203125
1741516763.0626616,-0.3477891683578491,0.01156259732642437,-0.01012040858814352,-0.9998819348668502,-0.2743780314922333,0.3162817358970642,-0.6568877696990967,5.01485538482666,1.3334450721740723,5.830275058746338,-0.15278053283691406,0.07686710357666016,-0.02079041674733162,-1.2299007177352905,0.00667582219466567,-0.9660868048667908,0.4350728690624237,1.2474485635757446,0.013542382046580315,0.9069581031799316,0.09822995215654373,-0.43202105164527893,0.009727626107633114,0.09060044586658478,0.7990005612373352,-0.5472094416618347,-0.012717881239950657,-0.6708247661590576,-0.05436026677489281,-0.11310750246047974,0.8730067610740662,-0.44662991166114807,-0.06904355436563492,-0.36819133162498474,0.19147200882434845,3.168376922607422,-0.03331949561834335,0.16975493729114532,0.10452541708946228,-1.2829757928848267,-0.08256027847528458,0.011827279813587666,-0.15443389117717743,-0.1563820242881775,2.167937994003296,-1.6934521198272705,-2.0245141983032227,-1.0316675901412964,-0.15687204897403717,0.7039061784744263,1.5815154314041138,-0.868269145488739,1.258895993232727,-2.081294298171997,1.1710528135299683,-0.22418314218521118,1741516763.0775836,1741516762253,-4.7622578125,-0.09710453796386719,-2.214245581894429,-0.5991585083007812,-1.304305908203125
1741516763.0826745,-0.3667337894439697,0.01319740769909475,-0.00953359092252739,-0.9998674607537469,0.008043832145631313,0.10541384667158127,-1.0233935117721558,-10.685531616210938,0.7686627507209778,11.401751518249512,-0.13599586486816406,0.08030033111572266,0.04139009863138199,-1.235241413116455,0.005149920005351305,-0.9618905782699585,0.40989547967910767,1.2459226846694946,0.013542382046580315,0.9065766334533691,0.08258945494890213,-0.4015030264854431,-0.02727550081908703,0.05130846053361893,0.8031967878341675,-0.5338214039802551,-0.01926041580736637,-0.615129292011261,-0.04444190114736557,-0.08258945494890213,0.8390554785728455,-0.4267714321613312,-0.030602427199482918,0.47789624333381653,0.22604252398014069,3.3776016235351562,-0.48993149399757385,-0.03351734206080437,0.217115119099617,-1.8927645683288574,-0.15020719170570374,-0.014839225448668003,0.049635276198387146,-1.0854970216751099,1.4984078407287598,-1.606685757637024,-2.002142906188965,0.7219057679176331,1.0359419584274292,-0.27737122774124146,2.9795427322387695,0.922705888748169,0.9712282419204712,-0.9829884171485901,1.0388107299804688,1.3204383850097656,1741516763.0775836,1741516762253,-4.7622578125,-0.09710453796386719,-2.214245581894429,-0.5991585083007812,-1.304305908203125
1741516763.1027176,-0.37632298469543457,0.016225020902288712,-0.011127394026299182,-0.9998064461679089,0.029505804181098938,-0.08075930923223495,-0.4108648896217346,-2.0327444076538086,-4.20141077041626,6.104661464691162,-0.13942909240722656,0.08945560455322266,0.10814831405878067,-1.2543151378631592,0.005912871100008488,-0.9557870030403137,0.3686961233615875,1.2417265176773071,0.012779430486261845,0.9084840416908264,0.05664911866188049,-0.4091325104236603,-0.04329747334122658,0.024223696440458298,0.8672846555709839,-0.49281424283981323,-0.01746484637260437,-0.5876630544662476,-0.024605173617601395,-0.06809338182210922,0.8287556171417236,-0.4251585006713867,-0.04645935073494911,-0.01901954784989357,0.2786705493927002,3.1320242881774902,-1.2507405281066895,-0.0029756033327430487,0.2482331544160843,-2.615081787109375,-0.29838162660598755,0.019653834402561188,0.07252664119005203,-1.2147036790847778,-1.2905426025390625,-0.7753602266311646,-1.116331696510315,3.569035291671753,2.0550150871276855,0.13309618830680847,1.0808579921722412,0.7584020495414734,0.8901199102401733,-0.6436830163002014,-0.0657469630241394,-0.5983231067657471,1741516763.0775836,1741516762253,-4.7622578125,-0.09710453796386719,-2.214245581894429,-0.5991585083007812,-1.304305908203125
1741516763.1227481,-0.3755408525466919,0.01665544795263943,-0.007962550506261804,-0.999829582400387,-0.13595421612262726,0.17709140479564667,0.08873829990625381,-2.8766279220581055,-4.528666019439697,7.139435291290283,-0.14476966857910156,0.08792972564697266,0.17261768877506256,-1.2600373029708862,0.005149920005351305,-0.954261064529419,0.3213931620121002,1.2356228828430176,0.012397955171763897,0.9115357995033264,0.04177157208323479,-0.4724574685096741,-0.06160829961299896,0.01125352829694748,1.0038528442382812,-0.4489805996417999,-0.010176938027143478,-0.5533303022384644,-0.008964675478637218,-0.05970092490315437,0.8226520419120789,-0.42642465233802795,-0.040128376334905624,-0.13740043342113495,-0.027949539944529533,3.3165810108184814,-0.2946251928806305,0.03205785155296326,0.059043362736701965,-3.37607479095459,-0.4222490191459656,-0.06166655570268631,0.234890878200531,-0.6167051792144775,-3.4608957767486572,-1.0171905755996704,-0.7614869475364685,7.574741363525391,2.1538572311401367,0.5827963352203369,1.798290491104126,0.8371166586875916,0.23609386384487152,-0.23321881890296936,-0.04299255460500717,0.12645922601222992,1741516763.0775836,1741516762253,-4.7622578125,-0.09710453796386719,-2.214245581894429,-0.5991585083007812,-1.304305908203125
1741516763.1427767,-0.36281561851501465,0.01936761073813221,-0.0018072453261051109,-0.9998107968603998,-0.41329076886177063,0.04650593176484108,0.7029215097427368,-2.7060534954071045,-2.163102388381958,10.56555461883545,-0.13408851623535156,0.09708595275878906,0.2317463904619217,-1.2638521194458008,0.005531395319849253,-0.9523537158966064,0.2634088695049286,1.2371487617492676,0.013923857361078262,0.9115357995033264,0.040245670825242996,-0.5788891315460205,-0.08106355369091034,-0.007057297509163618,1.1774243116378784,-0.4239629805088043,0.009041438810527325,-0.5247195959091187,0.0024795911740511656,-0.06885633617639542,0.8081559538841248,-0.4304342269897461,-0.04082384705543518,0.2815021276473999,0.24768325686454773,2.907503843307495,-0.18712371587753296,-0.06595687568187714,0.12297426164150238,-3.8173587322235107,0.2154795229434967,0.14681141078472137,-0.07050719857215881,-0.018926143646240234,-5.590175151824951,-0.9898771643638611,-0.7705448865890503,8.3810396194458,0.9932076930999756,0.7571975588798523,1.3893312215805054,0.42423948645591736,-0.6267222166061401,-0.8101356625556946,-0.21338851749897003,-0.03811589255928993,1741516763.170705,1741516762353,-4.6818217773437505,-0.12373627471923829,-2.3299717969871647,-0.5590751342773438,-1.3045255126953126
1741516763.1627626,-0.33916163444519043,0.022146407272687227,0.01208075601885846,-0.9996817453464503,-0.7184138894081116,0.1575600951910019,1.183685541152954,0.7059738636016846,2.385030508041382,9.6996488571167,-0.13218116760253906,0.09899330139160156,0.28896772861480713,-1.2600373029708862,0.005531395319849253,-0.9473945498466492,0.20389868319034576,1.2436338663101196,0.013542382046580315,0.9115357995033264,0.04253452271223068,-0.691805899143219,-0.09746700525283813,-0.020027466118335724,1.3178073167800903,-0.42607954144477844,0.0032845409587025642,-0.49000534415245056,0.00858320016413927,-0.09555962681770325,0.7970931529998779,-0.4414128363132477,-0.04893200471997261,0.03460879251360893,0.0442713238298893,2.8983964920043945,0.30019861459732056,0.004931855946779251,0.24221375584602356,-4.02238655090332,0.3647018373012543,-0.03741626441478729,0.006426031235605478,0.14007219672203064,-5.549058437347412,-0.6613128781318665,-0.6228408813476562,6.416071891784668,-0.2503620386123657,-0.4487845301628113,1.7938920259475708,0.17790906131267548,-1.4398006200790405,-0.5856747627258301,-0.6312251091003418,-0.3845459222793579,1741516763.170705,1741516762353,-4.6818217773437505,-0.12373627471923829,-2.3299717969871647,-0.5590751342773438,-1.3045255126953126
1741516763.182802,-0.31578874588012695,0.024739931719830126,0.025033358009787527,-0.9993804414562314,-0.6730319261550903,0.08603807538747787,1.1626578569412231,1.0009710788726807,7.2198333740234375,10.00722599029541,-0.11730384826660156,0.09899330139160156,0.3427557647228241,-1.2562226057052612,0.005531395319849253,-0.9420538544654846,0.13981078565120697,1.2440153360366821,0.013542382046580315,0.9122987985610962,0.05664911866188049,-0.7852674126625061,-0.10013733059167862,-0.027656977996230125,1.3868544101715088,-0.4429207146167755,-0.003712768666446209,-0.4537651538848877,0.009346150793135166,-0.12188144028186798,0.7825970649719238,-0.4581340551376343,-0.048480838537216187,0.4138064682483673,-0.0002092635986628011,2.583885431289673,0.23639315366744995,-0.003917410969734192,0.20924709737300873,-4.224681854248047,0.03326667845249176,-0.00678373733535409,0.02104799821972847,0.8438805937767029,-4.501672267913818,-0.00443941680714488,-0.3299833834171295,2.8586201667785645,-0.8830639123916626,-0.1867133527994156,1.8036960363388062,0.05462463200092316,-1.2163389921188354,-0.7444473505020142,-0.8495051264762878,0.06038161367177963,1741516763.170705,1741516762353,-4.6818217773437505,-0.12373627471923829,-2.3299717969871647,-0.5590751342773438,-1.3045255126953126
1741516763.2028515,-0.30532217025756836,0.026148756379763598,0.03699340521070697,-0.9989733382381675,-0.5742105841636658,0.07872427254915237,0.470685213804245,0.9746889472007751,7.3510050773620605,7.068947792053223,-0.10090065002441406,0.09708595275878906,0.3881513774394989,-1.2550780773162842,0.005531395319849253,-0.9405279755592346,0.07724879682064056,1.2440153360366821,0.013923857361078262,0.9122987985610962,0.06466010212898254,-0.8562218546867371,-0.09060044586658478,-0.03376058489084244,1.3845654726028442,-0.45688682794570923,0.0012377474922686815,-0.41447317600250244,0.018120087683200836,-0.1363775134086609,0.7688639760017395,-0.4794132113456726,-0.0457308366894722,0.45594948530197144,-0.06849371641874313,2.2455806732177734,0.07465332746505737,0.006659534759819508,0.1104801669716835,-3.934018850326538,0.0069029624573886395,0.023658595979213715,0.03742669150233269,0.5228824615478516,-3.4052624702453613,0.6422334909439087,-0.14622323215007782,-0.5720449090003967,-0.5768793821334839,0.18164551258087158,1.953515887260437,0.5567502975463867,-0.5866612792015076,-0.6728560924530029,-1.1071573495864868,0.07555176317691803,1741516763.170705,1741516762353,-4.6818217773437505,-0.12373627471923829,-2.3299717969871647,-0.5590751342773438,-1.3045255126953126
1741516763.222838,-0.30699312686920166,0.028172024762902828,0.04316613175554312,-0.9986706274292949,-0.2529546022415161,0.10530399531126022,-0.09934777766466141,0.5527617335319519,-0.39807331562042236,9.13723087310791,-0.09288883209228516,0.09517860412597656,0.4343098998069763,-1.2581299543380737,0.005912871100008488,-0.9321355223655701,0.02384222112596035,1.2432523965835571,0.013542382046580315,0.9142061471939087,0.0722896158695221,-0.9039062857627869,-0.06275273114442825,-0.03490501269698143,1.3288700580596924,-0.453054279088974,-0.00604111747816205,-0.3866254687309265,0.03147173300385475,-0.13981078565120697,0.7524605393409729,-0.5055491328239441,-0.05050956457853317,0.23309162259101868,-0.0462452694773674,2.5148303508758545,-0.3464859426021576,-0.0002916388912126422,0.5416901111602783,-3.450392961502075,-0.057106755673885345,-0.0028329852502793074,0.155874103307724,0.18391139805316925,-2.167867422103882,1.5115665197372437,0.00010770826338557526,-3.124553680419922,0.3335925042629242,-0.40393438935279846,1.185706615447998,0.6264048218727112,-0.1506243795156479,-0.7769402265548706,-1.3010305166244507,-0.2879379689693451,1741516763.170705,1741516762353,-4.6818217773437505,-0.12373627471923829,-2.3299717969871647,-0.5590751342773438,-1.3045255126953126
1741516763.242884,-0.3042886257171631,0.0317492579185389,0.043315614285824575,-0.9985568297201035,0.012944763526320457,0.22172808647155762,0.13840897381305695,3.0852105617523193,-1.143215298652649,8.86902141571045,-0.08678531646728516,0.08602237701416016,0.47779813408851624,-1.2604187726974487,0.005531395319849253,-0.9214541912078857,-0.024986648932099342,1.2436338663101196,0.012779430486261845,0.9225986003875732,0.05741206929087639,-0.9313725233078003,-0.026512550190091133,-0.025749599561095238,1.2369344234466553,-0.4323110282421112,-0.007061217911541462,-0.3576333224773407,0.042153049260377884,-0.13904783129692078,0.7433050870895386,-0.5292513966560364,-0.05681683495640755,0.20905208587646484,-0.2581813633441925,1.8532912731170654,-0.025627633556723595,-0.010276727378368378,0.4728998839855194,-3.282308578491211,-0.037894804030656815,-0.04851977527141571,0.6940929293632507,-0.800264835357666,-1.098191738128662,1.8951514959335327,0.5442765951156616,-4.821991443634033,1.1293210983276367,0.10630318522453308,1.5486235618591309,0.3603634834289551,0.05591144040226936,-0.31639379262924194,-1.1096705198287964,-0.2236243039369583,1741516763.2828197,1741516762453,-4.60140234375,-0.14586024475097656,-2.1871989970609573,-0.519897705078125,-1.3105899658203126
1741516763.2628596,-0.29548919200897217,0.03927192215222815,0.04262212261898858,-0.99831912272275,0.02301415242254734,0.3663550019264221,0.47417545318603516,-1.1721738576889038,-1.4916115999221802,10.52470588684082,-0.07991886138916016,0.07228946685791016,0.49038681387901306,-1.2600373029708862,0.005531395319849253,-0.9180209040641785,-0.06389715522527695,1.23905611038208,0.013542382046580315,0.9363317489624023,0.03452353551983833,-0.9252689480781555,0.010109102353453636,-0.0036240178160369396,1.121347427368164,-0.4049101769924164,0.0006488267099484801,-0.33131152391433716,0.045204851776361465,-0.1363775134086609,0.7360570430755615,-0.5468624830245972,-0.0487116277217865,0.1915811449289322,-0.42443910241127014,0.4751470386981964,-0.05040315166115761,-0.0026131384074687958,0.1132892370223999,-2.2631566524505615,-0.3556588292121887,0.038613952696323395,0.8627750277519226,-1.1014186143875122,0.5591992139816284,1.8335587978363037,1.3307102918624878,-5.9203290939331055,1.3685171604156494,0.33689236640930176,1.3223086595535278,0.36335378885269165,0.08108994364738464,-0.42779186367988586,-0.7977169752120972,0.6106012463569641,1741516763.2828197,1741516762453,-4.60140234375,-0.14586024475097656,-2.1871989970609573,-0.519897705078125,-1.3105899658203126
1741516763.282942,-0.2836785316467285,0.04701758247100035,0.04175419508545057,-0.9980210088627137,0.010833953507244587,0.28018566966056824,0.5625110268592834,6.185938835144043,0.022844187915325165,3.247007131576538,-0.07686710357666016,0.06694889068603516,0.4892423748970032,-1.2592743635177612,0.005531395319849253,-0.918402373790741,-0.07763027399778366,1.2314265966415405,0.012397955171763897,0.9500648379325867,0.014686808921396732,-0.9084840416908264,0.03528648987412453,0.03795681521296501,0.9843976497650146,-0.38694965839385986,0.003389189252629876,-0.2912565767765045,0.06580453366041183,-0.12760357558727264,0.7238498330116272,-0.5580841898918152,-0.028911110013723373,0.10091201215982437,-0.16046178340911865,-0.11000628024339676,0.07824380695819855,-0.004934713244438171,-0.020147526636719704,-0.7217861413955688,-0.48786377906799316,-0.019208787009119987,0.880800187587738,-0.9754741191864014,0.9793915748596191,1.1581134796142578,2.0489895343780518,-6.923888683319092,0.6839928030967712,0.19470016658306122,2.1977643966674805,1.1168924570083618,0.6585867404937744,-0.6282767057418823,-0.43271008133888245,1.232979655265808,1741516763.2828197,1741516762453,-4.60140234375,-0.14586024475097656,-2.1871989970609573,-0.519897705078125,-1.3105899658203126
1741516763.3029058,-0.2695728540420532,0.04879348042987878,0.043068792389271325,-0.9978798902621843,-0.12691694498062134,9.448591299587861e-05,0.6980017423629761,-2.588419198989868,2.868518352508545,5.722505569458008,-0.07534122467041016,0.061226844787597656,0.4728389382362366,-1.2554595470428467,0.005531395319849253,-0.9210727214813232,-0.06885633617639542,1.2253230810165405,0.012779430486261845,0.9588387608528137,0.010872052982449532,-0.8688105344772339,0.0711451917886734,0.07457847148180008,0.8539330363273621,-0.39375174045562744,0.006135913543403149,-0.23594263195991516,0.0871671661734581,-0.11654078215360641,0.7070649266242981,-0.554114580154419,-0.03629867359995842,0.04221126064658165,-0.22478951513767242,-0.9885933995246887,0.276004433631897,-0.010134251788258553,-0.16302600502967834,0.8020734190940857,-0.4241059124469757,0.005199945531785488,0.5348557233810425,-0.09668425470590591,2.0262975692749023,1.6498017311096191,1.5923742055892944,-6.309340476989746,-0.5691996812820435,0.11581835895776749,2.8404738903045654,1.0771958827972412,0.32702744007110596,-0.6056334376335144,0.40666791796684265,-1.0266516208648682,1741516763.2831156,1741516762553,-4.5167900390625,-0.1566505126953125,-2.3937653820788514,-0.4800792846679688,-1.3252199707031251
1741516763.3229618,-0.26354408264160156,0.038213550318049586,0.04992935857646048,-0.9980214345014004,-0.42174968123435974,-0.7417202591896057,0.2165503203868866,-19.342100143432617,10.931634902954102,23.150482177734375,-0.07495975494384766,0.09098148345947266,0.4507133662700653,-1.2535521984100342,0.005149920005351305,-0.9199283123016357,-0.04940108209848404,1.2218897342681885,0.012779430486261845,0.960746169090271,0.013542382046580315,-0.8257037997245789,0.0879301130771637,0.08144503086805344,0.8375295400619507,-0.3794044554233551,-0.0027315164916217327,-0.19092851877212524,0.09403372555971146,-0.11768520623445511,0.7234683632850647,-0.5410282611846924,-0.06991488486528397,0.012613608501851559,0.9024088382720947,-1.1363245248794556,0.18976785242557526,-0.0139427799731493,0.18698839843273163,1.360234022140503,-0.06226149946451187,0.012962552718818188,0.015302282758057117,0.23933079838752747,2.4129486083984375,0.5332279801368713,0.019049199298024178,1.1321756839752197,0.920417070388794,-0.5796874165534973,1.979921579360962,-0.10005836933851242,0.033776648342609406,1.2500313520431519,0.5165015459060669,-1.3327678442001343,1741516763.2831156,1741516762553,-4.5167900390625,-0.1566505126953125,-2.3937653820788514,-0.4800792846679688,-1.3252199707031251
1741516763.34294,-0.2640596628189087,0.03575652664058965,0.046661773644787616,-0.9982705793936448,0.19391904771327972,-0.21620485186576843,-0.23346954584121704,-4.353786945343018,-5.2338080406188965,3.4759669303894043,-0.060463905334472656,0.08411502838134766,0.4037918746471405,-1.2550780773162842,0.005912871100008488,-0.9206912517547607,-0.018120087683200836,1.2306636571884155,0.013160906732082367,0.959983229637146,0.039101243019104004,-0.8005264401435852,0.08297093212604523,0.048638131469488144,0.8760585784912109,-0.3593670427799225,-0.05286940187215805,-0.19474326074123383,0.1031891331076622,-0.12111848592758179,0.8005264401435852,-0.5158476233482361,-0.08017083257436752,0.5047513842582703,0.00993307214230299,-2.569636821746826,-0.36065030097961426,0.01962541602551937,-0.13770489394664764,2.1315436363220215,0.47643688321113586,0.0334477461874485,-0.06836339831352234,1.1849595308303833,0.8556748032569885,-0.27136775851249695,-2.045954465866089,1.0661654472351074,0.8246344923973083,-2.268004894256592,-1.0691170692443848,0.523003101348877,-0.20831634104251862,4.612678527832031,1.5723865032196045,-0.38848069310188293,1741516763.3848293,1741516762653,-4.4206875,-0.17454254150390625,-2.4993708749403254,-0.44756182861328125,-1.333342529296875
1741516763.3629868,-0.27111828327178955,0.033249261522540194,0.04723283976006609,-0.9983303789109124,-0.05597403272986412,0.029157079756259918,-0.3663365840911865,-3.4064149856567383,-2.5690829753875732,9.025724411010742,-0.07572269439697266,0.07228946685791016,0.33321890234947205,-1.2596558332443237,0.005149920005351305,-0.924887478351593,0.01506828423589468,1.23447847366333,0.013160906732082367,0.9588387608528137,0.05855649709701538,-0.7658121585845947,0.0711451917886734,0.011635004542768002,0.8669031858444214,-0.34722450375556946,-0.05291250720620155,-0.2607385218143463,0.10700388997793198,-0.10662241280078888,0.9584572911262512,-0.4726926386356354,-0.08492600172758102,-0.3987595736980438,-0.337247371673584,-3.606931209564209,-0.17411677539348602,-0.06076747924089432,-0.12120158970355988,2.332367181777954,0.26824650168418884,-0.01635735295712948,-0.0009935471462085843,0.9951104521751404,2.141794443130493,-0.8506624698638916,-1.604552984237671,-0.10683537274599075,0.6352545619010925,0.8421633243560791,-3.68483567237854,0.11184944212436676,0.8569164872169495,8.650755882263184,2.2167086601257324,-0.2785665690898895,1741516763.3848293,1741516762653,-4.4206875,-0.17454254150390625,-2.4993708749403254,-0.44756182861328125,-1.333342529296875
1741516763.3830218,-0.2909287214279175,0.032814798345124456,0.046282401787151574,-0.9983892669166577,0.1563379168510437,-0.05516301840543747,-1.0177397727966309,-1.0908669233322144,1.572927713394165,10.76648998260498,-0.06351566314697266,0.07381534576416016,0.2618829607963562,-1.2554595470428467,0.005531395319849253,-0.9206912517547607,0.051689937710762024,1.2455412149429321,0.013542382046580315,0.9580758213996887,0.06580453366041183,-0.7433050870895386,0.05741206929087639,0.0009536888683214784,0.8733882904052734,-0.3346996009349823,-0.02388322539627552,-0.38242924213409424,0.11081864684820175,-0.09555962681770325,1.1655985116958618,-0.4279216229915619,-0.0839015319943428,0.2353183627128601,0.037915948778390884,-3.6018850803375244,0.357311487197876,0.014081393368542194,0.2845766842365265,2.533600330352783,0.6929405331611633,0.06941342353820801,-0.08484110981225967,0.3203701674938202,0.8952655792236328,-0.22350762784481049,-0.7318682670593262,0.229708731174469,0.5248273015022278,1.0254091024398804,-6.61403226852417,0.09761538356542587,0.4088402986526489,10.187954902648926,2.115328550338745,0.3507579267024994,1741516763.3848293,1741516762653,-4.4206875,-0.17454254150390625,-2.4993708749403254,-0.44756182861328125,-1.333342529296875
1741516763.4030354,-0.3158375024795532,0.03148118226801706,0.04220847173996005,-0.9986127277760808,0.22768214344978333,0.050946325063705444,-1.1949958801269531,0.7608024477958679,-2.7214298248291016,11.927205085754395,-0.06847476959228516,0.06923770904541016,0.18558785319328308,-1.2485930919647217,0.005531395319849253,-0.9210727214813232,0.09937438368797302,1.2524077892303467,0.013542382046580315,0.9580758213996887,0.06580453366041183,-0.7104982137680054,0.061226826161146164,-0.00667582219466567,0.8772030472755432,-0.3326278030872345,-0.03443579748272896,-0.5167086124420166,0.11425192654132843,-0.09670405089855194,1.346036434173584,-0.4076065123081207,-0.027602707967162132,-0.14908857643604279,-0.1102149561047554,-3.909701108932495,0.44424086809158325,0.005873022601008415,-0.0674334317445755,3.237919569015503,0.43300962448120117,-0.06781826913356781,0.006065706722438335,0.007788540795445442,1.7726036310195923,0.12194178998470306,-0.06517228484153748,0.11406038701534271,0.013985587283968925,-0.46150535345077515,-6.534505367279053,0.07412735372781754,-0.15903010964393616,8.605683326721191,0.795671820640564,3.108206033706665,1741516763.3848293,1741516762653,-4.4206875,-0.17454254150390625,-2.4993708749403254,-0.44756182861328125,-1.333342529296875
1741516763.4245598,-0.3414297103881836,0.02840053014362104,0.03670732996113385,-0.9989224103075702,0.3656054437160492,-0.19281958043575287,-1.2879350185394287,3.5373334884643555,0.18829157948493958,11.122309684753418,-0.07495975494384766,0.07534122467041016,0.10585946589708328,-1.2428709268569946,0.005531395319849253,-0.9233615398406982,0.15926603972911835,1.2558410167694092,0.013160906732082367,0.9565499424934387,0.06237125024199486,-0.6708247661590576,0.06847485899925232,-0.00019073777366429567,0.8745326995849609,-0.34057408571243286,-0.0380849614739418,-0.6364919543266296,0.10624094307422638,-0.11120012402534485,1.4490348100662231,-0.42537668347358704,-0.005206886678934097,-0.216818705201149,0.19865810871124268,-3.9927732944488525,0.2731741964817047,0.00019360434089321643,-0.09895997494459152,4.057697772979736,0.1581064611673355,0.01488561276346445,-0.11183857917785645,-0.22999893128871918,1.9232980012893677,0.3743096888065338,0.3136877417564392,-0.17498040199279785,-0.4486044645309448,-0.20985443890094757,-5.697691917419434,-0.3769562542438507,-0.7809799909591675,4.5034074783325195,-1.239946722984314,0.5398869514465332,1741516763.3848293,1741516762653,-4.4206875,-0.17454254150390625,-2.4993708749403254,-0.44756182861328125,-1.333342529296875
1741516763.4430609,-0.36371421813964844,0.023541683848628113,0.028543664921373047,-0.9993152897431459,0.41342708468437195,-0.16028502583503723,-1.0093075037002563,2.5077617168426514,-2.4748446941375732,8.96631145477295,-0.07419681549072266,0.07801151275634766,0.03528648987412453,-1.2424894571304321,0.005531395319849253,-0.924124538898468,0.22678720951080322,1.2558410167694092,0.013160906732082367,0.954261064529419,0.05397878959774971,-0.6250476837158203,0.07915617525577545,0.0078202486038208,0.8684290647506714,-0.358285516500473,-0.05198303610086441,-0.7230868935585022,0.09212634712457657,-0.12188144028186798,1.4620050191879272,-0.46872106194496155,-0.0028935044538229704,0.0447174571454525,0.049424752593040466,-3.2955586910247803,0.0351685956120491,-0.016633231192827225,-0.01631268300116062,4.5870490074157715,0.01523908507078886,-0.010890153236687183,-0.14674168825149536,-0.3283084034919739,2.41294264793396,0.6105185151100159,0.5345077514648438,-0.35587960481643677,-0.949823260307312,-0.7365726232528687,-3.963498592376709,-0.8079065680503845,-0.3453677296638489,0.027372797951102257,-2.23588490486145,0.29522964358329773,1741516763.479157,1741516762753,-4.3294560546875,-0.21737788391113283,-2.5202609406524337,-0.41944744873046874,-1.3401163330078125
1741516763.4630892,-0.3695068359375,0.020570116204101336,0.023215883636248536,-0.9995188307712556,0.2562829256057739,-0.1336551159620285,-0.24551039934158325,3.1177608966827393,-1.5297787189483643,7.574183940887451,-0.08144474029541016,0.07381534576416016,-0.01926451548933983,-1.2417265176773071,0.005531395319849253,-0.924124538898468,0.2965972423553467,1.2550780773162842,0.012779430486261845,0.9538795948028564,0.040627144277095795,-0.5827038884162903,0.0871671661734581,0.01583123579621315,0.8546959757804871,-0.3831515312194824,-0.06661862134933472,-0.7845044732093811,0.06961929053068161,-0.11539635062217712,1.4105058908462524,-0.5079641342163086,0.00551161915063858,-0.1803494542837143,-0.07982145249843597,-2.549375295639038,0.02244291827082634,-0.02575058303773403,0.0033996107522398233,4.5774312019348145,-0.06386912614107132,-0.004118486773222685,-0.05326172336935997,-0.744515061378479,1.8687504529953003,0.37069177627563477,0.4156312942504883,-0.6972669959068298,-1.23911714553833,-0.7154831290245056,-2.8913846015930176,-1.274416208267212,0.45875343680381775,-2.905836343765259,-1.785893440246582,0.30360326170921326,1741516763.479157,1741516762753,-4.3294560546875,-0.21737788391113283,-2.5202609406524337,-0.41944744873046874,-1.3401163330078125
1741516763.4831274,-0.3676799535751343,0.02170828811565982,0.017550297072358747,-0.9996102927139954,0.2942458987236023,0.19706355035305023,0.06350863724946976,3.4439704418182373,-3.408907890319824,5.2260003089904785,-0.08220767974853516,0.060463905334472656,-0.08144503086805344,-1.2440153360366821,0.005531395319849253,-0.9298466444015503,0.3599221706390381,1.2550780773162842,0.013160906732082367,0.9508277773857117,0.032616160809993744,-0.541886031627655,0.09060044586658478,0.016975661739706993,0.84897381067276,-0.4098372459411621,-0.0729774758219719,-0.8318074345588684,0.0398641936480999,-0.10013733059167862,1.3258183002471924,-0.5142480134963989,0.014069478027522564,-0.04727158322930336,-0.41938865184783936,-3.0991480350494385,-0.17080195248126984,-0.0021361089311540127,-0.4525516927242279,4.21853494644165,-0.012041700072586536,0.016407089307904243,-0.2798498570919037,-0.20957863330841064,2.0633385181427,0.1541670262813568,0.057891327887773514,-0.22833478450775146,-1.3228611946105957,-0.24567532539367676,-2.369178056716919,-1.4959019422531128,0.8172592520713806,-4.291647911071777,0.040136419236660004,0.4217956066131592,1741516763.479157,1741516762753,-4.3294560546875,-0.21737788391113283,-2.5202609406524337,-0.41944744873046874,-1.3401163330078125
1741516763.5031316,-0.3661891222000122,0.028561877766047506,0.011891786235009449,-0.9995212876965743,0.22915087640285492,0.3786104619503021,-0.008997070603072643,-1.6789724826812744,0.8213528394699097,9.482782363891602,-0.07953739166259766,0.043679237365722656,-0.12684062123298645,-1.2432523965835571,0.005531395319849253,-0.9451056718826294,0.4217212200164795,1.2581299543380737,0.013923857361078262,0.9412909150123596,0.04253452271223068,-0.5109865069389343,0.09174486994743347,0.01888304017484188,0.8405813574790955,-0.4387158751487732,-0.0748404785990715,-0.8661402463912964,-0.0009536888683214784,-0.07839322835206985,1.2148088216781616,-0.484531968832016,0.01580677181482315,0.09143156558275223,-0.5617478489875793,-2.0474741458892822,0.10909932851791382,0.00704335980117321,-0.7230643630027771,4.226724624633789,0.25892406702041626,0.04722979664802551,-0.7460981011390686,0.8002777099609375,1.4652365446090698,0.016402095556259155,0.10958389192819595,-0.3106957674026489,-1.424078106880188,-0.17459045350551605,-1.4378383159637451,-2.162841320037842,1.1304165124893188,-5.7346978187561035,1.6797996759414673,0.07842131704092026,1741516763.479157,1741516762753,-4.3294560546875,-0.21737788391113283,-2.5202609406524337,-0.41944744873046874,-1.3401163330078125
1741516763.523165,-0.3729172945022583,0.039799505906059136,0.009579583156591583,-0.9991617641384098,0.12300866842269897,0.5710775852203369,-0.3523832857608795,5.079988479614258,-0.843241274356842,6.620639801025391,-0.07763004302978516,0.037575721740722656,-0.14324407279491425,-1.239819049835205,0.005531395319849253,-0.959220290184021,0.4667353332042694,1.2588928937911987,0.013923857361078262,0.9290837049484253,0.07724879682064056,-0.4873350262641907,0.0879301130771637,0.010490577667951584,0.840962827205658,-0.46750861406326294,-0.0734267309308052,-0.8703364729881287,-0.048638131469488144,-0.06847485899925232,1.0782406330108643,-0.44051945209503174,0.013747689314186573,0.04473439231514931,-0.21688182651996613,-0.6534073948860168,0.21585190296173096,0.010045780800282955,-0.7184187769889832,2.6756057739257812,-0.003878718940541148,0.01208936981856823,-0.7518463134765625,1.9325135946273804,1.2502894401550293,-0.3106854259967804,-0.5962116122245789,0.03637407347559929,-1.409759521484375,0.18001122772693634,-0.08578639477491379,-2.384993314743042,0.16180041432380676,-7.306900501251221,2.1950316429138184,-0.16800987720489502,1741516763.479157,1741516762753,-4.3294560546875,-0.21737788391113283,-2.5202609406524337,-0.41944744873046874,-1.3401163330078125
1741516763.5431807,-0.3846108913421631,0.0466267406380647,0.005870097779168341,-0.998895134140483,0.2359468638896942,0.3388039171695709,-0.6209993362426758,0.3844412863254547,-2.3924102783203125,8.550451278686523,-0.07610416412353516,0.037194252014160156,-0.1325627565383911,-1.2340970039367676,0.005149920005351305,-0.968757152557373,0.4888609051704407,1.2585114240646362,0.013542382046580315,0.9187838435173035,0.12188144028186798,-0.46063172817230225,0.06694895774126053,-0.016975661739706993,0.8390554785728455,-0.49381333589553833,-0.06585683673620224,-0.8485923409461975,-0.09975585341453552,-0.0879301130771637,0.9084840416908264,-0.3969251215457916,0.0012656243052333593,0.04287736490368843,-0.039358898997306824,0.759130597114563,0.42595797777175903,-0.013728062622249126,-0.38952699303627014,1.326387643814087,-0.03579104691743851,-0.018871160224080086,-0.6522620916366577,2.24462890625,1.565321683883667,-1.3677371740341187,-1.3924652338027954,-0.059779852628707886,-1.2800542116165161,0.4946858286857605,1.3227311372756958,-2.595212459564209,-1.135261058807373,-8.651803016662598,2.2815306186676025,-0.7600502967834473,1741516763.5895388,1741516762853,-4.23154248046875,-0.27500225830078123,-2.4295589870235617,-0.40183444213867187,-1.339548828125
1741516763.563245,-0.40120255947113037,0.04396662595284363,0.0034585362984653617,-0.9990270138134378,0.03977583721280098,-0.2447187751531601,-0.965499222278595,-4.184235095977783,-0.1876244693994522,11.923995971679688,-0.07267093658447266,0.061608314514160156,-0.09899290651082993,-1.225704550743103,0.005149920005351305,-0.9721904397010803,0.49343863129615784,1.2535521984100342,0.013923857361078262,0.9058136940002441,0.152399480342865,-0.41103988885879517,0.04940108209848404,-0.043678950518369675,0.8352407217025757,-0.5152281522750854,-0.03963448852300644,-0.8054856061935425,-0.12569619715213776,-0.16079194843769073,0.890554666519165,-0.3309364318847656,-0.008808746933937073,0.11169478297233582,0.899476170539856,1.845442771911621,0.5010594129562378,-0.03432164713740349,-0.13555045425891876,-0.016135308891534805,-0.39271363615989685,0.03332904353737831,-0.9571914672851562,0.9805654883384705,2.389620065689087,-0.7435779571533203,-1.4283480644226074,-0.46692678332328796,-1.1162251234054565,1.9428715705871582,2.7649452686309814,-0.3084957003593445,-3.924971580505371,0.3223661184310913,2.8378121852874756,-0.7942641973495483,1741516763.5895388,1741516762853,-4.23154248046875,-0.27500225830078123,-2.4295589870235617,-0.40183444213867187,-1.339548828125
1741516763.5832686,-0.41797971725463867,0.04491296433885347,0.005605547769554494,-0.9989751766027524,-0.05918930843472481,0.1377324014902115,-0.7024219632148743,5.407405376434326,0.22312620282173157,11.286147117614746,-0.08106327056884766,0.051690101623535156,-0.0398641936480999,-1.2211267948150635,0.005149920005351305,-0.9710460305213928,0.46330204606056213,1.2501189708709717,0.013160906732082367,0.9039062857627869,0.1497291475534439,-0.3576333224773407,0.03795681521296501,-0.06923781335353851,0.8314259648323059,-0.5198982954025269,0.004695066716521978,-0.7406347990036011,-0.1199740618467331,-0.16041046380996704,0.8772030472755432,-0.3153541684150696,-0.031156286597251892,-0.18137922883033752,-0.1993468701839447,3.178968906402588,0.22755512595176697,0.01563142240047455,0.07034103572368622,-2.2674152851104736,-0.1934090256690979,-0.08611618727445602,-0.03693656995892525,-0.15355351567268372,2.7873265743255615,-0.4556482434272766,-1.509431004524231,0.18182015419006348,0.2271624207496643,1.2729710340499878,2.7724647521972656,0.11106065660715103,0.794956386089325,-1.2647850513458252,0.5505051016807556,-0.7292823195457458,1741516763.5895388,1741516762853,-4.23154248046875,-0.27500225830078123,-2.4295589870235617,-0.40183444213867187,-1.339548828125
1741516763.6032727,-0.4343867301940918,0.041637904306976024,0.007442868610330268,-0.9991050438426246,-0.041334494948387146,-0.14327238500118256,-0.8370169401168823,-6.146341800689697,-2.1971147060394287,13.669516563415527,-0.06504154205322266,0.06389713287353516,0.02536812424659729,-1.2253230810165405,0.00476844422519207,-0.9699015617370605,0.421339750289917,1.2485930919647217,0.013923857361078262,0.9031433463096619,0.1363775134086609,-0.3393225073814392,0.03032730519771576,-0.09327077120542526,0.8844510316848755,-0.489749938249588,-0.0004983536782674491,-0.689517080783844,-0.08869306743144989,-0.1337071806192398,0.8634698987007141,-0.3128502368927002,-0.029514042660593987,0.38562747836112976,0.38793399930000305,3.0768134593963623,-0.42475461959838867,-0.09463761746883392,0.025239231064915657,-2.8964474201202393,-0.14148953557014465,0.07919396460056305,0.039260029792785645,-0.8512176275253296,0.34050077199935913,-0.28510183095932007,-1.1829408407211304,3.224266767501831,1.6923837661743164,-0.00974672008305788,2.8265132904052734,2.0524678230285645,1.0052893161773682,-0.10640151053667068,0.11080542206764221,0.10805564373731613,1741516763.5895388,1741516762853,-4.23154248046875,-0.27500225830078123,-2.4295589870235617,-0.40183444213867187,-1.339548828125
1741516763.6232827,-0.43449437618255615,0.03798451079311812,0.01072434950082177,-0.9992207790411445,-0.18638718128204346,-0.24805092811584473,0.15984031558036804,-3.9561352729797363,2.1186492443084717,8.953536987304688,-0.06923770904541016,0.07763004302978516,0.08525978773832321,-1.2417265176773071,0.005531395319849253,-0.970283031463623,0.368314653635025,1.2489745616912842,0.012779430486261845,0.9046692848205566,0.11615930497646332,-0.38128480315208435,0.010109102353453636,-0.09861142933368683,1.030937671661377,-0.446062833070755,0.006482526659965515,-0.6433585286140442,-0.05092698708176613,-0.10700388997793198,0.8539330363273621,-0.32278990745544434,-0.0325578898191452,-0.05773784965276718,0.5311751961708069,2.8779137134552,-1.0712759494781494,-0.06699316948652267,-0.015042072162032127,-3.443250894546509,0.054032426327466965,-0.039508234709501266,0.093477264046669,-0.9921345114707947,-2.803025007247925,-1.0706369876861572,-0.19869183003902435,7.871306896209717,2.219557523727417,0.5242566466331482,2.0869617462158203,1.5757156610488892,1.441624402999878,-0.7515093684196472,-0.6163425445556641,-0.10139863938093185,1741516763.5895388,1741516762853,-4.23154248046875,-0.27500225830078123,-2.4295589870235617,-0.40183444213867187,-1.339548828125
1741516763.6433146,-0.41787493228912354,0.03612242281164351,0.013518999571960524,-0.9992559267879225,-0.15665316581726074,-0.010386412963271141,0.9407817721366882,-7.621041774749756,5.469242572784424,14.218687057495117,-0.06504154205322266,0.07610416412353516,0.14248111844062805,-1.2527892589569092,0.005531395319849253,-0.9699015617370605,0.31414511799812317,1.2474485635757446,0.012779430486261845,0.9061951637268066,0.09632257372140884,-0.4827573001384735,-0.02079041674733162,-0.09288929402828217,1.2247272729873657,-0.40339425206184387,0.010281560011208057,-0.6006332635879517,-0.02841992862522602,-0.09784847497940063,0.840962827205658,-0.3331753611564636,-0.02895965799689293,0.092961385846138,-0.016573917120695114,2.681669235229492,-0.7532351016998291,0.015603277832269669,0.007490871008485556,-3.732116222381592,-0.12035120278596878,-0.025555619969964027,0.10455776005983353,-0.9959231019020081,-5.2228007316589355,-1.6803674697875977,0.38614705204963684,9.896833419799805,1.9556047916412354,-0.023423966020345688,2.2360310554504395,1.0362038612365723,0.28510624170303345,-0.5077229738235474,-0.46936801075935364,0.1500755250453949,1741516763.687893,1741516762953,-4.13521484375,-0.32345465087890624,-2.545897005802619,-0.37699945068359375,-1.3447893066406251
1741516763.6633768,-0.3913341760635376,0.038137762419230746,0.01654010501908044,-0.9991355944032883,-0.20754393935203552,0.021357934921979904,1.352302074432373,1.4815280437469482,4.015895366668701,13.764415740966797,-0.055123329162597656,0.07457828521728516,0.1989395022392273,-1.2615631818771362,0.005531395319849253,-0.9699015617370605,0.248531311750412,1.2455412149429321,0.012779430486261845,0.9092469811439514,0.07724879682064056,-0.5960555672645569,-0.05397878959774971,-0.08068207651376724,1.3971542119979858,-0.39015093445777893,0.004731826018542051,-0.5601968169212341,-0.02727550081908703,-0.1039520874619484,0.8245593905448914,-0.3411102294921875,-0.025433886796236038,0.2896505296230316,-0.04831521958112717,2.709750175476074,-0.4902394711971283,-0.009738527238368988,0.010610750876367092,-4.455430507659912,-0.16613371670246124,0.010252411477267742,0.2164740264415741,-1.0024913549423218,-5.678116798400879,-1.620559811592102,0.7304390072822571,8.254639625549316,0.3512718975543976,-0.13819466531276703,1.902125597000122,-0.027242561802268028,-0.46693503856658936,-0.958125650882721,-0.3837544918060303,0.40031909942626953,1741516763.687893,1741516762953,-4.13521484375,-0.32345465087890624,-2.545897005802619,-0.37699945068359375,-1.3447893066406251
1741516763.6834347,-0.3655436038970947,0.03821978934350149,0.017342149466859982,-0.9991188605738597,-0.07025653123855591,0.059800948947668076,1.2826591730117798,0.16013146936893463,-2.3600902557373047,10.424177169799805,-0.045968055725097656,0.07686710357666016,0.2599755823612213,-1.2653779983520508,0.005531395319849253,-0.967231273651123,0.17948424816131592,1.2409635782241821,0.012779430486261845,0.9126802682876587,0.06580453366041183,-0.7001983523368835,-0.08144503086805344,-0.05283436179161072,1.492141604423523,-0.4064849019050598,0.00871662050485611,-0.5094605684280396,-0.027656977996230125,-0.11310750246047974,0.80357825756073,-0.35569462180137634,-0.018524903804063797,0.26257583498954773,0.0223067756742239,3.304245948791504,-0.3011453449726105,0.0027440718840807676,0.12391824275255203,-4.679616451263428,-0.32309865951538086,-0.02029009722173214,0.20246601104736328,-0.30875712633132935,-4.964016914367676,-1.571605920791626,1.5022951364517212,4.141727924346924,-0.9183678030967712,0.2151418924331665,2.8631625175476074,0.19765198230743408,-0.34108617901802063,-1.0331476926803589,-0.8149687647819519,0.19298356771469116,1741516763.687893,1741516762953,-4.13521484375,-0.32345465087890624,-2.545897005802619,-0.37699945068359375,-1.3447893066406251
1741516763.703832,-0.3478933572769165,0.04094954422113483,0.018153819010585298,-0.9989962831179164,-0.07447317987680435,0.0486355684697628,0.6429160237312317,2.2353897094726562,0.6760866045951843,9.602044105529785,-0.03070831298828125,0.07648563385009766,0.3240634799003601,-1.2661409378051758,0.005149920005351305,-0.960746169090271,0.10929274559020996,1.2348599433898926,0.013160906732082367,0.9126802682876587,0.06389715522527695,-0.7867932915687561,-0.10433356463909149,-0.021553369238972664,1.5054932832717896,-0.431148499250412,0.0009068431681953371,-0.4549095928668976,-0.021553369238972664,-0.11348897218704224,0.770771324634552,-0.38124600052833557,-0.016120659187436104,0.4619050920009613,-0.009066355414688587,3.1241226196289062,-0.04642093554139137,-0.05011359602212906,0.3588048815727234,-4.615955352783203,-0.4020877778530121,0.08770754188299179,-0.05215916782617569,-0.17619667947292328,-4.249140739440918,-1.0756821632385254,1.3953866958618164,0.014202416874468327,-1.1272132396697998,-0.4426451623439789,2.5334203243255615,0.3992682099342346,-0.06509515643119812,-1.753100872039795,-1.4410407543182373,0.15268170833587646,1741516763.687893,1741516762953,-4.13521484375,-0.32345465087890624,-2.545897005802619,-0.37699945068359375,-1.3447893066406251
1741516763.7234416,-0.3430976867675781,0.04349636349749414,0.016907463563889724,-0.9989105085233259,0.041635990142822266,0.24975919723510742,0.11477182805538177,-0.6275390386581421,1.1866668462753296,5.931670665740967,-0.02040863037109375,0.07076358795166016,0.38166627287864685,-1.2653779983520508,0.005531395319849253,-0.9504463076591492,0.04596780240535736,1.2333340644836426,0.01430533267557621,0.9157320261001587,0.06923781335353851,-0.8630884289741516,-0.10662241280078888,0.008201723918318748,1.4551384449005127,-0.4414709508419037,-0.007998899556696415,-0.4018844962120056,-0.014686808921396732,-0.11310750246047974,0.7352941036224365,-0.41258957982063293,-0.012491279281675816,0.33171942830085754,-0.21552632749080658,2.9216034412384033,-0.006306114606559277,-0.016532428562641144,0.4732074737548828,-4.09358549118042,-0.07647063583135605,-0.011861824430525303,0.24880088865756989,0.34474411606788635,-3.7319962978363037,0.01406822819262743,1.4867627620697021,-2.808795213699341,-0.38531434535980225,-0.15978367626667023,2.8900787830352783,0.28012967109680176,0.09526029229164124,-1.6541023254394531,-1.4765092134475708,0.20340074598789215,1741516763.687893,1741516762953,-4.13521484375,-0.32345465087890624,-2.545897005802619,-0.37699945068359375,-1.3447893066406251
1741516763.7434564,-0.3497673273086548,0.05209664786239256,0.014647567394128227,-0.9985346203567187,0.1669745147228241,0.41701582074165344,-0.33581292629241943,3.0056984424591064,-3.6948399543762207,7.9292097091674805,-0.01277923583984375,0.060845375061035156,0.4335469603538513,-1.2661409378051758,0.005912871100008488,-0.9390020370483398,-0.024605173617601395,1.23905611038208,0.013542382046580315,0.9225986003875732,0.07610437273979187,-0.924887478351593,-0.09555962681770325,0.02880140393972397,1.3712139129638672,-0.43052858114242554,-0.0032230534125119448,-0.3576333224773407,-0.008201723918318748,-0.11158160120248795,0.7063019871711731,-0.43668845295906067,-0.007744380738586187,0.2335951030254364,-0.3297838866710663,2.734442949295044,-0.08516768366098404,0.014416017569601536,0.6522597670555115,-4.832930564880371,0.40173521637916565,0.003927238751202822,0.5716227889060974,0.18862025439739227,-3.0011186599731445,0.6082388162612915,1.0082190036773682,-4.425094127655029,0.7582662105560303,0.19852276146411896,1.882970929145813,0.298567533493042,0.0063636875711381435,-1.4215279817581177,-1.1982284784317017,0.10669628530740738,1741516763.7846043,1741516763053,-4.043873046875,-0.35881427001953126,-2.4292319454810114,-0.35989721679687503,-1.345769775390625
1741516763.7635403,-0.35144758224487305,0.05789953839504649,0.010460253324703881,-0.9982676126941231,0.20889683067798615,0.2802819311618805,-0.10118210315704346,-4.660309791564941,-0.8587509393692017,4.707249641418457,-0.00705718994140625,0.057793617248535156,0.483138769865036,-1.2676668167114258,0.005531395319849253,-0.925650417804718,-0.08449683338403702,1.236767292022705,0.013160906732082367,0.9386205673217773,0.06237125024199486,-0.9699015617370605,-0.07419699430465698,0.04406042397022247,1.2689783573150635,-0.3952488601207733,-0.010206859558820724,-0.33398184180259705,0.0009536888683214784,-0.10738536715507507,0.6849393248558044,-0.45753413438796997,-0.014908884651958942,0.1708136647939682,-0.08426995575428009,2.244429588317871,-0.0007424214272759855,-0.00964419450610876,0.5822053551673889,-3.679704427719116,-0.2490222305059433,-0.08000825345516205,1.1621782779693604,-0.8528228402137756,-2.0950489044189453,1.2270936965942383,0.9048726558685303,-5.374744892120361,1.8593876361846924,-0.3206924498081207,1.5605546236038208,0.574394166469574,0.3441827595233917,-0.9812871813774109,-0.953832745552063,-0.19591562449932098,1741516763.7846043,1741516763053,-4.043873046875,-0.35881427001953126,-2.4292319454810114,-0.35989721679687503,-1.345769775390625
1741516763.7835088,-0.3490593433380127,0.06794887413979188,0.006218424167219943,-0.9976694250622353,0.1986197531223297,0.45713868737220764,0.21166308224201202,3.873725652694702,-1.5211689472198486,8.327116966247559,-0.00705718994140625,0.052071571350097656,0.5064088106155396,-1.2642335891723633,0.005531395319849253,-0.917639434337616,-0.1203555315732956,1.2314265966415405,0.012779430486261845,0.9546425342559814,0.03147173300385475,-0.9874494671821594,-0.03147173300385475,0.0555046908557415,1.1549172401428223,-0.34910690784454346,-0.003947305027395487,-0.2954528033733368,0.014686808921396732,-0.08983749151229858,0.6605249047279358,-0.4719570577144623,-0.015577821061015129,0.004485856741666794,-0.08663012087345123,0.9558671116828918,0.22783039510250092,-0.009375207126140594,0.35519957542419434,-2.075230598449707,-0.3463071286678314,0.022375563159585,0.9938197731971741,-1.671409010887146,-0.42403048276901245,2.2281761169433594,0.6262239217758179,-5.706210613250732,2.2560641765594482,0.41794052720069885,1.6373646259307861,0.7698590159416199,0.9874255061149597,-1.3816801309585571,-0.7803703546524048,-0.10841228812932968,1741516763.7846043,1741516763053,-4.043873046875,-0.35881427001953126,-2.4292319454810114,-0.35989721679687503,-1.345769775390625
1741516763.8035405,-0.34036433696746826,0.07383908429195545,0.005572743809596757,-0.9972545984638818,-0.0070203980430960655,0.2622147500514984,0.4294436573982239,1.8060623407363892,-3.0558512210845947,8.40791130065918,-0.00934600830078125,0.050164222717285156,0.5102235674858093,-1.2592743635177612,0.005531395319849253,-0.9126802682876587,-0.12722209095954895,1.2268489599227905,0.012779430486261845,0.9653238654136658,-0.006294346414506435,-0.9859235286712646,0.010109102353453636,0.0879301130771637,1.0271228551864624,-0.3078296184539795,0.0051647634245455265,-0.24967575073242188,0.04291599988937378,-0.07495994865894318,0.6383993029594421,-0.47850489616394043,-0.0214473195374012,-0.08314965665340424,-0.02270922064781189,0.049075763672590256,0.3513067960739136,-0.0088353231549263,0.25323212146759033,-0.22090259194374084,-0.2939714789390564,-0.00036797774373553693,0.657127857208252,-1.8412643671035767,0.24025198817253113,1.874849557876587,1.9950120449066162,-6.436556816101074,1.890169620513916,0.3486845791339874,2.605928659439087,1.3926070928573608,0.7396382689476013,-0.9912909865379333,-0.0741112157702446,-0.27470719814300537,1741516763.7846043,1741516763053,-4.043873046875,-0.35881427001953126,-2.4292319454810114,-0.35989721679687503,-1.345769775390625
1741516763.8235607,-0.3300809860229492,0.07305924306271648,0.009933360266455388,-0.9972781333995646,-0.27953040599823,-0.1256394237279892,0.4675612449645996,2.4275009632110596,0.04857464134693146,11.046332359313965,-0.00820159912109375,0.062371253967285156,0.4972533881664276,-1.2535521984100342,0.005531395319849253,-0.9096284508705139,-0.11120012402534485,1.2218897342681885,0.012779430486261845,0.9683756828308105,-0.02536812424659729,-0.9565499424934387,0.04444190114736557,0.12340734153985977,0.9027618765830994,-0.2906376123428345,0.0070527768693864346,-0.19054703414440155,0.06275273114442825,-0.0722896158695221,0.6155108213424683,-0.46865445375442505,-0.04735829681158066,0.018703008070588112,0.3938421607017517,-0.727931022644043,0.4008677303791046,1.5026481605673325e-06,0.16264012455940247,1.2803713083267212,-0.28380337357521057,-0.001656363601796329,0.1333146095275879,-0.5644020438194275,1.57621431350708,2.0810928344726562,1.4838050603866577,-6.260442733764648,0.5509713292121887,0.11010850220918655,3.0143659114837646,0.9620482325553894,-0.08837585151195526,-0.971193253993988,0.4965215027332306,-1.2553982734680176,1741516763.7846043,1741516763053,-4.043873046875,-0.35881427001953126,-2.4292319454810114,-0.35989721679687503,-1.345769775390625
1741516763.843575,-0.3234386444091797,0.06434038094969854,0.018795872608442902,-0.9977509862446314,-0.5384945869445801,-0.5000593066215515,0.23877741396427155,-8.037984848022461,1.970807671546936,6.390186309814453,-0.00705718994140625,0.07648563385009766,0.4713130295276642,-1.2520263195037842,0.005531395319849253,-0.9107728600502014,-0.07801175117492676,1.2241785526275635,0.012779430486261845,0.9676127433776855,-0.020027466118335724,-0.9084840416908264,0.0722896158695221,0.135233074426651,0.7864118218421936,-0.31228548288345337,0.007797177881002426,-0.14209964871406555,0.0875486359000206,-0.09441519528627396,0.6273365616798401,-0.45771321654319763,-0.06462758779525757,0.030812710523605347,0.4572681188583374,-1.3240859508514404,0.061972782015800476,-0.017501607537269592,-0.08858450502157211,2.2775564193725586,0.2713840901851654,0.005779753439128399,-0.07117903977632523,0.3037937879562378,2.6265790462493896,1.3013408184051514,0.16475065052509308,-5.814375877380371,-1.4344452619552612,0.11948752403259277,2.197190761566162,1.193505883216858,-1.284783124923706,1.1976783275604248,0.551088273525238,-0.7634891867637634,1741516763.8883967,1741516763153,-3.9392910156250003,-0.3880987854003906,-2.2502001555699542,-0.3432422485351563,-1.35035791015625
1741516763.8636124,-0.3230541944503784,0.05443007081711516,0.035852145167087,-0.9978737350375356,-0.8921279907226562,-0.562919557094574,-0.118378184735775,-8.189703941345215,-0.20143860578536987,6.012289047241211,-0.01049041748046875,0.08068180084228516,0.43240252137184143,-1.2489745616912842,0.005149920005351305,-0.9126802682876587,-0.034142062067985535,1.231808066368103,0.013160906732082367,0.9668498039245605,-0.009346150793135166,-0.8451590538024902,0.08335240930318832,0.08487831056118011,0.6750209927558899,-0.36470261216163635,0.002772851614281535,-0.14553292095661163,0.10700388997793198,-0.1184481605887413,0.7265201807022095,-0.43897953629493713,-0.07768937945365906,-0.09293625503778458,0.17706076800823212,-2.1302084922790527,0.18845024704933167,-0.042950328439474106,-0.10601647198200226,3.0255894660949707,0.49526989459991455,0.02990366332232952,-0.04755209758877754,0.42588216066360474,3.1455371379852295,0.2349349409341812,-3.4003074169158936,-5.373234748840332,-2.573669910430908,-0.2812979221343994,-0.8440713286399841,0.9159711599349976,-1.0217022895812988,5.691861152648926,1.0632141828536987,-0.49022310972213745,1741516763.8883967,1741516763153,-3.9392910156250003,-0.3880987854003906,-2.2502001555699542,-0.3432422485351563,-1.35035791015625
1741516763.8836315,-0.3281196355819702,0.045832505749532515,0.05686906550413936,-0.9973290784918512,-0.9993603825569153,-0.4413188397884369,-0.17344442009925842,-9.027792930603027,18.84208106994629,14.847887992858887,-0.01354217529296875,0.08068180084228516,0.38242924213409424,-1.2424894571304321,0.005912871100008488,-0.9073395729064941,0.009346150793135166,1.2409635782241821,0.012779430486261845,0.9664682745933533,0.009346150793135166,-0.8310444951057434,0.053215838968753815,0.03032730519771576,0.7036316394805908,-0.33522194623947144,-0.027477426454424858,-0.21038375794887543,0.10128175467252731,-0.12264438718557358,0.9061951637268066,-0.40147170424461365,-0.08653871715068817,-0.11875160038471222,-0.029208209365606308,-2.7322499752044678,0.4738321602344513,0.04343704134225845,0.445608526468277,2.9758894443511963,0.7531635761260986,-0.0666745975613594,-0.04269479587674141,1.1793744564056396,0.222819983959198,-2.0900967121124268,-2.6095590591430664,3.036034107208252,1.8991113901138306,-1.3825217485427856,-3.615739107131958,-0.4865437150001526,-0.013871737755835056,9.315511703491211,2.0072927474975586,-0.5431392788887024,1741516763.8883967,1741516763153,-3.9392910156250003,-0.3880987854003906,-2.2502001555699542,-0.3432422485351563,-1.35035791015625
1741516763.9036403,-0.33307600021362305,0.044028320290018345,0.05417591292860446,-0.9975602625760469,0.2112259417772293,-0.2677432596683502,-0.461884081363678,5.6290154457092285,-8.286365509033203,8.655912399291992,-0.01010894775390625,0.08373355865478516,0.30117493867874146,-1.2443968057632446,0.005149920005351305,-0.9031433463096619,0.06504157930612564,1.2482116222381592,0.013160906732082367,0.9657053351402283,0.00858320016413927,-0.8295185565948486,0.03452353551983833,-0.03452353551983833,0.7555122971534729,-0.2869069278240204,-0.04306977614760399,-0.33207446336746216,0.12760357558727264,-0.1028076633810997,1.1079957485198975,-0.35439032316207886,-0.08573052287101746,0.06399416923522949,0.07576747983694077,-4.409555435180664,-0.4909382164478302,-0.1310448795557022,0.086634062230587,3.8273441791534424,0.2780618369579315,0.15161722898483276,-0.1176048144698143,-0.5222085118293762,0.531038224697113,-0.4226413667201996,-2.938594102859497,1.615934133529663,1.99761164188385,-0.326578825712204,-6.248672008514404,1.0695425271987915,0.9843348860740662,10.244929313659668,2.2126572132110596,0.45086634159088135,1741516763.8883967,1741516763153,-3.9392910156250003,-0.3880987854003906,-2.2502001555699542,-0.3432422485351563,-1.35035791015625
1741516763.9236639,-0.3340268135070801,0.03880475088873002,0.05036897204532778,-0.9979765317699412,0.18082493543624878,-0.22264471650123596,-0.11112914979457855,3.155653953552246,2.0811972618103027,17.273046493530273,-0.02727508544921875,0.08602237701416016,0.1958876997232437,-1.2520263195037842,0.005531395319849253,-0.9061951637268066,0.12455176562070847,1.2447782754898071,0.012397955171763897,0.9618905782699585,-0.023079270496964455,-0.777256429195404,0.034142062067985535,-0.05207141116261482,0.7436865568161011,-0.25716397166252136,-0.04263133555650711,-0.4552910625934601,0.14400701224803925,-0.06466010212898254,1.2850003242492676,-0.33284178376197815,-0.03072582557797432,-0.5128000378608704,-0.08239524066448212,-5.2714362144470215,-0.2942609190940857,-0.0279898252338171,-0.14174474775791168,3.9189257621765137,-0.2578910291194916,-0.10835497081279755,-0.2610153555870056,-1.3886395692825317,2.403576612472534,0.006217486225068569,-0.6542803645133972,-0.2746441066265106,1.5582302808761597,0.39211833477020264,-6.1303911209106445,0.6382516622543335,1.9490776062011719,8.382589340209961,0.8019118309020996,2.6806561946868896,1741516763.8883967,1741516763153,-3.9392910156250003,-0.3880987854003906,-2.2502001555699542,-0.3432422485351563,-1.35035791015625
1741516763.943717,-0.34802210330963135,0.026203437936646704,0.04384575023073556,-0.9986946129958869,0.4100426733493805,-0.5801258683204651,-0.7085782885551453,-2.0862748622894287,-1.3202018737792969,11.553483009338379,-0.00820159912109375,0.09899330139160156,0.09365224838256836,-1.2501189708709717,0.005149920005351305,-0.9122987985610962,0.1825360506772995,1.2478300333023071,0.01430533267557621,0.955024003982544,-0.03223468363285065,-0.7436865568161011,0.04291599988937378,-0.0555046908557415,0.76276034116745,-0.23125015199184418,-0.03547325357794762,-0.5651560425758362,0.1512550562620163,-0.05283436179161072,1.3792248964309692,-0.35734617710113525,-0.02152358740568161,0.5183399319648743,0.19222833216190338,-4.864239692687988,0.10937969386577606,-0.006135545205324888,-0.3149052560329437,3.796186685562134,0.27027031779289246,0.20843051373958588,-0.4364723861217499,-0.3046400249004364,1.752150058746338,0.554956316947937,-0.3437522053718567,0.8676941394805908,1.0244150161743164,0.3985595405101776,-5.275038719177246,0.46452760696411133,0.08900760114192963,4.170534610748291,-1.595937967300415,0.0758589431643486,1741516763.8883967,1741516763153,-3.9392910156250003,-0.3880987854003906,-2.2502001555699542,-0.3432422485351563,-1.35035791015625
1741516763.9669294,-0.36347460746765137,0.012982614689611503,0.03854477600935576,-0.9991725336288071,0.2602187395095825,-0.6515448093414307,-0.8270496726036072,-0.11409153789281845,-3.962294340133667,12.932982444763184,-0.02117156982421875,0.10013771057128906,0.016975661739706993,-1.2497375011444092,0.005531395319849253,-0.918402373790741,0.23975738883018494,1.2546966075897217,0.01430533267557621,0.9489204287528992,-0.04482337832450867,-0.7021057605743408,0.048638131469488144,-0.056267641484737396,0.7658121585845947,-0.23112085461616516,-0.03990843892097473,-0.6521324515342712,0.14057374000549316,-0.0711451917886734,1.3963912725448608,-0.40791118144989014,-0.01926099881529808,-0.29183223843574524,0.03641683980822563,-3.5615129470825195,0.02616005204617977,-0.03251966834068298,-0.2720479965209961,3.8660104274749756,0.39305126667022705,-0.04251867160201073,-0.4330044984817505,-0.6565248370170593,1.9023902416229248,0.23054546117782593,0.1990911215543747,0.0769377276301384,-0.09058504551649094,-0.3898470401763916,-4.41286563873291,-0.8004870414733887,-0.7347474694252014,0.41434812545776367,-2.638010263442993,0.417443186044693,1741516763.8883967,1741516763153,-3.9392910156250003,-0.3880987854003906,-2.2502001555699542,-0.3432422485351563,-1.35035791015625
1741516763.9837983,-0.37651383876800537,0.001408717478356579,0.03251999970351443,-0.9994700921660185,0.3666011393070221,-0.5068034529685974,-0.5536814332008362,-10.19904613494873,-1.1647626161575317,13.444380760192871,-0.02269744873046875,0.09212589263916016,-0.037193864583969116,-1.2474485635757446,0.005912871100008488,-0.925650417804718,0.2977416515350342,1.2596558332443237,0.013542382046580315,0.9431982636451721,-0.04940108209848404,-0.6792172193527222,0.05207141116261482,-0.04482337832450867,0.7711527943611145,-0.2431013137102127,-0.05846859887242317,-0.7219424843788147,0.11043716967105865,-0.07038223743438721,1.3654917478561401,-0.45821666717529297,-0.003510707290843129,-0.00024671293795108795,-0.20976386964321136,-2.5355427265167236,0.11700787395238876,0.03538313880562782,-0.3677637279033661,3.81003737449646,0.3195308744907379,-0.03468814864754677,-0.27880096435546875,-0.2219134420156479,1.2306751012802124,0.25900763273239136,0.5823121070861816,0.4397922158241272,-0.7064012289047241,-1.0164737701416016,-3.36800217628479,-1.5183508396148682,0.10446330159902573,-1.784400224685669,-2.3986096382141113,0.9121063947677612,1741516763.8883967,1741516763153,-3.9392910156250003,-0.3880987854003906,-2.2502001555699542,-0.3432422485351563,-1.35035791015625
1741516764.0037885,-0.3861285448074341,0.005232104908630686,0.022024849247600887,-0.9997437327104609,0.49528977274894714,0.2777808904647827,-0.4962931275367737,-2.0212342739105225,-9.202920913696289,8.08279037475586,-0.01697540283203125,0.061989784240722656,-0.09403372555971146,-1.2478300333023071,0.005912871100008488,-0.9390020370483398,0.35038527846336365,1.2600373029708862,0.013542382046580315,0.9416723847389221,-0.05436026677489281,-0.6605249047279358,0.05970092490315437,-0.03604944050312042,0.7883192300796509,-0.2649858891963959,-0.07727689296007156,-0.7825970649719238,0.08983749151229858,-0.051689937710762024,1.3059815168380737,-0.47918009757995605,0.016477255150675774,0.1552729606628418,-0.8818711042404175,-2.628392219543457,0.004974086303263903,0.015444030985236168,-0.8702792525291443,3.491197347640991,-0.028051301836967468,0.008272826671600342,-0.1330682933330536,-0.2767135202884674,0.6640172004699707,0.411356657743454,0.6783475279808044,0.8167489767074585,-1.2012649774551392,-0.9252486228942871,-3.0791308879852295,-1.0392236709594727,1.1661454439163208,-3.443946599960327,-0.7018716931343079,0.8473401665687561,1741516764.0920687,1741516763253,-3.85416796875,-0.42128643798828125,-2.660098589805369,-0.33409402465820315,-1.3520767822265625
1741516764.0238085,-0.38614416122436523,0.01570252053921738,0.013304036062278474,-0.9997881943057585,0.4150291085243225,0.5689937472343445,0.026330221444368362,-3.118990898132324,-2.1388707160949707,7.594525337219238,-0.02498626708984375,0.042534828186035156,-0.14438849687576294,-1.2432523965835571,0.005531395319849253,-0.9588387608528137,0.39463645219802856,1.2608002424240112,0.013542382046580315,0.9405279755592346,-0.057793546468019485,-0.6509880423545837,0.07267109304666519,-0.024986648932099342,0.8169298768043518,-0.2906648516654968,-0.0870647206902504,-0.840962827205658,0.06656748056411743,-0.009727626107633114,1.2125200033187866,-0.46503159403800964,0.008696475066244602,-0.19619789719581604,-0.656915545463562,-2.2806460857391357,0.3628559112548828,-0.014985492452979088,-0.9308432936668396,2.8876264095306396,0.13060183823108673,-0.0008167560445144773,-0.08996186405420303,-0.0652742013335228,0.45594725012779236,0.7312479615211487,0.4206866919994354,1.6537467241287231,-1.2893539667129517,-0.25114408135414124,-2.4723873138427734,-1.290635347366333,2.3258156776428223,-4.895882606506348,0.9258140325546265,-0.4440385401248932,1741516764.0920687,1741516763253,-3.85416796875,-0.42128643798828125,-2.660098589805369,-0.33409402465820315,-1.3520767822265625
1741516764.0438123,-0.38385868072509766,0.030164932848513824,0.005181640898487956,-0.9995315039676558,0.3788975775241852,0.6525235176086426,0.1005682423710823,3.4681246280670166,-2.9272570610046387,4.202488899230957,-0.02117156982421875,0.043297767639160156,-0.1680399775505066,-1.2356228828430176,0.005531395319849253,-0.9725719094276428,0.44117647409439087,1.2642335891723633,0.013923857361078262,0.9340428709983826,-0.04291599988937378,-0.6540398001670837,0.07801175117492676,-0.023079270496964455,0.8573662638664246,-0.3203793466091156,-0.08877775818109512,-0.8619440197944641,0.03795681521296501,0.02841992862522602,1.0828183889389038,-0.4309898912906647,0.00569895189255476,0.08960894495248795,-0.019047118723392487,-1.016262412071228,0.4863530099391937,-0.014352775178849697,-0.6669625639915466,3.0886478424072266,0.16326196491718292,-0.024585174396634102,-0.5045775175094604,1.054853081703186,-0.2867325246334076,-0.028278380632400513,0.04330497607588768,2.0862507820129395,-1.4667880535125732,-0.0055208937264978886,-0.7772353291511536,-1.571388840675354,1.7939735651016235,-6.962191581726074,1.7218538522720337,-0.04675357788801193,1741516764.0920687,1741516763253,-3.85416796875,-0.42128643798828125,-2.660098589805369,-0.33409402465820315,-1.3520767822265625
1741516764.0639184,-0.3845621347427368,0.03849347486091316,0.002610530055173292,-0.9992554415793607,0.12137433886528015,0.44881778955459595,-0.038124147802591324,-1.3801426887512207,10.900773048400879,15.659000396728516,-0.02079010009765625,0.044823646545410156,-0.1661325991153717,-1.2276118993759155,0.005531395319849253,-0.9802014231681824,0.4674982726573944,1.2627075910568237,0.013923857361078262,0.9279392957687378,-0.005912871100008488,-0.6620507836341858,0.056267641484737396,-0.03299763426184654,0.9088655114173889,-0.35705992579460144,-0.07115944474935532,-0.839436948299408,-0.015449759550392628,0.035667963325977325,0.9019989371299744,-0.39270728826522827,0.009985064156353474,-0.016805967316031456,0.10660084336996078,0.22237585484981537,0.5222635269165039,-0.009155095554888248,-0.3269924819469452,1.4557615518569946,-0.11090544611215591,0.0033167123328894377,-0.32449713349342346,2.0529282093048096,-0.21549567580223083,-1.477624535560608,-0.4972088932991028,2.7829864025115967,-1.8510485887527466,1.1585922241210938,1.3589648008346558,-2.7367703914642334,-0.15479612350463867,-8.743922233581543,2.2509119510650635,0.44703495502471924,1741516764.0920687,1741516763253,-3.85416796875,-0.42128643798828125,-2.660098589805369,-0.33409402465820315,-1.3520767822265625
1741516764.0838702,-0.39298129081726074,0.03937188372723007,0.0073590394897803035,-0.9991975276738615,-0.36669933795928955,0.09291227161884308,-0.6614915132522583,-1.3781999349594116,10.439435005187988,14.135329246520996,-0.02193450927734375,0.057793617248535156,-0.14057374000549316,-1.222271203994751,0.004005493130534887,-0.9802014231681824,0.4720759987831116,1.2577484846115112,0.01430533267557621,0.9134432077407837,0.02880140393972397,-0.6521324515342712,0.04406042397022247,-0.04482337832450867,0.959220290184021,-0.3959033191204071,-0.042745187878608704,-0.7818341255187988,-0.04291599988937378,-0.05283436179161072,0.9126802682876587,-0.29655471444129944,0.02276798151433468,-0.04519467428326607,0.4506032168865204,1.4768705368041992,0.3596911132335663,-0.12467382103204727,0.02549506537616253,-0.04588346183300018,-0.21551424264907837,0.0667446032166481,-0.9697122573852539,1.1961971521377563,0.585317850112915,-0.3837704062461853,-0.6829077005386353,2.022958755493164,-2.014824628829956,1.778116226196289,3.2072134017944336,-0.5900067090988159,-3.7494053840637207,0.7915781736373901,4.44169282913208,-0.22851115465164185,1741516764.0920687,1741516763253,-3.85416796875,-0.42128643798828125,-2.660098589805369,-0.33409402465820315,-1.3520767822265625
1741516764.1039674,-0.4001305103302002,0.042078056132575724,0.01707470461281062,-0.9989684137421408,-0.5014000535011292,-0.1378455013036728,-0.11403487622737885,5.6286420822143555,7.413433074951172,7.443466663360596,-0.02155303955078125,0.08144474029541016,-0.07991912961006165,-1.2180750370025635,0.007057297509163618,-0.9767681360244751,0.44232088327407837,1.2573670148849487,0.013542382046580315,0.9092469811439514,0.03452353551983833,-0.6452658772468567,0.03681239113211632,-0.04482337832450867,0.9843976497650146,-0.43518978357315063,-0.005697179120033979,-0.7478827834129333,-0.05359731614589691,-0.046730753034353256,0.8649957776069641,-0.2367977648973465,-0.0067836083471775055,-0.021865667775273323,0.8958157896995544,3.180783987045288,0.23200300335884094,0.2995739281177521,0.2188565731048584,-2.1810507774353027,0.011250338517129421,-0.07140059769153595,-0.19717732071876526,0.23720833659172058,0.6030474305152893,-0.18167677521705627,0.40678638219833374,1.3317152261734009,-1.8894659280776978,1.7483599185943604,1.8250170946121216,-0.9010254740715027,0.7482905983924866,-2.600249767303467,2.8246912956237793,-1.2876862287521362,1741516764.0920687,1741516763253,-3.85416796875,-0.42128643798828125,-2.660098589805369,-0.33409402465820315,-1.3520767822265625
1741516764.1238935,-0.4040954113006592,0.04561289138793092,0.02166808462123112,-0.9987241652468813,-0.10665745288133621,0.3181096613407135,-0.24597898125648499,10.899723052978516,0.5801563262939453,5.352081775665283,-0.01201629638671875,0.07572269439697266,-0.01926451548933983,-1.2268489599227905,0.005531395319849253,-0.967231273651123,0.404936283826828,1.2543151378631592,0.013160906732082367,0.9081025123596191,0.010109102353453636,-0.6231403350830078,0.035667963325977325,-0.01735713705420494,1.0210193395614624,-0.45712485909461975,-0.0018635608721524477,-0.690280020236969,-0.02040894143283367,-0.034142062067985535,0.8607995510101318,-0.22258388996124268,-0.026475492864847183,0.27567169070243835,0.04455077648162842,2.9804468154907227,-0.9500543475151062,0.0075664217583835125,0.49767741560935974,-2.485380172729492,-0.2963305115699768,-0.004275722429156303,-0.05597701668739319,-1.6367567777633667,0.9677015542984009,0.08316902071237564,1.5485785007476807,2.0397958755493164,-0.8714393973350525,-0.13637030124664307,2.1938233375549316,1.6944550275802612,0.585761308670044,0.056941960006952286,0.14689898490905762,-0.8385127782821655,1741516764.0920687,1741516763253,-3.85416796875,-0.42128643798828125,-2.660098589805369,-0.33409402465820315,-1.3520767822265625
1741516764.1439168,-0.39373326301574707,0.04123090481241441,0.022076795303162033,-0.9989057150689908,-0.026135168969631195,-0.21666590869426727,0.6661770939826965,-5.968805313110352,6.745253562927246,10.349347114562988,-0.01697540283203125,0.09365177154541016,0.049782559275627136,-1.2535521984100342,0.005531395319849253,-0.9546425342559814,0.36411839723587036,1.2455412149429321,0.013160906732082367,0.9100099205970764,-0.04940108209848404,-0.6334401369094849,0.03604944050312042,0.03185320645570755,1.0748074054718018,-0.45464491844177246,-0.01312694326043129,-0.6540398001670837,0.002861066721379757,-0.004005493130534887,0.8493552803993225,-0.263171911239624,-0.029749704524874687,-0.15408125519752502,0.5006523132324219,3.5177242755889893,-1.5649974346160889,-0.048116158694028854,0.6236376166343689,-2.729520559310913,-0.6219578981399536,-0.02727498672902584,0.23528385162353516,-2.839080810546875,-0.6961356401443481,0.008902985602617264,2.6334421634674072,3.0645060539245605,0.19405870139598846,-0.16561485826969147,2.126084804534912,1.3245199918746948,1.5033996105194092,-0.6587511301040649,-2.316263437271118,0.035871077328920364,1741516764.0920687,1741516763253,-3.85416796875,-0.42128643798828125,-2.660098589805369,-0.33409402465820315,-1.3520767822265625
1741516764.1639788,-0.3772178888320923,0.039852731570611664,0.017915995260327635,-0.9990449323730103,0.1818191111087799,-0.1599874645471573,0.8198407292366028,-0.09870239347219467,-3.0896494388580322,8.634676933288574,-0.01049041748046875,0.10547828674316406,0.12226291000843048,-1.2684297561645508,0.005912871100008488,-0.9462500810623169,0.31605249643325806,1.23447847366333,0.013160906732082367,0.9107728600502014,-0.10128175467252731,-0.6746395230293274,0.03757534176111221,0.07419699430465698,1.1717021465301514,-0.4416866600513458,0.003311517648398876,-0.615129292011261,0.03490501269698143,0.02880140393972397,0.8375295400619507,-0.30972906947135925,-0.03309512883424759,0.17270705103874207,0.38758015632629395,3.692870855331421,-1.0136240720748901,0.04317811504006386,0.39130982756614685,-3.3384578227996826,-0.7377349138259888,0.049813009798526764,0.03144506365060806,-2.6505930423736572,-2.3816676139831543,-0.015850810334086418,1.9308820962905884,4.856909275054932,0.6819401383399963,0.7469209432601929,1.6940522193908691,1.521165132522583,1.4727928638458252,-0.519631028175354,-2.2265164852142334,-0.24443946778774261,1741516764.1962016,1741516763353,-3.77136767578125,-0.4860917663574219,-2.429620372950652,-0.32923513793945314,-1.3553968505859375
1741516764.1843185,-0.35335636138916016,0.03839563171628141,0.017980302401079378,-0.9991008378490499,-0.11107270419597626,-0.02060522697865963,1.2807995080947876,-0.2721797823905945,2.8138606548309326,8.356642723083496,-0.00782012939453125,0.10547828674316406,0.1977950781583786,-1.2764407396316528,0.005531395319849253,-0.9439612627029419,0.25310903787612915,1.2253230810165405,0.012779430486261845,0.9115357995033264,-0.14209964871406555,-0.7368200421333313,0.032616160809993744,0.1180666834115982,1.2666895389556885,-0.42387333512306213,-0.004536246880888939,-0.5743114352226257,0.048256658017635345,0.04558632895350456,0.8264667987823486,-0.3444235920906067,-0.03411589935421944,0.08873963356018066,-0.0012673973105847836,3.70194935798645,-0.33382612466812134,-0.0037277780938893557,0.015291014686226845,-4.256531238555908,-0.5851512551307678,-0.0719485804438591,0.013367335312068462,-1.7524449825286865,-3.1140494346618652,-0.33086666464805603,2.0824122428894043,4.605760097503662,0.8789528608322144,-0.49268248677253723,2.169370412826538,0.589251697063446,0.7876517176628113,-0.5796738862991333,-1.6556788682937622,0.1889590471982956,1741516764.1962016,1741516763353,-3.77136767578125,-0.4860917663574219,-2.429620372950652,-0.32923513793945314,-1.3553968505859375
1741516764.20399,-0.33275294303894043,0.03929536592029738,0.022254636613214897,-0.9989797822610844,-0.2364976853132248,-0.07040690630674362,0.9921241402626038,-0.20976559817790985,5.557006359100342,8.286340713500977,-0.00591278076171875,0.10509681701660156,0.27218279242515564,-1.2745333909988403,0.005531395319849253,-0.9466315507888794,0.18635080754756927,1.219219446182251,0.012779430486261845,0.9115357995033264,-0.15468832850456238,-0.8005264401435852,0.03299763426184654,0.13027389347553253,1.3296329975128174,-0.407377690076828,-0.004969730973243713,-0.5315861701965332,0.05436026677489281,0.05130846053361893,0.8093003630638123,-0.37055617570877075,-0.02231830731034279,0.023650048300623894,-0.0285474956035614,3.7431609630584717,0.057304270565509796,0.0004270232457201928,-0.07528730481863022,-4.498843669891357,-0.33666056394577026,0.018342219293117523,-0.010155991651117802,-0.518825888633728,-3.1437387466430664,-0.007551452610641718,0.44141435623168945,2.8276116847991943,0.8171787858009338,0.13457751274108887,2.090266466140747,0.3859982490539551,0.2303943932056427,-0.9239551424980164,-1.285484790802002,0.4746793210506439,1741516764.1962767,1741516763453,-3.6839228515625,-0.5329732666015625,-2.505422989062206,-0.3269001770019531,-1.36190673828125
1741516764.224008,-0.3248087167739868,0.03735100198559582,0.029045779393868768,-0.9988799954699636,-0.3899018466472626,-0.027592239901423454,0.3406730592250824,-0.6361522078514099,3.498602867126465,5.774774551391602,0.00553131103515625,0.10471534729003906,0.343137264251709,-1.2707185745239258,0.005531395319849253,-0.9477760195732117,0.1188296303153038,1.2188379764556885,0.013542382046580315,0.9122987985610962,-0.15774014592170715,-0.8573662638664246,0.03452353551983833,0.12951095402240753,1.348706841468811,-0.39070022106170654,-3.7634184991475195e-05,-0.482375830411911,0.05970092490315437,0.054741740226745605,0.7970931529998779,-0.3971208930015564,-0.015806937590241432,0.2992917001247406,-0.03876672685146332,3.504573106765747,0.34109801054000854,-0.0066782147623598576,-0.016782550141215324,-4.498818874359131,-0.007937310263514519,0.04461557790637016,0.09055507928133011,0.04544452577829361,-2.757936477661133,0.10514932125806808,0.0174914188683033,0.6196809411048889,0.8550933003425598,0.17132757604122162,2.5920021533966064,0.24734385311603546,0.2471773773431778,-0.5493068099021912,-1.266006588935852,0.20727507770061493,1741516764.1962767,1741516763453,-3.6839228515625,-0.5329732666015625,-2.505422989062206,-0.3269001770019531,-1.36190673828125
1741516764.2440994,-0.3289675712585449,0.03773456667338436,0.03685405691495616,-0.9986079716119239,-0.3349519968032837,0.013250220566987991,-0.2568049728870392,4.250706195831299,0.5627635717391968,7.320125579833984,0.01010894775390625,0.10357093811035156,0.4198138415813446,-1.2676668167114258,0.005912871100008488,-0.9405279755592346,0.0551232174038887,1.222271203994751,0.013160906732082367,0.9138246774673462,-0.15545128285884857,-0.9016174674034119,0.053215838968753815,0.12836651504039764,1.335736632347107,-0.3730112612247467,-0.0019889853429049253,-0.4381246566772461,0.06542305648326874,0.05970092490315437,0.7841230034828186,-0.419903427362442,-0.016498342156410217,0.1291273832321167,-0.012637744657695293,4.022989273071289,0.05183243378996849,-0.011033131740987301,0.47264930605888367,-4.16118049621582,0.3004556894302368,-0.0022623727563768625,0.11799518764019012,-0.07576190680265427,-2.2563259601593018,1.146592617034912,0.018886325880885124,-0.8422105312347412,0.9224541783332825,-0.12423857301473618,2.096637010574341,0.32773298025131226,0.1823972463607788,-0.6663497090339661,-1.1673073768615723,-0.07262571901082993,1741516764.1962767,1741516763453,-3.6839228515625,-0.5329732666015625,-2.505422989062206,-0.3269001770019531,-1.36190673828125
1741516764.2642796,-0.32898271083831787,0.03464929716415145,0.03806412011238331,-0.9986743958698954,-0.04627566412091255,-0.10080158710479736,0.02302074246108532,1.814790964126587,-2.7309088706970215,9.757043838500977,0.01430511474609375,0.10280799865722656,0.48962387442588806,-1.2669038772583008,0.005531395319849253,-0.9302281141281128,-0.007438773289322853,1.229519248008728,0.013160906732082367,0.9218356609344482,-0.17566949129104614,-0.9382390975952148,0.10013733059167862,0.1363775134086609,1.3002593517303467,-0.3510417342185974,-0.0037596095353364944,-0.3995956480503082,0.07419699430465698,0.06504157930612564,0.769245445728302,-0.44126611948013306,-0.016072068363428116,0.12942364811897278,-0.06847380846738815,3.211268901824951,0.06264983117580414,-0.0016369649674743414,0.43023374676704407,-4.110957145690918,0.39491549134254456,0.0053838021121919155,0.6504296660423279,-1.146591305732727,-1.540012240409851,2.4978790283203125,0.4531366229057312,-1.8497271537780762,1.1185239553451538,0.015231279656291008,2.0129921436309814,0.35771065950393677,0.3711710274219513,-0.6899757981300354,-1.0177202224731445,0.11950314790010452,1741516764.1962767,1741516763453,-3.6839228515625,-0.5329732666015625,-2.505422989062206,-0.3269001770019531,-1.36190673828125
1741516764.284288,-0.3202800750732422,0.03537081209422158,0.04044439523330784,-0.9985555350334839,-0.14176274836063385,-0.027817003428936005,0.477575421333313,4.6215362548828125,-2.71655535697937,11.100668907165527,0.01010894775390625,0.10090065002441406,0.5239566564559937,-1.2642335891723633,0.005531395319849253,-0.9229800701141357,-0.06008239835500717,1.229519248008728,0.013160906732082367,0.9351872801780701,-0.21152819693088531,-0.9531166553497314,0.16155488789081573,0.15392538905143738,1.2460898160934448,-0.3250759541988373,-0.002560949884355068,-0.3599221706390381,0.08258945494890213,0.08106355369091034,0.7524605393409729,-0.46165066957473755,-0.016593890264630318,-0.1015741154551506,-0.05279012769460678,1.5063199996948242,0.1361405849456787,0.0011497006053104997,0.3843171000480652,-3.2356040477752686,-0.02574330009520054,0.0032831509597599506,0.8404094576835632,-1.8151699304580688,-0.5965408086776733,3.038001298904419,1.001374363899231,-2.8733267784118652,1.3406639099121094,0.062410399317741394,1.7734566926956177,0.39243200421333313,0.6861060857772827,-0.9590895771980286,-1.0780746936798096,-0.2532395124435425,1741516764.1962767,1741516763453,-3.6839228515625,-0.5329732666015625,-2.505422989062206,-0.3269001770019531,-1.36190673828125
1741516764.304306,-0.30412423610687256,0.03440576376988761,0.04335957843260159,-0.9984669200216689,-0.1768946349620819,0.04121365770697594,0.8166270852088928,3.9441773891448975,-0.1592559814453125,10.048283576965332,0.01049041748046875,0.09937477111816406,0.5384527444839478,-1.2619446516036987,0.005531395319849253,-0.9157320261001587,-0.08411535620689392,1.227993369102478,0.012779430486261845,0.9454871416091919,-0.2447165697813034,-0.9424353241920471,0.2149614691734314,0.1810101419687271,1.1659799814224243,-0.2947560250759125,-0.001225421903654933,-0.3130006790161133,0.086785688996315,0.09021896868944168,0.727664589881897,-0.47919923067092896,-0.018348760902881622,0.01766706071794033,-0.02172636054456234,0.47173455357551575,0.1946231722831726,0.002950874622911215,0.28706663846969604,-1.3362505435943604,-0.07995408028364182,-0.023270370438694954,0.6505129933357239,-1.4378395080566406,0.7891365885734558,2.4200305938720703,1.5536878108978271,-4.31479024887085,1.485509991645813,0.20416802167892456,2.9912149906158447,0.19046849012374878,0.5778674483299255,-1.0948867797851562,-0.7086988091468811,0.12054157257080078,1741516764.1962767,1741516763453,-3.6839228515625,-0.5329732666015625,-2.505422989062206,-0.3269001770019531,-1.36190673828125
1741516764.3243556,-0.2850273847579956,0.034785311152116624,0.047735609354790556,-0.9982541228202252,-0.28065869212150574,-0.19527925550937653,0.9285337924957275,0.7638258337974548,1.9358203411102295,12.964591026306152,0.01049041748046875,0.09403419494628906,0.5300602912902832,-1.2569855451583862,0.005531395319849253,-0.9111543297767639,-0.0864042118191719,1.226467490196228,0.013160906732082367,0.9538795948028564,-0.25616082549095154,-0.918402373790741,0.23823148012161255,0.21725031733512878,1.0584038496017456,-0.2718551754951477,0.0028854806441813707,-0.24090181291103363,0.08869306743144989,0.09746700525283813,0.6860837936401367,-0.4859633147716522,-0.014071304351091385,0.02061990089714527,-0.14731433987617493,-0.4700460433959961,0.2335093766450882,-0.005821700673550367,0.2037331610918045,-0.041234105825424194,-0.07118720561265945,0.03707650676369667,0.442656010389328,-0.5478163361549377,1.2530837059020996,0.908995509147644,1.7906605005264282,-5.5674729347229,0.9929143786430359,0.27975550293922424,3.394615411758423,0.0806109830737114,0.25832194089889526,-2.2915399074554443,-0.20527544617652893,-0.028661208227276802,1741516764.1962767,1741516763453,-3.6839228515625,-0.5329732666015625,-2.505422989062206,-0.3269001770019531,-1.36190673828125
1741516764.3443959,-0.2656717300415039,0.027676624034953495,0.05180016613849911,-0.9982738838966247,-0.20377403497695923,-0.30617308616638184,0.9335709810256958,0.5233135223388672,6.927611351013184,4.77974271774292,0.00972747802734375,0.09861183166503906,0.509079098701477,-1.2554595470428467,0.005531395319849253,-0.9088655114173889,-0.07267109304666519,1.227230429649353,0.013160906732082367,0.9565499424934387,-0.2500572204589844,-0.8718623518943787,0.247768372297287,0.25196459889411926,0.9328984618186951,-0.26932936906814575,0.0043647680431604385,-0.15926603972911835,0.08869306743144989,0.08869306743144989,0.647173285484314,-0.4786824882030487,-0.03272588551044464,-0.04443875327706337,0.09218823164701462,-1.3639546632766724,0.06365098059177399,-0.0008595866966061294,0.003079228335991502,1.1480154991149902,0.01463562622666359,-0.011675043031573296,0.17332662642002106,0.5788837671279907,2.6615829467773438,0.35989636182785034,1.6278045177459717,-6.355964660644531,-0.11997608095407486,0.03676091134548187,4.492262363433838,0.09648453444242477,-0.4811301827430725,-1.5587130784988403,0.47271928191185,-1.03566312789917,1741516764.1962767,1741516763453,-3.6839228515625,-0.5329732666015625,-2.505422989062206,-0.3269001770019531,-1.36190673828125
1741516764.3644183,-0.25624024868011475,0.018546581411910505,0.05637750395258215,-0.9982372470339944,-0.2919275462627411,-0.6097103357315063,0.457993745803833,-1.4264403581619263,4.234145641326904,7.486417293548584,0.01049041748046875,0.10853004455566406,0.47398337721824646,-1.2585114240646362,0.005531395319849253,-0.9115357995033264,-0.05092698708176613,1.227230429649353,0.013542382046580315,0.9584572911262512,-0.2298390120267868,-0.8119707107543945,0.24242770671844482,0.26874953508377075,0.8100633025169373,-0.29849886894226074,0.006912122014909983,-0.10433356463909149,0.09708552807569504,0.08068207651376724,0.6467918157577515,-0.46607038378715515,-0.05055517703294754,0.008496909402310848,0.3676525354385376,-1.7348958253860474,-0.2018771916627884,-0.02147909626364708,-0.08199820667505264,1.4968546628952026,-0.004680637735873461,0.03441162779927254,0.10175551474094391,1.0792522430419922,2.817758083343506,-0.4182758033275604,0.7626640796661377,-6.0106024742126465,-1.8345035314559937,0.1987951695919037,2.1955454349517822,0.5462464094161987,-0.2973596751689911,0.4054466187953949,0.6192008256912231,-0.7779079079627991,1741516764.5042899,1741516763753,-3.423070556640625,-0.6091961669921875,-2.5448905150191874,-0.340639892578125,-1.35743408203125
1741516764.384429,-0.25313735008239746,0.011731315455106523,0.06278455866266947,-0.9979581531463264,-0.35190722346305847,-0.1488562971353531,0.0845678374171257,0.6141701340675354,-7.899561882019043,19.102109909057617,0.00591278076171875,0.10318946838378906,0.42820629477500916,-1.2585114240646362,0.005531395319849253,-0.9126802682876587,-0.01926451548933983,1.2260860204696655,0.013160906732082367,0.9588387608528137,-0.20428015291690826,-0.7658121585845947,0.22220951318740845,0.2588311731815338,0.7249943017959595,-0.3379804491996765,0.008198607712984085,-0.09861142933368683,0.11081864684820175,0.07953765243291855,0.726901650428772,-0.44960135221481323,-0.05982000753283501,-0.1357489973306656,-0.11980034410953522,-2.4449431896209717,0.0013665261212736368,-0.014523356221616268,-0.10316523909568787,2.179419994354248,-0.14309722185134888,-0.03740653768181801,0.02738821879029274,1.258753776550293,2.1338560581207275,-0.9679056406021118,-0.9597653150558472,-3.3082802295684814,-1.338424563407898,0.030717458575963974,-0.030841676518321037,0.628813624382019,0.08249635994434357,4.833340167999268,0.9248183369636536,-0.4606800377368927,1741516764.5042899,1741516763753,-3.423070556640625,-0.6091961669921875,-2.5448905150191874,-0.340639892578125,-1.35743408203125
1741516764.4044325,-0.2527710199356079,0.012458600021791763,0.06512685098243928,-0.997799216559428,0.1230546310544014,0.06836841255426407,0.16414053738117218,-5.30690336227417,10.79488754272461,2.955296754837036,0.00514984130859375,0.10471534729003906,0.36602577567100525,-1.2550780773162842,0.006294346414506435,-0.9073395729064941,0.01201647985726595,1.227993369102478,0.013160906732082367,0.959220290184021,-0.17109178006649017,-0.7631418108940125,0.18863965570926666,0.21648737788200378,0.7814526557922363,-0.330842524766922,0.01601928472518921,-0.15316243469715118,0.11539635062217712,0.09632257372140884,0.8806362748146057,-0.4198034107685089,-0.06955807656049728,-0.08338906615972519,0.08590120822191238,-3.247952938079834,0.1605737805366516,0.02852698042988777,0.3368370532989502,2.2622814178466797,0.2254682034254074,0.003987923730164766,0.0649816244840622,1.8668270111083984,-0.2643478512763977,-1.685123324394226,-2.1257755756378174,2.771015167236328,0.008812563493847847,0.5015751123428345,-3.231316328048706,0.6513459086418152,1.0473082065582275,7.933807373046875,1.699320673942566,-0.40628111362457275,1741516764.5042899,1741516763753,-3.423070556640625,-0.6091961669921875,-2.5448905150191874,-0.340639892578125,-1.35743408203125
1741516764.4244788,-0.2593369483947754,0.01015029460526394,0.057313486050766166,-0.9983046307796709,0.34543347358703613,-0.08150719106197357,-0.23427677154541016,-7.189900875091553,6.1381120681762695,9.994186401367188,0.00514984130859375,0.10738563537597656,0.2794308364391327,-1.2646150588989258,0.005531395319849253,-0.9115357995033264,0.051689937710762024,1.226467490196228,0.013542382046580315,0.9588387608528137,-0.16002899408340454,-0.7585641145706177,0.1661325991153717,0.1806286722421646,0.8081559538841248,-0.34640148282051086,0.01233234629034996,-0.25349050760269165,0.14248111844062805,0.12912946939468384,1.0675593614578247,-0.37077561020851135,-0.07393620163202286,-0.12968191504478455,0.2089470475912094,-4.5243449211120605,-0.533417284488678,-0.0062772613018751144,-0.26327449083328247,2.500537395477295,-0.12096784263849258,0.019640721380710602,-0.06844925880432129,0.32198312878608704,0.8339563608169556,-1.1062819957733154,-1.440866231918335,0.9608227014541626,-0.733309805393219,-0.2543550133705139,-4.9309515953063965,1.3150578737258911,1.7972009181976318,9.50151252746582,2.424163341522217,-0.033155910670757294,1741516764.5042899,1741516763753,-3.423070556640625,-0.6091961669921875,-2.5448905150191874,-0.340639892578125,-1.35743408203125
1741516764.4444847,-0.26628267765045166,0.009036299726545105,0.04482671469828239,-0.998953908314398,0.7324665784835815,-0.263291597366333,-0.3682161867618561,-4.5084710121154785,-1.4882234334945679,16.77434539794922,-0.00782012939453125,0.12951087951660156,0.182154580950737,-1.2615631818771362,0.005912871100008488,-0.9134432077407837,0.09746700525283813,1.2253230810165405,0.012779430486261845,0.9580758213996887,-0.16880293190479279,-0.726138710975647,0.14095520973205566,0.17338064312934875,0.811589241027832,-0.3494558334350586,0.011762103997170925,-0.368314653635025,0.1653696447610855,0.16956588625907898,1.2369344234466553,-0.33072978258132935,-0.048966433852910995,-0.3378998637199402,0.7336226105690002,-4.817559242248535,0.21669380366802216,0.01895221322774887,-0.05258270353078842,3.20876407623291,-0.08509103208780289,-0.020721929147839546,-0.09398548305034637,-0.3814601004123688,1.4010151624679565,-0.7229224443435669,-0.4491453766822815,0.10486912727355957,-0.04846389591693878,0.037380583584308624,-5.871969699859619,1.035680890083313,1.8611735105514526,7.883772373199463,1.7069659233093262,1.826428771018982,1741516764.5042899,1741516763753,-3.423070556640625,-0.6091961669921875,-2.5448905150191874,-0.340639892578125,-1.35743408203125
1741516764.4645066,-0.2746303081512451,-0.0008314213106856921,0.027687283332000417,-0.9996162879226697,0.7872981429100037,-0.4385267198085785,-0.4029295742511749,3.020063877105713,-1.225301742553711,9.967409133911133,0.00133514404296875,0.13790321350097656,0.09365224838256836,-1.2623261213302612,0.005531395319849253,-0.9142061471939087,0.15354390442371368,1.226467490196228,0.013160906732082367,0.9546425342559814,-0.17986571788787842,-0.6845578551292419,0.14209964871406555,0.17605096101760864,0.8199816942214966,-0.35119277238845825,0.0073423911817371845,-0.4797055125236511,0.19016556441783905,0.17681391537189484,1.3464179039001465,-0.3299202024936676,-0.007349336985498667,0.1605217158794403,0.2677184045314789,-4.335357666015625,-0.011661402881145477,-0.0013629532186314464,-0.08126228302717209,3.818143844604492,0.1045074537396431,0.018920263275504112,-0.2351219207048416,-0.5574475526809692,2.322859525680542,0.033156104385852814,0.2996947169303894,0.45905664563179016,-0.13223597407341003,-0.31348419189453125,-5.622708797454834,1.2911505699157715,-0.11475734412670135,4.877233982086182,-0.3677297830581665,1.4247428178787231,1741516764.5042899,1741516763753,-3.423070556640625,-0.6091961669921875,-2.5448905150191874,-0.340639892578125,-1.35743408203125
1741516764.484511,-0.2847259044647217,-0.011039342014309833,0.01914807247141341,-0.9997557122860166,0.3585130572319031,-0.5528968572616577,-0.5206635594367981,0.02473033033311367,-3.4556875228881836,9.120821952819824,-0.02536773681640625,0.14515113830566406,0.022697795182466507,-1.2546966075897217,0.005531395319849253,-0.9157320261001587,0.21229113638401031,1.2356228828430176,0.013923857361078262,0.951209306716919,-0.1848248988389969,-0.6437399983406067,0.14286258816719055,0.1806286722421646,0.8211261034011841,-0.36030587553977966,-0.0037724196445196867,-0.5872815847396851,0.1958876997232437,0.15354390442371368,1.3960098028182983,-0.3719773292541504,-0.013516619801521301,-0.7773209810256958,0.19160735607147217,-3.211566686630249,0.5908691883087158,-0.007792056538164616,-0.08709098398685455,3.9407992362976074,0.6520736813545227,0.06080429255962372,-0.2534520626068115,-0.13494956493377686,1.8337205648422241,0.008310399018228054,0.06761268526315689,0.04487898200750351,-0.531112790107727,-0.5717687010765076,-5.406515121459961,-0.08271121978759766,-0.9925661087036133,1.9782365560531616,-2.2752513885498047,-0.17470039427280426,1741516764.5042899,1741516763753,-3.423070556640625,-0.6091961669921875,-2.5448905150191874,-0.340639892578125,-1.35743408203125
1741516764.504585,-0.2962665557861328,-0.01877287760462732,0.018748379899818916,-0.9996479766985845,-0.011871119029819965,-0.2823214828968048,-0.583923876285553,-0.6142488718032837,3.5151216983795166,5.423616886138916,-0.02269744873046875,0.14553260803222656,-0.02841992862522602,-1.2428709268569946,0.00476844422519207,-0.9210727214813232,0.27180132269859314,1.2474485635757446,0.013542382046580315,0.9473945498466492,-0.1813916265964508,-0.6124590039253235,0.1367589831352234,0.17795833945274353,0.8260852694511414,-0.3772484064102173,-0.02248395048081875,-0.6853207945823669,0.1817730963230133,0.12684062123298645,1.3944838047027588,-0.42532721161842346,-0.004193805158138275,0.008355269208550453,0.011431869119405746,-2.5673470497131348,0.772258996963501,-0.07652341574430466,-0.30902931094169617,3.9565589427948,0.7523373365402222,-0.017477143555879593,-0.2860807776451111,0.21108563244342804,1.531882643699646,-0.4061902165412903,-0.17123101651668549,0.30317169427871704,-0.980685293674469,-1.1159905195236206,-4.7208170890808105,-0.5719285607337952,-1.4537409543991089,-0.39914441108703613,-2.757279872894287,0.8071849346160889,1741516764.5042899,1741516763753,-3.423070556640625,-0.6091961669921875,-2.5448905150191874,-0.340639892578125,-1.35743408203125
1741516764.5245793,-0.3101390600204468,-0.01908159297779172,0.01732289038210005,-0.999667849977301,0.06920059025287628,-0.020062079653143883,-0.6987209916114807,-9.299595832824707,-9.685796737670898,10.289106369018555,-0.02803802490234375,0.13027381896972656,-0.07801175117492676,-1.231808066368103,0.005912871100008488,-0.9332799315452576,0.32673379778862,1.2527892589569092,0.013923857361078262,0.9447242021560669,-0.16880293190479279,-0.6067368388175964,0.13179980218410492,0.17071031033992767,0.837911069393158,-0.3977249264717102,-0.0396951399743557,-0.7734416723251343,0.16994735598564148,0.10891126841306686,1.357480764389038,-0.46864786744117737,0.009287949651479721,-0.17969132959842682,-0.4288155436515808,-2.4584035873413086,0.6543038487434387,0.012371438555419445,-0.6518811583518982,3.6559348106384277,0.19711194932460785,-0.0034416194539517164,-0.11604071408510208,0.6694005727767944,-0.05444260314106941,-0.2209315299987793,-0.1817161589860916,0.6131144165992737,-0.9777382016181946,-0.8253765106201172,-4.110011100769043,-0.5396705865859985,-0.7430691123008728,-2.1207239627838135,-1.828911304473877,0.6291860938072205,1741516764.5042899,1741516763753,-3.423070556640625,-0.6091961669921875,-2.5448905150191874,-0.340639892578125,-1.35743408203125
1741516764.5446076,-0.3161306381225586,-0.009190528721560643,0.016044256374896173,-0.9998290433965172,0.06994964182376862,0.632577121257782,-0.3026151657104492,5.374508857727051,-5.769268035888672,6.239948272705078,-0.02803802490234375,0.11043739318847656,-0.12111848592758179,-1.2253230810165405,0.005531395319849253,-0.9538795948028564,0.3725108802318573,1.2524077892303467,0.013160906732082367,0.9458686113357544,-0.15774014592170715,-0.6025406122207642,0.13828489184379578,0.16346226632595062,0.8680475950241089,-0.41735994815826416,-0.043715935200452805,-0.8424887657165527,0.1520180106163025,0.10509651154279709,1.2850003242492676,-0.4714202880859375,0.013707086443901062,-0.017619527876377106,-0.5692974925041199,-2.1087305545806885,0.3673155605792999,0.014809396117925644,-1.0442854166030884,2.916273593902588,-0.0038715479895472527,-0.02440522238612175,0.09825260937213898,0.652701199054718,0.08380495011806488,0.48260197043418884,-0.38799619674682617,1.572271704673767,-1.0214767456054688,-0.20367445051670074,-3.3642067909240723,-0.8328349590301514,-0.09517019987106323,-3.714649200439453,0.2062227874994278,0.20053155720233917,1741516764.5042899,1741516763753,-3.423070556640625,-0.6091961669921875,-2.5448905150191874,-0.340639892578125,-1.35743408203125
1741516764.5646472,-0.3140439987182617,0.003291446593283145,0.01618497915130309,-0.9998635971117238,-0.030535291880369186,0.6089004278182983,0.1531793177127838,0.023639220744371414,-3.563321113586426,10.577777862548828,-0.036049842834472656,0.11081886291503906,-0.14553292095661163,-1.220745325088501,0.005149920005351305,-0.9683756828308105,0.4072251319885254,1.2539336681365967,0.013923857361078262,0.9443427324295044,-0.14362554252147675,-0.6033035516738892,0.14553292095661163,0.15392538905143738,0.9012359976768494,-0.43991562724113464,-0.052736688405275345,-0.892080545425415,0.12607766687870026,0.10624094307422638,1.1697947978973389,-0.4416266083717346,0.012082135304808617,-0.21644240617752075,-0.038959380239248276,-0.9885463714599609,0.3206995129585266,-0.011691347695887089,-0.7027711868286133,2.258897304534912,0.14772532880306244,0.10391634702682495,-0.12389823794364929,0.8173997402191162,0.008978068828582764,0.2332405149936676,-0.47547829151153564,1.7698711156845093,-1.1160141229629517,-0.5656867623329163,-1.925249457359314,-1.4309934377670288,0.13526718318462372,-6.015819072723389,1.6407543420791626,-0.2802450656890869,1741516764.61354,1741516763853,-3.34336669921875,-0.655218505859375,-2.6868585277421984,-0.34277838134765626,-1.3563555908203124
