Freshhhhh-LC/Legged_odom/data/4/segments/booster_seg_9.82s.csv
time,yaw,projected_gravity_x,projected_gravity_y,projected_gravity_z,ang_vel_x,ang_vel_y,ang_vel_z,lin_acc_x,lin_acc_y,lin_acc_z,q_0,q_1,q_2,q_3,q_4,q_5,q_6,q_7,q_8,q_9,q_10,q_11,q_12,q_13,q_14,q_15,q_16,q_17,q_18,q_19,q_20,q_21,q_22,dq_0,dq_1,dq_2,dq_3,dq_4,dq_5,dq_6,dq_7,dq_8,dq_9,dq_10,dq_11,dq_12,dq_13,dq_14,dq_15,dq_16,dq_17,dq_18,dq_19,dq_20,dq_21,dq_22,mocap_time,mocap_timestamp,robot_x,robot_y,robot_yaw,ball_x,ball_y
1741516452.5937693,-1.333818793296814,0.03425241695174217,0.05158610194302934,-0.9980809816940144,-0.3514573574066162,0.34204474091529846,-0.5483247637748718,1.1938198804855347,2.652844190597534,6.753345966339111,-0.15201759338378906,0.23174667358398438,0.42706188559532166,-1.2611817121505737,0.005912871100008488,-0.9454871416091919,0.008964675478637218,1.2443968057632446,0.0024795911740511656,0.9252689480781555,0.2134355753660202,-0.9767681360244751,-0.17757686972618103,-0.14629587531089783,1.356717824935913,-0.41255733370780945,-0.0043737394735217094,-0.3854810297489166,0.03604944050312042,-0.2134355753660202,0.7108796834945679,-0.49865564703941345,-0.04522840678691864,0.5890117883682251,-0.10455702990293503,2.6442739963531494,-0.12154847383499146,0.026509491726756096,0.6294389963150024,-3.0220582485198975,0.078640416264534,-0.08083077520132065,0.1386646330356598,-0.5778422355651855,-1.9387216567993164,1.3781474828720093,0.645916759967804,-4.180211067199707,0.47560209035873413,0.35787439346313477,1.446923017501831,1.020086407661438,0.8751406073570251,0.32209643721580505,-1.2653920650482178,-0.22834965586662292,1741516452.592829,1741516451873,3.1193935546875,1.13722802734375,2.4207267685973246,3.21100390625,0.10072537231445312
1741516452.596375,-1.3415275812149048,0.038281442449235856,0.05401431721336965,-0.9978060857200558,-0.057717423886060715,0.14672976732254028,-0.268405556678772,-8.083366394042969,-5.308342456817627,12.830334663391113,-0.13981056213378906,0.23022079467773438,0.47817960381507874,-1.2615631818771362,0.005531395319849253,-0.9267948269844055,-0.03490501269698143,1.2466856241226196,0.0024795911740511656,0.9302281141281128,0.1966506391763687,-0.9840161800384521,-0.14133669435977936,-0.1371404528617859,1.2380788326263428,-0.3971991539001465,0.0002273665159009397,-0.3763256371021271,0.04901960864663124,-0.20733195543289185,0.7124055624008179,-0.5225673317909241,-0.054186854511499405,0.3553144335746765,-0.03323657810688019,2.415050506591797,-0.011082993820309639,-0.012853751890361309,0.9187664985656738,-2.9248931407928467,0.043375834822654724,0.02677040919661522,0.30974388122558594,-0.9633806943893433,-0.036932848393917084,1.8010449409484863,0.4755338728427887,-6.155600070953369,0.7805444002151489,0.13386479020118713,0.22987979650497437,0.6084931492805481,0.1418815702199936,0.12874364852905273,-1.199710726737976,-0.5427426695823669,1741516452.592829,1741516451873,3.1193935546875,1.13722802734375,2.4207267685973246,3.21100390625,0.10072537231445312
1741516452.5984282,-1.3511377573013306,0.00834239376291582,0.033240207804126363,-0.9994125739910635,0.13079285621643066,0.4341607987880707,0.20235297083854675,0.30587658286094666,2.756702184677124,5.852087020874023,-0.09021854400634766,0.5983448028564453,0.47932401299476624,-1.2558410167694092,0.005531395319849253,-0.9336614012718201,-0.12264438718557358,1.2283748388290405,0.002861066721379757,0.9603646993637085,-0.04406042397022247,-0.8577477931976318,0.035667963325977325,0.08220797777175903,1.0614557266235352,-0.4220891296863556,-0.01126711443066597,-0.47932401299476624,0.03452353551983833,-0.03528648987412453,0.7887006998062134,-0.44826632738113403,-0.006274620536714792,0.06964375078678131,0.17578928172588348,0.3856070637702942,0.011042443104088306,-0.0030553960241377354,-0.031693071126937866,-1.3826384544372559,-0.34876057505607605,0.007213690783828497,1.001820683479309,-0.5129115581512451,0.023301685228943825,1.3759490251541138,0.07256893068552017,-7.998903751373291,2.2177906036376953,0.3747521936893463,1.6362690925598145,-0.09240086376667023,0.21896101534366608,0.5519005656242371,-1.6105234622955322,0.22041167318820953,1741516452.592829,1741516451873,3.1193935546875,1.13722802734375,2.4207267685973246,3.21100390625,0.10072537231445312
1741516452.6175659,-1.3512357473373413,0.015220924162025888,0.030639338355661468,-0.9994146058632429,0.12562282383441925,0.2566056251525879,0.003121643792837858,1.416411280632019,0.3120310604572296,7.261236190795898,-0.08449649810791016,0.6246662139892578,0.47779813408851624,-1.2562226057052612,0.005531395319849253,-0.9328984618186951,-0.12340734153985977,1.2226526737213135,0.002861066721379757,0.9706645011901855,-0.054741740226745605,-0.8447775840759277,0.06389715522527695,0.10090028494596481,0.9061951637268066,-0.3783266842365265,-0.0009405314922332764,-0.4495689272880554,0.04749370738863945,-0.03223468363285065,0.7936598658561707,-0.48226121068000793,-0.004874448291957378,0.1387534737586975,0.7255651354789734,-0.1188172772526741,-0.004830222576856613,-0.004874189849942923,0.037479717284440994,0.181759774684906,-0.4264979958534241,0.0022649045567959547,0.6075968742370605,-0.5732972025871277,0.6316299438476562,1.3019527196884155,1.2767680883407593,-7.54520845413208,2.073411703109741,0.6646175980567932,1.4525166749954224,0.8428066968917847,0.13133949041366577,0.2598153352737427,-1.7421025037765503,0.05059007927775383,1741516452.592829,1741516451873,3.1193935546875,1.13722802734375,2.4207267685973246,3.21100390625,0.10072537231445312
1741516452.6375823,-1.3506325483322144,0.018136315302318226,0.03349633415268562,-0.9992742714918594,-0.20186901092529297,0.1673886477947235,0.003989131655544043,21.131357192993164,-14.382835388183594,26.093463897705078,-0.09517860412597656,0.6338214874267578,0.46025025844573975,-1.2546966075897217,0.005531395319849253,-0.9344243407249451,-0.10051880776882172,1.219982385635376,0.002861066721379757,0.9729533791542053,-0.06008239835500717,-0.8245593905448914,0.08449683338403702,0.14248111844062805,0.802815318107605,-0.33638495206832886,0.011207370087504387,-0.4072251319885254,0.06694895774126053,-0.025749599561095238,0.8024337887763977,-0.5009554028511047,-0.009960414841771126,-0.3215228021144867,0.3024056851863861,-1.011759638786316,0.1264886111021042,-0.01843188889324665,-0.032693006098270416,1.770684003829956,-0.1507503241300583,-0.004465299192816019,0.05403747782111168,-0.0850101113319397,0.9560285210609436,1.304479718208313,2.223890542984009,-3.969125986099243,2.243319272994995,0.6657665967941284,2.3869612216949463,0.722541332244873,0.2677994966506958,0.5321530103683472,-0.6282574534416199,-0.040083449333906174,1741516452.592829,1741516451873,3.1193935546875,1.13722802734375,2.4207267685973246,3.21100390625,0.10072537231445312
1741516452.6576123,-1.3478926420211792,0.013626131419047425,0.03438110793875542,-0.9993158999833107,0.09289529174566269,-0.18708227574825287,0.1361907571554184,-7.385369777679443,2.096876382827759,9.669989585876465,-0.08907413482666016,0.6567106246948242,0.42896926403045654,-1.2501189708709717,0.005531395319849253,-0.9290837049484253,-0.0551232174038887,1.2226526737213135,0.0024795911740511656,0.967994213104248,-0.048638131469488144,-0.7806897163391113,0.0879301130771637,0.16346226632595062,0.8363851308822632,-0.3056755065917969,0.029513517394661903,-0.36297398805618286,0.07000076025724411,-0.021553369238972664,0.80663001537323,-0.488023966550827,-0.014406341128051281,0.1428327113389969,0.6441651582717896,-1.8486225605010986,0.27123963832855225,-0.018754761666059494,0.20621532201766968,3.2572171688079834,0.21574002504348755,-0.011537301354110241,-0.31715255975723267,0.765937864780426,2.260324478149414,0.1357378512620926,0.45272934436798096,1.6365597248077393,1.051623821258545,0.915394127368927,2.2090134620666504,0.32036662101745605,0.08252206444740295,0.24234209954738617,0.8129023909568787,-0.7770750522613525,1741516452.592829,1741516451873,3.1193935546875,1.13722802734375,2.4207267685973246,3.21100390625,0.10072537231445312
1741516452.6776824,-1.3436230421066284,0.01331733008617544,0.028825128648688293,-0.9994957532064668,0.21158720552921295,-0.0461987741291523,0.18299439549446106,-0.3916639983654022,-3.457066535949707,13.123013496398926,-0.08525943756103516,0.6628141403198242,0.3686961233615875,-1.2539336681365967,0.005912871100008488,-0.9267948269844055,0.0020981156267225742,1.2241785526275635,0.0024795911740511656,0.9645609259605408,-0.03223468363285065,-0.7513160705566406,0.09594109654426575,0.13103684782981873,0.841725766658783,-0.30986297130584717,0.030908573418855667,-0.33665215969085693,0.06694895774126053,-0.01735713705420494,0.8485923409461975,-0.46520712971687317,-0.03824787586927414,0.11049077659845352,0.26022154092788696,-3.2182235717773438,-0.309038907289505,-0.02114018425345421,0.12988057732582092,3.835158348083496,0.023846538737416267,0.007282515987753868,-0.2762446701526642,0.7726914286613464,1.472082495689392,0.4904768168926239,-1.681592583656311,0.07211869955062866,-0.21057935059070587,-0.031788986176252365,0.8992660641670227,-0.2070630043745041,0.3302534818649292,2.682662010192871,1.046695590019226,-0.8820807337760925,1741516452.592829,1741516451873,3.1193935546875,1.13722802734375,2.4207267685973246,3.21100390625,0.10072537231445312
1741516452.6976671,-1.3429614305496216,0.014576627573941809,0.027751144616069843,-0.9995085772023512,0.045959584414958954,0.11143822968006134,-0.08226116746664047,6.509504795074463,-2.1337976455688477,7.639984130859375,-0.09174442291259766,0.6795988082885742,0.2935454249382019,-1.2558410167694092,0.005149920005351305,-0.9225986003875732,0.06160829961299896,1.2314265966415405,0.002861066721379757,0.9573128819465637,-0.02040894143283367,-0.7120240926742554,0.07572289556264877,0.11081864684820175,0.8485923409461975,-0.31573426723480225,0.031204449012875557,-0.3706035017967224,0.06466010212898254,-0.006294346414506435,0.9718089699745178,-0.4357956051826477,-0.048907313495874405,-0.1664058268070221,0.4986560642719269,-3.853050708770752,-0.10492148250341415,-0.014628958888351917,0.1831832379102707,3.869844675064087,0.689029335975647,0.03223413974046707,-0.4952009618282318,0.4567684531211853,1.9048011302947998,-1.2774479389190674,-0.9850268363952637,0.38050228357315063,-0.35036906599998474,0.18856991827487946,-2.273892879486084,-0.07642027735710144,0.5461823344230652,6.653196334838867,1.6794239282608032,-0.42277851700782776,1741516452.794099,1741516451973,3.155584716796875,1.0363125,2.843250843003632,3.213101318359375,0.10163442993164062
1741516452.717714,-1.356824517250061,0.015394204361284636,0.024659364414212504,-0.9995773778046251,0.19771923124790192,0.047336120158433914,-0.7566207051277161,-6.297282695770264,-1.2107058763504028,11.822046279907227,-0.08220767974853516,0.7013425827026367,0.21992065012454987,-1.2554595470428467,0.005149920005351305,-0.919165313243866,0.11615930497646332,1.2474485635757446,0.004386968910694122,0.951209306716919,-0.010109102353453636,-0.6818875670433044,0.06275273114442825,0.09632257372140884,0.8508812189102173,-0.3288795053958893,0.032460570335388184,-0.46025025844573975,0.06466010212898254,0.001716639962978661,1.1369879245758057,-0.39250296354293823,-0.04719023033976555,0.28623586893081665,0.599510669708252,-3.593421697616577,0.017241861671209335,-0.03589089587330818,0.11975447833538055,3.7215468883514404,0.9583818912506104,0.0627422034740448,-0.4196094870567322,0.4582250416278839,1.488650918006897,-0.5754866003990173,-0.7197646498680115,0.11602023988962173,-0.6059960722923279,-0.1061142310500145,-4.801966190338135,0.11022108048200607,0.2731602191925049,8.409478187561035,2.055567502975464,0.32520484924316406,1741516452.794099,1741516451973,3.155584716796875,1.0363125,2.843250843003632,3.213101318359375,0.10163442993164062
1741516452.73771,-1.380550503730774,0.019194141320799395,0.02024329947982635,-0.999610821152476,0.20745448768138885,0.25336968898773193,-1.2027273178100586,4.624471187591553,-0.5480930805206299,11.326991081237793,-0.08487796783447266,0.7070646286010742,0.14705882966518402,-1.2531707286834717,0.005531395319849253,-0.9203097820281982,0.16994735598564148,1.2550780773162842,0.004005493130534887,0.9428167939186096,-0.004386968910694122,-0.6464102864265442,0.06198977679014206,0.09555962681770325,0.8535515666007996,-0.3399503827095032,0.01935587264597416,-0.5693522691726685,0.07419699430465698,-0.0024795911740511656,1.3048371076583862,-0.3676096498966217,-0.006858779117465019,-0.08048474043607712,0.19992946088314056,-3.6251707077026367,0.1955755650997162,-0.00979431252926588,-0.06651832908391953,3.5913074016571045,0.4602101445198059,0.0029683876782655716,-0.5821104049682617,0.17158527672290802,1.8501877784729004,-0.0008506606100127101,0.06139392405748367,0.05341411381959915,-0.556283175945282,-0.6628525257110596,-5.4175238609313965,0.41424623131752014,-0.25323647260665894,7.954145431518555,0.9615973234176636,2.1625001430511475,1741516452.794099,1741516451973,3.155584716796875,1.0363125,2.843250843003632,3.213101318359375,0.10163442993164062
1741516452.7577512,-1.4052973985671997,0.021277155577204453,0.017700354775018967,-0.9996169166692719,0.15778331458568573,0.07430751621723175,-1.227921485900879,-1.3669915199279785,-2.158350944519043,11.834745407104492,-0.09021854400634766,0.7200355529785156,0.07801175117492676,-1.2485930919647217,0.005531395319849253,-0.9206912517547607,0.22411687672138214,1.2611817121505737,0.004386968910694122,0.9325169920921326,-0.008201723918318748,-0.6086442470550537,0.0722896158695221,0.09670405089855194,0.8504997491836548,-0.3522031009197235,0.013004391454160213,-0.6727321147918701,0.07877469807863235,-0.011635004542768002,1.4158464670181274,-0.38129645586013794,0.00013575161574408412,-0.14094842970371246,0.4147019386291504,-3.2032837867736816,0.32764261960983276,-0.002757234964519739,-0.012137950398027897,3.6008622646331787,0.40291813015937805,0.022675227373838425,-0.713945209980011,-0.2546123266220093,1.8312199115753174,0.5307475328445435,0.039054326713085175,-0.19809949398040771,-0.657287061214447,-0.1727796196937561,-5.032360076904297,0.21262547373771667,-0.5697950720787048,4.976600646972656,-0.9547058343887329,-0.1553645133972168,1741516452.794099,1741516451973,3.155584716796875,1.0363125,2.843250843003632,3.213101318359375,0.10163442993164062
1741516452.7777717,-1.4234880208969116,0.021498262434992643,0.016628158466476996,-0.999630596299598,0.0513630248606205,0.014862358570098877,-0.7984724044799805,1.3249022960662842,-6.630698204040527,11.630643844604492,-0.10471534729003906,0.7337684631347656,0.02193484455347061,-1.2424894571304321,0.005531395319849253,-0.9187838435173035,0.2786678969860077,1.2657594680786133,0.004005493130534887,0.9199283123016357,-0.007438773289322853,-0.5613412857055664,0.08106355369091034,0.09975585341453552,0.8443961143493652,-0.3668702244758606,0.0034811256919056177,-0.7555122971534729,0.08182650804519653,-0.0398641936480999,1.4494163990020752,-0.415824294090271,-0.013928614556789398,-0.4385835528373718,0.4260272681713104,-2.6700165271759033,0.3477872610092163,0.00044086924754083157,0.07282011210918427,3.5577285289764404,0.2543848156929016,-0.0349363274872303,-0.9156016707420349,-0.04629485309123993,2.40925931930542,0.3243042528629303,0.11975234746932983,-0.35990092158317566,-0.7064754366874695,-0.5635829567909241,-3.740185260772705,0.07105200737714767,-1.314133644104004,1.0071719884872437,-1.7120773792266846,-0.564397931098938,1741516452.794099,1741516451973,3.155584716796875,1.0363125,2.843250843003632,3.213101318359375,0.10163442993164062
1741516452.7977943,-1.4309200048446655,0.020566600274015703,0.01920526347048909,-0.9996040079992666,-0.14651933312416077,-0.05172106251120567,-0.3920605778694153,0.6604321599006653,-0.9617169499397278,11.038005828857422,-0.11501502990722656,0.7425422668457031,-0.02994582988321781,-1.2432523965835571,0.005531395319849253,-0.9149690866470337,0.3278782367706299,1.2714815139770508,0.004005493130534887,0.9027618765830994,-0.01125352829694748,-0.5106050372123718,0.08907453715801239,0.09746700525283813,0.8257037997245789,-0.3843434154987335,-0.0017149189952760935,-0.813878059387207,0.0711451917886734,-0.06084534898400307,1.4101243019104004,-0.44053977727890015,0.010159866884350777,-0.3245820701122284,0.2786954939365387,-2.9278833866119385,-0.07096971571445465,0.004979603458195925,0.23196221888065338,3.212794303894043,0.41054779291152954,0.0426582507789135,-1.2015392780303955,-0.1639193445444107,2.512192726135254,0.400067001581192,-0.09925343841314316,-0.9997539520263672,-0.8881596922874451,-0.1520029902458191,-2.7535743713378906,-0.512951672077179,-1.03396475315094,-2.4287467002868652,-1.0450233221054077,1.5094882249832153,1741516452.794099,1741516451973,3.155584716796875,1.0363125,2.843250843003632,3.213101318359375,0.10163442993164062
1741516452.8177993,-1.4343417882919312,0.02043010265860771,0.021783204650853358,-0.9995539519708267,-0.11128433793783188,0.018206879496574402,-0.11404526233673096,-0.4181295931339264,-0.3835231065750122,8.24628734588623,-0.11997413635253906,0.7452125549316406,-0.08106355369091034,-1.2443968057632446,0.005149920005351305,-0.9119172692298889,0.3709849715232849,1.2787295579910278,0.004386968910694122,0.881017804145813,-0.013542382046580315,-0.45910581946372986,0.09365224838256836,0.09403372555971146,0.8054856061935425,-0.40595781803131104,-0.0056231520138680935,-0.8497368097305298,0.0558861680328846,-0.07763027399778366,1.3189517259597778,-0.4403497278690338,0.013254993595182896,-0.1554708033800125,0.09415899217128754,-2.3858675956726074,-0.033832285553216934,-0.03067423589527607,0.1286240667104721,2.924124240875244,0.47506481409072876,-0.007833993062376976,-1.4639830589294434,-0.030741551890969276,2.5515620708465576,0.20961201190948486,-0.1884927600622177,-0.993034303188324,-1.160781741142273,-0.16364921629428864,-1.6309269666671753,-0.9006105661392212,-0.8505380153656006,-4.891735076904297,0.22988900542259216,-0.1360258013010025,1741516452.794099,1741516451973,3.155584716796875,1.0363125,2.843250843003632,3.213101318359375,0.10163442993164062
1741516452.8378305,-1.4400306940078735,0.022242686030034146,0.02485676679946603,-0.9994435472113702,-0.13732436299324036,0.09135105460882187,-0.3053993880748749,3.7183477878570557,0.4433118999004364,5.115113258361816,-0.12111854553222656,0.7471199035644531,-0.10929274559020996,-1.2436338663101196,0.005149920005351305,-0.9065766334533691,0.41561761498451233,1.2813999652862549,0.004386968910694122,0.8588922023773193,-0.0013351644156500697,-0.4217212200164795,0.09250781685113907,0.08525978773832321,0.7825970649719238,-0.43322843313217163,-0.008475041016936302,-0.8638513684272766,0.032616160809993744,-0.08945601433515549,1.196879506111145,-0.40840017795562744,0.004359571263194084,-0.06271114945411682,0.05833319202065468,-1.1862603425979614,0.030768003314733505,-0.0019137546187266707,0.24796873331069946,2.7616159915924072,0.06978718191385269,-0.012717371806502342,-1.4535642862319946,0.6908389329910278,1.5839890241622925,-0.10005899518728256,-0.5721696615219116,-1.1909682750701904,-1.4015034437179565,-0.08996643126010895,-0.48071548342704773,-1.2523857355117798,-0.6436190009117126,-6.361663818359375,1.8668100833892822,-0.2642635703086853,1741516452.794099,1741516451973,3.155584716796875,1.0363125,2.843250843003632,3.213101318359375,0.10163442993164062
1741516452.8578568,-1.445349097251892,0.026722963721929675,0.026712253314794075,-0.9992859144072644,-0.09253416955471039,0.35091638565063477,-0.2538401782512665,0.49796003103256226,0.06354537606239319,6.1807122230529785,-0.12455177307128906,0.7421607971191406,-0.11615930497646332,-1.2440153360366821,0.005149920005351305,-0.9088655114173889,0.44079500436782837,1.2802555561065674,0.004386968910694122,0.8447775840759277,0.02727550081908703,-0.3850995600223541,0.08602273464202881,0.06580453366041183,0.7658121585845947,-0.4591462314128876,-0.008919710293412209,-0.8516441583633423,0.0013351644156500697,-0.11005569249391556,1.0530632734298706,-0.3601096570491791,5.8092544350074604e-05,-0.11806772649288177,-0.14340241253376007,-0.22710423171520233,-0.029785310849547386,-0.0008128697518259287,-0.17044664919376373,1.474373698234558,-0.030280912294983864,-0.005110941827297211,-0.8782514333724976,1.510274887084961,2.0562310218811035,-0.42708539962768555,-1.0976792573928833,-0.7507487535476685,-1.2489417791366577,-0.006890709511935711,0.7203633189201355,-1.6172449588775635,-1.0821795463562012,-7.282192707061768,2.481616258621216,-0.26613566279411316,1741516452.8943856,1741516452073,3.183951171875,0.9269897460937501,2.9047882871070647,3.21429443359375,0.1022673568725586
1741516452.8779004,-1.4508272409439087,0.033486650039040555,0.027883920255953355,-0.9990501144889191,-0.0315873809158802,0.2580699622631073,-0.2541239559650421,1.0378973484039307,-1.0725047588348389,5.641844272613525,-0.12798500061035156,0.7406349182128906,-0.1035706102848053,-1.2440153360366821,0.005149920005351305,-0.9092469811439514,0.4495689272880554,1.2798740863800049,0.004386968910694122,0.8371480703353882,0.06046387553215027,-0.3534370958805084,0.06961929053068161,0.045204851776361465,0.7536049485206604,-0.4766501188278198,-0.011447076685726643,-0.8329518437385559,-0.03032730519771576,-0.14057374000549316,0.89131760597229,-0.31280896067619324,-0.0025454063434153795,-0.09168070554733276,-0.0006078602746129036,0.8176847100257874,-0.0001411402045050636,-0.0023905588313937187,0.011291596107184887,0.46809089183807373,-0.02504638209939003,0.0013739720452576876,-0.5233120918273926,1.5529857873916626,1.484067678451538,-1.002258539199829,-0.9479885697364807,-0.5335212349891663,-0.7653180956840515,-0.18334868550300598,0.9827677607536316,-1.5488507747650146,-1.6004834175109863,-8.379629135131836,2.1851954460144043,-0.167032390832901,1741516452.8943856,1741516452073,3.183951171875,0.9269897460937501,2.9047882871070647,3.21429443359375,0.1022673568725586
1741516452.897926,-1.4526277780532837,0.038006109320241344,0.025459208331219788,-0.9989531342187608,0.13488531112670898,0.27902454137802124,-0.05841638520359993,3.7210636138916016,5.20686674118042,8.035290718078613,-0.12760353088378906,0.7398719787597656,-0.07343403995037079,-1.2440153360366821,0.005149920005351305,-0.9081025123596191,0.44689860939979553,1.2775851488113403,0.004386968910694122,0.8329518437385559,0.086785688996315,-0.3221561014652252,0.045204851776361465,0.03757534176111221,0.7681010365486145,-0.47784754633903503,-0.015037198550999165,-0.7986190319061279,-0.056267641484737396,-0.16193637251853943,0.7360570430755615,-0.2860056757926941,-0.00792086124420166,0.005081620067358017,-0.04073598235845566,1.4947651624679565,-0.007649335544556379,-0.013532410375773907,0.028477894142270088,-0.31093403697013855,-0.1507842093706131,9.431791113456711e-05,-0.24386808276176453,1.188297152519226,1.616452932357788,-1.0533593893051147,-0.12152717262506485,1.0359177589416504,0.05430082231760025,-0.12067853659391403,1.7690176963806152,-1.3914068937301636,-1.01220703125,-7.490215301513672,1.243840217590332,-0.3888899087905884,1741516452.8965611,1741516452173,3.20049365234375,0.8199456787109375,2.6822030903428673,3.215193603515625,0.10297135925292969
1741516452.9178987,-1.4534491300582886,0.03411542128272757,0.01618041976710543,-0.9992869117760236,0.4741291105747223,-0.4017292857170105,-0.006736652459949255,-13.73061752319336,-8.957335472106934,10.30966854095459,-0.11654090881347656,0.7753486633300781,-0.027656977996230125,-1.2478300333023071,0.005531395319849253,-0.9042877554893494,0.42858776450157166,1.2714815139770508,0.004386968910694122,0.8295185565948486,0.09250781685113907,-0.3091859221458435,0.0551232174038887,0.02880140393972397,0.8173113465309143,-0.4731280207633972,-0.0124299181625247,-0.7711527943611145,-0.053215838968753815,-0.1813916265964508,0.7310978770256042,-0.24515654146671295,-0.02867506816983223,0.2846389412879944,1.1275042295455933,2.458071231842041,-0.40415075421333313,0.0024838647805154324,0.21842817962169647,-1.2886159420013428,-0.4319411516189575,0.0018944739131256938,-0.32038018107414246,0.02985907904803753,0.3800213932991028,0.4781211018562317,-0.30836471915245056,2.7053475379943848,0.34336617588996887,0.14839066565036774,1.8251441717147827,0.759844183921814,-0.8342986106872559,1.204685926437378,1.9147567749023438,-1.1653608083724976,1741516452.8965611,1741516452173,3.20049365234375,0.8199456787109375,2.6822030903428673,3.215193603515625,0.10297135925292969
1741516452.937951,-1.4585801362991333,0.04195187286159678,0.01364494893785809,-0.9990264539700077,0.08200851827859879,0.38124343752861023,-0.20678284764289856,5.718496799468994,6.5947265625,5.580161094665527,-0.14019203186035156,0.7764930725097656,0.03490501269698143,-1.2573670148849487,0.005912871100008488,-0.8916990756988525,0.3866254687309265,1.2730075120925903,0.004386968910694122,0.8283741474151611,0.08487831056118011,-0.3229190409183502,0.05436026677489281,0.02536812424659729,0.9077210426330566,-0.4449443817138672,-0.00345517392270267,-0.7406347990036011,-0.03833829239010811,-0.1493476778268814,0.7524605393409729,-0.24229207634925842,-0.04020698368549347,-0.7031369805335999,0.11653536558151245,3.173938512802124,-0.5421995520591736,0.057111211121082306,0.7135900855064392,-3.090731620788574,0.2352111041545868,0.022751420736312866,-0.04759235307574272,-0.24686135351657867,-1.1316404342651367,-0.03456348925828934,-0.40907546877861023,5.132485389709473,1.6056602001190186,0.5929094552993774,1.109859824180603,0.7059688568115234,2.244004726409912,0.3653448224067688,-0.03545944392681122,-0.3555448055267334,1741516452.8965611,1741516452173,3.20049365234375,0.8199456787109375,2.6822030903428673,3.215193603515625,0.10297135925292969
1741516452.9579895,-1.463882327079773,0.04343977771833549,0.010105045558567559,-0.9990049418126223,0.16566233336925507,0.1531432718038559,-0.22241973876953125,-2.1437437534332275,-1.236925721168518,13.146408081054688,-0.13561439514160156,0.787175178527832,0.1024261862039566,-1.2642335891723633,0.005531395319849253,-0.8726252913475037,0.3229190409183502,1.2733889818191528,0.004386968910694122,0.8279926776885986,0.07763027399778366,-0.3770885765552521,0.048256658017635345,-0.004386968910694122,1.0450522899627686,-0.40123310685157776,0.010490622371435165,-0.7047760486602783,-0.008201723918318748,-0.10776684433221817,0.7528420090675354,-0.2407660186290741,-0.028230534866452217,0.06479328125715256,0.21140478551387787,3.1769816875457764,-0.5445998907089233,0.013551131822168827,0.9451330900192261,-4.441807746887207,-0.09979743510484695,-0.038233209401369095,-0.060610219836235046,-0.5509500503540039,-2.8584375381469727,-0.4525505602359772,-1.7423653602600098,7.169701099395752,2.261934518814087,0.6853948831558228,2.123018741607666,1.5624229907989502,1.72928786277771,0.3737049996852875,0.22319066524505615,0.599698543548584,1741516453.0069592,1741516452273,3.20866259765625,0.7050404052734375,1.8178805029217777,3.2155578613281253,0.10345404815673828
1741516452.9779975,-1.459229588508606,0.04291267920426232,0.015785850386183502,-0.9989541074999877,-0.35729464888572693,-0.11818283796310425,0.3335350453853607,1.302253246307373,1.458175778388977,11.613454818725586,-0.16002941131591797,0.8096818923950195,0.16384375095367432,-1.2741519212722778,0.005149920005351305,-0.8516441583633423,0.25349050760269165,1.2752963304519653,0.004005493130534887,0.8226520419120789,0.07763027399778366,-0.46063172817230225,0.010490577667951584,-0.04177157208323479,1.204890489578247,-0.3556159436702728,0.011549289338290691,-0.6704432964324951,0.011635004542768002,-0.07572289556264877,0.7524605393409729,-0.22838261723518372,-0.027020329609513283,-0.630989670753479,0.6487401127815247,3.0581798553466797,-0.5704478025436401,-0.06389907002449036,1.0300079584121704,-4.560408592224121,0.2310277670621872,-0.012567419558763504,-0.3750566244125366,0.0837196633219719,-4.547587871551514,-1.8727377653121948,-1.875695824623108,7.886931419372559,2.0879249572753906,-0.09391902387142181,1.7181527614593506,0.6318018436431885,1.5866550207138062,-0.16121920943260193,0.7002531290054321,0.09726901352405548,1741516453.0069592,1741516452273,3.20866259765625,0.7050404052734375,1.8178805029217777,3.2155578613281253,0.10345404815673828
1741516452.998018,-1.4498788118362427,0.03989173039998617,0.0214259866884967,-0.9989742624012489,-0.23710224032402039,-0.1222156435251236,0.5535006523132324,-2.356428861618042,-0.8551371693611145,11.603711128234863,-0.15697765350341797,0.816929817199707,0.22182802855968475,-1.2810184955596924,0.005912871100008488,-0.8279926776885986,0.19130998849868774,1.2752963304519653,0.004005493130534887,0.8154039978981018,0.07877469807863235,-0.5518043637275696,-0.03337911143898964,-0.057793546468019485,1.348706841468811,-0.34380868077278137,0.005623961798846722,-0.6246662139892578,0.013160906732082367,-0.06847485899925232,0.7490272521972656,-0.2031431347131729,-0.018129199743270874,0.021080637350678444,0.22829458117485046,3.026520252227783,-0.6387298703193665,0.04438410699367523,1.212231159210205,-4.119981288909912,-0.03891219571232796,-0.017288286238908768,-0.4370543956756592,0.011226831004023552,-4.571590423583984,-2.1274566650390625,-0.49789831042289734,6.804266452789307,0.1642555147409439,-0.13358376920223236,2.3351240158081055,0.0746985599398613,0.13548877835273743,-0.05525553971529007,1.3185549974441528,0.41313087940216064,1741516453.0069592,1741516452273,3.20866259765625,0.7050404052734375,1.8178805029217777,3.2155578613281253,0.10345404815673828
1741516453.018051,-1.4328409433364868,0.03524365785891928,0.02170329937716734,-0.9991430585140791,-0.014989922754466534,-0.31390121579170227,0.8434060215950012,-3.32686185836792,-0.7051728367805481,13.666584968566895,-0.14934730529785156,0.8371477127075195,0.273708701133728,-1.2928441762924194,0.005531395319849253,-0.8031967878341675,0.1363775134086609,1.2726260423660278,0.0024795911740511656,0.8062485456466675,0.06961929053068161,-0.6372548937797546,-0.04787518084049225,-0.04291599988937378,1.4303425550460815,-0.3740308880805969,0.011400500312447548,-0.5918593406677246,0.01888304017484188,-0.06275273114442825,0.7509346008300781,-0.19204522669315338,-0.022293511778116226,0.22197970747947693,0.5854496359825134,2.4524877071380615,-0.7105787992477417,-0.007668171543627977,1.2091588973999023,-3.5664803981781006,-0.22665920853614807,-0.07279649376869202,-0.6875025629997253,-0.46690160036087036,-4.102734565734863,-0.3994390666484833,0.8308259844779968,3.445490598678589,-1.7415255308151245,0.3529815375804901,1.5064440965652466,0.3055266737937927,0.525509238243103,0.09353738278150558,0.29483434557914734,-0.3185049295425415,1741516453.0069592,1741516452273,3.20866259765625,0.7050404052734375,1.8178805029217777,3.2155578613281253,0.10345404815673828
1741516453.038063,-1.4179021120071411,0.03136404623237429,0.022922992392111253,-0.9992451315987108,-0.13229826092720032,-0.12572646141052246,0.5936217904090881,-0.47256457805633545,-0.7009688019752502,7.887660980224609,-0.14782142639160156,0.8447780609130859,0.31528952717781067,-1.2993292808532715,0.005149920005351305,-0.7837415337562561,0.09098191559314728,1.2718631029129028,0.0024795911740511656,0.7940413355827332,0.06351567804813385,-0.7150759100914001,-0.057793546468019485,-0.008201723918318748,1.440260887145996,-0.42114317417144775,0.004153766669332981,-0.5567635893821716,0.03337911143898964,-0.03452353551983833,0.7475013136863708,-0.19716259837150574,-0.014967900700867176,0.07983672618865967,0.28206878900527954,1.982354998588562,-0.4264839291572571,-0.044590409845113754,0.8668946027755737,-2.930528163909912,-0.00017433443281333894,0.015272543765604496,-0.8738095164299011,-0.2807183861732483,-4.044996738433838,-0.49065038561820984,1.895765781402588,0.02056131698191166,-2.2939260005950928,-0.6227166056632996,1.9181169271469116,0.6909357309341431,1.5315921306610107,-0.25525474548339844,-0.29119473695755005,0.5013840198516846,1741516453.0069592,1741516452273,3.20866259765625,0.7050404052734375,1.8178805029217777,3.2155578613281253,0.10345404815673828
1741516453.0580745,-1.4098576307296753,0.03280274234901117,0.025713891747410962,-0.9991310103612974,-0.12931743264198303,0.05180643871426582,0.29502010345458984,-0.43893539905548096,1.098107933998108,9.700186729431152,-0.14438819885253906,0.8466854095458984,0.3427557647228241,-1.299710750579834,0.005531395319849253,-0.7696269154548645,0.04100862145423889,1.2787295579910278,0.0024795911740511656,0.7845044732093811,0.07495994865894318,-0.7909895181655884,-0.06351567804813385,0.01430533267557621,1.3952468633651733,-0.45169442892074585,-0.011921552009880543,-0.5281528830528259,0.04329747334122658,-0.004005493130534887,0.734912633895874,-0.21175144612789154,-0.0034723866265267134,0.1143033429980278,0.078341044485569,1.283831238746643,-0.03405320271849632,0.011650005355477333,0.6885062456130981,-3.637568473815918,0.4494275450706482,0.009043656289577484,-0.5530082583427429,0.7951785326004028,-3.742302179336548,-0.23073747754096985,0.9748184680938721,-2.599902391433716,-1.2350225448608398,-0.5869622826576233,1.2729817628860474,0.46042126417160034,1.4011683464050293,-0.6751903891563416,-0.8103897571563721,0.4778442680835724,1741516453.101244,1741516452373,3.23156298828125,0.6186052246093751,1.6529825503869653,3.215987060546875,0.10371939086914063
1741516453.0781438,-1.4042648077011108,0.038843211569361075,0.0283161135866669,-0.9988440331835221,-0.1737111359834671,0.32221224904060364,0.24450315535068512,-3.318495273590088,-1.3073943853378296,5.992373943328857,-0.14400672912597656,0.8401994705200195,0.3614480793476105,-1.301236629486084,0.005531395319849253,-0.7589455842971802,-0.010490577667951584,1.2806370258331299,0.0024795911740511656,0.7837415337562561,0.09555962681770325,-0.8512626886367798,-0.06656748056411743,0.024605173617601395,1.3094148635864258,-0.4450981616973877,-0.011159288696944714,-0.5079346895217896,0.04749370738863945,0.010109102353453636,0.726138710975647,-0.2352687418460846,-0.0006093281554058194,0.00030276819597929716,-0.18857796490192413,0.9435193538665771,-0.11546079814434052,-0.004581640474498272,0.5317255258560181,-3.191159248352051,0.053965676575899124,-0.012934522703289986,0.09404955804347992,0.9885668754577637,-2.8297550678253174,-0.07432134449481964,0.520097553730011,-4.534297466278076,0.664665699005127,-0.015553779900074005,1.1763801574707031,0.15832258760929108,0.6483785510063171,-0.23424658179283142,-1.2249908447265625,0.060375895351171494,1741516453.101244,1741516452373,3.23156298828125,0.6186052246093751,1.6529825503869653,3.215987060546875,0.10371939086914063
1741516453.098094,-1.396764874458313,0.05204159579705507,0.03394256527942715,-0.9980679208195942,-0.2920711636543274,0.6609218120574951,0.40389496088027954,7.632965087890625,0.834507942199707,4.475762367248535,-0.14782142639160156,0.838292121887207,0.38014039397239685,-1.2993292808532715,0.005531395319849253,-0.7486457824707031,-0.04482337832450867,1.2802555561065674,0.0024795911740511656,0.7864118218421936,0.10509651154279709,-0.8875028491020203,-0.06389715522527695,0.02841992862522602,1.195353627204895,-0.40419265627861023,-0.012206105515360832,-0.49305713176727295,0.049782559275627136,0.02079041674733162,0.7299534678459167,-0.26260313391685486,0.0015955249546095729,-0.12732991576194763,-0.05597728490829468,0.8255696296691895,0.2135678231716156,-0.011855274438858032,0.4792419373989105,-2.064485788345337,-0.006015818100422621,0.007576723117381334,0.1193353608250618,0.4133835732936859,-1.8063052892684937,0.1778092384338379,0.15311166644096375,-6.173415184020996,2.1291964054107666,0.031114239245653152,0.704517662525177,0.14222033321857452,0.5255255699157715,0.19604291021823883,-1.3902255296707153,0.11438009887933731,1741516453.101244,1741516452373,3.23156298828125,0.6186052246093751,1.6529825503869653,3.215987060546875,0.10371939086914063
1741516453.1181676,-1.3912409543991089,0.06279299147298982,0.03577710259367886,-0.9973851007268327,-0.052866555750370026,0.5335690379142761,0.26250720024108887,-2.85685658454895,3.0147745609283447,6.134451866149902,-0.14400672912597656,0.837529182434082,0.3854810297489166,-1.2928441762924194,0.005531395319849253,-0.7398717999458313,-0.06237125024199486,1.2802555561065674,0.0024795911740511656,0.7864118218421936,0.10547798871994019,-0.9054322242736816,-0.05359731614589691,0.02689402550458908,1.0515373945236206,-0.3553752601146698,-0.005654444918036461,-0.4800869822502136,0.05359731614589691,0.03223468363285065,0.7463569045066833,-0.29433050751686096,0.006019769702106714,0.0696106106042862,-0.006752465385943651,0.15160557627677917,0.395084947347641,-0.004793914500623941,0.40078169107437134,-1.0408637523651123,-0.0014838379574939609,0.0004115336632821709,0.0034110553096979856,-0.06403802335262299,-0.47835904359817505,0.5827153921127319,-0.08395911753177643,-7.231247425079346,2.378910779953003,0.3592328131198883,0.7413713335990906,0.285473495721817,0.5610281825065613,0.9967091679573059,-1.6502083539962769,0.1808139830827713,1741516453.101244,1741516452373,3.23156298828125,0.6186052246093751,1.6529825503869653,3.215987060546875,0.10371939086914063
1741516453.1381524,-1.3887709379196167,0.07266282593565454,0.031361826672090996,-0.9968633555080829,0.2340550422668457,0.4166281223297119,0.09563305228948593,-0.9425983428955078,1.7972487211227417,3.751574993133545,-0.12264442443847656,0.8432512283325195,0.37975889444351196,-1.2936071157455444,0.005531395319849253,-0.734149694442749,-0.06351567804813385,1.2802555561065674,0.0024795911740511656,0.7848859429359436,0.09479667246341705,-0.8878843188285828,-0.03032730519771576,0.026512550190091133,0.89131760597229,-0.3061142861843109,0.0006182544748298824,-0.47741663455963135,0.0715266615152359,0.03643091395497322,0.7806897163391113,-0.3251654803752899,0.0007595615461468697,0.6086254119873047,0.19677294790744781,-0.3330446183681488,-0.14467063546180725,-0.005099905654788017,0.26101505756378174,0.07337003201246262,-0.017837582156062126,0.006577666848897934,-0.09209023416042328,-0.6226722598075867,1.0941694974899292,1.2592689990997314,0.02592664584517479,-8.396366119384766,2.357546329498291,0.2661759853363037,-0.13335557281970978,1.004429578781128,0.05868341773748398,1.895188331604004,-1.5259612798690796,-0.3341277241706848,1741516453.101244,1741516452373,3.23156298828125,0.6186052246093751,1.6529825503869653,3.215987060546875,0.10371939086914063
1741516453.1581852,-1.394177794456482,0.07703400098270384,0.02672054045770455,-0.9966703444019216,0.22017061710357666,0.20588956773281097,-0.33902445435523987,0.4642353951931,-1.4372518062591553,6.6566972732543945,-0.12111854553222656,0.8550777435302734,0.369840532541275,-1.295896053314209,0.005531395319849253,-0.7360570430755615,-0.051689937710762024,1.2798740863800049,0.0024795911740511656,0.7841230034828186,0.07953765243291855,-0.8440146446228027,-0.007057297509163618,0.03490501269698143,0.7303349375724792,-0.2763931155204773,0.004949824418872595,-0.49000534415245056,0.10090028494596481,0.02079041674733162,0.840199887752533,-0.3391433656215668,-0.004223313648253679,0.10154726356267929,0.341525673866272,-0.529090940952301,-0.0922325849533081,-0.0026758809108287096,-0.15262362360954285,0.8688129782676697,-0.023012440651655197,0.002934637013822794,-0.03683841601014137,-0.7003836631774902,2.270475387573242,0.9279381036758423,0.674832284450531,-8.047657012939453,1.2571635246276855,0.23608136177062988,-0.5894927382469177,1.588653326034546,-0.9786409735679626,3.1545486450195312,-0.47124993801116943,-0.1928398758172989,1741516453.211749,1741516452473,3.255506591796875,0.5328530273437501,-1.6477540530436972,3.215913818359375,0.10410586547851562
1741516453.1782405,-1.4073559045791626,0.07315156138974903,0.03025418263032996,-0.9968618427342941,-0.17712131142616272,-0.3282679617404938,-0.6268909573554993,-14.086761474609375,0.16134992241859436,18.72734832763672,-0.12951087951660156,0.8836879730224609,0.3599221706390381,-1.2936071157455444,0.005531395319849253,-0.735675573348999,-0.03147173300385475,1.2802555561065674,0.0020981156267225742,0.7822155952453613,0.07991912961006165,-0.8112077713012695,0.005531395319849253,0.06580453366041183,0.7059205174446106,-0.22835864126682281,0.008976905606687069,-0.50030517578125,0.10013733059167862,0.001716639962978661,0.9134432077407837,-0.33656445145606995,-0.015769872814416885,-0.28237271308898926,0.933590829372406,-0.5319564342498779,0.18782036006450653,0.0007162070251069963,0.13382789492607117,1.4733954668045044,0.03509117290377617,-0.01718393713235855,-0.17332978546619415,0.3311169445514679,1.6419962644577026,0.446702241897583,1.4323229789733887,0.8363280296325684,2.574230432510376,0.5328897833824158,-0.6767711639404297,-0.5948821902275085,-0.8530007600784302,3.4994986057281494,0.16744773089885712,-0.6403787732124329,1741516453.211749,1741516452473,3.255506591796875,0.5328530273437501,-1.6477540530436972,3.215913818359375,0.10410586547851562
1741516453.198237,-1.4147368669509888,0.07556053814280568,0.02860204738234439,-0.9967309205402969,0.15911217033863068,0.08006475120782852,-0.46055182814598083,5.4885687828063965,-0.02236347831785679,5.182744979858398,-0.11615943908691406,0.8920803070068359,0.3282597064971924,-1.2928441762924194,0.005531395319849253,-0.734149694442749,0.007438773289322853,1.2859776020050049,0.0013351644156500697,0.7795453071594238,0.09517814964056015,-0.802815318107605,0.010109102353453636,0.031090257689356804,0.7558938264846802,-0.20305517315864563,0.028245287016034126,-0.506790280342102,0.10013733059167862,-0.03376058489084244,0.9794384837150574,-0.3183734118938446,-0.030650591477751732,0.39621421694755554,0.46002596616744995,-1.8834184408187866,-0.08251602947711945,-0.005372568499296904,0.007731654681265354,2.792879581451416,0.3797867000102997,0.0027715398464351892,-0.2462523728609085,0.42880621552467346,0.3644810616970062,0.7458078861236572,-2.4561173915863037,1.872567057609558,0.9588308930397034,0.6233035922050476,-0.41232597827911377,0.22498802840709686,-1.915767788887024,3.3058958053588867,1.1118052005767822,-0.5743771195411682,1741516453.211749,1741516452473,3.255506591796875,0.5328530273437501,-1.6477540530436972,3.215913818359375,0.10410586547851562
1741516453.2182453,-1.418873906135559,0.06728282248278357,0.03159233956966753,-0.9972336465840215,-0.29391634464263916,-0.419964075088501,-0.12461835145950317,0.04077029600739479,1.6070104837417603,8.179491996765137,-0.12645912170410156,0.9012355804443359,0.2725642919540405,-1.298184871673584,0.005531395319849253,-0.7372015118598938,0.05703059583902359,1.293988585472107,0.0032425422687083483,0.7696269154548645,0.1035706102848053,-0.768482506275177,0.025749599561095238,0.000572213320992887,0.7566567659378052,-0.19778473675251007,-0.0016243475256487727,-0.5247195959091187,0.09784847497940063,-0.05245288833975792,1.053444743156433,-0.27854618430137634,-0.03827759996056557,-0.2871113121509552,0.2694896161556244,-2.666104555130005,-0.2386903166770935,0.0018425380112603307,-0.11115675419569016,3.3242220878601074,0.5866525769233704,0.07606162875890732,-0.7346563339233398,0.5431574583053589,2.1996712684631348,0.15100115537643433,-0.7622058391571045,0.08226262778043747,0.40068671107292175,-1.632540225982666,-1.005219578742981,-0.09827963262796402,-0.5718768835067749,3.9095466136932373,2.091346502304077,-0.42474910616874695,1741516453.211749,1741516452473,3.255506591796875,0.5328530273437501,-1.6477540530436972,3.215913818359375,0.10410586547851562
1741516453.2382956,-1.4442671537399292,0.05484724174112696,0.04553096745914946,-0.9974561198747663,-0.43503785133361816,-0.5661587715148926,-1.1567142009735107,-9.638531684875488,4.398797988891602,13.298809051513672,-0.11959266662597656,0.9107732772827148,0.2153429538011551,-1.295896053314209,0.005149920005351305,-0.7310978770256042,0.09555962681770325,1.314969778060913,0.005149920005351305,0.7543678879737854,0.10204470902681351,-0.7387273907661438,0.03490501269698143,-0.012397955171763897,0.7639048099517822,-0.1773802638053894,-0.0030018265824764967,-0.5651560425758362,0.08983749151229858,-0.06885633617639542,1.1484321355819702,-0.23623254895210266,-0.022114908322691917,0.11038856953382492,0.36234015226364136,-2.6163418292999268,0.15463495254516602,0.060343291610479355,0.4651575982570648,2.5063674449920654,1.450385332107544,0.15683326125144958,-1.0603135824203491,-0.21748106181621552,1.074319839477539,0.6025285124778748,-0.9058669209480286,0.5341159701347351,1.0826829671859741,0.24316197633743286,-2.230243682861328,-0.36608579754829407,-0.9647427797317505,4.540261745452881,1.9000736474990845,1.2004482746124268,1741516453.211749,1741516452473,3.255506591796875,0.5328530273437501,-1.6477540530436972,3.215913818359375,0.10410586547851562
1741516453.258275,-1.4641362428665161,0.050545416501761475,0.04719651383454811,-0.9976059592607337,-0.0868658572435379,-0.12493939697742462,-0.975154459476471,-0.3843457102775574,-1.8825433254241943,12.611945152282715,-0.10242652893066406,0.8951320648193359,0.17338064312934875,-1.293225646018982,0.005531395319849253,-0.7146944403648376,0.13866636157035828,1.3241251707077026,0.002861066721379757,0.7360570430755615,0.09403372555971146,-0.7093538045883179,0.046730753034353256,-0.011635004542768002,0.7875562906265259,-0.15726426243782043,0.0013334533432498574,-0.622377336025238,0.08869306743144989,-0.09403372555971146,1.2380788326263428,-0.23226149380207062,0.005629819352179766,0.42830130457878113,-0.36409273743629456,-2.0616352558135986,0.1267089992761612,-0.018732577562332153,0.7894265651702881,2.9584996700286865,0.4444206655025482,-0.18052610754966736,-1.3205019235610962,-0.28449901938438416,1.4665831327438354,0.6084725856781006,0.4608963429927826,1.085267424583435,0.8413690328598022,0.025988630950450897,-2.8036036491394043,-0.2306312918663025,-1.2792167663574219,4.504662990570068,-0.2595589756965637,1.1554255485534668,1741516453.211749,1741516452473,3.255506591796875,0.5328530273437501,-1.6477540530436972,3.215913818359375,0.10410586547851562
1741516453.2783282,-1.4786211252212524,0.046417427386867396,0.04645673970024286,-0.9978412668211355,0.1375335156917572,-0.1848839372396469,-0.7043180465698242,-7.708898067474365,-2.6787784099578857,13.609983444213867,-0.09937477111816406,0.9023799896240234,0.13141833245754242,-1.2943700551986694,0.005531395319849253,-0.693331778049469,0.1844434291124344,1.3245066404342651,0.0009536888683214784,0.7120240926742554,0.0883115902543068,-0.691805899143219,0.06771191209554672,-0.005531395319849253,0.7948042750358582,-0.16247870028018951,-0.0032606953755021095,-0.6876096725463867,0.07267109304666519,-0.10700388997793198,1.2953002452850342,-0.275134801864624,0.002349404152482748,0.1331488937139511,0.18929892778396606,-2.102916717529297,-0.08928926289081573,-0.018741879612207413,1.096926212310791,2.988288640975952,0.026576664298772812,-0.03432008624076843,-1.6338218450546265,-0.41036128997802734,0.8400372862815857,1.1627683639526367,0.0931287556886673,0.28959450125694275,-0.4255942702293396,-0.234134703874588,-3.165189266204834,-0.8806871175765991,-0.5328303575515747,2.5239131450653076,-2.3683953285217285,-0.15979719161987305,1741516453.3140447,1741516452573,3.27436474609375,0.453121826171875,0.6221569482266802,3.215587646484375,0.10423712921142578
1741516453.2983155,-1.4879392385482788,0.04966784720761748,0.04075892169867128,-0.9979337729808138,0.27920565009117126,0.23002201318740845,-0.5356765389442444,-1.0772751569747925,-2.3582398891448975,7.9324951171875,-0.09784889221191406,0.8958950042724609,0.07495994865894318,-1.2955145835876465,0.005531395319849253,-0.6750209927558899,0.22068360447883606,1.3298473358154297,0.001716639962978661,0.6876096725463867,0.07991912961006165,-0.6586175560951233,0.07839322835206985,-0.004386968910694122,0.7921339869499207,-0.1804923117160797,-0.015377785079181194,-0.7471198439598083,0.06275273114442825,-0.11577782779932022,1.3056000471115112,-0.33650392293930054,0.006493821740150452,0.053824685513973236,-0.14940783381462097,-2.7091760635375977,-0.06732344627380371,0.02482369728386402,0.8093904852867126,2.331010103225708,0.41813620924949646,0.031720515340566635,-1.6388208866119385,-0.36623886227607727,1.705521583557129,0.5692451596260071,0.07850834727287292,-0.25873997807502747,-0.9110895395278931,-0.550899863243103,-2.881136178970337,-0.41851308941841125,-0.26910772919654846,0.1712329387664795,-3.1954684257507324,0.19467440247535706,1741516453.3140447,1741516452573,3.27436474609375,0.453121826171875,0.6221569482266802,3.215587646484375,0.10423712921142578
1741516453.3183432,-1.499616026878357,0.05375776628445786,0.03612312680410288,-0.9979004069915998,0.2234925925731659,0.21000005304813385,-0.6224725842475891,0.025835687294602394,-3.012680768966675,6.608510494232178,-0.09746742248535156,0.8951320648193359,0.029182879254221916,-1.2962775230407715,0.005531395319849253,-0.6651026010513306,0.2466239482164383,1.3359509706497192,0.0024795911740511656,0.6620507836341858,0.06961929053068161,-0.6258106231689453,0.09365224838256836,-0.0024795911740511656,0.778019368648529,-0.20042730867862701,-0.02011827938258648,-0.7921339869499207,0.04901960864663124,-0.11425192654132843,1.274319052696228,-0.39157870411872864,0.009133446961641312,0.033021554350852966,-0.04048244282603264,-2.1765401363372803,-0.05669693276286125,0.0036546937189996243,0.4880795180797577,1.7145901918411255,0.36942169070243835,0.02867227792739868,-1.6853545904159546,-0.5044218301773071,1.5716041326522827,0.7420988082885742,0.15199759602546692,-0.7185783386230469,-0.9967946410179138,-0.16253583133220673,-2.185560703277588,-0.7219817638397217,0.08565954118967056,-1.8453046083450317,-2.57582688331604,0.012848732993006706,1741516453.3140447,1741516452573,3.27436474609375,0.453121826171875,0.6221569482266802,3.215587646484375,0.10423712921142578
1741516453.338338,-1.5119205713272095,0.05793573950017501,0.0342887823070577,-0.9977312912284885,0.118863545358181,0.2454514354467392,-0.6165060997009277,0.4938823878765106,-0.22182618081569672,5.973409652709961,-0.09975624084472656,0.8909358978271484,0.001716639962978661,-1.2970404624938965,0.005149920005351305,-0.6548027992248535,0.2637903392314911,1.3397656679153442,0.0024795911740511656,0.6361104846000671,0.06618601083755493,-0.5941481590270996,0.10433356463909149,-0.00019073777366429567,0.7688639760017395,-0.2177194207906723,-0.024267463013529778,-0.8211261034011841,0.03337911143898964,-0.11234454810619354,1.206416368484497,-0.41301223635673523,0.01027534157037735,-0.050326064229011536,-0.1381872445344925,-1.269863486289978,-0.06895307451486588,0.005786342080682516,0.42313870787620544,1.0445622205734253,0.23284214735031128,0.004815779160708189,-1.7147510051727295,-0.14289909601211548,1.5613477230072021,0.4878886640071869,0.05547470971941948,-0.36352255940437317,-0.8336959481239319,-0.23291537165641785,-1.2449939250946045,-0.8637369871139526,0.09297847747802734,-3.7907986640930176,-0.7288909554481506,0.1567322462797165,1741516453.3140447,1741516452573,3.27436474609375,0.453121826171875,0.6221569482266802,3.215587646484375,0.10423712921142578
1741516453.3584049,-1.5233205556869507,0.0606792524168064,0.033518960568354815,-0.9975943602529811,0.06560011953115463,0.13950033485889435,-0.5232206583023071,0.10102983564138412,-1.4603488445281982,7.072915554046631,-0.10128211975097656,0.8905544281005859,-0.009727626107633114,-1.2970404624938965,0.005149920005351305,-0.647936224937439,0.272945761680603,1.3405286073684692,0.0024795911740511656,0.6162737607955933,0.06656748056411743,-0.572022557258606,0.11081864684820175,-0.0020981156267225742,0.770771324634552,-0.2349466234445572,-0.0289116483181715,-0.8237964510917664,0.012779430486261845,-0.11348897218704224,1.1125733852386475,-0.3957444727420807,0.015019211918115616,-0.06434297561645508,-0.01506750751286745,-0.4556455612182617,-0.0029466794803738594,0.0029645950999110937,0.330381840467453,0.5850674510002136,0.02108665183186531,0.004048394970595837,-1.218196153640747,0.003920385148376226,1.0556608438491821,0.3144510090351105,-0.16079780459403992,0.19760532677173615,-0.8647368550300598,-0.1824636608362198,0.022890210151672363,-1.0627665519714355,-0.0803334042429924,-4.992453575134277,1.0778299570083618,0.1615789383649826,1741516453.3140447,1741516452573,3.27436474609375,0.453121826171875,0.6221569482266802,3.215587646484375,0.10423712921142578
1741516453.3784282,-1.5309756994247437,0.0607170650448842,0.03348981799950189,-0.9975930383190811,0.01419911440461874,0.0012728039873763919,-0.3862134516239166,-0.4365255832672119,1.759968638420105,5.506016731262207,-0.10128211975097656,0.8913173675537109,-0.00667582219466567,-1.2970404624938965,0.005531395319849253,-0.647173285484314,0.28706035017967224,1.3416730165481567,0.0024795911740511656,0.6033035516738892,0.0715266615152359,-0.5533303022384644,0.11272602528333664,-0.00858320016413927,0.7856488823890686,-0.2513284385204315,-0.02915744110941887,-0.8089188933372498,-0.007438773289322853,-0.12188144028186798,0.9931715726852417,-0.3521285653114319,0.011978426948189735,-0.020210979506373405,0.029743995517492294,0.26625463366508484,-0.008420967496931553,0.006543547846376896,-0.058841485530138016,1.1061372756958008,0.10673093795776367,0.00964254792779684,-0.7990127801895142,0.3204055428504944,0.9595059752464294,-0.019859377294778824,-0.3130127489566803,0.8090016841888428,-0.8035780787467957,0.029034212231636047,1.0120302438735962,-0.9615679383277893,-0.5585575699806213,-6.289013385772705,2.24619722366333,-0.09596738964319229,1741516453.4165292,1741516452673,3.270179443359375,0.37436920166015625,0.6235986417188899,3.224875244140625,0.10301776885986329
1741516453.3984637,-1.5355571508407593,0.057159485501234376,0.03187505599324796,-0.9978560888337863,0.11780853569507599,-0.22078238427639008,-0.19275377690792084,-0.9901602864265442,-1.2950704097747803,7.366452693939209,-0.09823036193847656,0.8924617767333984,0.01125352829694748,-1.2970404624938965,0.005531395319849253,-0.6490806341171265,0.30155640840530396,1.3409100770950317,0.0024795911740511656,0.5968185067176819,0.08144503086805344,-0.543411910533905,0.1028076633810997,-0.021553369238972664,0.8112077713012695,-0.26532405614852905,-0.028601979836821556,-0.7719157934188843,-0.022697795182466507,-0.14286258816719055,0.8463035225868225,-0.2992244064807892,0.005637532100081444,0.08624977618455887,0.036398544907569885,0.9667539000511169,-0.014793294481933117,-0.0018412559293210506,-0.06865977495908737,0.8139951229095459,-0.09140082448720932,0.0054848697036504745,-0.34794461727142334,0.5136341452598572,0.4046311378479004,-0.6072034239768982,-0.6937616467475891,1.3852686882019043,-0.6589443683624268,0.0003917569702025503,2.0123531818389893,-0.7247809767723083,-1.0931332111358643,-7.561178207397461,2.670159339904785,-0.4537511169910431,1741516453.4165292,1741516452673,3.270179443359375,0.37436920166015625,0.6235986417188899,3.224875244140625,0.10301776885986329
1741516453.4184408,-1.5375391244888306,0.0512448001590011,0.029454035602876103,-0.9982516868222003,0.118334099650383,-0.26136520504951477,-0.08848483860492706,-6.390347480773926,7.989059925079346,16.031063079833984,-0.09784889221191406,0.8905544281005859,0.03795681521296501,-1.2970404624938965,0.005149920005351305,-0.6483176946640015,0.3072785437107086,1.3393841981887817,0.0024795911740511656,0.5971999764442444,0.09555962681770325,-0.54112309217453,0.08068207651376724,-0.026131074875593185,0.8562218546867371,-0.2745778560638428,-0.03115933947265148,-0.7158388495445251,-0.04329747334122658,-0.15468832850456238,0.6971465349197388,-0.2433912605047226,0.0008763261721469462,0.00877214316278696,-0.05584349483251572,1.3577970266342163,0.005879044067114592,-0.005559361074119806,0.042610589414834976,0.30309537053108215,-0.06407817453145981,0.01030384935438633,0.08114002645015717,0.7456063628196716,0.11737672984600067,-0.9788565635681152,-0.08335065841674805,2.3812785148620605,-0.3807785212993622,-0.1377309262752533,2.7282326221466064,-1.121342658996582,-0.6164210438728333,-7.134932041168213,2.842477560043335,0.10845943540334702,1741516453.4165292,1741516452673,3.270179443359375,0.37436920166015625,0.6235986417188899,3.224875244140625,0.10301776885986329
1741516453.4384558,-1.539159893989563,0.043317546898361245,0.024747118592207098,-0.9987548098768243,0.20412540435791016,-0.36672016978263855,-0.14138390123844147,-3.4996650218963623,-2.0300798416137695,9.396300315856934,-0.09250736236572266,0.9016170501708984,0.06771191209554672,-1.297421932220459,0.005149920005351305,-0.6456473469734192,0.30498969554901123,1.3374768495559692,0.0024795911740511656,0.5960555672645569,0.10509651154279709,-0.5468451976776123,0.08869306743144989,-0.043678950518369675,0.9103913903236389,-0.27284449338912964,-0.026585130020976067,-0.6731135845184326,-0.028038453310728073,-0.17910276353359222,0.6692988276481628,-0.1713237762451172,-0.008363856002688408,0.1742253601551056,0.3614110052585602,1.503523588180542,-0.022651679813861847,-0.0131383016705513,0.14484986662864685,-0.2341012805700302,-0.10215697437524796,0.009610556066036224,-0.1858305037021637,0.1647053062915802,-0.35583096742630005,0.35586658120155334,-0.6569619178771973,2.526843309402466,0.2267833799123764,0.30514976382255554,2.2496578693389893,1.247451663017273,-1.0483206510543823,-0.6949145197868347,3.3466603755950928,-0.7535796761512756,1741516453.4165292,1741516452673,3.270179443359375,0.37436920166015625,0.6235986417188899,3.224875244140625,0.10301776885986329
1741516453.458481,-1.5424760580062866,0.04174793558020471,0.02372394864712899,-0.9988464767597568,0.05348704010248184,-0.15365436673164368,-0.1512252241373062,-4.52534294128418,5.690333366394043,11.71732234954834,-0.10242652893066406,0.9035243988037109,0.10585946589708328,-1.2985663414001465,0.005531395319849253,-0.6437399983406067,0.28973066806793213,1.3390027284622192,0.0024795911740511656,0.5975814461708069,0.1035706102848053,-0.5624856948852539,0.0871671661734581,-0.05092698708176613,0.9626535177230835,-0.2453707605600357,-0.015871742740273476,-0.6441214680671692,-0.015449759550392628,-0.1501106321811676,0.6593804955482483,-0.13504092395305634,-0.028140153735876083,-0.28991883993148804,0.1408160775899887,1.9827648401260376,-0.07740998268127441,0.011831851676106453,0.12389511615037918,-1.1920850276947021,0.14951591193675995,0.00030191190307959914,0.09761512279510498,0.07343632727861404,-0.8182617425918579,-0.090531125664711,-0.5473668575286865,2.6647989749908447,1.5791983604431152,0.5408227443695068,1.2724709510803223,0.4790716767311096,2.005331039428711,-0.7048057317733765,1.533392310142517,-0.8647558093070984,1741516453.4165292,1741516452673,3.270179443359375,0.37436920166015625,0.6235986417188899,3.224875244140625,0.10301776885986329
1741516453.4785733,-1.5482836961746216,0.04159757947935094,0.01643368341293278,-0.9989992870022194,0.4380604922771454,0.10844045132398605,-0.2736542522907257,-3.145559787750244,3.6826272010803223,12.406831741333008,-0.09670448303222656,0.8978023529052734,0.14553292095661163,-1.310010552406311,0.005531395319849253,-0.6349660754203796,0.2615014910697937,1.3367139101028442,0.0024795911740511656,0.5979629158973694,0.09746700525283813,-0.5861371755599976,0.0864042118191719,-0.06694895774126053,1.0313191413879395,-0.2078995555639267,0.0012759007513523102,-0.612840473651886,-0.007438773289322853,-0.11425192654132843,0.6528953909873962,-0.13176442682743073,-0.02755846083164215,0.12263691425323486,-0.15455423295497894,1.882218360900879,-1.068756103515625,0.016649426892399788,0.5103456377983093,-1.984689474105835,-0.2540225684642792,-0.003047327511012554,0.008295942097902298,-0.598411500453949,-1.3598875999450684,-0.05738341808319092,-1.015010118484497,3.545149564743042,1.794411540031433,0.9480918645858765,1.719389796257019,0.46770018339157104,1.24073326587677,-0.09524296969175339,0.03722736984491348,0.1407271772623062,1741516453.5109422,1741516452773,3.2549450683593752,0.3088714599609375,-0.022771852057256122,3.23427685546875,0.0069696645736694336
1741516453.4985268,-1.5522042512893677,0.04372745786288019,0.007496290892977853,-0.9990153727804683,0.42918434739112854,0.06736123561859131,-0.12424909323453903,-4.85263729095459,3.199270486831665,10.912088394165039,-0.09746742248535156,0.9050502777099609,0.17872129380702972,-1.3313732147216797,0.005531395319849253,-0.621614396572113,0.2283131182193756,1.3313732147216797,0.0024795911740511656,0.5964370369911194,0.0864042118191719,-0.6284809708595276,0.06160829961299896,-0.07801175117492676,1.1079957485198975,-0.1889268457889557,0.012857974506914616,-0.5983443856239319,-0.0078202486038208,-0.10128175467252731,0.6437399983406067,-0.13883762061595917,-0.020814046263694763,-0.05132198706269264,0.19915428757667542,1.5585050582885742,-1.2888249158859253,-0.005288115702569485,0.6475163102149963,-2.221224308013916,-0.33956992626190186,0.0056605031713843346,-0.07285808771848679,-0.22448022663593292,-2.208164691925049,-1.457035779953003,-0.49657922983169556,3.7257256507873535,0.5839824080467224,0.4883779287338257,0.6321650743484497,-0.14868950843811035,0.9222680330276489,-0.5876008868217468,-0.3374462425708771,0.31025010347366333,1741516453.5109422,1741516452773,3.2549450683593752,0.3088714599609375,-0.022771852057256122,3.23427685546875,0.0069696645736694336
1741516453.5185926,-1.5577269792556763,0.048676890887840156,-0.0015401287780906735,-0.9988133901269247,0.5000888109207153,0.2524634301662445,-0.2712063789367676,-4.531497955322266,2.4688668251037598,9.416020393371582,-0.09479713439941406,0.9039058685302734,0.20428015291690826,-1.3451063632965088,0.005531395319849253,-0.6074998378753662,0.19321736693382263,1.3287029266357422,0.0024795911740511656,0.5964370369911194,0.08030059933662415,-0.6822690367698669,0.02231631986796856,-0.07877469807863235,1.1812390089035034,-0.2119380682706833,0.013316723518073559,-0.5746929049491882,-0.006294346414506435,-0.08869306743144989,0.6376363635063171,-0.13888989388942719,-0.022985942661762238,0.0651736855506897,-0.008045691065490246,1.26388418674469,-1.0039466619491577,0.006110826972872019,0.7186415791511536,-2.3124334812164307,-0.1581047922372818,0.006419990211725235,-0.011208931915462017,-0.6801262497901917,-2.6325345039367676,-1.9570618867874146,0.03382434695959091,3.575349807739258,-1.456739068031311,0.022827360779047012,1.262197494506836,0.12753526866436005,0.2573164999485016,-0.2794797122478485,0.08200176805257797,-0.1919468641281128,1741516453.5109422,1741516452773,3.2549450683593752,0.3088714599609375,-0.022771852057256122,3.23427685546875,0.0069696645736694336
1741516453.5385768,-1.559583067893982,0.05092459051145401,-0.012764836198794425,-0.9986209215903995,0.537807285785675,0.04185064509510994,0.03162289038300514,-6.8008036613464355,1.0890685319900513,9.816648483276367,-0.09327030181884766,0.9084844589233398,0.22526131570339203,-1.362654209136963,0.005531395319849253,-0.5918593406677246,0.15430685877799988,1.3267955780029297,0.0024795911740511656,0.5983443856239319,0.06733043491840363,-0.734912633895874,-0.0078202486038208,-0.06198977679014206,1.2277790307998657,-0.26613301038742065,0.007456738501787186,-0.5594338774681091,-0.01583123579621315,-0.0864042118191719,0.6235218048095703,-0.13364945352077484,-0.027326960116624832,0.049696605652570724,0.16990719735622406,1.0191426277160645,-1.0165287256240845,-0.002893727505579591,0.7782894968986511,-2.665637254714966,-0.14951138198375702,0.002165944082662463,0.0943353995680809,-0.22237011790275574,-2.5597517490386963,-1.4248965978622437,1.149556279182434,1.9875426292419434,-2.899249792098999,-0.4186473488807678,0.7041847705841064,-0.6672720313072205,0.3014378845691681,-0.7637344002723694,0.25890907645225525,-0.122611865401268,1741516453.5109422,1741516452773,3.2549450683593752,0.3088714599609375,-0.022771852057256122,3.23427685546875,0.0069696645736694336
1741516453.5586348,-1.5548604726791382,0.05379378979545058,-0.02268708476755135,-0.9982943074886248,0.48999276757240295,0.13726681470870972,0.26477381587028503,-4.42523717880249,-0.41696470975875854,9.199728012084961,-0.09365177154541016,0.9054317474365234,0.23670557141304016,-1.3702837228775024,0.005531395319849253,-0.576218843460083,0.11959258466959,1.3237437009811401,0.0024795911740511656,0.5956740379333496,0.06542305648326874,-0.7803082466125488,-0.024986648932099342,-0.035667963325977325,1.2338826656341553,-0.3269077241420746,-0.00014808874402660877,-0.54417484998703,-0.02193484455347061,-0.0871671661734581,0.6155108213424683,-0.12802547216415405,-0.021245477721095085,-0.002291073091328144,-0.05753285810351372,0.4745512008666992,-0.5217538475990295,0.0035845087841153145,0.7496258020401001,-2.185758113861084,-0.1993376612663269,0.012232441455125809,-0.23169100284576416,-0.4999750554561615,-2.3269290924072266,-0.7570751905441284,1.190232753753662,-0.0013293060474097729,-2.951324462890625,-0.4675152897834778,0.8736594915390015,-0.26468509435653687,-0.34066587686538696,-0.22440418601036072,0.2757621705532074,0.31408774852752686,1741516453.5109422,1741516452773,3.2549450683593752,0.3088714599609375,-0.022771852057256122,3.23427685546875,0.0069696645736694336
1741516453.5787027,-1.5449227094650269,0.05585373012150216,-0.03049523416844121,-0.9979731466951034,0.3129841387271881,0.12336862087249756,0.5544840097427368,-3.0337343215942383,-1.1649830341339111,7.614255905151367,-0.09441566467285156,0.9031429290771484,0.23708705604076385,-1.3737170696258545,0.005531395319849253,-0.5621042251586914,0.09403372555971146,1.3241251707077026,0.0024795911740511656,0.5918593406677246,0.06160829961299896,-0.8169298768043518,-0.04329747334122658,-0.01735713705420494,1.2060348987579346,-0.3644373118877411,-0.006168765481561422,-0.5384527444839478,-0.030708782374858856,-0.09403372555971146,0.6155108213424683,-0.12769930064678192,-0.02193935215473175,-0.04186324030160904,-0.027151836082339287,-0.035182636231184006,-0.10146041214466095,-0.008176236413419247,0.6319781541824341,-1.5810086727142334,0.036215368658304214,0.004214474931359291,-0.25974413752555847,0.37523654103279114,-1.7442302703857422,-0.8043848872184753,1.1536823511123657,-1.6480106115341187,-1.6096588373184204,-0.2376682311296463,0.1589731127023697,-0.5972562432289124,-0.0359928123652935,-0.06638779491186142,-0.03287373483181,0.01758946105837822,1741516453.6229198,1741516452873,3.237792236328125,0.2552511444091797,-0.26718513472772815,3.300593994140625,-0.07168898773193359
1741516453.5986712,-1.5416120290756226,0.05890135916058969,-0.03294671373618205,-0.9977199727092875,0.0966242179274559,0.13329117000102997,0.11499830335378647,-2.2259647846221924,1.1726144552230835,6.857420444488525,-0.08907413482666016,0.8970394134521484,0.23365376889705658,-1.372191071510315,0.005149920005351305,-0.5571450591087341,0.07457847148180008,1.3241251707077026,0.0024795911740511656,0.5872815847396851,0.0715266615152359,-0.8432517051696777,-0.06656748056411743,0.00019073777366429567,1.1545357704162598,-0.36651140451431274,-0.01066513266414404,-0.536926805973053,-0.03452353551983833,-0.09365224838256836,0.620088517665863,-0.1327439397573471,-0.01793772354722023,0.11824475228786469,-0.14081819355487823,-0.18014132976531982,0.11136738210916519,-0.006448369473218918,0.09059657156467438,-1.3276020288467407,-0.01201892364770174,0.012350589036941528,-0.31056496500968933,0.36129963397979736,-1.2245420217514038,-1.058961033821106,0.6873172521591187,-2.74078369140625,0.1698518991470337,-0.14657579362392426,0.17801523208618164,-0.13662098348140717,-0.1958473026752472,0.3928980529308319,-0.3469468653202057,0.25985220074653625,1741516453.6229198,1741516452873,3.237792236328125,0.2552511444091797,-0.26718513472772815,3.300593994140625,-0.07168898773193359
1741516453.6186907,-1.5358935594558716,0.06476460208176497,-0.03328313544895868,-0.9973453660652747,-0.0360088013112545,0.3110174238681793,0.16957895457744598,3.233851671218872,2.107189655303955,5.0427470207214355,-0.07991886138916016,0.8897914886474609,0.23365376889705658,-1.3664690256118774,0.005531395319849253,-0.5628671646118164,0.06733043491840363,1.3241251707077026,0.0020981156267225742,0.5857557058334351,0.08030059933662415,-0.8508812189102173,-0.07686731964349747,0.012397955171763897,1.0805294513702393,-0.3374564051628113,-0.010046098381280899,-0.536163866519928,-0.03757534176111221,-0.09212634712457657,0.6322957277297974,-0.1524527668952942,-0.012871540151536465,0.2666334807872772,-0.21776117384433746,0.0375097431242466,0.41109970211982727,-0.003140226239338517,-0.3504488468170166,-0.32983827590942383,-0.0011668635997921228,-0.01091122068464756,-0.008663181215524673,0.5028409957885742,-0.3018701672554016,-0.5728307366371155,0.6773343682289124,-3.915374994277954,1.616349220275879,0.06159276142716408,-0.12165436893701553,-0.09646081924438477,0.351339727640152,0.6343268752098083,-1.1195650100708008,0.14446790516376495,1741516453.6229198,1741516452873,3.237792236328125,0.2552511444091797,-0.26718513472772815,3.300593994140625,-0.07168898773193359
1741516453.6387186,-1.5407465696334839,0.06472797009555718,-0.030454639739656227,-0.9974381207902756,-0.10186094790697098,-0.03765694051980972,-0.19195351004600525,-3.432633638381958,4.210736274719238,6.301587104797363,-0.06961917877197266,0.8939876556396484,0.23479819297790527,-1.361128330230713,0.005531395319849253,-0.5731670260429382,0.061226826161146164,1.3248881101608276,0.0024795911740511656,0.5884260535240173,0.08449683338403702,-0.8470664620399475,-0.08258945494890213,0.023079270496964455,0.9805828928947449,-0.2914131283760071,-0.004518262110650539,-0.5365453362464905,-0.03376058489084244,-0.07610437273979187,0.647173285484314,-0.18707510828971863,-0.010442539118230343,0.3240971863269806,0.11141496896743774,0.0434713251888752,0.3834686577320099,0.0035055296029895544,-0.52895188331604,-0.3417326509952545,0.07319577783346176,0.019819287583231926,0.198680117726326,0.11488780379295349,0.3902389705181122,-0.2320021539926529,0.4462982714176178,-5.136631011962891,2.4099459648132324,0.24278366565704346,0.16519129276275635,0.21508343517780304,0.772266685962677,0.8214007019996643,-1.8337620496749878,0.10254046320915222,1741516453.6229198,1741516452873,3.237792236328125,0.2552511444091797,-0.26718513472772815,3.300593994140625,-0.07168898773193359
1741516453.6587124,-1.5460509061813354,0.06423741131090292,-0.032310884569080205,-0.9974114305172351,0.15118414163589478,-0.04776249825954437,-0.2542504668235779,-0.6155600547790527,2.00319504737854,5.056647300720215,-0.051690101623535156,0.8909358978271484,0.23517967760562897,-1.3561691045761108,0.005531395319849253,-0.5815594792366028,0.06275273114442825,1.3245066404342651,0.0024795911740511656,0.5930037498474121,0.07686731964349747,-0.8203631639480591,-0.08144503086805344,0.030708782374858856,0.8672846555709839,-0.24245837330818176,-0.0013464940711855888,-0.5300602912902832,-0.02880140393972397,-0.07000076025724411,0.6712062358856201,-0.2309606820344925,-0.010779593139886856,0.489645391702652,-0.07119860500097275,0.009371325373649597,0.2152460217475891,-0.00580777321010828,-0.4015827178955078,0.19405123591423035,-0.043160129338502884,0.00048333039740100503,0.2838464677333832,-0.550401508808136,1.455834150314331,0.11444417387247086,0.34610557556152344,-5.862039089202881,2.3748831748962402,0.2184588760137558,0.14660021662712097,0.19558851420879364,0.14908522367477417,1.275895118713379,-2.303306818008423,0.02819853648543358,1741516453.6229198,1741516452873,3.237792236328125,0.2552511444091797,-0.26718513472772815,3.300593994140625,-0.07168898773193359
1741516453.678813,-1.5483258962631226,0.06024481928264118,-0.038351496531608534,-0.997446602311817,0.31825342774391174,-0.22208863496780396,-0.07179542630910873,0.44225817918777466,0.9597201347351074,6.697792053222656,-0.040246009826660156,0.8905544281005859,0.23403525352478027,-1.3554061651229858,0.005531395319849253,-0.5888075232505798,0.07572289556264877,1.3233622312545776,0.0024795911740511656,0.5983443856239319,0.05664911866188049,-0.7784008383750916,-0.07801175117492676,0.040245670825242996,0.7429236173629761,-0.20819130539894104,0.004034381825476885,-0.5380712747573853,-0.01773861236870289,-0.06961929053068161,0.7043945789337158,-0.2760486304759979,-0.015087158419191837,0.3395460247993469,-0.014753980562090874,-0.0696643814444542,0.07582124322652817,-0.0023704657796770334,-0.3756333589553833,0.968468964099884,-0.07668310403823853,0.003157726489007473,0.387584924697876,-0.9803595542907715,2.2101006507873535,0.1775374859571457,0.5053960680961609,-6.147449970245361,1.5362834930419922,0.21957622468471527,-0.3704102039337158,0.753882646560669,0.07198689877986908,1.779239535331726,-2.2032699584960938,-0.2519418001174927,1741516453.6229198,1741516452873,3.237792236328125,0.2552511444091797,-0.26718513472772815,3.300593994140625,-0.07168898773193359
1741516453.6987603,-1.5497621297836304,0.05344375169329497,-0.040073573207200994,-0.9977664426785221,0.0007916219183243811,-0.3620522916316986,-0.06928616017103195,-1.9769484996795654,-1.7333452701568604,11.446622848510742,-0.041008949279785156,0.8928432464599609,0.2302204966545105,-1.3538802862167358,0.005531395319849253,-0.5949110984802246,0.09327077120542526,1.3233622312545776,0.0024795911740511656,0.6006332635879517,0.03452353551983833,-0.732623815536499,-0.07572289556264877,0.05855649709701538,0.6322957277297974,-0.1954108625650406,0.005582802463322878,-0.5388342142105103,0.005149920005351305,-0.06809338182210922,0.7463569045066833,-0.30814656615257263,-0.01794316992163658,-0.029978333041071892,0.07863710075616837,-0.19245284795761108,0.11531326174736023,-0.0026158320251852274,-0.27374589443206787,1.1526180505752563,0.010710816830396652,0.0016010297695174813,0.06139330938458443,-1.0988131761550903,2.2478151321411133,0.0819956511259079,0.8725126385688782,-5.236262321472168,0.4635671377182007,0.051879897713661194,0.06106666848063469,1.1830321550369263,-0.06275168061256409,2.1039111614227295,-1.4140290021896362,-0.09673813730478287,1741516453.6229198,1741516452873,3.237792236328125,0.2552511444091797,-0.26718513472772815,3.300593994140625,-0.07168898773193359
1741516453.7188041,-1.5489059686660767,0.044148511556366996,-0.02939768433828674,-0.998592351804731,-0.6314428448677063,-0.50125652551651,0.01509778294712305,-1.4504786729812622,9.522618293762207,18.445556640625,-0.049782752990722656,0.8993282318115234,0.22449836134910583,-1.3500655889511108,0.005531395319849253,-0.5994887948036194,0.11196307092905045,1.3241251707077026,0.0024795911740511656,0.5964370369911194,0.023460745811462402,-0.7063019871711731,-0.05970092490315437,0.06084534898400307,0.5907148718833923,-0.18279778957366943,0.009414158761501312,-0.5327305793762207,0.021171892061829567,-0.07457847148180008,0.7829785346984863,-0.3242458701133728,-0.030059948563575745,-0.25068414211273193,0.188595250248909,-0.28883618116378784,0.28645649552345276,-0.005288055166602135,-0.1558351069688797,1.229640245437622,0.05610772594809532,0.004503307398408651,-0.335039347410202,-0.36693358421325684,0.964944064617157,1.137833595275879,-0.17480188608169556,-1.0402774810791016,0.7799994349479675,0.2623841166496277,0.4337178170681,0.5477061867713928,-0.3851304054260254,1.6833915710449219,-0.676008403301239,-0.8028451800346375,1741516453.6229198,1741516452873,3.237792236328125,0.2552511444091797,-0.26718513472772815,3.300593994140625,-0.07168898773193359
1741516453.7388167,-1.545125126838684,0.03440418145883547,-0.013946154618642825,-0.9993106909612747,-0.7671964168548584,-0.38988807797431946,0.23280104994773865,14.205436706542969,8.638696670532227,4.829570770263672,-0.038338661193847656,0.9107732772827148,0.2149614691734314,-1.3420546054840088,0.005531395319849253,-0.5971999764442444,0.12951095402240753,1.3336620330810547,0.0024795911740511656,0.5933852195739746,0.030708782374858856,-0.6979095339775085,-0.025749599561095238,0.02040894143283367,0.6300068497657776,-0.16304929554462433,0.017943816259503365,-0.5113679766654968,0.026131074875593185,-0.09708552807569504,0.8031967878341675,-0.3236183226108551,-0.03535379841923714,0.30189022421836853,0.2790335714817047,-0.5221967101097107,0.5186479091644287,-0.004066500347107649,0.09713244438171387,1.1522324085235596,0.7223339080810547,0.014334553852677345,-0.12951885163784027,0.46800822019577026,0.2541728615760803,1.6077858209609985,-2.32735538482666,1.8861254453659058,0.8899292349815369,0.29203662276268005,1.2062900066375732,0.36437031626701355,-1.3512712717056274,1.0763516426086426,0.16540327668190002,-0.11332537233829498,1741516453.81809,1741516452973,3.240152587890625,0.20171298217773437,-1.0393830642993473,3.34300634765625,-0.12570751190185547
1741516453.7592235,-1.5369216203689575,0.018008333370245863,0.002794786710704415,-0.9998339307587374,-0.9250584244728088,-0.833498477935791,0.36710935831069946,-1.3541895151138306,-3.9480597972869873,11.43974494934082,-0.02689361572265625,0.9203100204467773,0.1985580176115036,-1.3401471376419067,0.005531395319849253,-0.5991073250770569,0.1508735716342926,1.3412915468215942,0.0024795911740511656,0.5941481590270996,0.03795681521296501,-0.6784542798995972,-0.01125352829694748,-0.00858320016413927,0.6418325901031494,-0.15353606641292572,-0.0006654306198470294,-0.5071717500686646,0.04634927958250046,-0.12417028844356537,0.8253223299980164,-0.31153032183647156,-0.02317020110785961,0.34544241428375244,0.2459176927804947,-0.8632514476776123,0.057244785130023956,-0.009983861818909645,-0.14592598378658295,1.436843752861023,0.37139445543289185,0.003458853578194976,0.03702705353498459,0.4019518494606018,1.3842658996582031,0.6648609042167664,-1.0800418853759766,0.23705941438674927,0.43063822388648987,-1.0098496675491333,-0.3107686936855316,1.0717048645019531,-1.1352097988128662,1.270222783088684,0.6523172855377197,0.7078073620796204,1741516453.81809,1741516452973,3.240152587890625,0.20171298217773437,-1.0393830642993473,3.34300634765625,-0.12570751190185547
1741516453.7792873,-1.5360056161880493,0.001441662631727546,0.024658021262817076,-0.9996949052567282,-1.0030606985092163,-0.7647832632064819,-0.11026274412870407,-9.836385726928711,2.4292333126068115,16.279096603393555,-0.01239776611328125,0.9176397323608398,0.1813916265964508,-1.3386212587356567,0.005149920005351305,-0.6006332635879517,0.17071031033992767,1.3508285284042358,0.002861066721379757,0.5933852195739746,0.029182879254221916,-0.6521324515342712,-0.001716639962978661,-0.03032730519771576,0.6357290148735046,-0.14021368324756622,-0.0008121239370666444,-0.535400927066803,0.06084534898400307,-0.12264438718557358,0.889028787612915,-0.30292895436286926,-0.0095144622027874,0.4564664363861084,-0.08355355262756348,-0.851862370967865,0.12035190314054489,-0.007670853286981583,-0.06667842715978622,1.2247841358184814,0.7292060852050781,0.04163631051778793,-0.04136056452989578,-0.5610679984092712,1.0158662796020508,0.5615547299385071,-1.1228069067001343,-0.13666532933712006,0.7598369121551514,0.2631993889808655,-1.438089370727539,0.5479592084884644,0.3868972063064575,3.6756484508514404,0.2485373318195343,0.5862448811531067,1741516453.81809,1741516452973,3.240152587890625,0.20171298217773437,-1.0393830642993473,3.34300634765625,-0.12570751190185547
1741516453.7992733,-1.5422486066818237,-0.005735544240150366,0.03374715348518334,-0.9994139448516399,-0.40261414647102356,-0.32113632559776306,-0.4128483235836029,-2.904193878173828,0.5203271508216858,8.170536041259766,0.02918243408203125,0.9012355804443359,0.1665140837430954,-1.3363324403762817,0.005531395319849253,-0.5987258553504944,0.18596932291984558,1.3542617559432983,0.0020981156267225742,0.5960555672645569,0.026512550190091133,-0.6456473469734192,0.01125352829694748,-0.03147173300385475,0.6441214680671692,-0.12492428719997406,0.008267464116215706,-0.5945296287536621,0.06885633617639542,-0.10624094307422638,0.996604859828949,-0.3163101077079773,-0.004647635854780674,1.14895498752594,-0.42454609274864197,-0.7785257697105408,0.11123813688755035,0.004979605786502361,0.09391466528177261,0.9465070366859436,0.1542527675628662,-0.07040559500455856,0.19514714181423187,-0.10498411953449249,0.1898568868637085,0.5314408540725708,0.28935956954956055,0.34658607840538025,0.598848283290863,0.3584139943122864,-3.3517096042633057,0.5153356790542603,0.7023690342903137,5.5746283531188965,-0.8036588430404663,0.29614683985710144,1741516453.81809,1741516452973,3.240152587890625,0.20171298217773437,-1.0393830642993473,3.34300634765625,-0.12570751190185547
1741516453.8192983,-1.556491494178772,-0.005166308323723688,0.034359678778883115,-0.9993961785660962,0.014644022099673748,0.09378174692392349,-0.6443239450454712,-3.1138181686401367,-0.5796698927879333,11.249543190002441,0.051690101623535156,0.8848323822021484,0.1512550562620163,-1.3382397890090942,0.005531395319849253,-0.5987258553504944,0.19283588230609894,1.3508285284042358,0.0020981156267225742,0.6002517938613892,0.01125352829694748,-0.6448844075202942,0.022697795182466507,-0.01735713705420494,0.647936224937439,-0.12804630398750305,0.004478405695408583,-0.6742580533027649,0.07000076025724411,-0.09174486994743347,1.1102845668792725,-0.3479284346103668,-0.0033029145561158657,0.6804614067077637,-0.47241076827049255,-0.7143994569778442,-0.09483049809932709,0.009339800104498863,-0.012801619246602058,0.41970762610435486,-0.3053390681743622,0.004121387843042612,0.21579784154891968,-1.13081693649292,0.04767901077866554,0.5114653706550598,0.5629982352256775,0.24288153648376465,-0.2542140483856201,-0.2477637529373169,-3.8405277729034424,-0.11627890169620514,0.7970061898231506,5.530784606933594,-1.5544135570526123,0.14964830875396729,1741516453.81809,1741516452973,3.240152587890625,0.20171298217773437,-1.0393830642993473,3.34300634765625,-0.12570751190185547
1741516453.8392882,-1.5577553510665894,-0.0008666491564481161,0.027647954789102407,-0.9996173465457766,0.38275158405303955,0.1918741911649704,0.08479126542806625,0.5157082676887512,-5.0587382316589355,9.552144050598145,0.061226844787597656,0.8833065032958984,0.13179980218410492,-1.3401471376419067,0.005531395319849253,-0.5975814461708069,0.200083926320076,1.3435804843902588,0.0013351644156500697,0.6017776727676392,-0.00858320016413927,-0.6475547552108765,0.02727550081908703,-0.008964675478637218,0.6563286781311035,-0.1430048942565918,1.6653493730700575e-05,-0.7406347990036011,0.06084534898400307,-0.07267109304666519,1.1892499923706055,-0.3792087733745575,-0.0010646049631759524,0.2882928252220154,-0.08393962681293488,-1.0925697088241577,-0.1687782257795334,-0.03164844959974289,0.06116499751806259,0.5083335041999817,-0.4238763749599457,-0.06556246429681778,0.09440601617097855,-0.9871928691864014,-0.1700315773487091,0.18199853599071503,0.5143497586250305,0.4310605525970459,-0.8449105024337769,-0.11634039878845215,-3.0409064292907715,-0.4245154857635498,1.0882322788238525,3.43612003326416,-1.4421002864837646,0.0819612517952919,1741516453.81809,1741516452973,3.240152587890625,0.20171298217773437,-1.0393830642993473,3.34300634765625,-0.12570751190185547
1741516453.8593082,-1.5439711809158325,0.0012400641885987657,0.0176219195402022,-0.999843952920918,0.5138065218925476,0.07998871058225632,0.8470313549041748,3.8289103507995605,-3.39943790435791,10.3549165725708,0.06656742095947266,0.8955135345458984,0.11043716967105865,-1.3412915468215942,0.005531395319849253,-0.5987258553504944,0.21038375794887543,1.3405286073684692,0.001716639962978661,0.5994887948036194,-0.0398641936480999,-0.6521324515342712,0.02880140393972397,-0.00667582219466567,0.6670100092887878,-0.16785314679145813,-5.0339873268967494e-05,-0.7639048099517822,0.0551232174038887,-0.04901960864663124,1.2029831409454346,-0.3971107006072998,0.005141206551343203,0.1714172065258026,0.37829649448394775,-1.067273497581482,-0.03748415783047676,-0.004999168217182159,-0.05142110213637352,0.722018837928772,-0.16162149608135223,0.01202810276299715,-0.1867838054895401,-1.6438994407653809,-0.1080254539847374,0.11685270816087723,0.07784359902143478,0.5351738929748535,-1.2494006156921387,-0.0006476190173998475,-0.8760893940925598,-0.22453530132770538,1.2011187076568604,0.15196610987186432,-0.7601060271263123,0.30479711294174194,1741516453.81809,1741516452973,3.240152587890625,0.20171298217773437,-1.0393830642993473,3.34300634765625,-0.12570751190185547
1741516453.879353,-1.5155435800552368,-0.0006261477419810224,0.009477499549520955,-0.9999548914532564,0.3592718839645386,-0.13073937594890594,1.4486379623413086,2.141414165496826,-3.012444019317627,7.174381256103516,0.06809329986572266,0.9031429290771484,0.09060044586658478,-1.3409100770950317,0.005531395319849253,-0.5998703241348267,0.22373540699481964,1.3416730165481567,0.001716639962978661,0.5945296287536621,-0.07381551712751389,-0.6387808322906494,0.03185320645570755,-0.006294346414506435,0.6815060377120972,-0.19433453679084778,-0.007199552375823259,-0.7600900530815125,0.051689937710762024,-0.024223696440458298,1.1446174383163452,-0.4025441110134125,0.00306391972117126,0.03808683529496193,0.23306576907634735,-0.9206158518791199,0.018716059625148773,-0.006115535739809275,-0.06949995458126068,0.8992208242416382,0.1430932879447937,0.018505413085222244,-0.3177523612976074,-1.6816112995147705,0.7118775844573975,0.163346529006958,0.0036669678520411253,0.8060315251350403,-1.3374340534210205,-0.27963870763778687,0.3815050721168518,-0.23184822499752045,1.29130220413208,-3.1959097385406494,-0.22368748486042023,-0.09973485767841339,1741516453.920252,1741516453073,3.2472421875,0.18300132751464845,-0.02579757689564932,3.3800810546875,-0.17416099548339845
1741516453.8993938,-1.4873625040054321,-0.006135683658009525,0.007359052480195759,-0.9999540978128159,0.07109307497739792,-0.28523075580596924,1.3682337999343872,-0.4454216957092285,-1.1538926362991333,4.939949035644531,0.07953739166259766,0.8993282318115234,0.08258945494890213,-1.3405286073684692,0.005531395319849253,-0.5994887948036194,0.24013885855674744,1.3485395908355713,0.002861066721379757,0.5872815847396851,-0.086785688996315,-0.6288624405860901,0.03795681521296501,-0.006294346414506435,0.7093538045883179,-0.22215616703033447,-0.008988479152321815,-0.7280460596084595,0.04940108209848404,0.0032425422687083483,1.0297932624816895,-0.40164273977279663,0.0051256935112178326,0.31450629234313965,-0.08727451413869858,-0.2807309329509735,0.024181539192795753,-0.003354602260515094,0.010225889272987843,1.077855110168457,0.5023617148399353,0.04395473748445511,-0.5341175198554993,-0.34817925095558167,0.34564313292503357,0.31493037939071655,0.009080675430595875,1.575372576713562,-1.4443353414535522,-0.08078249543905258,1.9173375368118286,-0.07614123821258545,1.2998020648956299,-6.2090654373168945,0.02607041783630848,0.13577055931091309,1741516453.920252,1741516453073,3.2472421875,0.18300132751464845,-0.02579757689564932,3.3800810546875,-0.17416099548339845
1741516453.9209619,-1.4683774709701538,-0.012482036794501326,0.010556249269850142,-0.9998663732513527,-0.1640956848859787,-0.3533569872379303,0.8900601267814636,2.4485268592834473,2.252164363861084,4.707366943359375,0.09403419494628906,0.8905544281005859,0.0883115902543068,-1.3401471376419067,0.005531395319849253,-0.5991073250770569,0.25310903787612915,1.3554061651229858,0.0024795911740511656,0.5811780095100403,-0.06885633617639542,-0.6452658772468567,0.03376058489084244,0.0024795911740511656,0.7524605393409729,-0.25249066948890686,-0.0056061879731714725,-0.6731135845184326,0.05207141116261482,0.018120087683200836,0.8707179427146912,-0.40385353565216064,0.004387129098176956,0.40473127365112305,-0.23970657587051392,0.37211447954177856,0.028247730806469917,0.0013366538332775235,0.019855797290802002,0.7432047128677368,0.39270681142807007,-0.0010995552875101566,-0.35199978947639465,1.0506309270858765,-1.1009560823440552,-0.41769471764564514,0.5585115551948547,2.265850782394409,-1.5754672288894653,0.17195653915405273,2.80706524848938,0.15426617860794067,0.4883601665496826,-8.116325378417969,-0.13111355900764465,-0.06376001238822937,1741516453.9207306,1741516453173,3.2385463867187503,0.1819127960205078,1.1944988244736352,3.414380126953125,-0.21611167907714846
1741516453.9394343,-1.4634779691696167,-0.01710169091269992,0.012993451744932974,-0.9997693245842656,-0.09489595144987106,-0.255586177110672,0.2844013273715973,-37.322227478027344,-3.3003313541412354,24.729297637939453,0.11844825744628906,0.8859767913818359,0.10471503436565399,-1.3340435028076172,0.004386968910694122,-0.5987258553504944,0.25539788603782654,1.3550246953964233,0.0024795911740511656,0.5796520709991455,-0.045204851776361465,-0.6742580533027649,0.031090257689356804,0.010872052982449532,0.8085374236106873,-0.28001993894577026,-0.001125063863582909,-0.620088517665863,0.04444190114736557,-0.0013351644156500697,0.7902265787124634,-0.36755767464637756,0.0058581712655723095,0.6877799034118652,-0.1862289011478424,0.8900970220565796,0.5335307717323303,-0.05682021379470825,0.023129889741539955,0.0762292891740799,-0.10914051532745361,0.005163251422345638,-0.06630099564790726,1.282076120376587,-1.3358561992645264,0.8185606002807617,0.013852766714990139,2.9334335327148438,-1.325204849243164,0.32975754141807556,2.4321746826171875,-0.16584882140159607,-1.4402391910552979,-1.7188994884490967,2.3632912635803223,-0.31667932868003845,1741516453.9207306,1741516453173,3.2385463867187503,0.1819127960205078,1.1944988244736352,3.414380126953125,-0.21611167907714846
1741516453.9594383,-1.4705594778060913,-0.01628324880953044,0.02191073153034196,-0.9996273183802112,-0.45837128162384033,0.05104535073041916,-0.34406453371047974,4.5332207679748535,-6.503396987915039,19.411157608032227,0.11921119689941406,0.8848323822021484,0.13027389347553253,-1.3267955780029297,0.005149920005351305,-0.5975814461708069,0.25158312916755676,1.3542617559432983,0.002861066721379757,0.5746929049491882,-0.039101243019104004,-0.6860837936401367,0.04406042397022247,0.010872052982449532,0.8390554785728455,-0.3087749481201172,0.009653055109083652,-0.6212329268455505,0.05283436179161072,-0.016212711110711098,0.8005264401435852,-0.33188968896865845,-0.024272866547107697,0.015528847463428974,-0.07809963077306747,1.3988757133483887,0.42365166544914246,0.012456434778869152,0.06251855939626694,-0.322674959897995,-0.045753009617328644,0.04369526728987694,-0.2490895390510559,0.08294627070426941,-0.6075825691223145,0.5576645731925964,0.22838614881038666,1.0445212125778198,-1.5484237670898438,0.5161707401275635,-0.5536418557167053,0.12352342158555984,-0.33935824036598206,-0.06467808783054352,1.5420693159103394,-1.1312215328216553,1741516453.9207306,1741516453173,3.2385463867187503,0.1819127960205078,1.1944988244736352,3.414380126953125,-0.21611167907714846
1741516453.979545,-1.474042534828186,-0.017119193489159024,0.02782766450800603,-0.9994661346450467,-0.09518136829137802,0.1475723683834076,-0.048503659665584564,-1.248598337173462,7.728523254394531,12.731306076049805,0.12264442443847656,0.8867397308349609,0.16041046380996704,-1.3245066404342651,0.005531395319849253,-0.5933852195739746,0.24128328263759613,1.3538802862167358,0.0020981156267225742,0.5750743746757507,-0.05054550990462303,-0.6872282028198242,0.05436026677489281,0.024605173617601395,0.8478294014930725,-0.3337628245353699,0.0036757425405085087,-0.5971999764442444,0.04291599988937378,0.004386968910694122,0.7909895181655884,-0.3061603307723999,-0.010271048173308372,0.0388622060418129,-0.0429718978703022,1.4135732650756836,0.12386458367109299,-0.003209017915651202,0.22916914522647858,-0.7541877031326294,0.038352709263563156,-0.054997678846120834,0.04843809828162193,-0.6361259818077087,0.3544608950614929,0.6795691251754761,0.622972846031189,0.733024001121521,-1.1100891828536987,-0.3433555066585541,1.9570599794387817,-0.28139442205429077,1.2096152305603027,-0.31559693813323975,1.3250714540481567,0.703372061252594,1741516454.0238206,1741516453273,3.217478759765625,0.16875904846191406,-2.4012250423239045,3.49773095703125,-0.2597337646484375
1741516453.999499,-1.4639545679092407,-0.014174768957395292,0.016756947850009526,-0.9997591112981948,0.5885409712791443,-0.0823507308959961,0.5936295986175537,0.03715519234538078,1.8311161994934082,12.419854164123535,0.14743995666503906,0.9008541107177734,0.17872129380702972,-1.3409100770950317,0.005912871100008488,-0.5884260535240173,0.2290760725736618,1.3489210605621338,0.001716639962978661,0.579270601272583,-0.09594109654426575,-0.6803616285324097,0.06923781335353851,0.04406042397022247,0.8611810207366943,-0.35321372747421265,0.0010834868298843503,-0.5888075232505798,0.04406042397022247,0.018120087683200836,0.7806897163391113,-0.2809082865715027,-0.010872017592191696,0.6398794054985046,0.5474202036857605,0.8293920159339905,-1.4375077486038208,0.0011253843549638987,0.2632961571216583,-0.8051568865776062,-0.42826107144355774,0.015458319336175919,0.24954351782798767,-2.538966417312622,0.06259812414646149,0.6987707614898682,1.256757140159607,0.4752427041530609,-1.0806598663330078,0.04444907605648041,-0.38810744881629944,0.005627669859677553,0.6962555050849915,-0.6891340017318726,1.1084156036376953,-0.3196261525154114,1741516454.0238206,1741516453273,3.217478759765625,0.16875904846191406,-2.4012250423239045,3.49773095703125,-0.2597337646484375
1741516454.0195136,-1.4355729818344116,-0.015291606112215892,0.0012346024355804881,-0.9998823143447106,0.7860838770866394,0.172668918967247,1.4762988090515137,-2.1318657398223877,-1.1166106462478638,11.582237243652344,0.15468788146972656,0.8989467620849609,0.18711376190185547,-1.3569320440292358,0.005149920005351305,-0.5861371755599976,0.21801327168941498,1.3382397890090942,0.0009536888683214784,0.5815594792366028,-0.15354390442371368,-0.6757839322090149,0.08030059933662415,0.08411535620689392,0.8848325610160828,-0.3706475794315338,0.005320054944604635,-0.5724040865898132,0.04139009863138199,0.046730753034353256,0.7864118218421936,-0.2595922648906708,-0.014812723733484745,0.2522493302822113,-0.0004184845311101526,0.3250541090965271,-0.8573464155197144,-0.024626459926366806,0.004909008275717497,-0.7250142693519592,-0.7268314957618713,-0.07496237009763718,0.20218119025230408,-2.720019578933716,0.35315191745758057,0.5768293142318726,2.19663667678833,1.6506104469299316,-0.7670023441314697,0.1739918440580368,1.3735843896865845,-0.03532780334353447,1.6777929067611694,0.39199092984199524,1.1066151857376099,0.10629306733608246,1741516454.0238206,1741516453273,3.217478759765625,0.16875904846191406,-2.4012250423239045,3.49773095703125,-0.2597337646484375
1741516454.0395405,-1.4032756090164185,-0.019472165503642752,-0.012194821732619546,-0.9997360257055402,0.7054149508476257,-0.41217294335365295,1.577325463294983,3.079759120941162,5.031003952026367,7.1569294929504395,0.15621376037597656,0.9119176864624023,0.19321736693382263,-1.364180088043213,0.005531395319849253,-0.5895704627037048,0.2141985148191452,1.3245066404342651,0.001716639962978661,0.5842298269271851,-0.18902114033699036,-0.6944762468338013,0.09021896868944168,0.13828489184379578,0.9477760195732117,-0.37039393186569214,-0.003682934446260333,-0.5754558444023132,0.045204851776361465,0.06580453366041183,0.7673380374908447,-0.24923363327980042,-0.003220107639208436,0.020271262153983116,0.4711593687534332,0.36333581805229187,-0.5068560838699341,-0.0011503036366775632,-0.1469377875328064,-0.17625166475772858,-0.9221777319908142,0.0752863958477974,0.11122995615005493,-1.5948424339294434,-1.39457368850708,0.6472437977790833,2.6914260387420654,3.127086639404297,0.19838681817054749,-0.5307027101516724,-0.3609287440776825,0.1938418447971344,0.5796701908111572,-1.1618942022323608,0.28456151485443115,0.3113320469856262,1741516454.0238206,1741516453273,3.217478759765625,0.16875904846191406,-2.4012250423239045,3.49773095703125,-0.2597337646484375
1741516454.0595968,-1.3758870363235474,-0.02225911607939465,-0.019837849511178795,-0.999555396903111,0.3323233127593994,0.07986750453710556,1.296533226966858,-4.474584102630615,10.475275039672852,11.645492553710938,0.16880321502685547,0.9046688079833984,0.20504310727119446,-1.3687578439712524,0.005531395319849253,-0.5930037498474121,0.20962081849575043,1.314206838607788,0.0013351644156500697,0.5865186452865601,-0.19321736693382263,-0.7318608164787292,0.10700388997793198,0.18673227727413177,1.02216374874115,-0.35321733355522156,-0.0063249762170016766,-0.5548561811447144,0.03337911143898964,0.0715266615152359,0.7639048099517822,-0.2519751489162445,-0.007543747313320637,0.3173316717147827,-0.12113301455974579,0.6022326350212097,-0.1486857384443283,-0.014263075776398182,-0.1888824999332428,-0.35670313239097595,-0.6225751638412476,-0.03422524034976959,0.12826645374298096,-0.005205553490668535,-1.82805335521698,0.682927131652832,2.3519821166992188,3.8741071224212646,0.9406118392944336,0.08108889311552048,1.579838752746582,-0.6162862181663513,0.5351505875587463,0.03525372967123985,-0.09642384201288223,-0.18899482488632202,1741516454.0238206,1741516453273,3.217478759765625,0.16875904846191406,-2.4012250423239045,3.49773095703125,-0.2597337646484375
1741516454.0796156,-1.3648220300674438,-0.021712617744899052,-0.02113220763035797,-0.9995408906249565,0.041961804032325745,-0.09483234584331512,0.5410453677177429,3.7080440521240234,7.7253522872924805,10.141589164733887,0.18177318572998047,0.8997097015380859,0.22106507420539856,-1.3653244972229004,0.005531395319849253,-0.6010147333145142,0.1993209719657898,1.3088661432266235,0.0024795911740511656,0.5872815847396851,-0.1810101419687271,-0.769245445728302,0.11196307092905045,0.20771344006061554,1.0938811302185059,-0.3269077241420746,-0.00014808874402660877,-0.5483710765838623,0.024986648932099342,0.06427863240242004,0.7463569045066833,-0.25880175828933716,-0.003945191856473684,0.3343609571456909,0.0006249402649700642,0.8455114364624023,0.28356534242630005,0.0022164524998515844,-0.45597174763679504,-0.7039479613304138,-0.2729712724685669,0.10514441132545471,0.03176603838801384,0.7241529226303101,-1.8791570663452148,0.16501735150814056,0.8724339604377747,3.372870683670044,1.3031423091888428,0.18570196628570557,-0.24897731840610504,-0.36077266931533813,-0.5969050526618958,-1.2836005687713623,-0.4843202531337738,0.2511568069458008,1741516454.13335,1741516453373,3.209359130859375,0.1761641845703125,-2.9584649394870595,3.51353857421875,-0.2912012939453125
1741516454.0996342,-1.364784598350525,-0.022458032232939292,-0.02144367157371531,-0.9995177866039517,0.012343487702310085,0.15523511171340942,0.006733115762472153,4.477104663848877,1.6250773668289185,6.659552574157715,0.19741344451904297,0.8928432464599609,0.24128328263759613,-1.364943027496338,0.005149920005351305,-0.6094071865081787,0.182154580950737,1.309247612953186,0.0020981156267225742,0.5903334021568298,-0.16384375095367432,-0.8005264401435852,0.11005569249391556,0.21686884760856628,1.1278324127197266,-0.29948386549949646,-0.0003942728217225522,-0.5266270041465759,0.010872052982449532,0.05283436179161072,0.735675573348999,-0.2699750065803528,-0.006520526483654976,0.43086478114128113,-0.15579840540885925,1.001552939414978,0.038277070969343185,-0.02276635728776455,-0.3672911524772644,-1.237500548362732,0.05568566545844078,-0.04029398411512375,0.2694423794746399,0.7392590045928955,-1.3912594318389893,-0.10686693340539932,0.43144679069519043,1.3672516345977783,1.3607237339019775,-0.09742019325494766,1.8728737831115723,-0.9720289707183838,-0.3407784700393677,-0.07558795064687729,-0.5232816338539124,-0.27550941705703735,1741516454.13335,1741516453373,3.209359130859375,0.1761641845703125,-2.9584649394870595,3.51353857421875,-0.2912012939453125
