Freshhhhh-LC/Legged_odom/data/3/segments/booster_seg_9.81s.csv
time,yaw,projected_gravity_x,projected_gravity_y,projected_gravity_z,ang_vel_x,ang_vel_y,ang_vel_z,lin_acc_x,lin_acc_y,lin_acc_z,q_0,q_1,q_2,q_3,q_4,q_5,q_6,q_7,q_8,q_9,q_10,q_11,q_12,q_13,q_14,q_15,q_16,q_17,q_18,q_19,q_20,q_21,q_22,dq_0,dq_1,dq_2,dq_3,dq_4,dq_5,dq_6,dq_7,dq_8,dq_9,dq_10,dq_11,dq_12,dq_13,dq_14,dq_15,dq_16,dq_17,dq_18,dq_19,dq_20,dq_21,dq_22,mocap_time,mocap_timestamp,robot_x,robot_y,robot_yaw,ball_x,ball_y
1741504096.5558407,-2.6705029010772705,0.005410796637632767,0.06727820997383345,-0.9977195827197455,-0.08304080367088318,0.10496724396944046,-0.5040670037269592,3.6305975914001465,-1.2264349460601807,6.826418876647949,-0.21877670288085938,0.6418323516845703,0.0036240178160369396,-1.236767292022705,0.004386968910694122,-0.8867399096488953,0.3381780683994293,1.2756778001785278,0.00476844422519207,0.8829251527786255,0.13027389347553253,-0.41256579756736755,0.009727626107633114,-0.06733043491840363,0.7486457824707031,-0.48853328824043274,0.0529697984457016,-0.7940413355827332,-0.08564125746488571,-0.21953918039798737,1.0831998586654663,-0.3320882320404053,0.003270562505349517,-0.045188624411821365,-0.8591715693473816,-0.9153250455856323,0.002092082053422928,-0.026619642972946167,-0.9808504581451416,2.150233268737793,-0.25749194622039795,-0.026041943579912186,0.48878851532936096,0.47615277767181396,1.7238359451293945,0.320591539144516,0.08305475115776062,-0.6136338710784912,-1.045369267463684,-0.1825636476278305,-0.01679949462413788,-0.7828588485717773,-1.3376436233520508,-3.767756700515747,0.8686257600784302,0.08278994262218475,1741504096.5511844,1741504096453,2.0434681396484375,0.9700218505859375,0.7628609684828234,0.7874622802734376,0.7533192138671875
1741504096.557958,-2.7535791397094727,-0.010033619798547867,0.03836521547254567,-0.9992134089950371,0.6676923036575317,-0.4153634011745453,-0.991119921207428,3.8082973957061768,12.110491752624512,26.75946617126465,-0.21610546112060547,0.5624856948852539,0.08373387902975082,-1.2291377782821655,0.005149920005351305,-0.9683756828308105,0.38090333342552185,1.2447782754898071,0.004005493130534887,0.9199283123016357,0.1516365259885788,-0.20504310727119446,-0.021171892061829567,-0.04482337832450867,0.6963835954666138,-0.4975722134113312,0.05377809330821037,-0.6540398001670837,-0.11730372905731201,-0.344663143157959,0.6761654019355774,-0.377696692943573,-0.006136763375252485,0.018163321539759636,-0.19191686809062958,1.8125290870666504,0.03427986428141594,0.006795007735490799,-0.019554177299141884,-0.9774381518363953,-0.360107421875,-0.010949975810945034,0.13961520791053772,0.22892826795578003,1.7560925483703613,-1.5335062742233276,-0.12751567363739014,1.1523946523666382,0.8090471625328064,1.4049744606018066,1.2858270406723022,0.186798095703125,-0.017988739535212517,-2.0300285816192627,-1.2831143140792847,-0.024746201932430267,1741504096.5511844,1741504096453,2.0434681396484375,0.9700218505859375,0.7628609684828234,0.7874622802734376,0.7533192138671875
1741504096.5599022,-2.924240231513977,0.033527098867538054,0.005664659692414937,-0.9994217554526695,0.11950447410345078,0.16431213915348053,-0.700130045413971,0.7526490092277527,-3.107436418533325,11.534102439880371,-0.06275272369384766,0.5472269058227539,0.12607766687870026,-1.2432523965835571,0.005149920005351305,-0.9214541912078857,0.17757686972618103,1.2623261213302612,0.005912871100008488,0.9493018984794617,0.07419699430465698,-0.6731135845184326,-0.0024795911740511656,0.016212711110711098,0.8749141693115234,-0.3207642138004303,0.0447949543595314,-0.6628137826919556,0.00667582219466567,-0.06656748056411743,1.359006643295288,-0.3800187408924103,0.0021876180544495583,0.018538950011134148,0.2715003192424774,-3.8134639263153076,0.36715808510780334,-0.01760348305106163,-0.1376025378704071,3.696878433227539,0.5788608193397522,0.06708095222711563,-0.38471829891204834,-0.17277491092681885,1.4662071466445923,0.5391481518745422,0.19315651059150696,-0.08452539891004562,-2.9611597061157227,-0.29994988441467285,-5.121452808380127,-0.03741682693362236,0.6919666528701782,5.71886682510376,0.2111465483903885,0.4680710434913635,1741504096.5511844,1741504096453,2.0434681396484375,0.9700218505859375,0.7628609684828234,0.7874622802734376,0.7533192138671875
1741504096.5773363,-2.9352749586105347,0.03673994140145225,0.003978060060640449,-0.9993169425882721,0.10829108208417892,0.1894940435886383,-0.5877050161361694,1.231716275215149,1.4622751474380493,7.747091293334961,-0.057030677795410156,0.5521860122680664,0.05092698708176613,-1.2413450479507446,0.004386968910694122,-0.9252689480781555,0.23517967760562897,1.2691926956176758,0.005912871100008488,0.9439612627029419,0.07419699430465698,-0.6303883194923401,0.012779430486261845,0.026131074875593185,0.8733882904052734,-0.36631202697753906,0.03680621087551117,-0.7471198439598083,0.016212711110711098,-0.06580453366041183,1.420424222946167,-0.3979698717594147,-0.012507730163633823,0.16435210406780243,0.17820030450820923,-3.7572836875915527,0.049717649817466736,-0.003255099756643176,-0.2507469058036804,3.950955390930176,0.35891926288604736,-0.03225437551736832,-0.29198896884918213,-0.22346337139606476,2.3993661403656006,0.7697572112083435,0.3805848956108093,-0.19161610305309296,-2.2175652980804443,-0.6021498441696167,-3.8994343280792236,0.5846405029296875,-0.24225692451000214,2.5887467861175537,-0.984801173210144,-0.659021258354187,1741504096.5511844,1741504096453,2.0434681396484375,0.9700218505859375,0.7628609684828234,0.7874622802734376,0.7533192138671875
1741504096.5973692,-2.944703459739685,0.03745742233607002,0.0026826259593358062,-0.9992946237371136,0.049510408192873,-0.02968590147793293,-0.3877219259738922,5.405788421630859,0.001065052580088377,8.197151184082031,-0.048256874084472656,0.5579080581665039,-0.010872052982449532,-1.2413450479507446,0.005149920005351305,-0.9313725233078003,0.2924010157585144,1.2699556350708008,0.005912871100008488,0.9405279755592346,0.06008239835500717,-0.578507661819458,0.029182879254221916,0.03757534176111221,0.8596551418304443,-0.4044782519340515,0.022707292810082436,-0.8188372850418091,0.02536812424659729,-0.0722896158695221,1.4185168743133545,-0.4212682843208313,-0.002667096210643649,0.2471826672554016,0.19414164125919342,-3.120251417160034,-0.008335440419614315,0.06241488829255104,-0.27078545093536377,3.709246873855591,0.044203758239746094,-0.0034173482563346624,-0.2599671185016632,-0.6200941801071167,2.593003034591675,0.8391234874725342,0.6349191665649414,-0.7011080980300903,-1.9212646484375,-0.5596746206283569,-3.4533309936523438,0.21042917668819427,-0.14084427058696747,-0.5495138764381409,-1.0941368341445923,0.8081400394439697,1741504096.5511844,1741504096453,2.0434681396484375,0.9700218505859375,0.7628609684828234,0.7874622802734376,0.7533192138671875
1741504096.617442,-2.9569259881973267,0.03455140675547181,0.00503261598940734,-0.9993902506366175,-0.09404616057872772,-0.09571272134780884,-0.6453729271888733,1.962899088859558,1.2786457538604736,7.101284503936768,-0.044442176818847656,0.5540933609008789,-0.06160829961299896,-1.2402005195617676,0.004386968910694122,-0.9367132186889648,0.34542611241340637,1.2707185745239258,0.00667582219466567,0.9355688095092773,0.04787518084049225,-0.5201418995857239,0.04596780240535736,0.05703059583902359,0.8398184180259705,-0.4432007670402527,0.014306184835731983,-0.8714808821678162,0.016594186425209045,-0.08258945494890213,1.3696879148483276,-0.4302888810634613,0.010845798067748547,0.12663166224956512,-0.10393651574850082,-2.401643991470337,0.06828388571739197,0.010643511079251766,-0.2635694742202759,3.4993526935577393,0.07013724744319916,0.06565696746110916,-0.34450146555900574,-0.6647409200668335,3.043687105178833,0.8473142385482788,0.9229374527931213,-1.0912739038467407,-1.889641523361206,-0.6297711133956909,-2.470357656478882,-0.44246411323547363,-0.6326161026954651,-2.668576240539551,-0.2582944631576538,0.35276171565055847,1741504096.5511844,1741504096453,2.0434681396484375,0.9700218505859375,0.7628609684828234,0.7874622802734376,0.7533192138671875
1741504096.6374118,-2.9680874347686768,0.03252299201049082,0.005398425505120904,-0.9994564082503806,0.0038740006275475025,-0.1249367892742157,-0.532379150390625,2.6489503383636475,-1.2656344175338745,7.299960613250732,-0.036431312561035156,0.5518045425415039,-0.09746700525283813,-1.239819049835205,0.00476844422519207,-0.9477760195732117,0.3881513774394989,1.2688112258911133,0.005531395319849253,0.9332799315452576,0.038719769567251205,-0.46101319789886475,0.050164032727479935,0.06923781335353851,0.8142595291137695,-0.47761499881744385,0.005788561888039112,-0.9054322242736816,0.00019073777366429567,-0.09899290651082993,1.2899595499038696,-0.41535162925720215,0.004047093912959099,0.22729302942752838,-0.05866846442222595,-1.7298798561096191,0.008193327113986015,0.011266341432929039,-0.5473983883857727,2.758474111557007,-0.21622110903263092,-0.09146103262901306,-0.12282323837280273,-0.41830363869667053,2.8300046920776367,0.08522439002990723,0.6740506291389465,-1.339855670928955,-1.7003358602523804,-0.2298709750175476,-1.5546574592590332,-0.8801568150520325,-0.9193804860115051,-4.211808681488037,0.9873764514923096,-0.23214197158813477,1741504096.5511844,1741504096453,2.0434681396484375,0.9700218505859375,0.7628609684828234,0.7874622802734376,0.7533192138671875
1741504096.65743,-2.976840853691101,0.027439698046468352,0.004784157861865336,-0.999612012135044,0.05685988441109657,-0.25411731004714966,-0.4209212064743042,-1.5123205184936523,-3.80129337310791,8.768553733825684,-0.02727508544921875,0.5514230728149414,-0.11387044936418533,-1.239819049835205,0.00476844422519207,-0.9580758213996887,0.4327840209007263,1.2630890607833862,0.005149920005351305,0.9313725233078003,0.03833829239010811,-0.4083695709705353,0.04901960864663124,0.07572289556264877,0.7867932915687561,-0.5070225596427917,0.007631827611476183,-0.9142061471939087,-0.02536812424659729,-0.11615930497646332,1.19153892993927,-0.3759510815143585,0.00880483165383339,0.2801775336265564,0.03808475285768509,-0.6515212059020996,-0.018459726125001907,-0.008704807609319687,-0.4711964726448059,3.0722720623016357,-0.3694646954536438,-0.017024902626872063,-0.15218310058116913,0.09610891342163086,2.895402669906616,-0.07597914338111877,0.14539958536624908,-1.203757643699646,-1.3484491109848022,-0.06434355676174164,-0.1799168735742569,-1.3103971481323242,-1.0282875299453735,-4.955780029296875,2.0561091899871826,0.24049919843673706,1741504096.5511844,1741504096453,2.0434681396484375,0.9700218505859375,0.7628609684828234,0.7874622802734376,0.7533192138671875
1741504096.6775227,-2.9812428951263428,0.028310667586513523,0.003062077755968599,-0.999594482668158,0.10240034013986588,-0.02142491191625595,-0.16881488263607025,3.5939760208129883,-3.140928030014038,6.223385334014893,-0.02079010009765625,0.5369272232055664,-0.11577782779932022,-1.2409635782241821,0.00476844422519207,-0.9657053351402283,0.465209424495697,1.2573670148849487,0.004386968910694122,0.9279392957687378,0.04482337832450867,-0.34580758213996887,0.04100862145423889,0.0715266615152359,0.7600900530815125,-0.5255028605461121,-0.0028697538655251265,-0.9058136940002441,-0.05207141116261482,-0.13790340721607208,1.0717555284500122,-0.32909682393074036,0.005795816425234079,0.20387324690818787,-0.4095574915409088,0.02308698557317257,-0.05286317318677902,-0.010019786655902863,-0.37938541173934937,1.9490545988082886,-0.36901426315307617,-0.007363039068877697,-0.25799688696861267,0.363538920879364,3.15303897857666,-0.4508512318134308,-0.1472875326871872,-1.452804446220398,-0.8330627679824829,-0.5557231903076172,0.4184585511684418,-1.306410789489746,-1.1732735633850098,-6.124088287353516,2.265270709991455,-0.23402908444404602,1741504096.721766,1741504096653,1.834676513671875,0.9221182861328125,0.6161168722650493,0.6683291015625,0.562414306640625
1741504096.6974714,-2.9790371656417847,0.024055004493821277,0.00010547939646377656,-0.9997106309492257,0.17074400186538696,-0.16703400015830994,0.1357397586107254,-1.3926419019699097,-1.9728214740753174,8.468605995178223,-0.01010894775390625,0.5354013442993164,-0.09975585341453552,-1.2409635782241821,0.00476844422519207,-0.967231273651123,0.4827573001384735,1.2558410167694092,0.004386968910694122,0.9218356609344482,0.05130846053361893,-0.2821011543273926,0.02880140393972397,0.06733043491840363,0.7368200421333313,-0.5298880934715271,0.0012270612642168999,-0.8813992738723755,-0.07343403995037079,-0.16308079659938812,0.9363317489624023,-0.29620176553726196,-0.005831702146679163,0.3133949637413025,-0.08166453242301941,0.9702702164649963,-0.032871656119823456,-0.002625121735036373,-0.026936113834381104,0.9708425998687744,-0.06327889114618301,-0.013853154145181179,-0.4079427421092987,0.38170260190963745,3.23761248588562,-0.7865523099899292,-0.19788765907287598,-0.9187219142913818,0.07217209041118622,0.041071392595767975,1.496416687965393,-0.9541211128234863,-1.2658309936523438,-6.775033473968506,1.3733259439468384,-0.5094652771949768,1741504096.721766,1741504096653,1.834676513671875,0.9221182861328125,0.6161168722650493,0.6683291015625,0.562414306640625
1741504096.717514,-2.9761860370635986,0.019421587490575605,-0.006231998821755359,-0.9997919604247832,0.346757173538208,-0.34014734625816345,0.13992436230182648,1.226880431175232,1.9168672561645508,7.322269916534424,0.00934600830078125,0.5373086929321289,-0.06694895774126053,-1.2409635782241821,0.00476844422519207,-0.9637979865074158,0.4797055125236511,1.2531707286834717,0.004386968910694122,0.9180209040641785,0.0555046908557415,-0.23212787508964539,-0.0032425422687083483,0.06504157930612564,0.7375829815864563,-0.5235389471054077,0.00698012625798583,-0.8421072959899902,-0.08945601433515549,-0.17643244564533234,0.8024337887763977,-0.29830050468444824,-0.011239827610552311,0.5934240221977234,0.10419493913650513,1.8295685052871704,-0.0032928192522376776,-0.006100645754486322,0.21448977291584015,-0.2728172540664673,-0.2087242305278778,0.000877389800734818,-0.2135377824306488,0.15653009712696075,2.310159921646118,-1.4015212059020996,0.08968150615692139,0.24241335690021515,0.3121499717235565,0.38888370990753174,1.8519617319107056,-0.8354653716087341,-0.5840340256690979,-6.635992527008057,-0.4797303080558777,-0.177300363779068,1741504096.721766,1741504096653,1.834676513671875,0.9221182861328125,0.6161168722650493,0.6683291015625,0.562414306640625
1741504096.7375429,-2.975653886795044,0.013044605720865625,-0.020848395989621536,-0.9996975455837865,0.8168812394142151,-0.2091987282037735,0.00026361175696365535,10.483839988708496,-10.60948371887207,16.543476104736328,0.03032684326171875,0.5342569351196289,-0.013923857361078262,-1.2417265176773071,0.00476844422519207,-0.961509108543396,0.46063172817230225,1.2478300333023071,0.004386968910694122,0.918402373790741,0.05283436179161072,-0.20084688067436218,-0.010109102353453636,0.06198977679014206,0.7860303521156311,-0.5141218900680542,0.023858435451984406,-0.8096818327903748,-0.09365224838256836,-0.17109178006649017,0.7307164072990417,-0.3055746853351593,-0.01459578424692154,0.6285361647605896,-0.0673958882689476,2.7917871475219727,-0.0695619061589241,-0.012279431335628033,0.05846173316240311,-1.510838270187378,-0.4880110025405884,-0.0035220221616327763,0.032267019152641296,-0.1483902931213379,1.4568512439727783,0.2640039324760437,-0.13927853107452393,3.041032075881958,0.5329310894012451,0.7404971122741699,1.2827427387237549,-0.0667978823184967,0.5704222917556763,-1.6915022134780884,0.27617311477661133,-0.15427564084529877,1741504096.721766,1741504096653,1.834676513671875,0.9221182861328125,0.6161168722650493,0.6683291015625,0.562414306640625
1741504096.7576659,-2.978261709213257,0.011773532185600252,-0.030640447829454773,-0.9994611282569649,0.2925194501876831,0.19884447753429413,-0.209049791097641,14.682328224182129,0.22817236185073853,6.764808177947998,0.02460479736328125,0.527008056640625,0.048638131469488144,-1.2485930919647217,0.004386968910694122,-0.9637979865074158,0.4194323718547821,1.2405821084976196,0.00476844422519207,0.9134432077407837,0.03604944050312042,-0.2130540907382965,-0.015449759550392628,0.06313420087099075,0.8882657885551453,-0.4883224070072174,0.03395475447177887,-0.7803082466125488,-0.06847485899925232,-0.12417028844356537,0.7990005612373352,-0.2992532253265381,-0.022211529314517975,-0.17356771230697632,-0.2568066120147705,3.4358134269714355,-0.30825838446617126,-0.05599934980273247,-0.11112750321626663,-3.109440326690674,-0.37702667713165283,0.049176353961229324,-0.33829447627067566,-0.8863023519515991,-1.1078842878341675,-0.6561367511749268,0.11451459676027298,5.413785934448242,1.6142444610595703,0.3100266754627228,0.8918402791023254,0.8621441125869751,2.6952402591705322,2.7867026329040527,-0.03693350404500961,-0.2836419343948364,1741504096.721766,1741504096653,1.834676513671875,0.9221182861328125,0.6161168722650493,0.6683291015625,0.562414306640625
1741504096.7775674,-2.97429358959198,0.009870444332462012,-0.03278601741961686,-0.9994136537942837,0.16592095792293549,-0.07013904303312302,0.19840694963932037,-0.14093883335590363,0.18690761923789978,17.267980575561523,0.02155303955078125,0.5273895263671875,0.11310750246047974,-1.2463041543960571,0.004386968910694122,-0.9634165167808533,0.35000380873680115,1.2432523965835571,0.005531395319849253,0.9134432077407837,0.01926451548933983,-0.2759975492954254,-0.029564354568719864,0.040627144277095795,1.033226490020752,-0.44264930486679077,0.04042486846446991,-0.7616159319877625,-0.048256658017635345,-0.07495994865894318,0.8104447722434998,-0.3107043206691742,-0.01557797472923994,-0.03231319412589073,-0.06561245024204254,2.9238765239715576,0.1103927493095398,-0.06087811291217804,0.015382528305053711,-4.81096076965332,0.15524360537528992,0.014089864678680897,0.04461496323347092,-0.688393771648407,-3.253535032272339,-0.8425387740135193,-1.3430012464523315,7.8115434646606445,2.291715145111084,0.4337138831615448,1.5108072757720947,1.449833631515503,2.1752753257751465,0.5843493342399597,-0.4199950397014618,0.43851789832115173,1741504096.721766,1741504096653,1.834676513671875,0.9221182861328125,0.6161168722650493,0.6683291015625,0.562414306640625
1741504096.7975738,-2.9608155488967896,0.009208874999866848,-0.02899284507951884,-0.9995371986851875,-0.327080100774765,-0.13198800384998322,0.6911441087722778,-6.059513568878174,-2.8241941928863525,12.073847770690918,-0.01468658447265625,0.5323495864868164,0.17452506721019745,-1.2485930919647217,0.00476844422519207,-0.9634165167808533,0.27141985297203064,1.2459226846694946,0.00476844422519207,0.9096284508705139,0.007057297509163618,-0.36678874492645264,-0.0555046908557415,0.014686808921396732,1.204890489578247,-0.4010353088378906,0.03249172493815422,-0.727664589881897,-0.026131074875593185,-0.05245288833975792,0.8184558153152466,-0.3132261037826538,-0.012312054634094238,-1.0143568515777588,0.20214302837848663,2.9120802879333496,-0.10416236519813538,-0.023559514433145523,0.011354591697454453,-5.096485137939453,0.219598650932312,0.010943721048533916,-0.3181907534599304,-0.6181098222732544,-5.012931823730469,-1.323365330696106,-1.0291439294815063,8.596176147460938,1.8882890939712524,-0.8987241387367249,1.2836371660232544,0.45486214756965637,1.308369755744934,0.20794019103050232,-0.15452586114406586,-0.048642341047525406,1741504096.721766,1741504096653,1.834676513671875,0.9221182861328125,0.6161168722650493,0.6683291015625,0.562414306640625
1741504096.8176453,-2.9388270378112793,0.003775254702941212,-0.01747342144140668,-0.999840200729626,-0.5215780138969421,-0.16894936561584473,1.1262518167495728,-0.6252214908599854,4.286539077758789,10.352177619934082,-0.039483070373535156,0.5235748291015625,0.23594263195991516,-1.2474485635757446,0.00476844422519207,-0.962272047996521,0.20237277448177338,1.2512633800506592,0.00476844422519207,0.9096284508705139,-0.00476844422519207,-0.4694056510925293,-0.07610437273979187,0.01735713705420494,1.3448920249938965,-0.39415523409843445,-0.001581967226229608,-0.6891355514526367,-0.029564354568719864,-0.0398641936480999,0.8218890428543091,-0.3128736913204193,-0.008297291584312916,-0.7714663743972778,-0.21371681988239288,2.8753645420074463,0.039076730608940125,-0.00340506830252707,0.03927687928080559,-4.646016597747803,0.3060207664966583,-0.023980526253581047,0.06629493832588196,-0.5907189249992371,-4.9666242599487305,-0.790336549282074,0.4025873839855194,6.626766681671143,-0.06926172226667404,-1.3443670272827148,2.3318140506744385,-0.14065055549144745,0.283110648393631,0.2550746500492096,0.11843392997980118,0.38207903504371643,1741504096.721766,1741504096653,1.834676513671875,0.9221182861328125,0.6161168722650493,0.6683291015625,0.562414306640625
1741504096.8376422,-2.9160640239715576,-0.0019034805156049879,-0.01570279566538224,-0.9998748916590606,-0.023176109418272972,-0.38454556465148926,1.1177719831466675,3.2426979541778564,-2.929339647293091,9.949576377868652,-0.01049041748046875,0.5266265869140625,0.2943083941936493,-1.2516448497772217,0.005149920005351305,-0.960746169090271,0.13179980218410492,1.2459226846694946,0.004005493130534887,0.9138246774673462,-0.01506828423589468,-0.5628671646118164,-0.07801175117492676,0.042153049260377884,1.429961085319519,-0.4284608066082001,0.007129902020096779,-0.6406881809234619,-0.030708782374858856,-0.03223468363285065,0.812352180480957,-0.3096488118171692,0.0003885032783728093,0.7154470086097717,0.06020307168364525,2.8437774181365967,-0.32628825306892395,-0.005349738989025354,0.10155174881219864,-4.6656317710876465,-0.40368902683258057,-0.04611857980489731,0.25158217549324036,-0.4706519842147827,-4.712911605834961,-0.1042219027876854,1.260611891746521,3.636021852493286,-1.8949488401412964,0.48767128586769104,2.155914545059204,0.10922599583864212,0.5917971730232239,-0.6355578303337097,0.12014508992433548,0.387645423412323,1741504096.721766,1741504096653,1.834676513671875,0.9221182861328125,0.6161168722650493,0.6683291015625,0.562414306640625
1741504096.8577201,-2.8955804109573364,-0.011076628027692216,-0.017574085529522037,-0.9997842066312796,0.09879688918590546,-0.31956544518470764,0.9056035876274109,-2.0096840858459473,0.5197781920433044,9.431092262268066,0.01354217529296875,0.5296783447265625,0.34962233901023865,-1.2546966075897217,0.004386968910694122,-0.954261064529419,0.06885633617639542,1.238293170928955,0.004005493130534887,0.9130617380142212,-0.02727550081908703,-0.6490806341171265,-0.07343403995037079,0.08983749151229858,1.4509422779083252,-0.47569480538368225,0.0001675340172369033,-0.5952925682067871,-0.026131074875593185,-0.018120087683200836,0.8054856061935425,-0.31044429540634155,0.003402374219149351,0.7261502146720886,0.07801228016614914,2.6568429470062256,-0.234594464302063,-0.053837329149246216,0.3637249171733856,-4.032910346984863,-0.5338347554206848,-0.00533819617703557,-0.10763222724199295,-0.652373731136322,-4.123383522033691,0.21725080907344818,2.2212090492248535,0.5217015743255615,-2.3385839462280273,-0.3920566141605377,2.506690740585327,0.30319759249687195,0.650261402130127,-0.1303911805152893,-0.08612806349992752,0.12375707179307938,1741504096.721766,1741504096653,1.834676513671875,0.9221182861328125,0.6161168722650493,0.6683291015625,0.562414306640625
1741504096.8776453,-2.8850271701812744,-0.012876385741294967,-0.02149909633569806,-0.9996859444580531,0.24423666298389435,-0.10669203102588654,0.4586630165576935,0.9836336374282837,2.2627687454223633,10.460941314697266,0.033379554748535156,0.5262451171875,0.39425498247146606,-1.2543151378631592,0.005149920005351305,-0.9420538544654846,0.01773861236870289,1.231045126914978,0.004005493130534887,0.9103913903236389,-0.03032730519771576,-0.724612832069397,-0.058175019919872284,0.12340734153985977,1.41775381565094,-0.5097754001617432,-0.009687005542218685,-0.5628671646118164,-0.02727550081908703,-0.008201723918318748,0.8012893795967102,-0.3258691132068634,0.0056296586990356445,0.6022621989250183,-0.04964658245444298,2.143097162246704,0.023256590589880943,0.017283393070101738,0.6714761257171631,-3.31878662109375,-0.43972596526145935,-0.023022472858428955,-0.18412183225154877,-0.042294036597013474,-3.716632843017578,0.7575754523277283,1.5235580205917358,-2.066425323486328,-1.3609819412231445,-0.31862586736679077,1.2180733680725098,-0.03158781677484512,0.2969737648963928,-0.31975680589675903,-1.008594036102295,0.22320891916751862,1741504096.9215922,1741504096753,1.7245177001953125,0.9145935668945313,1.0185322351120603,0.61261279296875,0.47281982421875
1741504096.8977146,-2.8833972215652466,-0.01137128365282747,-0.025510747266586645,-0.9996098717409644,0.15758433938026428,0.21010369062423706,0.11751973628997803,1.8161622285842896,-2.442666530609131,8.28125,0.048638343811035156,0.5235748291015625,0.4343098998069763,-1.2604187726974487,0.005149920005351305,-0.9283207654953003,-0.04329747334122658,1.2299007177352905,0.004005493130534887,0.9157320261001587,-0.03452353551983833,-0.7883192300796509,-0.04100862145423889,0.13904783129692078,1.3353551626205444,-0.5023211240768433,-0.013482337817549706,-0.5422675013542175,-0.034142062067985535,-0.009346150793135166,0.8070115447044373,-0.365887850522995,0.01777304895222187,0.47328004240989685,-0.0023314200807362795,2.0612850189208984,-0.40617835521698,-0.026497015729546547,0.6950541138648987,-4.2930755615234375,-0.02652675472199917,0.02356170490384102,0.4421407878398895,-0.3578929305076599,-3.0613131523132324,0.7806795239448547,0.8111494183540344,-4.481096267700195,0.7233914136886597,-0.2087484449148178,1.4376236200332642,-0.38896438479423523,0.0010926284594461322,0.4790482521057129,-2.0572452545166016,0.7223856449127197,1741504096.9215922,1741504096753,1.7245177001953125,0.9145935668945313,1.0185322351120603,0.61261279296875,0.47281982421875
1741504096.9177299,-2.8795862197875977,0.0001809085069135203,-0.027496872259554137,-0.9996218731540711,0.12515981495380402,0.5271793007850647,0.10410602390766144,0.3114095628261566,1.0714056491851807,9.402746200561523,0.059319496154785156,0.51708984375,0.4678797721862793,-1.2596558332443237,0.005149920005351305,-0.9145876169204712,-0.0883115902543068,1.2299007177352905,0.0036240178160369396,0.9294651746749878,-0.04596780240535736,-0.8222705721855164,-0.020027466118335724,0.13981078565120697,1.2182421684265137,-0.4614364802837372,-0.014402209781110287,-0.5231937170028687,-0.042153049260377884,-0.010872052982449532,0.8093003630638123,-0.410982221364975,0.03426221385598183,0.33950749039649963,-0.06460250169038773,1.5064839124679565,0.04961271956562996,0.009227151982486248,0.6109239459037781,-2.7275960445404053,-0.030907142907381058,-0.034492261707782745,1.0054610967636108,-0.6252939701080322,-1.4327677488327026,1.0986322164535522,0.08231108635663986,-6.173781871795654,2.0787224769592285,-0.040653884410858154,0.7679319381713867,-0.227547287940979,-0.12456750124692917,0.023362258449196815,-2.199955463409424,0.8533650040626526,1741504096.9215922,1741504096753,1.7245177001953125,0.9145935668945313,1.0185322351120603,0.61261279296875,0.47281982421875
1741504096.9377127,-2.8763805627822876,0.011453737583413441,-0.030553320961956933,-0.9994675114647629,0.12259449809789658,0.5809062123298645,0.20554524660110474,-0.2555229365825653,-0.06277741491794586,6.440437316894531,0.07763004302978516,0.51556396484375,0.481612890958786,-1.2596558332443237,0.005149920005351305,-0.9050507545471191,-0.11272602528333664,1.229519248008728,0.0036240178160369396,0.9435797929763794,-0.0722896158695221,-0.8363851308822632,0.012779430486261845,0.14171816408634186,1.0614557266235352,-0.41649505496025085,-0.008395850658416748,-0.4972533881664276,-0.04444190114736557,-0.005149920005351305,0.813878059387207,-0.44785961508750916,0.04234897345304489,0.5337485671043396,-0.010098904371261597,0.48648786544799805,0.005142377223819494,0.001928967423737049,0.4332132041454315,-1.3171768188476562,-0.029558071866631508,0.004357410594820976,0.949037492275238,-1.337790608406067,-0.3775111138820648,1.7351977825164795,0.12987421452999115,-8.180987358093262,2.2406704425811768,0.3608052134513855,1.4395159482955933,-0.19771772623062134,0.5434491634368896,0.2113577127456665,-1.8705754280090332,0.1878436803817749,1741504096.9215922,1741504096753,1.7245177001953125,0.9145935668945313,1.0185322351120603,0.61261279296875,0.47281982421875
1741504096.9577272,-2.8681410551071167,0.02080883198920582,-0.030602796928570816,-0.9993149960504913,-0.020716430619359016,0.4020130932331085,0.43014582991600037,1.389243721961975,-1.675074577331543,6.595591068267822,0.08602237701416016,0.5167083740234375,0.47817960381507874,-1.2569855451583862,0.005149920005351305,-0.8993285894393921,-0.10967422276735306,1.229519248008728,0.0036240178160369396,0.951972246170044,-0.10509651154279709,-0.8234149813652039,0.04711223021149635,0.16079194843769073,0.8981841802597046,-0.3701992928981781,7.462941721314564e-05,-0.46368351578712463,-0.03795681521296501,0.005912871100008488,0.812352180480957,-0.4793650209903717,0.04110579937696457,0.2646244764328003,0.014384604059159756,-0.2670067548751831,0.22179903090000153,-0.00872608833014965,0.26454371213912964,0.4020175039768219,-0.011320026591420174,-0.0020808393601328135,0.49534592032432556,-1.6873736381530762,0.651353120803833,1.6099933385849,1.2631970643997192,-8.391997337341309,2.2567391395568848,0.3688713312149048,1.7460485696792603,0.5776254534721375,0.4037611484527588,-0.1156277060508728,-1.4902821779251099,-0.1597757190465927,1741504096.9215922,1741504096753,1.7245177001953125,0.9145935668945313,1.0185322351120603,0.61261279296875,0.47281982421875
1741504096.9777887,-2.853295683860779,0.022212911554883398,-0.02614900980813342,-0.9994112346008069,-0.29475221037864685,0.07646343111991882,0.769191324710846,28.24008560180664,-18.925317764282227,25.020252227783203,0.08869266510009766,0.5399789810180664,0.45910581946372986,-1.2520263195037842,0.00476844422519207,-0.9016174674034119,-0.08335240930318832,1.2291377782821655,0.0036240178160369396,0.9523537158966064,-0.1340886503458023,-0.80357825756073,0.07457847148180008,0.21076524257659912,0.7825970649719238,-0.32392317056655884,0.014346178621053696,-0.41676202416419983,-0.01773861236870289,0.01125352829694748,0.8134965896606445,-0.5014185905456543,0.014703407883644104,0.085859514772892,0.5628427863121033,-1.0877469778060913,0.3451801538467407,-0.022623570635914803,-0.1516868621110916,2.0937936305999756,-0.029093243181705475,-0.006765876896679401,-0.041588298976421356,-1.308259129524231,0.8471949696540833,1.688981294631958,2.5778424739837646,-4.568591594696045,2.43738055229187,0.8760480284690857,2.742260217666626,0.7799414396286011,0.3467259407043457,0.3610743284225464,-0.8558104038238525,-1.4072473049163818,1741504096.938344,1741504096853,1.6360230712890624,0.8911994018554688,0.8699980119641632,0.5597656860351563,0.383941650390625
1741504096.9978108,-2.8342535495758057,0.015936819425481606,-0.022456392203649415,-0.9996207922186271,-0.08170951902866364,-0.27397575974464417,0.9356538653373718,-0.8946571946144104,0.4509298801422119,9.7886962890625,0.11158180236816406,0.5663003921508789,0.42515450716018677,-1.2470670938491821,0.005149920005351305,-0.9016174674034119,-0.03604944050312042,1.2299007177352905,0.0032425422687083483,0.9451056718826294,-0.14324407279491425,-0.7562752962112427,0.08297093212604523,0.2504386901855469,0.8054856061935425,-0.28739500045776367,0.04325510561466217,-0.36602577567100525,-0.01773861236870289,0.015449759550392628,0.8203631639480591,-0.49405544996261597,0.01730664260685444,0.6622294187545776,0.7010596394538879,-1.9317235946655273,0.25030019879341125,-0.013232442550361156,-0.06113246828317642,3.399143695831299,0.05022505670785904,0.002422189339995384,-0.5092719793319702,-0.20121106505393982,2.6474902629852295,0.23304523527622223,1.3941761255264282,1.0989278554916382,1.3562055826187134,1.2201834917068481,2.28924298286438,0.20427846908569336,0.0084613598883152,0.35656553506851196,0.5964147448539734,0.08034713566303253,1741504096.938344,1741504096853,1.6360230712890624,0.8911994018554688,0.8699980119641632,0.5597656860351563,0.383941650390625
1741504097.0177941,-2.8133081197738647,0.014344934090280054,-0.02334166113451428,-0.9996246244072957,0.018135538324713707,0.011266653425991535,1.0100897550582886,-0.2362244725227356,-1.6624093055725098,12.380086898803711,0.12607765197753906,0.5674448013305664,0.36640727519989014,-1.2505004405975342,0.005149920005351305,-0.9023804068565369,0.02231631986796856,1.230282187461853,0.0032425422687083483,0.9390020370483398,-0.14133669435977936,-0.7078278660774231,0.07572289556264877,0.22411687672138214,0.804341197013855,-0.2857570946216583,0.046042054891586304,-0.3389410376548767,-0.01888304017484188,0.024986648932099342,0.8592736721038818,-0.4707358777523041,0.011670378036797047,0.4229520261287689,0.10913051664829254,-2.957796335220337,-0.2906823456287384,-0.0033757230266928673,0.00599193898960948,3.8714513778686523,0.02258768491446972,0.0006070301169529557,-0.44884929060935974,0.05834970995783806,2.2383580207824707,-0.5581955909729004,-1.9195184707641602,-0.19740693271160126,0.13041101396083832,0.1438748836517334,1.056814432144165,-0.16039720177650452,0.8381869196891785,2.7771174907684326,1.222949743270874,-0.22307033836841583,1741504096.938344,1741504096853,1.6360230712890624,0.8911994018554688,0.8699980119641632,0.5597656860351563,0.383941650390625
1741504097.0378318,-2.798314690589905,0.01374138762797016,-0.02105501113385009,-0.9996838804203114,-0.07889220118522644,0.007733137346804142,0.7065476775169373,8.89641284942627,7.408076763153076,3.1976845264434814,0.13714027404785156,0.5819406509399414,0.2962157726287842,-1.2546966075897217,0.00476844422519207,-0.8993285894393921,0.07495994865894318,1.2394375801086426,0.004386968910694122,0.9290837049484253,-0.13141833245754242,-0.6715877056121826,0.04711223021149635,0.18673227727413177,0.8047226667404175,-0.2864801287651062,0.044422850012779236,-0.3686961233615875,-0.016594186425209045,0.06313420087099075,0.9889753460884094,-0.4377249479293823,0.0033442566636949778,0.3278861939907074,0.3855302035808563,-3.481497287750244,-0.23922984302043915,-0.019135724753141403,0.14705216884613037,3.4791481494903564,0.8477067947387695,0.1034821942448616,-0.6441713571548462,0.5857319235801697,1.7754490375518799,-1.8236198425292969,-1.870438575744629,0.06406578421592712,-0.05710470303893089,0.058266784995794296,-2.2939798831939697,0.3763255476951599,2.1067428588867188,6.868472576141357,1.7817057371139526,-0.5339328646659851,1741504096.938344,1741504096853,1.6360230712890624,0.8911994018554688,0.8699980119641632,0.5597656860351563,0.383941650390625
1741504097.057828,-2.8022780418395996,0.01246077542244765,-0.024771803111087884,-0.9996154694913925,0.21969196200370789,-0.019581055268645287,-0.29983893036842346,-2.15347957611084,-4.61616325378418,11.92872142791748,0.16804027557373047,0.6021595001220703,0.2286945879459381,-1.2596558332443237,0.005149920005351305,-0.8993285894393921,0.1203555315732956,1.2566040754318237,0.005531395319849253,0.9187838435173035,-0.11768520623445511,-0.6380178332328796,0.010490577667951584,0.1516365259885788,0.80510413646698,-0.2898229956626892,0.043144211173057556,-0.4537651538848877,0.009346150793135166,0.09784847497940063,1.1709392070770264,-0.3918573260307312,-0.0034840835724025965,0.8557964563369751,0.5124711990356445,-3.256828784942627,-0.26772424578666687,0.00243810610845685,-0.004451556131243706,2.9427490234375,1.0665935277938843,0.04071539267897606,-0.5988065004348755,0.7328698039054871,1.6319835186004639,-1.61101496219635,-1.5933583974838257,-0.006023363675922155,-0.1851332187652588,-0.18962571024894714,-4.561637878417969,1.400572419166565,1.45590078830719,9.414706230163574,2.307668685913086,-0.39254841208457947,1741504096.938344,1741504096853,1.6360230712890624,0.8911994018554688,0.8699980119641632,0.5597656860351563,0.383941650390625
1741504097.0778713,-2.8166698217391968,0.012604277234954829,-0.029280508920069837,-0.9994917628438796,0.22803206741809845,-0.026426833122968674,-0.7443084120750427,-3.141244888305664,-4.518760681152344,11.25461483001709,0.18101024627685547,0.6109333038330078,0.16117341816425323,-1.2592743635177612,0.005149920005351305,-0.9027618765830994,0.16269932687282562,1.2661409378051758,0.005531395319849253,0.9153505563735962,-0.10662241280078888,-0.6006332635879517,-0.0020981156267225742,0.13866636157035828,0.8039597272872925,-0.2957194149494171,0.03786332905292511,-0.5563820600509644,0.039101243019104004,0.10852979123592377,1.3483253717422485,-0.3653990626335144,-0.005197810009121895,0.40339305996894836,0.28001365065574646,-3.523061752319336,0.05987020954489708,0.005100641865283251,-0.1616596132516861,2.8451895713806152,0.5894323587417603,0.003542033489793539,-0.18123450875282288,0.47209885716438293,1.7898023128509521,-0.30283331871032715,-0.4876105785369873,-0.05977192893624306,-0.33457067608833313,-0.4154997766017914,-5.201115608215332,1.3902709484100342,0.3028189539909363,8.606474876403809,0.9485282301902771,-0.0840068981051445,1741504096.938344,1741504096853,1.6360230712890624,0.8911994018554688,0.8699980119641632,0.5597656860351563,0.383941650390625
1741504097.097897,-2.8306777477264404,0.011763370297431885,-0.03284933367882785,-0.999391086810415,0.17663361132144928,-0.06639452278614044,-0.7012354135513306,-4.310325622558594,-1.4833283424377441,14.049633979797363,0.18558788299560547,0.6204700469970703,0.09441519528627396,-1.2566040754318237,0.005149920005351305,-0.9042877554893494,0.20847637951374054,1.2730075120925903,0.005531395319849253,0.9130617380142212,-0.10852979123592377,-0.5613412857055664,-0.0009536888683214784,0.1348516047000885,0.802815318107605,-0.3117339015007019,0.023635389283299446,-0.6582360863685608,0.06733043491840363,0.09746700525283813,1.4620050191879272,-0.37930986285209656,-0.007279629819095135,0.15233077108860016,0.30198514461517334,-3.4898829460144043,0.14771442115306854,-0.007680087815970182,-0.05869022384285927,3.11504864692688,0.4089046120643616,0.017218971624970436,-0.20050585269927979,-0.22247371077537537,2.068530321121216,0.07007645070552826,-0.32389551401138306,-0.06928697228431702,-0.9267659783363342,-0.6416857838630676,-4.832030773162842,1.3292996883392334,-0.6897594928741455,5.174370765686035,-0.907750129699707,-0.09034473448991776,1741504096.938344,1741504096853,1.6360230712890624,0.8911994018554688,0.8699980119641632,0.5597656860351563,0.383941650390625
1741504097.1179268,-2.8361408710479736,0.011915290025779261,-0.034204663496826174,-0.9993438181420199,0.05082579702138901,-0.02805389277637005,-0.209450364112854,0.28034132719039917,-2.3576037883758545,10.930475234985352,0.18520641326904297,0.6246662139892578,0.03528648987412453,-1.2558410167694092,0.005149920005351305,-0.9031433463096619,0.2576867341995239,1.2764407396316528,0.005149920005351305,0.9084840416908264,-0.11463340371847153,-0.5144197940826416,-0.0013351644156500697,0.12378881871700287,0.7928969264030457,-0.3372577726840973,0.019032686948776245,-0.7494087219238281,0.0883115902543068,0.07495994865894318,1.496337890625,-0.4113788306713104,-0.003412963356822729,0.002560089575126767,0.20094886422157288,-2.9416043758392334,0.03325493261218071,-0.0014547850005328655,0.05150974169373512,3.2715468406677246,0.1984100341796875,-0.02420109510421753,-0.3488822877407074,-0.47567713260650635,2.311396598815918,-0.032722897827625275,-0.6693145632743835,-0.615655779838562,-1.313336730003357,-0.14919547736644745,-4.469677448272705,0.9767995476722717,-1.1825734376907349,1.0879048109054565,-1.5803890228271484,0.3086738884449005,1741504097.1644228,1741504097053,1.439742919921875,0.8130675659179688,1.458900054779497,0.45727001953125,0.2166381378173828
1741504097.1379044,-2.8345922231674194,0.012549843873542249,-0.03137915701581805,-0.9994287618053257,-0.18439464271068573,0.09071913361549377,0.08051318675279617,0.5155198574066162,0.5765472054481506,8.860039710998535,0.18863964080810547,0.6212329864501953,-0.02079041674733162,-1.2554595470428467,0.005149920005351305,-0.9031433463096619,0.3068970739841461,1.2794926166534424,0.005912871100008488,0.9035248160362244,-0.12455176562070847,-0.4659723937511444,-0.001716639962978661,0.11425192654132843,0.7749675512313843,-0.36594322323799133,0.013246803544461727,-0.8302815556526184,0.09822995215654373,0.04558632895350456,1.4597162008285522,-0.4349589943885803,0.006234263069927692,0.0875580683350563,-0.05284783989191055,-2.8018958568573,0.025741901248693466,0.008386591449379921,-0.05186419561505318,3.235386371612549,0.23081907629966736,0.06465428322553635,-0.3035258650779724,-0.45831844210624695,2.475346803665161,-0.003033230546861887,-0.3383123278617859,-0.8896087408065796,-1.477299690246582,-0.2772805094718933,-3.877380609512329,0.3677760660648346,-1.427789330482483,-2.291959524154663,-0.9830637574195862,0.4796035885810852,1741504097.1644228,1741504097053,1.439742919921875,0.8130675659179688,1.458900054779497,0.45727001953125,0.2166381378173828
1741504097.1579247,-2.8339040279388428,0.017950336251262185,-0.025977171625725916,-0.9995013616713057,-0.25093477964401245,0.26428818702697754,0.07557637989521027,-0.39391982555389404,-0.6989606618881226,6.9575700759887695,0.19398021697998047,0.6090259552001953,-0.07419699430465698,-1.2531707286834717,0.00476844422519207,-0.9134432077407837,0.35152971744537354,1.2817814350128174,0.006294346414506435,0.9012359976768494,-0.13065537810325623,-0.42515450716018677,0.000572213320992887,0.10814831405878067,0.7539864182472229,-0.39898693561553955,0.00873566698282957,-0.8932250142097473,0.09250781685113907,0.021553369238972664,1.3761730194091797,-0.42993155121803284,0.013415860943496227,0.16001607477664948,-0.3605073392391205,-2.4828391075134277,0.13483311235904694,-0.027190331369638443,-0.5775385499000549,2.9130897521972656,0.055649835616350174,-0.0103776715695858,-0.12299603968858719,-0.27856209874153137,1.8785003423690796,0.1264096349477768,-0.3801533877849579,-1.0183115005493164,-1.7299292087554932,-0.1742417961359024,-2.9756972789764404,-0.3579517602920532,-1.1837254762649536,-4.523677349090576,0.538863480091095,0.318344384431839,1741504097.1644228,1741504097053,1.439742919921875,0.8130675659179688,1.458900054779497,0.45727001953125,0.2166381378173828
1741504097.1779704,-2.8294726610183716,0.023629803422220826,-0.02013054820348323,-0.9995180805864666,-0.3117060661315918,0.2800845503807068,0.24601615965366364,-5.9847941398620605,0.5133914351463318,7.854353427886963,0.19741344451904297,0.6055927276611328,-0.10929274559020996,-1.2516448497772217,0.00476844422519207,-0.9245060086250305,0.3919661343097687,1.2783480882644653,0.006294346414506435,0.8978027105331421,-0.12760357558727264,-0.403410404920578,-0.000572213320992887,0.1024261862039566,0.7387273907661438,-0.43610766530036926,0.008173917420208454,-0.9298466444015503,0.08373387902975082,0.0024795911740511656,1.265545129776001,-0.3938272297382355,0.014236725866794586,0.08983489871025085,-0.12442057579755783,-1.6687442064285278,0.06374526023864746,-0.0073741162195801735,-0.5538332462310791,2.7555675506591797,-0.2096235603094101,0.015577932819724083,-0.2864953279495239,0.1879430115222931,1.2064872980117798,-0.1323198825120926,-0.34049534797668457,-0.6501601338386536,-1.8615622520446777,-0.09019119292497635,-1.5411900281906128,-0.487314909696579,-0.9113878011703491,-5.659033298492432,1.9944796562194824,-0.01846049353480339,1741504097.1644228,1741504097053,1.439742919921875,0.8130675659179688,1.458900054779497,0.45727001953125,0.2166381378173828
1741504097.197986,-2.8209694623947144,0.03684236964534508,-0.013543705213432358,-0.9992293069401074,-0.33046767115592957,0.6800816059112549,0.4393334984779358,6.311293125152588,0.45762497186660767,4.937183856964111,0.20275402069091797,0.5891885757446289,-0.12912946939468384,-1.2505004405975342,0.00476844422519207,-0.9367132186889648,0.42744335532188416,1.2756778001785278,0.005912871100008488,0.8943694233894348,-0.1192111074924469,-0.3717479109764099,-0.005912871100008488,0.08487831056118011,0.7360570430755615,-0.47016164660453796,0.007340988609939814,-0.9447242021560669,0.06504157930612564,-0.009727626107633114,1.1285953521728516,-0.3449418842792511,0.009850057773292065,0.1370493322610855,-0.45399361848831177,-0.8878034353256226,0.09718926250934601,-0.005421249661594629,-0.5684856176376343,2.1106138229370117,-0.2726667821407318,-0.008959018625319004,-0.1749865561723709,0.5074363946914673,1.5321846008300781,-0.2870224714279175,-0.8652511239051819,-0.14234097301959991,-1.7060075998306274,-0.07887207716703415,-0.7647705078125,-0.9863864183425903,-0.684660017490387,-7.239650726318359,2.398928642272949,-0.1452035754919052,1741504097.1644228,1741504097053,1.439742919921875,0.8130675659179688,1.458900054779497,0.45727001953125,0.2166381378173828
1741504097.218035,-2.8075515031814575,0.04294080899500531,-0.008546794205061749,-0.9990410598327132,-0.25063320994377136,0.3125515878200531,0.6843935251235962,0.04682111367583275,0.542910635471344,7.195345401763916,0.20656871795654297,0.5926218032836914,-0.12455176562070847,-1.2474485635757446,0.00476844422519207,-0.9447242021560669,0.4491874575614929,1.2718631029129028,0.005912871100008488,0.8932250142097473,-0.10700388997793198,-0.343900203704834,-0.01773861236870289,0.06618601083755493,0.7375829815864563,-0.49479612708091736,0.010064405389130116,-0.9397650361061096,0.040627144277095795,-0.027656977996230125,0.9725719094276428,-0.2984352111816406,-0.001255345530807972,0.11067333072423935,0.06480041891336441,0.398002564907074,0.1615857630968094,-0.0021895968820899725,-0.36911243200302124,1.2914079427719116,-0.15974700450897217,-0.02081076242029667,-0.0770329162478447,0.6341572999954224,1.6013579368591309,-0.809606671333313,-0.783852756023407,0.17713256180286407,-0.9861725568771362,0.15103118121623993,0.5649964809417725,-1.217052698135376,-1.1467962265014648,-7.685688018798828,2.211327314376831,-0.5670978426933289,1741504097.1644228,1741504097053,1.439742919921875,0.8130675659179688,1.458900054779497,0.45727001953125,0.2166381378173828
1741504097.2380247,-2.7937636375427246,0.046931980495542,-0.009431818121109756,-0.9988535578420373,0.05867653340101242,0.08885561674833298,0.7101433873176575,-3.6850361824035645,-1.4012173414230347,10.416555404663086,0.22106552124023438,0.6013965606689453,-0.10051880776882172,-1.2470670938491821,0.00476844422519207,-0.9447242021560669,0.4533836841583252,1.2680482864379883,0.005912871100008488,0.8924620151519775,-0.10013733059167862,-0.3126192092895508,-0.048638131469488144,0.06580453366041183,0.7520790696144104,-0.4980170428752899,0.023179728537797928,-0.9081025123596191,0.011635004542768002,-0.04787518084049225,0.8253223299980164,-0.2784324586391449,-0.009370045736432076,0.41943928599357605,0.2726493179798126,1.3113386631011963,-0.008459393866360188,-0.006567133590579033,0.08115856349468231,0.15189236402511597,-0.3221156895160675,0.0004971166490577161,-0.0652548298239708,0.26246803998947144,1.4061129093170166,-1.5881413221359253,0.39383286237716675,0.9121763110160828,-0.07131368666887283,0.844547688961029,1.5422048568725586,-1.6029826402664185,-0.9567176103591919,-7.190176010131836,0.6691473722457886,-0.36039653420448303,1741504097.1644228,1741504097053,1.439742919921875,0.8130675659179688,1.458900054779497,0.45727001953125,0.2166381378173828
1741504097.25807,-2.780608057975769,0.04272063794952009,-0.019830814627984944,-0.9988902271442927,0.6541247963905334,-0.1778053492307663,0.6661074161529541,-0.09683628380298615,1.6346702575683594,8.791342735290527,0.23632431030273438,0.6109333038330078,-0.05359731614589691,-1.2482116222381592,0.00476844422519207,-0.9363317489624023,0.44613564014434814,1.2608002424240112,0.005149920005351305,0.8924620151519775,-0.10547798871994019,-0.2950713336467743,-0.06618601083755493,0.07495994865894318,0.8005264401435852,-0.49203306436538696,0.042811643332242966,-0.8630884289741516,-0.02079041674733162,-0.04787518084049225,0.7047760486602783,-0.2894824147224426,-0.010819808579981327,0.46768712997436523,0.2949581742286682,2.562544822692871,-0.14276723563671112,-0.008667496033012867,0.462564617395401,-0.6715196371078491,-0.5167533159255981,-0.04027660936117172,0.07335516810417175,-0.3638608455657959,0.7685103416442871,-0.7539502382278442,0.6425747275352478,2.8730084896087646,0.33896520733833313,0.9642112255096436,2.3211896419525146,-1.5676323175430298,0.4115299582481384,-5.556396961212158,-0.475421667098999,0.15646955370903015,1741504097.1644228,1741504097053,1.439742919921875,0.8130675659179688,1.458900054779497,0.45727001953125,0.2166381378173828
1741504097.278093,-2.7684251070022583,0.03418266078527312,-0.04006257905335934,-0.9986123048817456,0.9276173710823059,-0.46863463521003723,0.537800133228302,-23.920730590820312,-7.3568525314331055,19.912372589111328,0.24738693237304688,0.6254291534423828,0.007057297509163618,-1.2581299543380737,0.00476844422519207,-0.924124538898468,0.4232471287250519,1.2512633800506592,0.004386968910694122,0.8852140307426453,-0.12188144028186798,-0.30231937766075134,-0.05855649709701538,0.09594109654426575,0.9012359976768494,-0.47366586327552795,0.05580490082502365,-0.8371480703353882,-0.016212711110711098,-0.018501564860343933,0.7501716613769531,-0.25967034697532654,0.018851784989237785,0.3302309811115265,0.5826616883277893,2.8103339672088623,-0.757357120513916,-0.035591259598731995,0.6375718116760254,-1.6877117156982422,-0.6124640107154846,-0.029008854180574417,-0.6869569420814514,-1.1385693550109863,-0.7226765155792236,0.2175392061471939,1.244130253791809,5.242138385772705,1.174688696861267,0.6930732727050781,1.5212070941925049,0.6846489906311035,1.7712432146072388,3.113177537918091,1.6432136297225952,1.803796410560608,1741504097.1644228,1741504097053,1.439742919921875,0.8130675659179688,1.458900054779497,0.45727001953125,0.2166381378173828
1741504097.2980661,-2.7546603679656982,0.0332251163627239,-0.0452663830468506,-0.9984222785017065,0.194172203540802,-0.21250411868095398,0.8564065098762512,-4.139279365539551,10.240860939025879,12.995591163635254,0.22335433959960938,0.6185626983642578,0.07686731964349747,-1.2611817121505737,0.005531395319849253,-0.9107728600502014,0.3709849715232849,1.2436338663101196,0.00476844422519207,0.8764400482177734,-0.14057374000549316,-0.3568703830242157,-0.06961929053068161,0.12302586436271667,1.0305562019348145,-0.4299529492855072,0.0630389004945755,-0.8237964510917664,-0.01506828423589468,0.03833829239010811,0.7825970649719238,-0.2304839789867401,0.07177948951721191,-0.7074360847473145,0.1998589038848877,3.3568918704986572,-0.04904905706644058,0.06955602020025253,0.7343546152114868,-3.6806633472442627,-0.386507511138916,-0.00692773750051856,-0.5199393630027771,-0.7909597754478455,-2.9543352127075195,-0.28935757279396057,1.011454701423645,6.891239643096924,2.219081401824951,0.28629234433174133,0.950950026512146,-0.2355404943227768,2.792387008666992,0.7883173227310181,1.3439704179763794,2.124180316925049,1741504097.1644228,1741504097053,1.439742919921875,0.8130675659179688,1.458900054779497,0.45727001953125,0.2166381378173828
1741504097.3181367,-2.735051393508911,0.026914432491566494,-0.05484201563538932,-0.998132239056882,0.4479893445968628,-0.28131845593452454,1.0512930154800415,-0.6783497929573059,-8.576822280883789,9.442317962646484,0.24280929565429688,0.6162738800048828,0.14286258816719055,-1.2619446516036987,0.005149920005351305,-0.8966583013534546,0.29926756024360657,1.2436338663101196,0.0032425422687083483,0.8703364729881287,-0.14019227027893066,-0.4362172782421112,-0.06847485899925232,0.12989242374897003,1.186579704284668,-0.38924843072891235,0.05292598903179169,-0.7768749594688416,-0.014686808921396732,0.05245288833975792,0.7795453071594238,-0.20452480018138885,0.04497823864221573,0.5335955619812012,0.05067877471446991,3.4417364597320557,-0.22279055416584015,0.06329131126403809,0.7581365704536438,-4.858102798461914,0.000314367120154202,-0.119375079870224,-0.45170965790748596,-0.02155577577650547,-4.040983200073242,0.08792873471975327,0.42317238450050354,7.650711536407471,1.8228892087936401,-1.0706136226654053,2.197977304458618,-0.1964942067861557,0.35493752360343933,0.26485076546669006,1.4300358295440674,-2.051497220993042,1741504097.1644228,1741504097053,1.439742919921875,0.8130675659179688,1.458900054779497,0.45727001953125,0.2166381378173828
1741504097.338132,-2.703024744987488,0.01803184544686105,-0.05564183557575895,-0.9982879537906588,-0.02118668332695961,-0.36854973435401917,1.7042341232299805,3.182270050048828,6.770684242248535,7.9790167808532715,0.22983932495117188,0.6181812286376953,0.20656901597976685,-1.2657594680786133,0.005149920005351305,-0.881780743598938,0.23250934481620789,1.2436338663101196,0.0036240178160369396,0.8600366115570068,-0.14629587531089783,-0.5270084738731384,-0.06733043491840363,0.1504921019077301,1.3136110305786133,-0.3774189352989197,0.00038886952097527683,-0.7448310256004333,-0.03337911143898964,0.06237125024199486,0.7974746227264404,-0.1802961528301239,0.004765215329825878,-0.33514007925987244,0.01647842489182949,2.8361501693725586,-0.18396657705307007,-0.01158669963479042,0.760775089263916,-4.3464436531066895,0.005367686506360769,-0.011127416044473648,-0.668125569820404,-0.25779101252555847,-4.270975112915039,-0.08509445190429688,1.1784019470214844,6.081046104431152,0.26061052083969116,-2.2345328330993652,1.6157482862472534,-1.013938069343567,0.4565483331680298,0.7692155241966248,1.0866641998291016,-1.5037174224853516,1741504097.1644228,1741504097053,1.439742919921875,0.8130675659179688,1.458900054779497,0.45727001953125,0.2166381378173828
1741504097.3582091,-2.6715168952941895,0.005702801336579426,-0.05704940638644189,-0.9983550687445175,0.09916102886199951,-0.5741119980812073,1.549233317375183,-1.0695027112960815,6.1692070960998535,13.50724983215332,0.24547958374023438,0.6258106231689453,0.266460657119751,-1.2665224075317383,0.005149920005351305,-0.8669031858444214,0.17338064312934875,1.2440153360366821,0.002861066721379757,0.8512626886367798,-0.14438849687576294,-0.6097886562347412,-0.05893797054886818,0.18520638346672058,1.3906691074371338,-0.40758705139160156,0.006887284107506275,-0.7028687000274658,-0.048256658017635345,0.06046387553215027,0.8005264401435852,-0.1737622171640396,0.01633501425385475,0.3989322781562805,0.2246827930212021,3.1030185222625732,-0.09982097893953323,-0.0010552833555266261,0.772588312625885,-3.8922550678253174,0.0011972413631156087,0.01891138404607773,-0.5885525345802307,0.12298999726772308,-3.862097978591919,0.6251771450042725,1.7760038375854492,3.353461980819702,-1.7307857275009155,0.627623975276947,2.035212993621826,-0.8785138130187988,-0.15268586575984955,0.10939623415470123,0.14905136823654175,0.7048089504241943,1741504097.1644228,1741504097053,1.439742919921875,0.8130675659179688,1.458900054779497,0.45727001953125,0.2166381378173828
1741504097.3781898,-2.639992117881775,-0.0044379652082664756,-0.05980296213109235,-0.9982003356967766,0.03644639253616333,-0.33231595158576965,1.4639800786972046,-1.49413001537323,-1.3625810146331787,13.453413963317871,0.2576866149902344,0.6204700469970703,0.3213931620121002,-1.2714815139770508,0.00476844422519207,-0.8527885675430298,0.11730372905731201,1.2440153360366821,0.0032425422687083483,0.8428702354431152,-0.1520180106163025,-0.6754024624824524,-0.0398641936480999,0.2283131182193756,1.3986800909042358,-0.4501919150352478,0.004473417531698942,-0.6689173579216003,-0.06046387553215027,0.04749370738863945,0.810826301574707,-0.20098429918289185,0.019711751490831375,0.38119015097618103,-0.139526829123497,2.646764039993286,-0.26927074790000916,-0.042367395013570786,0.6395979523658752,-3.632215738296509,0.02233240194618702,-0.004913040902465582,-0.5842644572257996,-0.5443364977836609,-3.1107664108276367,0.923534631729126,2.0332558155059814,-0.13110198080539703,-2.0540213584899902,-0.48417872190475464,1.6910638809204102,-0.6403607130050659,-0.5738164782524109,0.5575153231620789,-1.7542821168899536,-0.1784808337688446,1741504097.1644228,1741504097053,1.439742919921875,0.8130675659179688,1.458900054779497,0.45727001953125,0.2166381378173828
1741504097.3981814,-2.6215267181396484,-0.007464754451110223,-0.05550685673507439,-0.998430401328193,-0.1952008605003357,-0.11962584406137466,0.8539911508560181,6.6159186363220215,5.485299587249756,9.342143058776855,0.2588310241699219,0.6078815460205078,0.36335545778274536,-1.2707185745239258,0.00476844422519207,-0.838674008846283,0.06733043491840363,1.2455412149429321,0.0032425422687083483,0.8325703740119934,-0.1516365259885788,-0.725375771522522,-0.022697795182466507,0.2481498420238495,1.346036434173584,-0.4749728739261627,-0.015394143760204315,-0.6429770588874817,-0.06961929053068161,0.04100862145423889,0.8073930144309998,-0.25619420409202576,0.01861492358148098,0.06901822239160538,-0.34459078311920166,2.0008621215820312,0.06500302255153656,0.04141455143690109,0.6959414482116699,-3.3250672817230225,0.10034747421741486,-0.00967643316835165,-0.6472965478897095,0.1970745027065277,-2.3278017044067383,0.755465030670166,0.8832334280014038,-2.9761264324188232,-0.9605613350868225,-0.8172504305839539,1.1871217489242554,-0.3773593306541443,-0.4399331510066986,-0.3372764587402344,-2.840012311935425,0.44796907901763916,1741504097.1644228,1741504097053,1.439742919921875,0.8130675659179688,1.458900054779497,0.45727001953125,0.2166381378173828
1741504097.4181774,-2.6109160780906677,-0.0015242514119005377,-0.053405559959522876,-0.9985717414502792,-0.06364661455154419,0.47879093885421753,0.6188157200813293,5.654458045959473,3.693510055541992,8.899140357971191,0.2653160095214844,0.5903329849243164,0.4064621925354004,-1.2752963304519653,0.005149920005351305,-0.8199816942214966,0.00019073777366429567,1.2493560314178467,0.0032425422687083483,0.8318074345588684,-0.14629587531089783,-0.7570382356643677,-0.010490577667951584,0.2466239482164383,1.257534146308899,-0.46591222286224365,-0.007528382353484631,-0.6013962030410767,-0.08030059933662415,0.02384222112596035,0.8031967878341675,-0.3070020377635956,0.04718872159719467,0.20123232901096344,-0.5466393232345581,2.227487802505493,-0.3427068591117859,-0.005696428008377552,0.9913150072097778,-4.498872756958008,0.2724002003669739,0.024784768000245094,0.04898570105433464,0.04920466989278793,-1.6878851652145386,0.7425500750541687,-0.12774547934532166,-4.614699840545654,0.7237644791603088,0.4815120995044708,2.174039363861084,-0.6966963410377502,-0.7745051980018616,-0.17962761223316193,-2.4742116928100586,1.3388671875,1741504097.1644228,1741504097053,1.439742919921875,0.8130675659179688,1.458900054779497,0.45727001953125,0.2166381378173828
1741504097.4382253,-2.598617434501648,0.00516622636843085,-0.05275148948962363,-0.998594307244807,-0.04985164478421211,0.34085437655448914,0.570142924785614,-1.1314709186553955,0.3028888702392578,7.7349395751953125,0.2748527526855469,0.5823221206665039,0.4377431869506836,-1.2787295579910278,0.005149920005351305,-0.80510413646698,-0.04558632895350456,1.2497375011444092,0.002861066721379757,0.839436948299408,-0.1527809500694275,-0.7791637778282166,0.010872052982449532,0.2439536154270172,1.1381323337554932,-0.4265102446079254,-0.007242729887366295,-0.5682078003883362,-0.09441519528627396,0.0078202486038208,0.7982375621795654,-0.34589171409606934,0.05710722133517265,0.24125435948371887,-0.24831324815750122,1.3750600814819336,-0.19622449576854706,-0.004636644385755062,0.6736537218093872,-2.8072564601898193,-0.02575865015387535,-0.043777741491794586,0.49592170119285583,-0.5128849744796753,-0.9030662775039673,1.2487316131591797,-0.02163395844399929,-6.17674446105957,2.0684216022491455,0.06472750008106232,1.777591586112976,-0.6611977815628052,-0.6975067257881165,-0.13867466151714325,-1.7521928548812866,0.3767176866531372,1741504097.1644228,1741504097053,1.439742919921875,0.8130675659179688,1.458900054779497,0.45727001953125,0.2166381378173828
1741504097.458218,-2.5829959511756897,0.01063128277268967,-0.05223766425088537,-0.9985780902163932,-0.025326868519186974,0.3037198781967163,0.8454973697662354,3.3911402225494385,1.9656939506530762,6.271594524383545,0.2676048278808594,0.5739297866821289,0.4503318965435028,-1.2791110277175903,0.005149920005351305,-0.7997635006904602,-0.0707637146115303,1.2485930919647217,0.002861066721379757,0.84744793176651,-0.17681391537189484,-0.775730550289154,0.043678950518369675,0.248531311750412,1.0122454166412354,-0.3795042634010315,-0.0008115628734230995,-0.5327305793762207,-0.09632257372140884,0.008201723918318748,0.7970931529998779,-0.3742617666721344,0.04885103553533554,-0.18265368044376373,-0.199182391166687,0.47247815132141113,-0.022407453507184982,0.004093657247722149,0.20965979993343353,-1.3643749952316284,-0.06942881643772125,0.025908343493938446,0.5328352451324463,-1.27790105342865,0.2681128680706024,1.7078466415405273,0.3289858400821686,-6.29502010345459,2.336684226989746,0.3534993827342987,1.7793092727661133,0.009881921112537384,0.06263699382543564,-0.059283267706632614,-1.32575523853302,-0.4401891231536865,1741504097.1644228,1741504097053,1.439742919921875,0.8130675659179688,1.458900054779497,0.45727001953125,0.2166381378173828
1741504097.4782307,-2.5628613233566284,0.010178805572921492,-0.05264185446172664,-0.998561579010498,0.015560472384095192,0.0038673565723001957,1.026051640510559,1.6259320974349976,-0.5047354698181152,7.4452009201049805,0.2626457214355469,0.5819406509399414,0.4488059878349304,-1.2791110277175903,0.005149920005351305,-0.8024337887763977,-0.0715266615152359,1.2485930919647217,0.002861066721379757,0.8546959757804871,-0.20809490978717804,-0.760471522808075,0.08449683338403702,0.26684215664863586,0.892080545425415,-0.32920441031455994,0.004122522193938494,-0.4976348578929901,-0.08564125746488571,0.015449759550392628,0.7974746227264404,-0.4010181128978729,0.03015599586069584,-0.17525354027748108,0.21909356117248535,-0.20322716236114502,-0.0003849606146104634,0.003683331422507763,-0.2090476155281067,0.15570732951164246,-0.010881791822612286,0.0010412147967144847,0.4634351432323456,-1.6419113874435425,0.8421058058738708,2.0855700969696045,1.1415276527404785,-5.91635799407959,2.4896364212036133,0.15781833231449127,1.8801413774490356,0.5566139817237854,0.29372239112854004,0.02307254634797573,-1.3049136400222778,-0.858383059501648,1741504097.1644228,1741504097053,1.439742919921875,0.8130675659179688,1.458900054779497,0.45727001953125,0.2166381378173828
1741504097.4982805,-2.539815902709961,0.007138899890041347,-0.04900329970254591,-0.9987731037260777,-0.23678939044475555,-0.10704579204320908,1.1579469442367554,2.8255302906036377,0.8506229519844055,6.424350738525391,0.2576866149902344,0.5788888931274414,0.43202105164527893,-1.2783480882644653,0.005149920005351305,-0.8104447722434998,-0.05436026677489281,1.2485930919647217,0.002861066721379757,0.8596551418304443,-0.23708705604076385,-0.7330052852630615,0.10891126841306686,0.3068970739841461,0.7814526557922363,-0.28670063614845276,0.0024091333616524935,-0.4545281231403351,-0.071908138692379,0.02040894143283367,0.7970931529998779,-0.4266558289527893,0.02083573490381241,-0.1646120250225067,-0.054608285427093506,-0.9225698709487915,0.02371235005557537,-0.0026167589239776134,-0.45045676827430725,1.3816108703613281,-0.0030273960437625647,-0.003719652071595192,0.29708331823349,-1.3533382415771484,1.4303570985794067,0.874175488948822,2.16015362739563,-5.437158107757568,1.9453997611999512,-0.04550865665078163,2.2031137943267822,0.7536258697509766,0.25694727897644043,-0.03396643325686455,-1.1923638582229614,-0.16290096938610077,1741504097.1644228,1741504097053,1.439742919921875,0.8130675659179688,1.458900054779497,0.45727001953125,0.2166381378173828
1741504097.5183034,-2.520103633403778,-1.9917615644364585e-05,-0.03970085256185098,-0.9992116101753177,-0.46258604526519775,-0.36077213287353516,0.9759634733200073,24.41117286682129,6.982445240020752,20.390012741088867,0.2531089782714844,0.5811777114868164,0.4087510406970978,-1.2775851488113403,0.00476844422519207,-0.8196002244949341,-0.02040894143283367,1.2482116222381592,0.002861066721379757,0.8630884289741516,-0.2504386901855469,-0.7047760486602783,0.1356145590543747,0.34733349084854126,0.7116426229476929,-0.25326916575431824,0.017962295562028885,-0.4011215269565582,-0.06466010212898254,0.02079041674733162,0.8001449704170227,-0.4367210268974304,0.038664672523736954,-0.12377892434597015,0.05155754089355469,-1.2211858034133911,0.0766063928604126,-0.014185372740030289,-0.38889411091804504,2.3717010021209717,-0.019670089706778526,-0.0002108139597112313,0.16521741449832916,-0.6183010339736938,1.3710323572158813,1.2235102653503418,1.9344046115875244,-2.5016181468963623,1.5821306705474854,1.0357530117034912,2.833284854888916,0.1259518712759018,0.06077871844172478,0.2691795527935028,-0.2977304756641388,0.8867807984352112,1741504097.1644228,1741504097053,1.439742919921875,0.8130675659179688,1.458900054779497,0.45727001953125,0.2166381378173828
1741504097.5382924,-2.5026718378067017,-0.013375003618762548,-0.03542770526236717,-0.9992827362553808,-0.15667642652988434,-0.6091480255126953,0.8829441070556641,-8.788946151733398,-1.2303472757339478,10.131448745727539,0.2588310241699219,0.5945301055908203,0.3713664412498474,-1.2829258441925049,0.005149920005351305,-0.8249408602714539,0.023460745811462402,1.2485930919647217,0.002861066721379757,0.8627069592475891,-0.25463491678237915,-0.6593804955482483,0.12607766687870026,0.36259251832962036,0.7192721366882324,-0.2381243258714676,0.041761454194784164,-0.35229265689849854,-0.06351567804813385,0.03337911143898964,0.8077744841575623,-0.43148472905158997,0.03910061717033386,0.1700880229473114,0.36314111948013306,-2.0348732471466064,-0.5044390559196472,-0.0007143034017644823,-0.33278727531433105,3.0421547889709473,-0.003220719750970602,0.003157009370625019,-0.022378629073500633,-0.08551519364118576,2.443575382232666,-0.4927297532558441,0.13097266852855682,0.14322179555892944,0.37921229004859924,0.9943639039993286,2.23791766166687,0.18471649289131165,0.8665058612823486,0.5277953147888184,0.3799383044242859,0.13137273490428925,1741504097.1644228,1741504097053,1.439742919921875,0.8130675659179688,1.458900054779497,0.45727001953125,0.2166381378173828
1741504097.5583255,-2.482296645641327,-0.015777173558269787,-0.031422993957170506,-0.999381646942388,-0.15974758565425873,0.02022385597229004,0.9314364194869995,-2.5478641986846924,3.0062432289123535,11.533526420593262,0.2561607360839844,0.5849924087524414,0.3107118308544159,-1.288648009300232,0.005149920005351305,-0.8356221914291382,0.0715266615152359,1.2505004405975342,0.002861066721379757,0.8630884289741516,-0.25234606862068176,-0.6090257167816162,0.09861142933368683,0.3213931620121002,0.7097352743148804,-0.24808460474014282,0.049502406269311905,-0.3370336592197418,-0.05283436179161072,0.07648584991693497,0.8596551418304443,-0.41170233488082886,0.0351950041949749,-0.08120446652173996,-0.21840927004814148,-3.317965269088745,-0.28304600715637207,-0.010352613404393196,-0.5212265253067017,3.212783098220825,0.126663476228714,0.007502142805606127,0.005142400041222572,0.01677604578435421,2.4399068355560303,-1.4863001108169556,-2.2926268577575684,-0.4349220097064972,-0.4522257447242737,0.48350366950035095,0.344667911529541,0.40320611000061035,2.688236951828003,3.1653099060058594,1.0634840726852417,-0.2623467445373535,1741504097.1644228,1741504097053,1.439742919921875,0.8130675659179688,1.458900054779497,0.45727001953125,0.2166381378173828
1741504097.578345,-2.468916893005371,-0.011752281806087889,-0.03288436041379416,-0.999390065346122,0.13195133209228516,0.23989252746105194,0.6764195561408997,1.2519984245300293,2.2108216285705566,7.749184608459473,0.2615013122558594,0.5838479995727539,0.24166475236415863,-1.293988585472107,0.005149920005351305,-0.8443961143493652,0.11768520623445511,1.2577484846115112,0.004386968910694122,0.8619440197944641,-0.25158312916755676,-0.580033540725708,0.05664911866188049,0.2748531401157379,0.6986724734306335,-0.25697025656700134,0.06061738729476929,-0.37861448526382446,-0.03376058489084244,0.1493476778268814,0.9836347103118896,-0.37427762150764465,0.023206660524010658,0.12916526198387146,-0.03276620805263519,-3.514031410217285,-0.3044610917568207,-0.0025194059126079082,-0.41141292452812195,3.038317918777466,0.5508084297180176,0.11758442968130112,-0.0649765282869339,0.16609318554401398,1.3854360580444336,-2.046604871749878,-2.337214708328247,-0.5413259267807007,-0.4204820394515991,0.40008068084716797,-2.755147695541382,1.2203013896942139,3.608915090560913,6.631631851196289,2.01454496383667,-0.5199437141418457,1741504097.1644228,1741504097053,1.439742919921875,0.8130675659179688,1.458900054779497,0.45727001953125,0.2166381378173828
1741504097.598368,-2.466142773628235,-0.007639505629105478,-0.04343067225444614,-0.9990272341939782,0.5593330264091492,0.2561151683330536,0.05068863555788994,-5.3589701652526855,-4.6793012619018555,12.311097145080566,0.2740898132324219,0.6029224395751953,0.17147326469421387,-1.296658992767334,0.005149920005351305,-0.8493552803993225,0.16002899408340454,1.2634705305099487,0.004386968910694122,0.8623254895210266,-0.25234606862068176,-0.5514228940010071,0.025749599561095238,0.23289081454277039,0.6887540817260742,-0.26282352209091187,0.05309968441724777,-0.4659723937511444,0.0078202486038208,0.2134355753660202,1.1499580144882202,-0.32883310317993164,0.0071697719395160675,0.34607237577438354,0.43809351325035095,-3.324352264404297,-0.10054867714643478,-0.005789758171886206,-0.25243690609931946,2.6958203315734863,0.29927772283554077,-0.007744986098259687,0.018039807677268982,-0.13637572526931763,1.4883953332901,-1.6727375984191895,-1.9065200090408325,-0.45727357268333435,-0.1996583640575409,-0.670494794845581,-4.593110084533691,2.1959028244018555,2.8930418491363525,8.598526954650879,2.0665934085845947,-0.8659648299217224,1741504097.6351392,1741504097453,1.076479248046875,0.6984694213867187,1.64392491433123,0.2673345947265625,-0.0756379852294922
1741504097.6183722,-2.46841037273407,-0.0031508816423084316,-0.055263429475899246,-0.9984668373598786,0.602833092212677,0.16320890188217163,-0.1476007103919983,0.3707919120788574,-2.1684131622314453,10.285476684570312,0.2988862991333008,0.6448841094970703,0.10585946589708328,-1.2928441762924194,0.005149920005351305,-0.8554589152336121,0.1974135935306549,1.2642335891723633,0.004386968910694122,0.8623254895210266,-0.2592126429080963,-0.5212863087654114,0.005531395319849253,0.21992065012454987,0.6765468716621399,-0.26523786783218384,0.031231306493282318,-0.5716410875320435,0.05359731614589691,0.24090181291103363,1.3227664232254028,-0.3165753483772278,-0.015770576894283295,0.7002467513084412,1.1764411926269531,-3.236022472381592,0.28735512495040894,-0.00275075132958591,-0.23988069593906403,2.534785509109497,0.087122842669487,0.006217630580067635,-0.01761847920715809,-0.34175005555152893,1.4701343774795532,-0.7025232315063477,-0.6172808408737183,-0.6570488810539246,-0.12178993225097656,-0.8834352493286133,-5.451990127563477,2.2247097492218018,1.0485211610794067,8.188849449157715,0.23631039261817932,-0.9793482422828674,1741504097.6351392,1741504097453,1.076479248046875,0.6984694213867187,1.64392491433123,0.2673345947265625,-0.0756379852294922
1741504097.6384351,-2.47384512424469,0.00023849536729728484,-0.06774124954156459,-0.9977028947690325,0.5954524278640747,0.19075587391853333,-0.24988318979740143,-2.800565719604492,-7.73615026473999,10.717949867248535,0.3179597854614258,0.6841764450073242,0.051689937710762024,-1.287885069847107,0.005149920005351305,-0.8573662638664246,0.23670557141304016,1.2657594680786133,0.004386968910694122,0.8619440197944641,-0.26760509610176086,-0.49382010102272034,0.0032425422687083483,0.21229113638401031,0.6731135845184326,-0.2659509778022766,0.02335190586745739,-0.6780728101730347,0.09403372555971146,0.22793163359165192,1.441023826599121,-0.34415915608406067,-0.013909685425460339,0.5903092622756958,1.247563362121582,-2.598717451095581,0.3121390640735626,-0.0006379049154929817,-0.03418402373790741,2.587448835372925,0.09148421138525009,0.003884826321154833,-0.02145998924970627,-0.4341081380844116,1.4147754907608032,-0.15633419156074524,-0.39551782608032227,-0.05104959011077881,-0.01801975630223751,-0.3866146206855774,-5.227728843688965,1.9706045389175415,-0.9053187966346741,5.369257926940918,-1.6352460384368896,0.1865246593952179,1741504097.6351392,1741504097453,1.076479248046875,0.6984694213867187,1.64392491433123,0.2673345947265625,-0.0756379852294922
1741504097.6584156,-2.470808684825897,0.005136911982402093,-0.07086188684092114,-0.997472909471044,0.07054107636213303,0.2312449812889099,0.17537561058998108,-0.9526262283325195,-1.608027696609497,10.744540214538574,0.3274965286254883,0.7238502502441406,0.01125352829694748,-1.2802555561065674,0.00476844422519207,-0.8550774455070496,0.27065691351890564,1.2714815139770508,0.004386968910694122,0.8607995510101318,-0.27141985297203064,-0.4705500900745392,-0.002861066721379757,0.18749523162841797,0.6734950542449951,-0.2676413953304291,0.013036943972110748,-0.7753490209579468,0.1203555315732956,0.20199130475521088,1.486419439315796,-0.3946709930896759,-0.004791329614818096,0.27813655138015747,1.2833830118179321,-2.058184862136841,0.5313540697097778,-0.003535243682563305,0.09530389308929443,2.2218563556671143,0.3860669434070587,0.004977851640433073,-0.12805144488811493,-0.17352551221847534,1.0274240970611572,-0.29633980989456177,-1.4536997079849243,0.007808095775544643,-0.12450496107339859,-0.4128182828426361,-4.766111373901367,1.0473347902297974,-1.0644339323043823,1.5772678852081299,-2.6192071437835693,0.33080270886421204,1741504097.6351392,1741504097453,1.076479248046875,0.6984694213867187,1.64392491433123,0.2673345947265625,-0.0756379852294922
1741504097.6784234,-2.4685381650924683,0.012508509434475987,-0.06774858766579223,-0.9976240103671413,-0.15289834141731262,0.4427151083946228,0.07893400639295578,0.8287333846092224,1.7652517557144165,7.124672889709473,0.3252077102661133,0.7337684631347656,-0.03795681521296501,-1.2722445726394653,0.00476844422519207,-0.8592736721038818,0.30270084738731384,1.2779666185379028,0.00476844422519207,0.8585107326507568,-0.26951247453689575,-0.4488059878349304,-0.014686808921396732,0.14476996660232544,0.6754024624824524,-0.2781945466995239,0.008074674755334854,-0.8520256280899048,0.1359960287809372,0.17032882571220398,1.4539940357208252,-0.4418754279613495,0.00794905610382557,-0.036167118698358536,0.4308834969997406,-2.3172447681427,0.4755219519138336,-0.009450138546526432,-0.3634805381298065,2.1910972595214844,0.4128754436969757,0.030571239069104195,-0.11307259649038315,0.11030749976634979,1.0568006038665771,-0.660427987575531,-2.224184274673462,0.1611955165863037,-0.6406112313270569,-0.24325606226921082,-3.6223080158233643,0.807600736618042,-1.6156072616577148,-2.1781435012817383,-2.2029411792755127,0.6926910877227783,1741504097.6351392,1741504097453,1.076479248046875,0.6984694213867187,1.64392491433123,0.2673345947265625,-0.0756379852294922
1741504097.703146,-2.4661216139793396,0.020869118306292792,-0.06459872313854702,-0.9976930814985074,-0.17775511741638184,0.4408779740333557,0.0850573480129242,-0.2397332489490509,-1.6353647708892822,7.020036220550537,0.3217744827270508,0.7326240539550781,-0.0711451917886734,-1.2638521194458008,0.00476844422519207,-0.8703364729881287,0.33207446336746216,1.2810184955596924,0.004386968910694122,0.8596551418304443,-0.2599755823612213,-0.4365987777709961,-0.016212711110711098,0.10624094307422638,0.6830319762229919,-0.3064057528972626,0.0028375471010804176,-0.9061951637268066,0.13752193748950958,0.14553292095661163,1.3586251735687256,-0.4595969617366791,0.011481034569442272,-0.12011164426803589,0.006108257919549942,-1.5074340105056763,0.5679236650466919,0.007005628664046526,-0.6157225370407104,1.9556571245193481,0.09486338496208191,-0.006804362870752811,0.10543586313724518,0.55936598777771,0.49621444940567017,-0.07691466063261032,-1.7650372982025146,0.4439736604690552,-1.6548441648483276,-0.2899717390537262,-2.497675657272339,0.0651763528585434,-1.222321629524231,-5.176211833953857,-0.5554607510566711,0.16549809277057648,1741504097.6351392,1741504097453,1.076479248046875,0.6984694213867187,1.64392491433123,0.2673345947265625,-0.0756379852294922
1741504097.7184916,-2.461641848087311,0.031032740570648844,-0.058001253573550494,-0.9978340661635938,-0.35590943694114685,0.5200536847114563,0.22993651032447815,-15.990078926086426,1.0298876762390137,10.154361724853516,0.3107118606567383,0.7272834777832031,-0.08487831056118011,-1.2566040754318237,0.00476844422519207,-0.8848325610160828,0.3557259440422058,1.2798740863800049,0.00476844422519207,0.8649957776069641,-0.2481498420238495,-0.44232088327407837,-0.016975661739706993,0.0883115902543068,0.6967650651931763,-0.35316789150238037,0.00015270795847754925,-0.9218356609344482,0.12684062123298645,0.1337071806192398,1.2170977592468262,-0.44256147742271423,0.00991919357329607,-0.3080192506313324,-0.1536923050880432,-0.5476081967353821,0.4979586601257324,-0.0039957184344530106,-0.8152182102203369,1.5422147512435913,-0.0348486490547657,0.006226253695785999,0.31784889101982117,0.6073105335235596,-0.428268164396286,-0.07475632429122925,-0.8297736048698425,0.7785989046096802,-2.4446141719818115,0.03689765930175781,-0.3031156659126282,-0.7200004458427429,-0.41793200373649597,-7.4147114753723145,1.086129069328308,-0.026427827775478363,1741504097.6351392,1741504097453,1.076479248046875,0.6984694213867187,1.64392491433123,0.2673345947265625,-0.0756379852294922
1741504097.738539,-2.4522804617881775,0.04386924405737746,-0.050384700374461876,-0.9977659401853772,-0.3996851444244385,0.6566523313522339,0.45092183351516724,2.2281100749969482,8.424793243408203,2.9716525077819824,0.2950716018676758,0.7227058410644531,-0.0864042118191719,-1.2505004405975342,0.00476844422519207,-0.9046692848205566,0.37975889444351196,1.2802555561065674,0.00476844422519207,0.8665217161178589,-0.2294575423002243,-0.44651713967323303,-0.02231631986796856,0.07915617525577545,0.735675573348999,-0.4044061601161957,0.006483538541942835,-0.9054322242736816,0.10547798871994019,0.13179980218410492,1.0297932624816895,-0.4100538492202759,0.006641141604632139,-0.4506985545158386,-0.1460067629814148,-0.02075701579451561,0.36059677600860596,-0.007757815066725016,-0.9879617094993591,1.588158369064331,-0.015304171480238438,0.010670126415789127,0.0878809317946434,0.9426436424255371,-0.40779170393943787,-0.45233362913131714,-0.20915919542312622,2.017418622970581,-2.5119576454162598,0.2193378210067749,1.2217798233032227,-1.170954704284668,-0.0409606508910656,-9.798004150390625,1.5147349834442139,-0.3163436949253082,1741504097.6351392,1741504097453,1.076479248046875,0.6984694213867187,1.64392491433123,0.2673345947265625,-0.0756379852294922
1741504097.7585135,-2.4354995489120483,0.05402929121352802,-0.04517013623256841,-0.9975171650070465,-0.2844451069831848,0.4827926754951477,0.8565039038658142,-6.443624496459961,2.145540475845337,4.817525863647461,0.2832460403442383,0.7108793258666992,-0.07457847148180008,-1.2451597452163696,0.00476844422519207,-0.9222171306610107,0.39845120906829834,1.2775851488113403,0.004386968910694122,0.8703364729881287,-0.2134355753660202,-0.45834288001060486,-0.04901960864663124,0.09441519528627396,0.7936598658561707,-0.4432643949985504,-0.0011000515660271049,-0.8592736721038818,0.06656748056411743,0.1325627565383911,0.8039597272872925,-0.3931359350681305,-0.005575759802013636,-0.34404703974723816,-0.3539915382862091,0.6892004609107971,0.39810800552368164,-0.020464550703763962,-0.8740851879119873,1.1484307050704956,-0.21121487021446228,-0.004596605431288481,0.2729892432689667,0.6422262787818909,-0.6508628726005554,-1.206381916999817,0.8568031191825867,3.027683734893799,-1.709681749343872,-0.41353484988212585,2.555900812149048,-2.047905921936035,0.11825481057167053,-11.110600471496582,0.6463431715965271,-0.553953230381012,1741504097.6351392,1741504097453,1.076479248046875,0.6984694213867187,1.64392491433123,0.2673345947265625,-0.0756379852294922
1741504097.7785542,-2.414072334766388,0.05142863892392094,-0.049024139081237234,-0.99747267074631,0.10258588939905167,-0.3202285170555115,0.9730280637741089,-23.570152282714844,-5.753238677978516,17.466571807861328,0.2779045104980469,0.7490272521972656,-0.051689937710762024,-1.2432523965835571,0.004386968910694122,-0.9363317489624023,0.40951400995254517,1.2676668167114258,0.004386968910694122,0.8745326995849609,-0.20695048570632935,-0.46177613735198975,-0.023079270496964455,0.11348897218704224,0.8642328381538391,-0.45644938945770264,0.013177494518458843,-0.8299000263214111,0.04329747334122658,0.11196307092905045,0.7776378989219666,-0.31058457493782043,0.07227127999067307,-0.11529794335365295,1.2789993286132812,1.1532875299453735,-0.17818011343479156,-0.053819313645362854,-0.6701930165290833,0.6239825487136841,-0.731889545917511,-0.0032257470302283764,0.03248365595936775,-0.015471509657800198,-0.1104423850774765,1.719539999961853,1.1491445302963257,3.4176111221313477,-0.39961740374565125,1.1111451387405396,1.750740885734558,-0.268259733915329,-1.3497090339660645,1.627903699874878,4.605439186096191,3.674731492996216,1741504097.6351392,1741504097453,1.076479248046875,0.6984694213867187,1.64392491433123,0.2673345947265625,-0.0756379852294922
1741504097.798553,-2.3966824412345886,0.05878083541389508,-0.04141685226958465,-0.9974113783871347,-0.5113927125930786,0.1036052256822586,0.9843170642852783,-3.8302643299102783,17.988460540771484,7.66006326675415,0.24280929565429688,0.7402534484863281,-0.0036240178160369396,-1.2489745616912842,0.00667582219466567,-0.9454871416091919,0.3927290737628937,1.2546966075897217,0.00476844422519207,0.8779659867286682,-0.22297245264053345,-0.4713130295276642,-0.02040894143283367,0.1672770231962204,0.925650417804718,-0.43171632289886475,0.017712216824293137,-0.8188372850418091,0.034142062067985535,0.13866636157035828,0.8226520419120789,-0.24723026156425476,0.10259590297937393,-1.0896632671356201,0.1536635160446167,2.72712779045105,-0.16749897599220276,0.18786542117595673,-0.3664700388908386,-1.3898932933807373,-0.7360745668411255,0.037281423807144165,0.3974994421005249,-0.45513883233070374,-0.679512083530426,0.1400683969259262,2.419646978378296,3.294692039489746,1.4777472019195557,0.09196839481592178,0.22029852867126465,-1.0961225032806396,2.1428773403167725,0.9235735535621643,2.543944835662842,0.9774096012115479,1741504097.8398602,1741504097653,0.9235228271484375,0.60082666015625,1.9225924206524947,0.18321270751953125,-0.20711631774902345
1741504097.8185952,-2.37974089384079,0.05010873325450603,-0.04990211159036625,-0.9974963128305043,0.49880245327949524,-0.32776686549186707,0.861050009727478,-12.158801078796387,-1.083094835281372,21.231935501098633,0.2573051452636719,0.7360572814941406,0.05970092490315437,-1.2524077892303467,0.004386968910694122,-0.9390020370483398,0.34847790002822876,1.2474485635757446,0.004005493130534887,0.8909361362457275,-0.22564278542995453,-0.49153125286102295,-0.0078202486038208,0.20962081849575043,1.0248340368270874,-0.394389808177948,0.0343865267932415,-0.76276034116745,0.02040894143283367,0.16155488789081573,0.8012893795967102,-0.20958082377910614,0.07804664224386215,0.43349364399909973,0.018897412344813347,3.1177897453308105,-0.4917222261428833,-0.04136243462562561,0.33596938848495483,-3.056185245513916,-0.5939640998840332,-0.05390486121177673,0.9173463582992554,-0.3384366035461426,-1.2049903869628906,0.5756496787071228,2.253406524658203,5.35303258895874,1.9154325723648071,0.9220666289329529,3.098891019821167,-0.34800344705581665,0.4839785099029541,-0.35660719871520996,2.065274715423584,-1.7007830142974854,1741504097.8398602,1741504097653,0.9235228271484375,0.60082666015625,1.9225924206524947,0.18321270751953125,-0.20711631774902345
1741504097.838599,-2.3483465909957886,0.03512702422831682,-0.06352800307675942,-0.9973616620834904,0.5383641719818115,-0.7574500441551208,1.5300573110580444,-6.072170257568359,3.898902654647827,18.687543869018555,0.22640609741210938,0.7417793273925781,0.1203555315732956,-1.2695741653442383,0.004386968910694122,-0.9351872801780701,0.31414511799812317,1.2379117012023926,0.002861066721379757,0.8939879536628723,-0.23632410168647766,-0.535400927066803,0.016975661739706993,0.24929426610469818,1.1587319374084473,-0.35305866599082947,0.03301875665783882,-0.7375829815864563,0.02079041674733162,0.182917520403862,0.8276112079620361,-0.17908063530921936,0.030958792194724083,-0.8070333003997803,0.17794348299503326,2.994199275970459,-0.9756820797920227,-0.1406363993883133,0.1138608381152153,-1.9749317169189453,-0.6753610372543335,-0.029352907091379166,0.04998607188463211,-0.5249170064926147,-2.481710910797119,1.4171948432922363,2.0411462783813477,6.595052719116211,1.9470213651657104,-0.6751876473426819,0.7279080152511597,-0.22243471443653107,1.4865833520889282,1.2022604942321777,1.156055212020874,-2.017730236053467,1741504097.8398602,1741504097653,0.9235228271484375,0.60082666015625,1.9225924206524947,0.18321270751953125,-0.20711631774902345
1741504097.8586073,-2.3182268738746643,0.025918786499984813,-0.06856855718418506,-0.9973096657869346,0.16809260845184326,-0.1903313398361206,1.460546612739563,-15.092085838317871,4.803238868713379,15.0132474899292,0.20046520233154297,0.7223243713378906,0.1832990050315857,-1.2714815139770508,0.004386968910694122,-0.9359502792358398,0.27180132269859314,1.223034143447876,0.002861066721379757,0.8939879536628723,-0.2470054179430008,-0.6052109599113464,0.039101243019104004,0.28439003229141235,1.275844931602478,-0.3353999853134155,-0.0056852796114981174,-0.7166017889976501,0.016594186425209045,0.20542457699775696,0.8512626886367798,-0.20625610649585724,0.03283311054110527,-0.7415399551391602,-0.6042478084564209,3.0886952877044678,-0.07855928689241409,0.004355635493993759,-0.037210460752248764,-3.0299766063690186,-1.022161602973938,-0.004141213372349739,-0.0224357508122921,-0.4662969708442688,-3.415304660797119,0.8148712515830994,1.8125895261764526,5.715583801269531,0.5757979154586792,-1.6101305484771729,1.3311097621917725,-0.21098682284355164,0.7766700983047485,1.0437012910842896,-1.7668839693069458,0.2214885950088501,1741504097.8398602,1741504097653,0.9235228271484375,0.60082666015625,1.9225924206524947,0.18321270751953125,-0.20711631774902345
1741504097.878665,-2.2987112402915955,0.024623283723325284,-0.07128872459759389,-0.9971517495566706,0.07855218648910522,-0.10947584360837936,0.8699737191200256,-0.19326019287109375,5.362759590148926,13.844051361083984,0.19817638397216797,0.7055387496948242,0.2504386901855469,-1.2741519212722778,0.005149920005351305,-0.9344243407249451,0.21076524257659912,1.2123528718948364,0.002861066721379757,0.8932250142097473,-0.24929426610469818,-0.6757839322090149,0.04634927958250046,0.3057526648044586,1.346036434173584,-0.35463881492614746,0.006797431036829948,-0.6837949156761169,-0.004005493130534887,0.1962691694498062,0.8405813574790955,-0.26588189601898193,0.044091250747442245,-0.09081313014030457,-0.5344582200050354,3.4037396907806396,-0.13986504077911377,0.0009143895586021245,0.15312524139881134,-4.1480183601379395,-0.6829759478569031,0.008585471659898758,-0.10300386697053909,-0.057425327599048615,-3.500974178314209,0.2565854489803314,0.7770473957061768,2.938661813735962,-1.1038419008255005,0.9984836578369141,1.4450322389602661,-1.2745020389556885,-0.5836225152015686,-0.7237699627876282,-2.989044189453125,0.5709339380264282,1741504097.8398602,1741504097653,0.9235228271484375,0.60082666015625,1.9225924206524947,0.18321270751953125,-0.20711631774902345
1741504097.898656,-2.2866841554641724,0.02259474921347716,-0.0726560876434544,-0.9971010832590278,0.03250757232308388,-0.008528831414878368,0.6181597709655762,-0.7121143937110901,-0.09024063497781754,7.907399654388428,0.18825817108154297,0.6956205368041992,0.31757840514183044,-1.2749148607254028,0.005149920005351305,-0.9206912517547607,0.13790340721607208,1.2093011140823364,0.002861066721379757,0.8916990756988525,-0.247768372297287,-0.728427529335022,0.04711223021149635,0.3130006790161133,1.3483253717422485,-0.38580992817878723,0.012871709652245045,-0.6448844075202942,-0.03757534176111221,0.17757686972618103,0.8276112079620361,-0.31019946932792664,0.06652183085680008,-0.2658975124359131,-0.34177133440971375,3.3648393154144287,-0.045811742544174194,-0.005470043979585171,0.6889766454696655,-4.966320037841797,-0.08169057965278625,-0.03186042606830597,-0.049200888723134995,0.06555982679128647,-2.4923365116119385,-0.008947141468524933,0.33825093507766724,-0.3745584785938263,-1.5062646865844727,-0.1849668174982071,2.3245275020599365,-1.651339054107666,-0.8049677014350891,-0.5656201839447021,-2.0374386310577393,1.0875630378723145,1741504097.8398602,1741504097653,0.9235228271484375,0.60082666015625,1.9225924206524947,0.18321270751953125,-0.20711631774902345
1741504097.9187362,-2.269923150539398,0.022675362463098758,-0.07247924841821829,-0.9971121233271097,-0.03680384159088135,0.029498077929019928,0.9129112958908081,2.5955426692962646,-1.078689694404602,7.285287857055664,0.16765880584716797,0.6834135055541992,0.3732738196849823,-1.2730075120925903,0.005149920005351305,-0.9016174674034119,0.06313420087099075,1.2131158113479614,0.002861066721379757,0.8928435444831848,-0.25234606862068176,-0.7593270540237427,0.05207141116261482,0.32024872303009033,1.3025482892990112,-0.4085078239440918,-0.01273816917091608,-0.5903334021568298,-0.06466010212898254,0.164988175034523,0.8073930144309998,-0.33914637565612793,0.06372938305139542,-0.5675762891769409,-0.39698976278305054,2.595482349395752,0.14629802107810974,0.00490510743111372,0.9826209545135498,-4.910948753356934,0.24031589925289154,0.03805963322520256,0.034561701118946075,-0.3301391899585724,-1.4273139238357544,0.39682385325431824,0.25804629921913147,-2.5540382862091064,-1.005792498588562,-1.0149415731430054,2.3398938179016113,-1.2598522901535034,-0.6536137461662292,-1.2804040908813477,-1.3920444250106812,-0.43703773617744446,1741504097.8398602,1741504097653,0.9235228271484375,0.60082666015625,1.9225924206524947,0.18321270751953125,-0.20711631774902345
1741504097.938693,-2.2430387139320374,0.017635924967659415,-0.07145837760837186,-0.9972876588126991,-0.11700233817100525,-0.1043163388967514,1.3761521577835083,-0.6526197791099548,-0.443731427192688,7.847153186798096,0.08373355865478516,0.6700620651245117,0.4087510406970978,-1.2691926956176758,0.005149920005351305,-0.8829251527786255,0.006294346414506435,1.211971402168274,0.0024795911740511656,0.8932250142097473,-0.264934778213501,-0.7814526557922363,0.08030059933662415,0.33169299364089966,1.2285419702529907,-0.4144974946975708,-0.0051413304172456264,-0.5445563197135925,-0.07839322835206985,0.1512550562620163,0.7810711860656738,-0.358050674200058,0.05246000364422798,-2.332263469696045,-0.36759695410728455,1.559455156326294,0.3038296401500702,-0.006753798108547926,0.8542026877403259,-3.5978269577026367,-0.10146134346723557,-0.06352901458740234,0.04786575585603714,-0.5884164571762085,-0.9127087593078613,1.5783469676971436,0.6403154134750366,-3.722642183303833,-0.1447712928056717,0.5929312705993652,2.6078531742095947,-0.6465774178504944,-0.4664778411388397,-1.2485944032669067,-0.9497799873352051,-0.4620040953159332,1741504097.9746504,1741504097853,0.7766201782226563,0.5133087158203125,2.18947505147133,0.11278253173828125,-0.32549453735351563
1741504097.9587667,-2.214517056941986,0.0175131565006567,-0.06653340650695298,-0.9976304902958631,-0.2612171471118927,0.04929735139012337,1.4048986434936523,3.658130645751953,1.4511245489120483,9.255913734436035,-0.00934600830078125,0.6414508819580078,0.43240252137184143,-1.2665224075317383,0.005149920005351305,-0.8722438216209412,-0.031090257689356804,1.212734341621399,0.0024795911740511656,0.8962767720222473,-0.2813382148742676,-0.7841230034828186,0.12149996310472488,0.34924086928367615,1.1465247869491577,-0.39811334013938904,-0.0011288552777841687,-0.49229419231414795,-0.08373387902975082,0.14553292095661163,0.7536049485206604,-0.3779754936695099,0.05533420667052269,-2.824498414993286,-0.7908257842063904,1.3112846612930298,0.13300205767154694,0.009057457558810711,0.46739232540130615,-2.251944065093994,0.0507342703640461,0.0335078239440918,0.23349395394325256,-0.8306751251220703,0.013505219481885433,2.1591618061065674,0.8117061853408813,-4.098874092102051,1.0269931554794312,-0.13105377554893494,2.1434905529022217,-0.20742477476596832,-0.5174251198768616,-1.544649362564087,-1.035372257232666,0.23232696950435638,1741504097.9746504,1741504097853,0.7766201782226563,0.5133087158203125,2.18947505147133,0.11278253173828125,-0.32549453735351563
1741504097.9788196,-2.1873366832733154,0.013753626843835381,-0.06118335343596976,-0.998031780561606,-0.30913931131362915,-0.028994765132665634,1.2765446901321411,1.0924545526504517,0.8157597780227661,8.947532653808594,-0.08983707427978516,0.6208515167236328,0.45719844102859497,-1.2630890607833862,0.00476844422519207,-0.8703364729881287,-0.056267641484737396,1.2123528718948364,0.002861066721379757,0.9054322242736816,-0.2958342730998993,-0.7749675512313843,0.16193637251853943,0.3728923499584198,1.0515373945236206,-0.36216968297958374,-0.01200654823333025,-0.4522392749786377,-0.086785688996315,0.1329442262649536,0.7272831201553345,-0.3999076187610626,0.057646483182907104,-2.4324545860290527,-0.5545173287391663,1.0669658184051514,0.25568604469299316,-0.015920808538794518,-0.00728636234998703,-1.5754507780075073,-0.006769515573978424,0.015217638574540615,0.6820193529129028,-0.7274527549743652,0.4153631329536438,1.8870418071746826,1.3396923542022705,-5.039433002471924,1.8576234579086304,-0.3520546555519104,2.6540074348449707,-0.18749508261680603,-0.41342636942863464,-0.9724382162094116,-1.0834522247314453,0.031246952712535858,1741504097.9746504,1741504097853,0.7766201782226563,0.5133087158203125,2.18947505147133,0.11278253173828125,-0.32549453735351563
1741504097.9988308,-2.1700196862220764,0.013980694047878913,-0.05401343989755957,-0.9984423310859634,-0.3713427484035492,-0.05840727314352989,0.8090690970420837,5.2393903732299805,1.9641274213790894,7.934408664703369,-0.17032909393310547,0.5888071060180664,0.4701686203479767,-1.2596558332443237,0.005149920005351305,-0.8752956390380859,-0.0711451917886734,1.2123528718948364,0.002861066721379757,0.9187838435173035,-0.30003052949905396,-0.7566567659378052,0.19321736693382263,0.3927290737628937,0.9409094452857971,-0.32079824805259705,-0.0007146967109292746,-0.3904402256011963,-0.0864042118191719,0.1329442262649536,0.700579822063446,-0.42388519644737244,0.048766832798719406,-2.481442928314209,-0.9099748730659485,0.5966790914535522,0.17861725389957428,0.005201950203627348,-0.2630121409893036,-0.7805797457695007,0.008789426647126675,0.0047308593057096004,0.9302847981452942,-0.17038112878799438,1.0651423931121826,1.3238145112991333,0.9675203561782837,-5.575196743011475,2.0272371768951416,0.5670132040977478,2.7411224842071533,0.0978613793849945,-0.07038256525993347,-1.5379581451416016,-1.2291816473007202,-0.31973034143447876,1741504097.9746504,1741504097853,0.7766201782226563,0.5133087158203125,2.18947505147133,0.11278253173828125,-0.32549453735351563
1741504098.0188625,-2.1598246097564697,0.005776897536970632,-0.04597372722024371,-0.9989259451332345,-0.41058969497680664,-0.30095919966697693,0.43564778566360474,0.6554999947547913,1.57962965965271,6.322623252868652,-0.24242782592773438,0.5704965591430664,0.4724574685096741,-1.2604187726974487,0.005149920005351305,-0.882543683052063,-0.06809338182210922,1.2131158113479614,0.002861066721379757,0.9302281141281128,-0.3068970739841461,-0.725375771522522,0.200083926320076,0.4194323718547821,0.8199816942214966,-0.2895120084285736,0.006950564216822386,-0.32978561520576477,-0.08449683338403702,0.12722209095954895,0.6799801588058472,-0.4467827379703522,0.045537035912275314,-2.1804709434509277,-0.5922333002090454,-0.04118698462843895,-0.06562314182519913,0.0022452150005847216,-0.35213083028793335,0.2637888789176941,0.07495114952325821,0.002935535740107298,0.725439727306366,-0.34994277358055115,1.7596341371536255,0.3236062526702881,1.4467549324035645,-6.094437122344971,1.4289246797561646,0.2938128113746643,3.3067595958709717,-0.04511580243706703,-0.2836851477622986,-0.7120169401168823,-1.0255389213562012,-0.37756049633026123,1741504097.9746504,1741504097853,0.7766201782226563,0.5133087158203125,2.18947505147133,0.11278253173828125,-0.32549453735351563
1741504098.0388718,-2.1508947014808655,0.0005188982817314686,-0.03838024127310921,-0.9992630723810378,-0.3361698389053345,-0.3564751148223877,0.3842304050922394,2.0050535202026367,2.877678632736206,4.993493556976318,-0.3278779983520508,0.5441751480102539,0.4537651538848877,-1.2604187726974487,0.005149920005351305,-0.8844510316848755,-0.050164032727479935,1.2161675691604614,0.002861066721379757,0.9359502792358398,-0.31567102670669556,-0.6830319762229919,0.20771344006061554,0.4339284300804138,0.7047760486602783,-0.28182533383369446,0.010530540719628334,-0.26874953508377075,-0.08449683338403702,0.12874799966812134,0.6746395230293274,-0.4528293013572693,0.03828810900449753,-2.524012565612793,-0.7496964931488037,-1.035093069076538,-0.02139710821211338,0.020051930099725723,-0.06585980206727982,1.3575364351272583,0.24719464778900146,-0.0005516937817446887,0.4450894594192505,-0.4316892623901367,1.9488303661346436,0.40354830026626587,0.7153071761131287,-5.643463134765625,0.22694961726665497,0.31842905282974243,2.760768413543701,0.12522472441196442,0.07556577771902084,-0.17402099072933197,-0.09289897978305817,-0.010761131532490253,1741504097.9746504,1741504097853,0.7766201782226563,0.5133087158203125,2.18947505147133,0.11278253173828125,-0.32549453735351563
1741504098.0589743,-2.1353225111961365,-0.014760687400617034,-0.03312062646499337,-0.9993423568577626,-0.2348594218492508,-0.771510899066925,0.7707244753837585,-22.206825256347656,3.183850049972534,21.4122371673584,-0.4034099578857422,0.5395975112915039,0.4171435236930847,-1.2600373029708862,0.005149920005351305,-0.883306622505188,-0.014686808921396732,1.2203638553619385,0.002861066721379757,0.9359502792358398,-0.33245593309402466,-0.650225043296814,0.18940261006355286,0.4503318965435028,0.6849393248558044,-0.27524077892303467,0.03151921555399895,-0.23823148012161255,-0.08525978773832321,0.14209964871406555,0.6921873688697815,-0.442301869392395,0.05513962358236313,-2.2450647354125977,-0.0981496125459671,-2.0023488998413086,0.001758789410814643,-0.0012077693827450275,0.06083092838525772,2.587585926055908,0.2789616584777832,-0.007196636870503426,-0.16218410432338715,-1.047967791557312,1.9568055868148804,-1.4151959419250488,0.7407999634742737,0.1805848777294159,0.399260938167572,1.2592153549194336,1.6908254623413086,-0.19255684316158295,0.968618631362915,1.3006283044815063,0.5392036437988281,0.7170979380607605,1741504097.9746504,1741504097853,0.7766201782226563,0.5133087158203125,2.18947505147133,0.11278253173828125,-0.32549453735351563
1741504098.0789309,-2.112629622220993,-0.01443245258737865,-0.034668500812488554,-0.9992946509232037,0.07865425199270248,0.07873160392045975,1.150937557220459,8.918508529663086,-4.648698329925537,3.6844308376312256,-0.4839019775390625,0.4961090087890625,0.35191118717193604,-1.2665224075317383,0.005531395319849253,-0.8821622133255005,0.034142062067985535,1.226467490196228,0.0020981156267225742,0.9317540526390076,-0.33360037207603455,-0.6166552305221558,0.15468832850456238,0.42553597688674927,0.7021057605743408,-0.28850865364074707,0.061054106801748276,-0.22411687672138214,-0.0871671661734581,0.17757686972618103,0.7719157934188843,-0.41957056522369385,0.0480588898062706,-2.3983302116394043,-1.197150707244873,-3.503072500228882,-0.5073742866516113,0.0051284427754580975,0.051223114132881165,3.3707985877990723,0.3534906506538391,-0.02571176551282406,-0.27852386236190796,0.3321664333343506,1.2079592943191528,-1.5779389142990112,-1.666151523590088,0.3838405907154083,-0.8315039873123169,1.4660803079605103,-0.0494091734290123,-0.09154950827360153,2.0069568157196045,4.430697917938232,1.2583812475204468,-0.5111777782440186,1741504097.9746504,1741504097853,0.7766201782226563,0.5133087158203125,2.18947505147133,0.11278253173828125,-0.32549453735351563
