Freshhhhh-LC/Legged_odom/data/3/segments/booster_seg_9.73s.csv
time,yaw,projected_gravity_x,projected_gravity_y,projected_gravity_z,ang_vel_x,ang_vel_y,ang_vel_z,lin_acc_x,lin_acc_y,lin_acc_z,q_0,q_1,q_2,q_3,q_4,q_5,q_6,q_7,q_8,q_9,q_10,q_11,q_12,q_13,q_14,q_15,q_16,q_17,q_18,q_19,q_20,q_21,q_22,dq_0,dq_1,dq_2,dq_3,dq_4,dq_5,dq_6,dq_7,dq_8,dq_9,dq_10,dq_11,dq_12,dq_13,dq_14,dq_15,dq_16,dq_17,dq_18,dq_19,dq_20,dq_21,dq_22,mocap_time,mocap_timestamp,robot_x,robot_y,robot_yaw,ball_x,ball_y
1741504662.134082,-3.2108973264694214,0.029966291490884842,0.009294799591054606,-0.9995076928542599,0.08558264374732971,-0.41244781017303467,-0.3701836168766022,-9.738344192504883,-0.6008667349815369,15.422502517700195,-0.042534828186035156,0.21267223358154297,0.2962157726287842,-1.2447782754898071,0.004386968910694122,-0.9054322242736816,0.03833829239010811,1.2493560314178467,0.01735713705420494,0.9557870030403137,0.15506981313228607,-0.7417792081832886,-0.071908138692379,-0.14591439068317413,0.9008545279502869,-0.23579858243465424,0.009135563857853413,-0.5228122472763062,-0.0394827201962471,-0.21686884760856628,1.099603295326233,-0.47820761799812317,0.005894951522350311,0.6436821222305298,0.8412070274353027,-2.95145845413208,0.5242611169815063,-0.029088804498314857,0.12342361360788345,3.756845235824585,1.6997342109680176,0.16660358011722565,-0.5843605399131775,0.8541407585144043,1.3882023096084595,-0.4533084034919739,-0.961557924747467,0.7810165882110596,-1.2632067203521729,0.6217355132102966,-1.8647407293319702,0.0249260812997818,-1.6710619926452637,5.388831615447998,2.121570587158203,-0.04432624578475952,1741504662.091699,1741504662013,-0.762242431640625,1.4581475830078126,0.6250941293428985,-3.370397216796875,1.9665490722656251
1741504662.1491172,-3.219160318374634,0.031037627658884702,0.007974466168116345,-0.9994864048893521,0.07371805608272552,0.05497352406382561,-0.3656294047832489,-2.134556531906128,1.5156497955322266,14.64678955078125,-0.053978919982910156,0.21190929412841797,0.230601966381073,-1.2340970039367676,0.005149920005351305,-0.9054322242736816,0.09746700525283813,1.2676668167114258,0.01506828423589468,0.9496833682060242,0.17757686972618103,-0.7135500311851501,-0.07991912961006165,-0.1527809500694275,0.9111543297767639,-0.28722628951072693,0.005886346101760864,-0.5880445837974548,-0.0394827201962471,-0.23632410168647766,1.2285419702529907,-0.4336850941181183,0.00029055619961582124,-0.2858453691005707,0.030455149710178375,-3.4559926986694336,0.7103156447410583,0.07700718939304352,0.057210128754377365,3.967658758163452,1.1858700513839722,-0.20277778804302216,-0.40298372507095337,1.1965887546539307,1.2520790100097656,-0.212704136967659,-0.27043452858924866,0.446181058883667,-2.6573657989501953,-0.15299652516841888,-3.383056163787842,-0.02992909774184227,-0.7196088433265686,6.550036907196045,2.1503896713256836,-0.23653194308280945,1741504662.091699,1741504662013,-0.762242431640625,1.4581475830078126,0.6250941293428985,-3.370397216796875,1.9665490722656251
1741504662.1511645,-3.2784637212753296,0.03545556885661443,-0.011479884992956577,-0.9993053161459726,0.3725616931915283,0.061012573540210724,-1.008197546005249,1.300955057144165,-1.9471423625946045,7.709315776824951,-0.054741859436035156,0.21496105194091797,0.015449759550392628,-1.2203638553619385,0.00476844422519207,-0.9199283123016357,0.290875107049942,1.2833073139190674,0.015449759550392628,0.9420538544654846,0.21801327168941498,-0.5796520709991455,-0.06656748056411743,-0.1493476778268814,0.8745326995849609,-0.4136405885219574,-0.009709220379590988,-0.7932783961296082,-0.0394827201962471,-0.21686884760856628,1.3929579257965088,-0.43340179324150085,0.001850717468187213,-0.1241220012307167,-0.04621019586920738,-2.8870632648468018,-0.06900046765804291,-0.011873536743223667,-0.45435667037963867,4.182738780975342,-0.18431326746940613,-0.0009284347179345787,0.0001627245801500976,-0.21184955537319183,2.62724232673645,0.25448670983314514,0.048940546810626984,-0.9223222136497498,-1.713067650794983,-0.18372692167758942,-2.5751724243164062,-0.681131899356842,0.6414059996604919,-0.298650324344635,-0.8390930891036987,0.2770167291164398,1741504662.091699,1741504662013,-0.762242431640625,1.4581475830078126,0.6250941293428985,-3.370397216796875,1.9665490722656251
1741504662.1576629,-3.2884663343429565,0.03598772944276726,-0.02153411663210613,-0.999120195547277,0.5336461663246155,0.01135103590786457,-0.45338839292526245,0.8478273749351501,-2.7313308715820312,6.501093864440918,-0.060845375061035156,0.21419811248779297,-0.02727550081908703,-1.223034143447876,0.005531395319849253,-0.9275577664375305,0.34809643030166626,1.2798740863800049,0.01506828423589468,0.9431982636451721,0.21114671230316162,-0.5270084738731384,-0.06313420087099075,-0.14057374000549316,0.8524070978164673,-0.4449406564235687,-0.007059375289827585,-0.8451590538024902,-0.06427863240242004,-0.1989395022392273,1.3643473386764526,-0.4447706341743469,0.0029624151065945625,-0.1606007218360901,-0.0180840902030468,-2.0681087970733643,-0.19880884885787964,0.005824123974889517,-0.46276769042015076,3.6804440021514893,-0.2674783170223236,-0.043202269822359085,0.06056790426373482,-0.4995010495185852,2.6303505897521973,0.14151228964328766,0.5862599015235901,-1.1627752780914307,-1.5396300554275513,0.38123542070388794,-2.600823163986206,-1.3519524335861206,0.902001142501831,-1.5582091808319092,-0.42013052105903625,-0.0425100177526474,1741504662.091699,1741504662013,-0.762242431640625,1.4581475830078126,0.6250941293428985,-3.370397216796875,1.9665490722656251
1741504662.1778798,-3.292233943939209,0.03776113884393042,-0.032908192377282174,-0.9987447858525567,0.5882293581962585,0.0935685783624649,-0.13921421766281128,2.579350709915161,1.407009243965149,8.28022575378418,-0.06542301177978516,0.20771312713623047,-0.06885633617639542,-1.2260860204696655,0.005531395319849253,-0.9386205673217773,0.39921414852142334,1.2714815139770508,0.01506828423589468,0.9424353241920471,0.19016556441783905,-0.4682612419128418,-0.05703059583902359,-0.1203555315732956,0.8237964510917664,-0.47013184428215027,-0.0011451549362391233,-0.890554666519165,-0.09975585341453552,-0.182917520403862,1.3185702562332153,-0.436111181974411,0.0035462630912661552,-0.13124771416187286,-0.16552671790122986,-2.0881900787353516,-0.2018933892250061,0.13789156079292297,-0.557947039604187,3.5094850063323975,-0.5652990341186523,0.016749100759625435,-0.08374955505132675,-1.1055902242660522,2.9910337924957275,0.35375916957855225,1.0980229377746582,-1.4383070468902588,-1.1938482522964478,0.13379903137683868,-2.194667100906372,-1.770159125328064,0.8432385325431824,-2.4451329708099365,0.5925686359405518,0.10667533427476883,1741504662.091699,1741504662013,-0.762242431640625,1.4581475830078126,0.6250941293428985,-3.370397216796875,1.9665490722656251
1741504662.1977582,-3.294741630554199,0.03640027327578486,-0.045865104311509385,-0.9982842342298822,0.6359845399856567,-0.11929021030664444,-0.08844874054193497,3.6098392009735107,-2.556243896484375,8.779239654541016,-0.06694889068603516,0.20656871795654297,-0.09899290651082993,-1.2283748388290405,0.004386968910694122,-0.9546425342559814,0.45948728919029236,1.2649965286254883,0.01506828423589468,0.9332799315452576,0.16880293190479279,-0.41027694940567017,-0.04444190114736557,-0.09403372555971146,0.7940413355827332,-0.4906918406486511,-0.0019894021097570658,-0.9172579646110535,-0.13790340721607208,-0.17910276353359222,1.2521934509277344,-0.4089726209640503,0.008244427852332592,-0.05660843849182129,-0.0125293442979455,-1.337518334388733,-0.13454020023345947,-0.013419978320598602,-0.7294124364852905,3.6721012592315674,-0.47857949137687683,-0.01833363249897957,-0.7040610313415527,-0.9911460280418396,2.8136146068573,0.7080691456794739,1.3854354619979858,-1.5076409578323364,-1.0617995262145996,0.10346072912216187,-1.0879230499267578,-1.8918179273605347,0.11671096086502075,-3.4894042015075684,1.4497328996658325,0.01668897084891796,1741504662.091699,1741504662013,-0.762242431640625,1.4581475830078126,0.6250941293428985,-3.370397216796875,1.9665490722656251
1741504662.2177222,-3.297005295753479,0.0297543518307666,-0.05508764269064616,-0.9980380905405959,0.4358973801136017,-0.33885133266448975,-0.12103945761919022,3.4122021198272705,0.3682708442211151,7.2856903076171875,-0.06733036041259766,0.20656871795654297,-0.10509651154279709,-1.228756308555603,0.00476844422519207,-0.9641794562339783,0.49267566204071045,1.2592743635177612,0.01583123579621315,0.924124538898468,0.15964750945568085,-0.34618905186653137,-0.03757534176111221,-0.07724879682064056,0.7654306888580322,-0.5066173672676086,-0.00017714545538183302,-0.9115357995033264,-0.17681391537189484,-0.19092851877212524,1.1549172401428223,-0.37408554553985596,0.003771789837628603,-0.020915625616908073,0.01941548101603985,-0.12487617880105972,-0.0017497948138043284,-0.004592251032590866,-0.4740672707557678,1.9431076049804688,-0.2588328719139099,0.05569557473063469,-0.634355902671814,-0.27636024355888367,3.494792938232422,0.2900121510028839,0.7327081561088562,-1.4552621841430664,-0.6853156089782715,-0.09080439060926437,0.5429009795188904,-1.9693042039871216,-0.6660947799682617,-5.136449337005615,1.6613082885742188,-0.3389883041381836,1741504662.091699,1741504662013,-0.762242431640625,1.4581475830078126,0.6250941293428985,-3.370397216796875,1.9665490722656251
1741504662.2378223,-3.3063682317733765,0.022254328404971956,-0.06101249544229969,-0.9978888817233845,0.27275705337524414,-0.4573006331920624,-0.48075780272483826,2.282874822616577,-2.0122344493865967,9.478669166564941,-0.06961917877197266,0.20695018768310547,-0.08907453715801239,-1.2283748388290405,0.00476844422519207,-0.9691386222839355,0.5014495849609375,1.2577484846115112,0.015449759550392628,0.9157320261001587,0.1684214472770691,-0.2748531401157379,-0.03643091395497322,-0.07953765243291855,0.734149694442749,-0.5133796334266663,-0.004712680820375681,-0.8783474564552307,-0.20313572883605957,-0.2161058932542801,1.0210193395614624,-0.35257241129875183,-0.003793288953602314,-0.08726108074188232,0.023362591862678528,0.9556137323379517,0.00564298452809453,-0.0019430393585935235,-0.15630988776683807,0.35930266976356506,-0.17099091410636902,0.0036411795299500227,-0.5415598154067993,0.5370768308639526,3.350736379623413,0.006380615755915642,-0.17038339376449585,-1.4967433214187622,-0.3029022812843323,0.025364959612488747,1.7914074659347534,-1.1445817947387695,-1.3632632493972778,-6.884313106536865,0.8272551894187927,-0.3858487606048584,1741504662.091699,1741504662013,-0.762242431640625,1.4581475830078126,0.6250941293428985,-3.370397216796875,1.9665490722656251
1741504662.258213,-3.3188213109970093,0.012151520586123657,-0.0644481155416734,-0.997847072927797,0.20639874041080475,-0.47862398624420166,-0.6175150871276855,1.847808837890625,-0.3313681483268738,6.092391490936279,-0.06733036041259766,0.20466136932373047,-0.0551232174038887,-1.227993369102478,0.00476844422519207,-0.967231273651123,0.49153125286102295,1.2554595470428467,0.015449759550392628,0.9111543297767639,0.1806286722421646,-0.2157244235277176,-0.0555046908557415,-0.08106355369091034,0.7265201807022095,-0.5069711804389954,-0.0012312399921938777,-0.8245593905448914,-0.21229113638401031,-0.23670557141304016,0.8562218546867371,-0.36453190445899963,-0.0074455770663917065,0.05265225097537041,-0.07048746943473816,1.7815160751342773,0.04694748669862747,0.013359244912862778,0.10663067549467087,-0.8715159893035889,-0.11550351977348328,-2.41325433307793e-05,-0.2062692791223526,0.5851009488105774,2.7924981117248535,-1.3450461626052856,-0.0238427072763443,-0.04197308421134949,0.36203688383102417,0.2025149017572403,2.9494049549102783,-0.2937946319580078,-0.814623236656189,-8.333157539367676,-0.9037092924118042,-0.22200052440166473,1741504662.2942085,1741504662113,-0.857506591796875,1.4830427246093751,0.4170865866655678,-3.369551025390625,1.9668427734375
1741504662.2778103,-3.3280075788497925,0.00096000483414891,-0.0726608678536978,-0.9973562436128155,0.4206213653087616,-0.766727864742279,-0.39689305424690247,-22.5341739654541,-7.218879222869873,17.328004837036133,-0.055123329162597656,0.20733165740966797,-0.01201647985726595,-1.2268489599227905,0.00476844422519207,-0.961509108543396,0.4674982726573944,1.2508819103240967,0.01506828423589468,0.9092469811439514,0.1844434291124344,-0.1810101419687271,-0.04940108209848404,-0.08983749151229858,0.7673380374908447,-0.4975343942642212,0.007220439147204161,-0.7845044732093811,-0.20504310727119446,-0.2450980395078659,0.8127336502075195,-0.34945058822631836,-0.021905938163399696,0.35566017031669617,-0.005326318088918924,2.1942687034606934,0.050276365131139755,-0.02488638460636139,0.2594446837902069,-1.6066492795944214,-0.3786471486091614,-0.0008007816504687071,-0.27150508761405945,-0.020517652854323387,1.4570753574371338,0.9711372256278992,-0.7637415528297424,2.419266939163208,0.4920143187046051,0.6055734157562256,1.9437988996505737,0.8968335390090942,-0.38741177320480347,0.5798235535621643,1.1885483264923096,-0.8777649998664856,1741504662.2942085,1741504662113,-0.857506591796875,1.4830427246093751,0.4170865866655678,-3.369551025390625,1.9668427734375
1741504662.2978077,-3.33760404586792,0.002216803422630374,-0.07121972037733228,-0.9974581882023728,-0.07704576849937439,0.05940182879567146,-0.2593490779399872,9.416391372680664,3.0759117603302,-4.442964553833008,-0.07572269439697266,0.19436168670654297,0.04100862145423889,-1.2306636571884155,0.005531395319849253,-0.960746169090271,0.4198138415813446,1.2505004405975342,0.01583123579621315,0.9081025123596191,0.16041046380996704,-0.18978407979011536,-0.05359731614589691,-0.09136339277029037,0.84592205286026,-0.46650317311286926,0.01630360074341297,-0.7490272521972656,-0.16994735598564148,-0.22182802855968475,0.8649957776069641,-0.3310312330722809,-0.09249334782361984,-0.6765089631080627,-0.39216670393943787,2.9994146823883057,-0.1795664131641388,0.11764583736658096,0.019254840910434723,-3.552802562713623,0.19103333353996277,0.04902121424674988,0.09335213154554367,-1.1449594497680664,-0.7315366268157959,-0.4481247663497925,0.05719349533319473,4.38534688949585,1.8065855503082275,0.35428979992866516,1.1881625652313232,1.1733428239822388,1.6868345737457275,1.6579487323760986,0.7551151514053345,-3.2092273235321045,1741504662.2942085,1741504662113,-0.857506591796875,1.4830427246093751,0.4170865866655678,-3.369551025390625,1.9668427734375
1741504662.3178897,-3.3366647958755493,0.005061927520294556,-0.07286000587002654,-0.9973293319833719,0.162926584482193,0.2840612828731537,0.16949354112148285,5.476382255554199,11.191893577575684,15.742682456970215,-0.061989784240722656,0.18673229217529297,0.09479667246341705,-1.233715534210205,0.005149920005351305,-0.9611276388168335,0.34962233901023865,1.2573670148849487,0.01583123579621315,0.916113555431366,0.13027389347553253,-0.24013885855674744,-0.07381551712751389,-0.11081864684820175,0.9733348488807678,-0.42128580808639526,0.027218880131840706,-0.7257572412490845,-0.14476996660232544,-0.17452506721019745,0.8382925391197205,-0.31766507029533386,-0.08044794201850891,0.2942132353782654,-0.21959829330444336,2.57185959815979,-0.224755197763443,-0.01859835349023342,-0.02589625120162964,-4.734306812286377,0.2913073003292084,-0.025189489126205444,0.5663421750068665,-1.2752934694290161,-2.8583812713623047,-0.9411154985427856,-1.1434664726257324,6.799594879150391,2.2534420490264893,0.6168044209480286,1.4392982721328735,1.5765682458877563,2.0658698081970215,-1.3132133483886719,0.7674717307090759,1.8808825016021729,1741504662.2942085,1741504662113,-0.857506591796875,1.4830427246093751,0.4170865866655678,-3.369551025390625,1.9668427734375
1741504662.3378484,-3.3248976469039917,0.006878112226233616,-0.07205040067431133,-0.9973772763277068,-0.1997322291135788,0.11829520016908646,0.6704254150390625,1.6299388408660889,-1.9361035823822021,12.725397109985352,-0.059319496154785156,0.19130992889404297,0.14476996660232544,-1.2463041543960571,0.005149920005351305,-0.9630350470542908,0.28477150201797485,1.2539336681365967,0.01430533267557621,0.9157320261001587,0.10891126841306686,-0.33054855465888977,-0.09861142933368683,-0.13866636157035828,1.1373693943023682,-0.3751637935638428,0.02626514434814453,-0.6986724734306335,-0.1180666834115982,-0.15697719156742096,0.8360036611557007,-0.29518139362335205,-0.03909473121166229,0.027669668197631836,0.12915237247943878,2.6549885272979736,-0.897822916507721,-0.011190169490873814,-0.11544058471918106,-4.240365028381348,-0.2966122627258301,-0.0571809783577919,-0.09568840265274048,-0.9744828343391418,-4.822714328765869,-1.4462504386901855,-1.1174542903900146,8.485519409179688,2.166337490081787,-0.37248075008392334,1.1931095123291016,0.7924220561981201,0.9363259077072144,0.10160709917545319,0.9162295460700989,1.082037091255188,1741504662.2942085,1741504662113,-0.857506591796875,1.4830427246093751,0.4170865866655678,-3.369551025390625,1.9668427734375
1741504662.3578625,-3.305026650428772,0.005479245969484237,-0.06400986872269247,-0.9979342235687229,-0.34202903509140015,0.008341451175510883,0.9335998892784119,-2.9204013347625732,2.5465357303619385,12.405046463012695,-0.06771183013916016,0.20504283905029297,0.1981765478849411,-1.2497375011444092,0.005149920005351305,-0.9634165167808533,0.2157244235277176,1.2497375011444092,0.014686808921396732,0.9164950251579285,0.09899290651082993,-0.440032035112381,-0.13218127191066742,-0.13981078565120697,1.284618854522705,-0.3570544123649597,0.0047383843921124935,-0.6719691753387451,-0.11387044936418533,-0.16231784224510193,0.840199887752533,-0.29320016503334045,-0.04359625652432442,-0.1604733020067215,0.3041127324104309,2.6148159503936768,-0.12110929191112518,0.0005951450439170003,-0.004960176534950733,-4.728051662445068,-0.2663400173187256,0.0123735461384058,0.05076155811548233,-0.3949680030345917,-5.442018985748291,-1.5070048570632935,0.13818025588989258,7.108758449554443,0.4850866198539734,-0.8478624820709229,1.5402714014053345,0.3633764684200287,-0.44948434829711914,0.1452178806066513,0.03519515320658684,0.025630459189414978,1741504662.3965502,1741504662313,-1.0522401123046876,1.543631591796875,0.766592662811027,-3.369361328125,1.967619140625
1741504662.377921,-3.2871227264404297,0.00541948388723461,-0.060467978242854735,-0.998155425172662,-0.19640113413333893,0.007143825758248568,0.9443077445030212,-2.2181146144866943,3.2360754013061523,12.386148452758789,-0.047875404357910156,0.21457958221435547,0.2569237947463989,-1.2554595470428467,0.005149920005351305,-0.962272047996521,0.14362554252147675,1.2463041543960571,0.014686808921396732,0.9180209040641785,0.09250781685113907,-0.5483710765838623,-0.14286258816719055,-0.1184481605887413,1.3834210634231567,-0.38423553109169006,0.012671343982219696,-0.6406881809234619,-0.11196307092905045,-0.16346226632595062,0.839436948299408,-0.30055975914001465,-0.035873111337423325,0.5317006707191467,0.2193133383989334,2.878786563873291,-0.4380364418029785,-0.006447004619985819,0.08655565977096558,-4.76343297958374,-0.22037793695926666,-0.008252555504441261,0.12448566406965256,-0.33748775720596313,-5.399925231933594,-0.28045853972435,1.2164193391799927,4.31434965133667,-1.7050457000732422,0.5809794068336487,1.3821239471435547,0.040597330778837204,-0.013138668611645699,0.02409186027944088,-0.4471419155597687,0.45670995116233826,1741504662.3965502,1741504662313,-1.0522401123046876,1.543631591796875,0.766592662811027,-3.369361328125,1.967619140625
1741504662.3979561,-3.2688876390457153,0.0036447165399047543,-0.0583830616615913,-0.9982876009208782,-0.07084283977746964,-0.011518683284521103,0.8556215763092041,-1.04520845413208,0.3684362471103668,9.457985877990723,-0.046730995178222656,0.21953964233398438,0.31872281432151794,-1.2581299543380737,0.005149920005351305,-0.9603646993637085,0.07648584991693497,1.2421079874038696,0.01430533267557621,0.9206912517547607,0.08220797777175903,-0.6475547552108765,-0.13904783129692078,-0.07419699430465698,1.4166094064712524,-0.43387550115585327,0.011932747438549995,-0.6132219433784485,-0.10967422276735306,-0.16117341816425323,0.84744793176651,-0.3213089108467102,-0.034151479601860046,0.09013959020376205,0.1481880396604538,2.8306541442871094,-0.1999303251504898,0.007391977123916149,0.06399708241224289,-4.413212299346924,-0.3111664056777954,-0.005330950021743774,0.2142810970544815,-0.6900162100791931,-4.94401216506958,0.054150551557540894,2.2544338703155518,1.2248642444610596,-2.5071194171905518,-0.17589661478996277,1.4769034385681152,0.18969082832336426,0.15595391392707825,0.422475129365921,-1.2103166580200195,-0.08825042098760605,1741504662.3965502,1741504662313,-1.0522401123046876,1.543631591796875,0.766592662811027,-3.369361328125,1.967619140625
1741504662.420567,-3.2602200508117676,0.004985850601926107,-0.06063893460220428,-0.9981473142297608,0.1482313722372055,0.07499629259109497,0.38745689392089844,-1.6939945220947266,1.089221477508545,10.182914733886719,-0.040246009826660156,0.22106552124023438,0.3736552894115448,-1.2604187726974487,0.005149920005351305,-0.9573128819465637,0.02040894143283367,1.2348599433898926,0.014686808921396732,0.924887478351593,0.08068207651376724,-0.7322422862052917,-0.1329442262649536,-0.022697795182466507,1.3925764560699463,-0.47479501366615295,-0.008487535640597343,-0.5869001150131226,-0.10700388997793198,-0.15964750945568085,0.848210871219635,-0.35574668645858765,-0.03246895223855972,0.16060097515583038,0.06940540671348572,2.547268867492676,-0.07279988378286362,-0.005615647882223129,0.1680932343006134,-3.600644826889038,-0.5290584564208984,0.02206772193312645,0.24637527763843536,0.07500682026147842,-3.998425245285034,0.1840520054101944,2.5639584064483643,-1.5599000453948975,-1.8000441789627075,-1.011533260345459,1.2707494497299194,0.18500468134880066,0.03348717838525772,0.007267484441399574,-1.76954984664917,0.06560046970844269,1741504662.3965502,1741504662313,-1.0522401123046876,1.543631591796875,0.766592662811027,-3.369361328125,1.967619140625
1741504662.4379873,-3.256662130355835,0.009154312972852414,-0.06516809611853917,-0.9978323094600013,0.21182145178318024,0.21331515908241272,0.247905433177948,-0.738080620765686,-1.0753147602081299,11.073043823242188,-0.037194252014160156,0.22220993041992188,0.4175249934196472,-1.2611817121505737,0.005149920005351305,-0.9481574892997742,-0.034142062067985535,1.231808066368103,0.01430533267557621,0.9283207654953003,0.08144503086805344,-0.7993820309638977,-0.12798504531383514,0.012779430486261845,1.3246738910675049,-0.48275089263916016,-0.011729013174772263,-0.5659189820289612,-0.10738536715507507,-0.15964750945568085,0.84897381067276,-0.39124780893325806,-0.027607470750808716,0.07969848811626434,0.04140900820493698,2.055265426635742,-0.015693165361881256,-0.011733517982065678,0.501218855381012,-3.789750576019287,-0.09610701352357864,0.006951301358640194,0.2826015055179596,-0.09368618577718735,-3.2000632286071777,0.19223932921886444,1.7890280485153198,-3.6718852519989014,-0.07814288139343262,0.03163627162575722,1.1629527807235718,-0.028020862489938736,-0.002781492657959461,0.058019474148750305,-1.819296956062317,0.19994288682937622,1741504662.3965502,1741504662313,-1.0522401123046876,1.543631591796875,0.766592662811027,-3.369361328125,1.967619140625
1741504662.4580019,-3.2491343021392822,0.016707307952454044,-0.06750880695011524,-0.997578782274941,0.11242520064115524,0.40504541993141174,0.34592708945274353,-2.7286977767944336,-1.1471585035324097,8.43609619140625,-0.037957191467285156,0.21877670288085938,0.44537270069122314,-1.2604187726974487,0.005149920005351305,-0.9386205673217773,-0.08030059933662415,1.231808066368103,0.01430533267557621,0.9374761581420898,0.07267109304666519,-0.8436331748962402,-0.12111848592758179,0.03490501269698143,1.2224383354187012,-0.45169442892074585,-0.011921552009880543,-0.5392156839370728,-0.10700388997793198,-0.15926603972911835,0.8493552803993225,-0.4265046715736389,-0.022492453455924988,-0.02309482730925083,-0.10675682127475739,1.3784892559051514,-0.005099214147776365,-0.004616506863385439,0.5268934369087219,-2.755321979522705,-0.043456070125103,-0.0018733994802460074,0.7245731949806213,-0.4776163399219513,-1.9260962009429932,0.4868096113204956,0.8927024602890015,-5.434067726135254,1.7792893648147583,-0.055900316685438156,1.2655569314956665,0.06770393997430801,0.010767239145934582,-0.04796798527240753,-1.7304798364639282,0.3556027114391327,1741504662.3965502,1741504662313,-1.0522401123046876,1.543631591796875,0.766592662811027,-3.369361328125,1.967619140625
1741504662.4780204,-3.2414127588272095,0.02754436706600531,-0.06908075501741442,-0.9972307441756683,0.050806526094675064,0.5850276947021484,0.3973665237426758,6.036776065826416,1.438239336013794,5.32103967666626,-0.038720130920410156,0.21534252166748047,0.4705500900745392,-1.2592743635177612,0.005149920005351305,-0.926413357257843,-0.10585946589708328,1.231045126914978,0.01430533267557621,0.9500648379325867,0.05359731614589691,-0.8588922023773193,-0.10509651154279709,0.048638131469488144,1.0915923118591309,-0.40635553002357483,-0.00557829812169075,-0.5125123858451843,-0.1031891331076622,-0.15392538905143738,0.84897381067276,-0.4606535732746124,-0.016962509602308273,-0.013457275927066803,-0.0919240415096283,1.0862131118774414,0.19176499545574188,-0.0018859953852370381,0.5898011326789856,-1.5495755672454834,-0.06886081397533417,0.0010615175124257803,0.8069035410881042,-0.9526626467704773,-0.7814709544181824,0.8215822577476501,0.8082038164138794,-6.638453483581543,2.2720677852630615,0.3844730257987976,1.4263924360275269,0.19905205070972443,0.35988524556159973,-0.00519720371812582,-1.7152456045150757,0.2095763385295868,1741504662.3965502,1741504662313,-1.0522401123046876,1.543631591796875,0.766592662811027,-3.369361328125,1.967619140625
1741504662.4980266,-3.2361096143722534,0.03139812702115678,-0.06985756548798154,-0.9970627252904682,0.030819224193692207,0.1759858876466751,0.2687537670135498,1.8795357942581177,1.9069031476974487,6.8788933753967285,-0.032998085021972656,0.21915817260742188,0.4797055125236511,-1.2546966075897217,0.005149920005351305,-0.9172579646110535,-0.10814831405878067,1.2299007177352905,0.01430533267557621,0.9580758213996887,0.03032730519771576,-0.8596551418304443,-0.07457847148180008,0.07038223743438721,0.951209306716919,-0.35748156905174255,0.0015299879014492035,-0.4797055125236511,-0.08945601433515549,-0.14171816408634186,0.8440146446228027,-0.4939691722393036,-0.009932323358952999,0.13702143728733063,0.06088598072528839,0.355137437582016,0.24438932538032532,-0.004013360012322664,0.44150879979133606,0.03346151113510132,-0.05046883225440979,0.001977684907615185,0.5262207388877869,-1.1931146383285522,0.24153997004032135,1.5580272674560547,1.2826149463653564,-6.946186542510986,2.388014554977417,0.36911410093307495,1.7314643859863281,0.8022721409797668,0.5493595600128174,-0.3328283429145813,-1.67561674118042,0.419162392616272,1741504662.3965502,1741504662313,-1.0522401123046876,1.543631591796875,0.766592662811027,-3.369361328125,1.967619140625
1741504662.5180688,-3.2303004264831543,0.031528496033586574,-0.06726389127162684,-0.9972369441957406,-0.1878587007522583,-0.012106339447200298,0.2718467116355896,4.160269737243652,-0.02386484295129776,6.599114894866943,-0.031853675842285156,0.23899459838867188,0.4728389382362366,-1.2531707286834717,0.005149920005351305,-0.9126802682876587,-0.09212634712457657,1.2299007177352905,0.01430533267557621,0.9630350470542908,0.009727626107633114,-0.8428702354431152,-0.04634927958250046,0.11654078215360641,0.8306630253791809,-0.3147892355918884,0.004501768387854099,-0.43202105164527893,-0.06313420087099075,-0.12836651504039764,0.8325703740119934,-0.51971834897995,-0.005227559246122837,0.039807334542274475,0.5677013397216797,-0.48682701587677,0.10777895152568817,-0.00810998398810625,0.17494018375873566,1.2822010517120361,-0.0029837999027222395,-0.008595873601734638,0.22227491438388824,-0.9896999597549438,0.8822928071022034,1.2833348512649536,2.444916248321533,-5.7577805519104,1.9380671977996826,0.11157489567995071,2.4064338207244873,1.2954102754592896,0.7463172078132629,-0.7010109424591064,-1.1168464422225952,0.18623970448970795,1741504662.3965502,1741504662313,-1.0522401123046876,1.543631591796875,0.766592662811027,-3.369361328125,1.967619140625
1741504662.5380824,-3.2260698080062866,0.02493144568179679,-0.05948620131225499,-0.9979177395304953,-0.4154151380062103,-0.3141879439353943,0.25328272581100464,3.7945802211761475,3.2074759006500244,5.578702449798584,-0.036812782287597656,0.24891281127929688,0.4552910625934601,-1.2520263195037842,0.005149920005351305,-0.9145876169204712,-0.0555046908557415,1.2299007177352905,0.01430533267557621,0.960746169090271,-0.0032425422687083483,-0.8173113465309143,-0.011635004542768002,0.164988175034523,0.7410162687301636,-0.29911893606185913,0.008273235522210598,-0.3744182586669922,-0.039101243019104004,-0.12073700875043869,0.8211261034011841,-0.5135178565979004,-0.0014412045711651444,-0.14466887712478638,0.2825225591659546,-0.9971001148223877,0.07639659196138382,-0.009024794213473797,-0.11523333936929703,2.5955302715301514,0.003840863239020109,-0.002767469733953476,-0.15647490322589874,-0.5476536154747009,1.3833099603652954,1.7989842891693115,2.194671630859375,-4.2631988525390625,0.5151325464248657,0.27724775671958923,2.96817946434021,1.1775004863739014,0.33331939578056335,-0.4619959890842438,0.6046195030212402,0.28900274634361267,1741504662.3965502,1741504662313,-1.0522401123046876,1.543631591796875,0.766592662811027,-3.369361328125,1.967619140625
1741504662.5581107,-3.2216649055480957,0.013472403732715313,-0.04907821220848919,-0.9987040719973466,-0.5643890500068665,-0.6014429926872253,0.245951846241951,2.965742588043213,4.058099269866943,11.020858764648438,-0.032235145568847656,0.2595939636230469,0.4201953113079071,-1.2505004405975342,0.00476844422519207,-0.9157320261001587,-0.005531395319849253,1.2306636571884155,0.01430533267557621,0.9576943516731262,-0.01735713705420494,-0.7875562906265259,0.018501564860343933,0.1813916265964508,0.7047760486602783,-0.30016371607780457,0.027542218565940857,-0.3217746317386627,-0.016212711110711098,-0.11081864684820175,0.8291370868682861,-0.49908503890037537,-0.014045195654034615,0.10720261186361313,0.23668746650218964,-1.8611851930618286,0.11375410854816437,-0.013589858077466488,-0.008190777152776718,3.3810768127441406,0.02303353138267994,-0.002849708078429103,-0.1979050636291504,-0.8021901249885559,1.4989804029464722,1.4012068510055542,0.5125001072883606,-0.883907675743103,-0.06058941036462784,1.1390271186828613,2.4613499641418457,0.9696816802024841,0.6290096044540405,0.8388220071792603,0.6079902052879333,-0.5140485763549805,1741504662.6015844,1741504662413,-1.13989404296875,1.5557022705078125,0.8649885297770165,-3.3694492187500003,1.9678953857421875
1741504662.5781565,-3.2127833366394043,0.0006123318652739208,-0.04064735071970081,-0.9991733673037709,-0.3632751703262329,-0.4351569712162018,0.44922947883605957,2.962369680404663,5.381587028503418,7.628475189208984,-0.034905433654785156,0.2634086608886719,0.36449989676475525,-1.2505004405975342,0.005149920005351305,-0.9142061471939087,0.0558861680328846,1.23905611038208,0.014686808921396732,0.9561684727668762,-0.02880140393972397,-0.7391088604927063,0.019645990803837776,0.16918440163135529,0.7471198439598083,-0.30059385299682617,0.048529259860515594,-0.30193790793418884,-0.008964675478637218,-0.08525978773832321,0.8829251527786255,-0.4829826056957245,-0.02112738788127899,-0.08642211556434631,0.04688640683889389,-2.863124132156372,-0.1116742268204689,0.007821052335202694,0.01907927542924881,4.306430816650391,0.6780951023101807,0.00046965377987362444,-0.06209287792444229,-0.3906201124191284,2.1043410301208496,-0.21444980800151825,-0.8060762286186218,1.8899364471435547,-0.1468770056962967,0.9919001460075378,0.7242017388343811,0.2795266807079315,1.4505399465560913,3.077892303466797,0.9836254715919495,-0.32912740111351013,1741504662.6015844,1741504662413,-1.13989404296875,1.5557022705078125,0.8649885297770165,-3.3694492187500003,1.9678953857421875
1741504662.5981538,-3.2099334001541138,-0.007439048799164316,-0.03996401009065245,-0.9991734276142645,-0.0035284566693007946,-0.39704933762550354,0.09238113462924957,-12.750701904296875,0.013927933759987354,13.621881484985352,-0.02574920654296875,0.2660789489746094,0.28667888045310974,-1.2619446516036987,0.005149920005351305,-0.9157320261001587,0.1203555315732956,1.2474485635757446,0.01583123579621315,0.9557870030403137,-0.03452353551983833,-0.7162203192710876,0.008964675478637218,0.1371404528617859,0.7600900530815125,-0.3101399540901184,0.0631551668047905,-0.3393225073814392,-0.001716639962978661,-0.04177157208323479,0.997367799282074,-0.443551242351532,-0.029268957674503326,0.21079812943935394,0.09976743906736374,-4.051490783691406,-0.7578672766685486,-0.06780603528022766,-0.0728515163064003,4.227736473083496,0.4477742910385132,0.09615863859653473,-0.012254137545824051,-0.31883248686790466,1.43563973903656,-0.5747181177139282,-1.6860336065292358,0.5021488666534424,-0.42486220598220825,0.7782320976257324,-2.15425443649292,0.3843393921852112,2.4539506435394287,6.059831142425537,2.082460880279541,-0.3276798129081726,1741504662.6015844,1741504662413,-1.13989404296875,1.5557022705078125,0.8649885297770165,-3.3694492187500003,1.9678953857421875
1741504662.6198676,-3.2150378227233887,-0.005543998447554944,-0.04565341554606712,-0.9989419551356282,0.299437940120697,0.057530809193849564,-0.3845079243183136,1.0184886455535889,-0.5770427584648132,8.26437759399414,-0.02689361572265625,0.2649345397949219,0.1993209719657898,-1.2676668167114258,0.00476844422519207,-0.9164950251579285,0.17452506721019745,1.2497375011444092,0.01506828423589468,0.9573128819465637,-0.04139009863138199,-0.6811245679855347,-0.013160906732082367,0.1203555315732956,0.7665750980377197,-0.3092009723186493,0.0678587257862091,-0.4209582805633545,0.015449759550392628,0.01430533267557621,1.1491950750350952,-0.4011903405189514,-0.024681096896529198,-0.006819938309490681,0.055863987654447556,-4.373591423034668,-0.3087368905544281,0.005350280087441206,-0.009952411986887455,3.4703211784362793,0.10394185036420822,-0.019761299714446068,0.09066111594438553,-0.3210518956184387,1.5290459394454956,-0.9518729448318481,-0.5808907151222229,0.25607287883758545,0.024385932832956314,0.0436275452375412,-4.5201191902160645,0.8904951810836792,2.707958221435547,7.894395351409912,1.9774799346923828,0.6998361349105835,1741504662.6015844,1741504662413,-1.13989404296875,1.5557022705078125,0.8649885297770165,-3.3694492187500003,1.9678953857421875
1741504662.6381977,-3.2332969903945923,-0.003293593745840519,-0.05481972746343764,-0.998490836072656,0.45597773790359497,0.07818474620580673,-0.9674143195152283,-2.0721917152404785,-1.3764413595199585,12.30322265625,-0.02689361572265625,0.2599754333496094,0.12073700875043869,-1.2684297561645508,0.00476844422519207,-0.916113555431366,0.21992065012454987,1.2501189708709717,0.01583123579621315,0.9569314122200012,-0.043678950518369675,-0.6506065726280212,-0.01201647985726595,0.12111848592758179,0.7673380374908447,-0.310702919960022,0.06191988289356232,-0.5289158225059509,0.037193864583969116,0.04558632895350456,1.2983520030975342,-0.3899601995944977,-0.0008441280806437135,-0.004511482082307339,-0.12308631092309952,-3.874239444732666,0.005967028439044952,-0.007837453857064247,-0.01927855983376503,3.023590564727783,-0.007120334077626467,0.04884975031018257,-0.05447544530034065,-0.0851135402917862,1.5971201658248901,0.21699725091457367,0.13171900808811188,0.0373234860599041,-0.05972644314169884,-0.30560821294784546,-5.316134452819824,1.079175353050232,1.2600317001342773,7.194831371307373,0.1178775355219841,0.9418348670005798,1741504662.6015844,1741504662413,-1.13989404296875,1.5557022705078125,0.8649885297770165,-3.3694492187500003,1.9678953857421875
1741504662.658245,-3.2562302350997925,-5.970432899721333e-05,-0.06178891181751354,-0.998089237899999,0.3114139437675476,0.05403941497206688,-1.1659414768218994,0.4995097815990448,-2.432929039001465,10.25306224822998,-0.032235145568847656,0.2656974792480469,0.04901960864663124,-1.2630890607833862,0.00476844422519207,-0.916876494884491,0.2645532786846161,1.2501189708709717,0.015449759550392628,0.9565499424934387,-0.04406042397022247,-0.6174181699752808,-0.005531395319849253,0.12302586436271667,0.7669565677642822,-0.3145868182182312,0.05056624114513397,-0.6303883194923401,0.050164032727479935,0.04177157208323479,1.3979171514511108,-0.4219127595424652,-0.007762149441987276,-0.15301048755645752,0.1249036192893982,-3.5201151371002197,0.429470956325531,0.0023583348374813795,-0.04267410188913345,2.973078966140747,-0.007716037333011627,-0.03717765212059021,-0.003078445792198181,-0.0858692079782486,1.6013195514678955,0.21814918518066406,0.03094874881207943,-0.034031495451927185,-0.25722572207450867,-0.5627988576889038,-4.932369709014893,0.5005013346672058,-0.359050452709198,4.463540554046631,-1.819248080253601,-0.3167213499546051,1741504662.7039592,1741504662593,-1.3166893310546874,1.5620330810546876,0.7516313144015573,-3.3689958496093753,1.9680943603515626
1741504662.678231,-3.276009678840637,0.0013698165212040082,-0.06196636950608554,-0.998077297934851,-0.031861040741205215,0.007842693477869034,-0.8264909982681274,1.2594813108444214,1.0340303182601929,9.74862003326416,-0.051308631896972656,0.2737083435058594,-0.007057297509163618,-1.2531707286834717,0.005149920005351305,-0.9180209040641785,0.3065156042575836,1.2501189708709717,0.015449759550392628,0.9561684727668762,-0.04139009863138199,-0.5823224186897278,-0.00476844422519207,0.1203555315732956,0.7661936283111572,-0.3266518712043762,0.034863147884607315,-0.7166017889976501,0.04901960864663124,0.021553369238972664,1.429198145866394,-0.46953946352005005,-0.0030106762424111366,-0.5950987935066223,0.18422670662403107,-2.6308109760284424,0.6704325675964355,0.024900315329432487,-0.054626137018203735,2.7671544551849365,0.010903085581958294,-0.025788187980651855,-0.05252634361386299,0.20965619385242462,1.872259259223938,0.059454843401908875,-0.1724182516336441,-0.0609765462577343,-0.661020040512085,-0.8217299580574036,-4.334549427032471,-0.08874012529850006,-1.0159128904342651,1.0310055017471313,-2.353046178817749,0.28213199973106384,1741504662.7039592,1741504662593,-1.3166893310546874,1.5620330810546876,0.7516313144015573,-3.3689958496093753,1.9680943603515626
1741504662.698341,-3.2865346670150757,0.0017810460309919493,-0.05853607029908001,-0.9982837053408098,-0.18978607654571533,-0.04155215620994568,-0.4820639491081238,2.533400774002075,-0.08610568195581436,9.835395812988281,-0.050927162170410156,0.2744712829589844,-0.056267641484737396,-1.2459226846694946,0.00476844422519207,-0.9210727214813232,0.34542611241340637,1.2501189708709717,0.01506828423589468,0.9531166553497314,-0.046730753034353256,-0.5487525463104248,-0.00476844422519207,0.10929274559020996,0.7646677494049072,-0.34914034605026245,0.030626919120550156,-0.7829785346984863,0.04711223021149635,-0.0013351644156500697,1.3956283330917358,-0.5090795159339905,0.007566915359348059,-0.038906604051589966,0.04838857427239418,-2.520169734954834,0.4293959140777588,-0.011312493123114109,-0.16192542016506195,2.5326313972473145,-0.007815669290721416,0.0033894209191203117,-0.21717946231365204,-0.29447805881500244,1.6184622049331665,-0.003328246297314763,-0.5536325573921204,-0.03711695596575737,-1.1922119855880737,-0.04545437917113304,-3.110741376876831,-0.09224765747785568,-1.0186667442321777,-2.109895706176758,-1.769978404045105,0.5408795475959778,1741504662.7039592,1741504662593,-1.3166893310546874,1.5620330810546876,0.7516313144015573,-3.3689958496093753,1.9680943603515626
1741504662.7182891,-3.2913920879364014,0.0008734819183458414,-0.05326413797533333,-0.9985800762257792,-0.2715034484863281,-0.07845106720924377,-0.19029472768306732,2.190261125564575,0.8229244947433472,7.538951873779297,-0.058556556701660156,0.2748527526855469,-0.1031891331076622,-1.2402005195617676,0.004386968910694122,-0.9325169920921326,0.38319218158721924,1.2505004405975342,0.01506828423589468,0.9458686113357544,-0.0551232174038887,-0.5224307775497437,-0.00476844422519207,0.10433356463909149,0.7658121585845947,-0.37579941749572754,0.034914012998342514,-0.8260852694511414,0.04100862145423889,-0.01773861236870289,1.3132295608520508,-0.5150216221809387,0.00837722234427929,-0.2130795568227768,-0.009485977701842785,-2.1294407844543457,0.3864285349845886,-0.04443090036511421,-0.7059373259544373,2.620621681213379,0.04778141528367996,0.003215232864022255,-0.6219592690467834,-0.4380241334438324,1.22140371799469,0.0004393193812575191,-0.17381666600704193,0.05184582248330116,-1.3692240715026855,0.18263503909111023,-1.984024167060852,-0.33336639404296875,-0.792497992515564,-4.468637943267822,0.04888864979147911,0.15662948787212372,1741504662.7039592,1741504662593,-1.3166893310546874,1.5620330810546876,0.7516313144015573,-3.3689958496093753,1.9680943603515626
1741504662.7383246,-3.298284649848938,0.0024038383403828245,-0.046685784527697796,-0.998906731924591,-0.3214236795902252,0.1303737908601761,-0.3542742431163788,1.4024779796600342,0.36824479699134827,7.554800033569336,-0.062371253967285156,0.2756156921386719,-0.12531471252441406,-1.2340970039367676,0.00476844422519207,-0.9485389590263367,0.4243915379047394,1.2505004405975342,0.01506828423589468,0.9336614012718201,-0.05283436179161072,-0.49191272258758545,-0.002861066721379757,0.10090028494596481,0.769245445728302,-0.4067157506942749,0.03831127658486366,-0.8451590538024902,0.03032730519771576,-0.029182879254221916,1.1987868547439575,-0.48295506834983826,0.014929442666471004,-0.13320016860961914,0.008947759866714478,-0.9186018705368042,0.40841609239578247,-0.0023982173297554255,-0.768665075302124,2.49739933013916,-0.06870055943727493,-0.02375396341085434,-0.7840065956115723,0.1776639223098755,1.4899133443832397,0.1272507756948471,-0.24276003241539001,0.1951008290052414,-1.5297895669937134,0.26152101159095764,-0.6573781967163086,-0.6477329730987549,-0.5004920959472656,-5.960022449493408,1.8122888803482056,0.24695821106433868,1741504662.7039592,1741504662593,-1.3166893310546874,1.5620330810546876,0.7516313144015573,-3.3689958496093753,1.9680943603515626
1741504662.760481,-3.30385959148407,0.010248439723444242,-0.042147114888336515,-0.9990588522153359,-0.21216261386871338,0.41843879222869873,-0.2473633736371994,2.5588290691375732,0.6292381286621094,6.109103202819824,-0.06466007232666016,0.2641716003417969,-0.12836651504039764,-1.227230429649353,0.00476844422519207,-0.9634165167808533,0.44270238280296326,1.2482116222381592,0.01506828423589468,0.9260318875312805,-0.042153049260377884,-0.4655908942222595,-0.0036240178160369396,0.09479667246341705,0.7749675512313843,-0.4385416805744171,0.03662912920117378,-0.8390554785728455,0.01125352829694748,-0.04482337832450867,1.058022379875183,-0.4383300244808197,0.013486206531524658,-0.06437356024980545,-0.41061848402023315,0.0270253736525774,0.4264538288116455,0.0069912513718008995,-0.7034582495689392,1.121506690979004,-0.1230747327208519,0.037311065942049026,-0.5211877822875977,0.6412549018859863,1.3507657051086426,-0.12198590487241745,-0.274802029132843,0.3245266377925873,-1.6124571561813354,-0.09062037616968155,0.1921081691980362,-0.9533959627151489,-0.9061778783798218,-7.359338760375977,2.2057065963745117,-0.06132875382900238,1741504662.8063147,1741504662713,-1.4354080810546874,1.5816453857421875,0.6852642856804132,-3.40823876953125,1.929824951171875
1741504662.7783642,-3.3057236671447754,0.017245432388869622,-0.04028545346200446,-0.9990393772525092,-0.06006844714283943,0.36509716510772705,-0.05889025330543518,1.8878765106201172,1.079943299293518,4.897017955780029,-0.06504154205322266,0.2634086608886719,-0.11081864684820175,-1.2253230810165405,0.00476844422519207,-0.9714275002479553,0.4514763057231903,1.2478300333023071,0.01506828423589468,0.919165313243866,-0.02689402550458908,-0.4365987777709961,-0.01506828423589468,0.07953765243291855,0.7810711860656738,-0.46920159459114075,0.02891482785344124,-0.8245593905448914,-0.014686808921396732,-0.07038223743438721,0.9073395729064941,-0.3942228853702545,0.0040017105638980865,-0.03063679113984108,-0.10731836408376694,0.9962653517723083,0.07910196483135223,0.004563621245324612,-0.32182130217552185,0.4237619638442993,-0.0776362270116806,0.004492856562137604,-0.4098847806453705,0.6664605736732483,1.5625404119491577,-0.7314546704292297,-0.8737571835517883,0.2749711573123932,-1.5096315145492554,-0.5949794054031372,0.9141931533813477,-1.3287397623062134,-1.4758484363555908,-7.2291364669799805,2.1909902095794678,-0.6626943349838257,1741504662.8063147,1741504662713,-1.4354080810546874,1.5816453857421875,0.6852642856804132,-3.40823876953125,1.929824951171875
1741504662.79837,-3.3041577339172363,0.02021838413598533,-0.043895138128460034,-0.9988315342396901,0.21776767075061798,0.0498613603413105,0.0992337018251419,2.058566093444824,-1.0460110902786255,5.640787601470947,-0.06351566314697266,0.2664604187011719,-0.07534141838550568,-1.2260860204696655,0.00476844422519207,-0.9714275002479553,0.4503318965435028,1.2443968057632446,0.01506828423589468,0.916876494884491,-0.019645990803837776,-0.39921414852142334,-0.04177157208323479,0.0715266615152359,0.7871748208999634,-0.4876464903354645,0.010557425208389759,-0.8020523190498352,-0.04406042397022247,-0.09555962681770325,0.7890821695327759,-0.36175474524497986,-0.010402549058198929,0.04616536945104599,0.05058154836297035,1.8995493650436401,-0.056754205375909805,0.002269591437652707,0.038702018558979034,-0.1174732893705368,-0.27450329065322876,0.014583155512809753,-0.13778819143772125,0.3239971399307251,1.9014533758163452,-1.5165512561798096,-0.25675562024116516,0.3119020164012909,-0.7193882465362549,-0.8874572515487671,1.154592514038086,-1.4691858291625977,-1.2161518335342407,-5.497848987579346,1.5539677143096924,-0.5902397632598877,1741504662.8063147,1741504662713,-1.4354080810546874,1.5816453857421875,0.6852642856804132,-3.40823876953125,1.929824951171875
1741504662.8183703,-3.2980841398239136,0.01368693179948004,-0.05111821646918249,-0.9985988162635315,0.3570312559604645,-0.4024121165275574,0.3932030498981476,-5.501129627227783,-2.763324499130249,11.305497169494629,-0.06542301177978516,0.2924013137817383,-0.02040894143283367,-1.231808066368103,0.005149920005351305,-0.9668498039245605,0.4377431869506836,1.239819049835205,0.01506828423589468,0.9153505563735962,-0.01888304017484188,-0.3572518527507782,-0.05283436179161072,0.07572289556264877,0.8054856061935425,-0.478654146194458,0.01504628174006939,-0.7734416723251343,-0.06694895774126053,-0.11120012402534485,0.7887006998062134,-0.3292337656021118,-0.018989915028214455,-0.05530233681201935,0.7859882712364197,2.893723487854004,-0.4901730716228485,0.011461803689599037,0.25144675374031067,-0.9539239406585693,-0.30057966709136963,-0.0004839272878598422,-0.2009214460849762,-0.11100880801677704,1.9324328899383545,-0.1696132868528366,-0.005647192243486643,0.9751777648925781,0.6555630564689636,0.820613443851471,1.9081058502197266,-0.9665456414222717,-0.5590487122535706,1.1861640214920044,1.4954537153244019,-0.40762439370155334,1741504662.8063147,1741504662713,-1.4354080810546874,1.5816453857421875,0.6852642856804132,-3.40823876953125,1.929824951171875
1741504662.8383875,-3.294973134994507,0.010580029386210875,-0.055187639851067526,-0.9984199454066689,0.22436435520648956,-0.1360037922859192,0.27611666917800903,5.114351272583008,4.855681896209717,10.388888359069824,-0.07457828521728516,0.2962160110473633,0.048638131469488144,-1.2363858222961426,0.00476844422519207,-0.9603646993637085,0.4018844962120056,1.23905611038208,0.015449759550392628,0.9130617380142212,-0.03376058489084244,-0.33550775051116943,-0.05703059583902359,0.07915617525577545,0.8524070978164673,-0.45163360238075256,0.03737213835120201,-0.7394903302192688,-0.0711451917886734,-0.08525978773832321,0.8249408602714539,-0.3262045383453369,-0.019533732905983925,-0.3234291970729828,0.17298470437526703,3.6023545265197754,-0.23519514501094818,0.013462917879223824,0.2689991891384125,-2.7321507930755615,0.020000828430056572,-0.0010496701579540968,-0.13462284207344055,-0.6706705093383789,0.8582046627998352,-0.3282349407672882,0.20912481844425201,2.8407862186431885,1.406252145767212,0.8232747912406921,1.0952954292297363,-0.2871890068054199,1.5900111198425293,1.2205257415771484,-0.0003277132345829159,0.167242169380188,1741504662.8063147,1741504662713,-1.4354080810546874,1.5816453857421875,0.6852642856804132,-3.40823876953125,1.929824951171875
1741504662.8584127,-3.28968346118927,0.0026881613523790124,-0.06207609234495989,-0.9980677995746199,0.34894803166389465,-0.3123682141304016,0.3364795744419098,-7.020391464233398,-0.20867697894573212,12.852242469787598,-0.06351566314697266,0.3099489212036133,0.12417028844356537,-1.2451597452163696,0.005149920005351305,-0.9565499424934387,0.34847790002822876,1.2394375801086426,0.01506828423589468,0.9103913903236389,-0.04482337832450867,-0.36449989676475525,-0.05664911866188049,0.07648584991693497,0.9645609259605408,-0.4170481860637665,0.04951455816626549,-0.7078278660774231,-0.05664911866188049,-0.05436026677489281,0.8398184180259705,-0.32760488986968994,-0.016101857647299767,0.23187394440174103,0.3430340886116028,3.8107166290283203,-0.6841017007827759,-0.007341932971030474,0.24664951860904694,-3.610234498977661,-0.007871356792747974,-0.042283449321985245,-0.12220583856105804,-0.3050740659236908,-1.7945295572280884,0.09037526696920395,-0.2334076166152954,6.206583023071289,1.8406219482421875,0.6799699664115906,2.041628837585449,0.9828726649284363,1.24189293384552,0.7886224985122681,-0.015378031879663467,0.06460733711719513,1741504662.8063147,1741504662713,-1.4354080810546874,1.5816453857421875,0.6852642856804132,-3.40823876953125,1.929824951171875
1741504662.878456,-3.274660348892212,-0.00047684505637407326,-0.06228560779337518,-0.9980582526489132,-0.05826501175761223,-0.1599016636610031,0.8323323726654053,-0.04874998703598976,-1.93248450756073,12.826361656188965,-0.07381534576416016,0.3221559524536133,0.1974135935306549,-1.2505004405975342,0.005149920005351305,-0.9489204287528992,0.28515297174453735,1.23905611038208,0.014686808921396732,0.9100099205970764,-0.04139009863138199,-0.44270238280296326,-0.057793546468019485,0.06275273114442825,1.125162124633789,-0.37961655855178833,0.03166848048567772,-0.6731135845184326,-0.048256658017635345,-0.03681239113211632,0.84744793176651,-0.3287862241268158,-0.017136648297309875,-0.3370490074157715,0.4953644871711731,3.5717287063598633,-0.2147434651851654,-0.010240308940410614,0.3435216546058655,-4.240331172943115,-0.006536256056278944,0.026010947301983833,0.019369086250662804,0.2569117248058319,-4.101174354553223,-0.16311746835708618,-0.7190073132514954,8.021515846252441,1.6744173765182495,-1.3682985305786133,1.5231660604476929,0.10514160245656967,0.8552591800689697,0.2933999300003052,-0.0873921811580658,-0.030873732641339302,1741504662.9086719,1741504662813,-1.5377355957031251,1.6085533447265625,0.7812831911544537,-3.490566162109375,1.8417315673828125
1741504662.898526,-3.2529183626174927,-0.002164132135130597,-0.058043351063516144,-0.9983117178163438,-0.1756991297006607,0.028820257633924484,1.0554991960525513,-2.2763543128967285,1.1123055219650269,9.841460227966309,-0.06694889068603516,0.3206300735473633,0.2637903392314911,-1.2520263195037842,0.005149920005351305,-0.9473945498466492,0.2157244235277176,1.23905611038208,0.014686808921396732,0.9122987985610962,-0.026512550190091133,-0.5445563197135925,-0.06389715522527695,0.05855649709701538,1.2819485664367676,-0.37401461601257324,-0.0014077207306399941,-0.6319142580032349,-0.04901960864663124,-0.039101243019104004,0.8539330363273621,-0.3302164673805237,-0.014595294371247292,0.2243364155292511,0.07207328081130981,3.1471450328826904,-0.18985801935195923,0.011983190663158894,0.0777459517121315,-4.74746561050415,-0.07235289365053177,0.003814545925706625,0.17233258485794067,0.7625592350959778,-5.056795120239258,-0.24730832874774933,-0.18475916981697083,7.770881652832031,-0.12978897988796234,-1.1104023456573486,2.198870897293091,-0.008384152315557003,-0.21097132563591003,0.2767690122127533,-0.0917791947722435,0.10184300690889359,1741504662.9086719,1741504662813,-1.5377355957031251,1.6085533447265625,0.7812831911544537,-3.490566162109375,1.8417315673828125
1741504662.9185102,-3.2295957803726196,-0.004510522892444317,-0.055306474454832104,-0.9984592375588568,-0.12635567784309387,-0.11073286831378937,1.2112336158752441,-1.6701136827468872,2.9392077922821045,13.895435333251953,-0.049401283264160156,0.3389406204223633,0.32940414547920227,-1.2550780773162842,0.005149920005351305,-0.9443427324295044,0.14248111844062805,1.235241413116455,0.014686808921396732,0.9138246774673462,-0.007438773289322853,-0.6422140598297119,-0.058175019919872284,0.06275273114442825,1.3860913515090942,-0.40789371728897095,0.013832099735736847,-0.5937666893005371,-0.058175019919872284,-0.04139009863138199,0.8504997491836548,-0.3408867418766022,-0.008968289941549301,0.5126864910125732,0.49829262495040894,3.346755266189575,-0.09731850773096085,-0.005291652400046587,0.17452871799468994,-4.825040340423584,-0.26602333784103394,0.003587460843846202,0.06608640402555466,0.9875046610832214,-4.609964847564697,0.28034183382987976,0.34194275736808777,4.541114330291748,-1.9173355102539062,0.7287620306015015,1.733695149421692,-0.5356951951980591,-0.04500189051032066,-0.1213032528758049,-0.6693009734153748,0.33718645572662354,1741504662.9086719,1741504662813,-1.5377355957031251,1.6085533447265625,0.7812831911544537,-3.490566162109375,1.8417315673828125
1741504662.9385266,-3.2144062519073486,-0.006860761630402002,-0.054412337635489035,-0.9984949811906378,-0.019165214151144028,-0.03546054661273956,0.6177627444267273,-0.06481719017028809,5.469405651092529,11.884153366088867,-0.00629425048828125,0.3717479705810547,0.3850995600223541,-1.2581299543380737,0.005149920005351305,-0.9382390975952148,0.07495994865894318,1.231808066368103,0.01506828423589468,0.9115357995033264,-0.0009536888683214784,-0.7139315009117126,-0.057793546468019485,0.0879301130771637,1.412413239479065,-0.45262786746025085,0.004812673199921846,-0.5495155453681946,-0.06160829961299896,-0.04177157208323479,0.8504997491836548,-0.3710824251174927,-0.006315087899565697,1.27797532081604,0.7981091737747192,2.6530308723449707,-0.28209206461906433,-0.0017455376219004393,0.34459593892097473,-4.382866382598877,-0.26101154088974,0.04456496611237526,-0.13329195976257324,0.3944716453552246,-3.3688905239105225,0.15715782344341278,1.4357880353927612,0.711821973323822,-2.1779749393463135,-0.7953813076019287,2.3574554920196533,-0.2202599197626114,0.006478399969637394,-0.06940998136997223,-1.7195419073104858,0.2012646198272705,1741504662.9086719,1741504662813,-1.5377355957031251,1.6085533447265625,0.7812831911544537,-3.490566162109375,1.8417315673828125
1741504662.9585152,-3.212701678276062,-0.007021633019234189,-0.056635128534917756,-0.9983702514025429,0.1241571307182312,-0.014262200333178043,-0.029790889471769333,0.427642285823822,1.3242381811141968,11.810762405395508,0.00896453857421875,0.3900585174560547,0.4327840209007263,-1.2623261213302612,0.005531395319849253,-0.9321355223655701,0.018501564860343933,1.2291377782821655,0.01506828423589468,0.9122987985610962,0.010109102353453636,-0.7616159319877625,-0.0551232174038887,0.11425192654132843,1.3689249753952026,-0.4822017252445221,-0.013949676416814327,-0.5121309161186218,-0.06771191209554672,-0.04100862145423889,0.8382925391197205,-0.414779931306839,0.0036170869134366512,0.42619016766548157,0.48655959963798523,2.4036684036254883,-0.36638912558555603,0.022048693150281906,0.2994633913040161,-3.6717581748962402,-0.16359250247478485,0.005022565834224224,-0.005082055926322937,0.5997453331947327,-2.2506000995635986,0.16766104102134705,1.2284456491470337,-2.57997727394104,-1.2272590398788452,-0.5593981146812439,1.664497971534729,-0.31180328130722046,0.02373424544930458,-0.6625812649726868,-2.1586508750915527,0.5895177721977234,1741504662.9086719,1741504662813,-1.5377355957031251,1.6085533447265625,0.7812831911544537,-3.490566162109375,1.8417315673828125
1741504662.9786081,-3.2146769762039185,-0.004353959792430806,-0.059571139836276155,-0.99821456728137,0.16308414936065674,0.19659152626991272,-0.01379587221890688,0.7326436638832092,-1.6487706899642944,7.834305763244629,0.01163482666015625,0.3950176239013672,0.4842832088470459,-1.2680482864379883,0.005149920005351305,-0.9225986003875732,-0.042153049260377884,1.233715534210205,0.014686808921396732,0.9180209040641785,0.008964675478637218,-0.7932783961296082,-0.04749370738863945,0.1325627565383911,1.2739375829696655,-0.4815598428249359,-0.004362562671303749,-0.4716945290565491,-0.06923781335353851,-0.0394827201962471,0.8241779208183289,-0.45295214653015137,0.01436825841665268,0.06313920766115189,0.12149730324745178,2.3947670459747314,-0.25682565569877625,0.0009880675934255123,0.42396706342697144,-4.240927219390869,0.31482791900634766,0.009484868496656418,0.4905604422092438,-0.20847442746162415,-1.4618340730667114,0.4158933460712433,0.8913588523864746,-5.015100002288818,0.32047590613365173,0.4846512973308563,2.2462518215179443,-0.12211304903030396,0.12898236513137817,-0.6016398668289185,-1.8263530731201172,0.5550360679626465,1741504663.0110133,1741504662913,-1.6261436767578126,1.6163107910156251,0.7940434001196004,-3.54465234375,1.7850316162109376
1741504662.9986148,-3.2137542963027954,0.002844080452851693,-0.06207663443976064,-0.9980673337320534,0.12759916484355927,0.3090401887893677,0.02063516154885292,-0.9744468927383423,-0.7640348672866821,9.575871467590332,0.00972747802734375,0.3938732147216797,0.5094605684280396,-1.2665224075317383,0.005149920005351305,-0.9180209040641785,-0.086785688996315,1.2340970039367676,0.01506828423589468,0.9325169920921326,-0.008964675478637218,-0.8054856061935425,-0.03223468363285065,0.14591439068317413,1.1526284217834473,-0.4482320547103882,-0.009233992546796799,-0.4396505653858185,-0.0711451917886734,-0.034142062067985535,0.80663001537323,-0.4865608215332031,0.022033274173736572,-0.04455738887190819,-0.033927176147699356,1.0949445962905884,0.04796702042222023,0.014972001314163208,0.2637166976928711,-2.712467670440674,0.002237950684502721,-0.006947260349988937,1.0836620330810547,-1.0716361999511719,-0.5213683843612671,0.8803942799568176,0.615637481212616,-6.257950782775879,1.8087841272354126,-0.3235016465187073,1.4739340543746948,-0.04811496660113335,0.3200705647468567,-0.8475455641746521,-1.6161296367645264,0.37743717432022095,1741504663.0110133,1741504662913,-1.6261436767578126,1.6163107910156251,0.7940434001196004,-3.54465234375,1.7850316162109376
1741504663.0185812,-3.2071170806884766,0.012770704220667653,-0.06332251721456492,-0.9979114028446209,0.03630899265408516,0.5654666423797607,0.37881407141685486,5.83320951461792,-0.7402689456939697,4.742440700531006,0.01392364501953125,0.3908214569091797,0.5136567950248718,-1.2657594680786133,0.005149920005351305,-0.9145876169204712,-0.10814831405878067,1.233715534210205,0.014686808921396732,0.9508277773857117,-0.04482337832450867,-0.7990005612373352,-0.0020981156267225742,0.16079194843769073,1.0183489322662354,-0.40300479531288147,-0.005463487468659878,-0.403410404920578,-0.06809338182210922,-0.018501564860343933,0.7967116832733154,-0.5140376091003418,0.020235398784279823,0.0996025875210762,-0.06853213906288147,-0.019005920737981796,0.07449403405189514,-0.007966283708810806,0.1336022913455963,-1.0897449254989624,-0.048274360597133636,-0.0004092824528925121,1.1685705184936523,-1.8252509832382202,0.4419988989830017,1.6369130611419678,0.807711124420166,-6.803685188293457,2.2335026264190674,0.202814981341362,1.851098656654358,0.1958494484424591,0.8155155777931213,-0.5161017775535583,-1.3308517932891846,-0.163977712392807,1741504663.0110133,1741504662913,-1.6261436767578126,1.6163107910156251,0.7940434001196004,-3.54465234375,1.7850316162109376
1741504663.0386512,-3.1963831186294556,0.019938192630642226,-0.06040603185525796,-0.997974739054113,-0.1788589209318161,0.35659492015838623,0.5808758735656738,3.7913362979888916,-2.361734628677368,6.05185604095459,0.00934600830078125,0.3877696990966797,0.4999237060546875,-1.2619446516036987,0.005149920005351305,-0.9149690866470337,-0.1031891331076622,1.231808066368103,0.014686808921396732,0.9641794562339783,-0.08068207651376724,-0.7852674126625061,0.032616160809993744,0.19436179101467133,0.8932250142097473,-0.3583485186100006,0.003484851447865367,-0.36640727519989014,-0.05054550990462303,-0.0032425422687083483,0.7814526557922363,-0.5340123772621155,0.010096898302435875,-0.13515785336494446,-0.07462460547685623,-0.7905882000923157,0.28319573402404785,-0.009963047690689564,-0.035361479967832565,0.5098146200180054,-0.11283817887306213,0.006354115903377533,0.8324294686317444,-1.7505061626434326,0.6879656910896301,1.5764216184616089,1.8775602579116821,-5.974384307861328,2.113191843032837,0.36444345116615295,1.9471709728240967,0.9795339703559875,0.7362985610961914,-0.8072601556777954,-0.8736796379089355,-0.5290078520774841,1741504663.0110133,1741504662913,-1.6261436767578126,1.6163107910156251,0.7940434001196004,-3.54465234375,1.7850316162109376
1741504663.05866,-3.1824259757995605,0.021579233320254902,-0.05145372431924214,-0.9984422121199551,-0.489673912525177,0.07061454653739929,0.6470326781272888,0.7715809941291809,-2.646190881729126,7.7636332511901855,0.00553131103515625,0.3896770477294922,0.4713130295276642,-1.2543151378631592,0.005149920005351305,-0.916113555431366,-0.07648584991693497,1.2314265966415405,0.014686808921396732,0.968757152557373,-0.10128175467252731,-0.7711527943611145,0.0555046908557415,0.23632410168647766,0.7921339869499207,-0.3326032757759094,0.007628907449543476,-0.3133821487426758,-0.024223696440458298,0.002861066721379757,0.7734416723251343,-0.5229073166847229,0.020745323970913887,-0.12359573692083359,0.0784415677189827,-1.4559993743896484,0.5143545866012573,0.005851176101714373,-0.01670815981924534,1.8983676433563232,-0.04384409636259079,0.0009249661234207451,0.20497816801071167,-0.7335980534553528,0.7383431792259216,1.3574883937835693,2.0185225009918213,-4.893058776855469,1.036971926689148,0.2758408784866333,2.76247239112854,1.1919822692871094,0.18713036179542542,-0.2515071630477905,0.8174296617507935,0.682608962059021,1741504663.0110133,1741504662913,-1.6261436767578126,1.6163107910156251,0.7940434001196004,-3.54465234375,1.7850316162109376
1741504663.0787017,-3.1687177419662476,0.014246684943221339,-0.039501143461180895,-0.9991179568166052,-0.6161450147628784,-0.5031174421310425,0.6238514184951782,-14.995857238769531,4.148345470428467,21.81382179260254,0.00743865966796875,0.4159994125366211,0.43011367321014404,-1.2455412149429321,0.00476844422519207,-0.9138246774673462,-0.03299763426184654,1.2306636571884155,0.014686808921396732,0.9691386222839355,-0.10433356463909149,-0.7513160705566406,0.07724879682064056,0.2508201599121094,0.76276034116745,-0.3170029819011688,0.03669862449169159,-0.26951247453689575,-0.013542382046580315,0.000572213320992887,0.7925154566764832,-0.5133526921272278,0.008618715219199657,0.055190421640872955,0.8003402352333069,-2.090432643890381,0.5625850558280945,-0.010990982875227928,0.17424200475215912,2.9898622035980225,-0.041934382170438766,0.01445575151592493,-0.010491170920431614,-0.13594107329845428,1.1555601358413696,0.7346644997596741,0.43228909373283386,-0.24031922221183777,0.819532036781311,1.7320542335510254,1.8689098358154297,0.252961128950119,-0.059921666979789734,1.3733545541763306,0.31351199746131897,-0.6346004009246826,1741504663.1134143,1741504663013,-1.73435791015625,1.61382275390625,0.9838462949466997,-3.58672021484375,1.7404979248046875
1741504663.099224,-3.1576536893844604,0.007772562528378032,-0.030561726298586743,-0.9995026604053601,-0.4376196563243866,-0.12323776632547379,0.4876857399940491,4.568429470062256,4.519346714019775,3.786172389984131,0.01392364501953125,0.4072256088256836,0.3717479109764099,-1.2466856241226196,0.005149920005351305,-0.9145876169204712,0.02079041674733162,1.231808066368103,0.01430533267557621,0.9683756828308105,-0.09479667246341705,-0.7066834568977356,0.06504157930612564,0.2313649207353592,0.8016708493232727,-0.31409478187561035,0.058920178562402725,-0.2660791873931885,-0.011635004542768002,0.012397955171763897,0.8764400482177734,-0.4971933960914612,-0.000601926411036402,0.18010617792606354,-0.15099714696407318,-3.0238590240478516,-0.18268299102783203,-0.0003398751141503453,-0.11917826533317566,3.6704061031341553,0.10456545650959015,-0.03649801015853882,-0.025033580139279366,0.603631854057312,1.8284410238265991,-0.684712290763855,-1.1643928289413452,1.3856964111328125,-0.05927513167262077,0.6338782906532288,-0.10072386264801025,0.2756071090698242,0.7462137341499329,4.833310604095459,1.0932035446166992,-0.41181710362434387,1741504663.1134143,1741504663013,-1.73435791015625,1.61382275390625,0.9838462949466997,-3.58672021484375,1.7404979248046875
1741504663.1187575,-3.155215620994568,0.0040051196726382885,-0.027438474386045398,-0.9996154706384722,-0.12153974920511246,-0.214955136179924,0.04182109609246254,-11.206083297729492,0.650160551071167,13.261871337890625,0.01811981201171875,0.4083700180053711,0.2954528033733368,-1.2520263195037842,0.00476844422519207,-0.9157320261001587,0.07381551712751389,1.23905611038208,0.01583123579621315,0.9676127433776855,-0.08068207651376724,-0.6860837936401367,0.037193864583969116,0.19550621509552002,0.805867075920105,-0.3150453567504883,0.05951397866010666,-0.32673379778862,0.0009536888683214784,0.05359731614589691,1.0297932624816895,-0.45656701922416687,-0.0069329096004366875,0.1253473311662674,0.09177777171134949,-3.874089241027832,-0.4347280263900757,-0.04454074427485466,-0.05444471910595894,3.5017242431640625,0.5906665325164795,0.1323847472667694,-0.07046055048704147,0.5576311945915222,1.348049521446228,-1.4402244091033936,-1.8266316652297974,0.2597157061100006,0.012806913815438747,0.18897871673107147,-3.391090154647827,0.6142833828926086,2.473299264907837,7.935386657714844,2.1130564212799072,-0.28054335713386536,1741504663.1134143,1741504663013,-1.73435791015625,1.61382275390625,0.9838462949466997,-3.58672021484375,1.7404979248046875
1741504663.1387694,-3.160511612892151,0.007368727490392684,-0.036773259521103,-0.9992964671404407,0.5401689410209656,0.09312672168016434,-0.3591003119945526,1.3712788820266724,-6.32948637008667,9.649856567382812,0.033761024475097656,0.4026470184326172,0.21038375794887543,-1.2585114240646362,0.005149920005351305,-0.9153505563735962,0.12722209095954895,1.2459226846694946,0.01506828423589468,0.9657053351402283,-0.07457847148180008,-0.6548027992248535,0.015449759550392628,0.17147326469421387,0.8096818327903748,-0.314302921295166,0.06294694542884827,-0.42668038606643677,0.029182879254221916,0.10433356463909149,1.2106126546859741,-0.4124131202697754,-0.008500560186803341,0.46512481570243835,-0.020318251103162766,-4.241885662078857,-0.42620259523391724,0.002957211807370186,0.009889479726552963,3.558335542678833,0.3810337781906128,-0.04753236472606659,-0.13338051736354828,0.22777670621871948,1.3740456104278564,-1.150357723236084,-1.044504165649414,0.11539175361394882,0.0068856822326779366,0.13607750833034515,-5.105398654937744,1.6229333877563477,2.3964078426361084,8.998818397521973,2.1088054180145264,0.09703028202056885,1741504663.1134143,1741504663013,-1.73435791015625,1.61382275390625,0.9838462949466997,-3.58672021484375,1.7404979248046875
1741504663.1588202,-3.1753216981887817,0.008137122335334127,-0.04949498152816441,-0.9987412247642663,0.6161168813705444,0.004734225571155548,-0.7300989031791687,-0.4211352467536926,-0.019284114241600037,10.446314811706543,0.02803802490234375,0.3995952606201172,0.12760357558727264,-1.2611817121505737,0.00476844422519207,-0.9164950251579285,0.17833982408046722,1.2485930919647217,0.01506828423589468,0.959983229637146,-0.0722896158695221,-0.6158922910690308,0.007438773289322853,0.17605096101760864,0.8089188933372498,-0.31749197840690613,0.056788649410009384,-0.5380712747573853,0.05855649709701538,0.12684062123298645,1.3662546873092651,-0.400215208530426,-0.005469923838973045,-0.09743572026491165,-0.020255861803889275,-4.120438575744629,-0.03327115252614021,-0.014729171060025692,-0.07758759707212448,3.4630088806152344,0.17178331315517426,0.013423223979771137,-0.4460153877735138,0.10786592215299606,1.9633225202560425,-0.2244124412536621,0.3436521291732788,-0.09429435431957245,-0.1864660084247589,-0.3281116783618927,-5.5105299949646,1.371580958366394,0.8359547853469849,7.267489433288574,0.22592851519584656,0.019867246970534325,1741504663.1134143,1741504663013,-1.73435791015625,1.61382275390625,0.9838462949466997,-3.58672021484375,1.7404979248046875
1741504663.178874,-3.1918314695358276,0.008273593750913391,-0.059061853075242726,-0.9982200384473171,0.46104803681373596,-0.08192338794469833,-0.8192377090454102,0.160119891166687,-3.495713949203491,9.973311424255371,0.01926422119140625,0.4022655487060547,0.05245288833975792,-1.2566040754318237,0.00476844422519207,-0.917639434337616,0.2317463904619217,1.2531707286834717,0.015449759550392628,0.9538795948028564,-0.07381551712751389,-0.5773632526397705,0.009346150793135166,0.17872129380702972,0.8073930144309998,-0.3240109980106354,0.04571378231048584,-0.6441214680671692,0.07534141838550568,0.11615930497646332,1.4566643238067627,-0.42650479078292847,-0.012411290779709816,-0.28539174795150757,0.09197084605693817,-3.6128838062286377,0.33677801489830017,-0.0007775900303386152,-0.0590839758515358,3.5714271068573,0.2574594020843506,-3.752962948055938e-05,-0.3793584704399109,-0.16198836266994476,1.7757761478424072,-0.01310674473643303,0.07060219347476959,-0.0394698902964592,-0.38019391894340515,-0.6482411026954651,-5.2283735275268555,0.6307575702667236,-0.7436981797218323,4.0265421867370605,-1.6158745288848877,-0.27695679664611816,1741504663.2158692,1741504663113,-1.8383031005859376,1.6074027099609376,0.9390717932983041,-3.626718017578125,1.69854931640625
1741504663.1988838,-3.204736590385437,0.008290953939575673,-0.06144414819595836,-0.9980760876482538,0.07154592871665955,-0.016892053186893463,-0.5301879048347473,0.06610492616891861,-0.31746792793273926,9.30334758758545,0.01049041748046875,0.3965435028076172,-0.005531395319849253,-1.2497375011444092,0.00476844422519207,-0.919165313243866,0.28553444147109985,1.2566040754318237,0.01506828423589468,0.9477760195732117,-0.071908138692379,-0.5380712747573853,0.0024795911740511656,0.17681391537189484,0.8073930144309998,-0.3458952009677887,0.03156440705060959,-0.7375829815864563,0.07495994865894318,0.09021896868944168,1.4765011072158813,-0.46907487511634827,-0.001885219244286418,-0.29806947708129883,-0.13994742929935455,-2.699876070022583,0.46175485849380493,-0.0019323158776387572,-0.08082859963178635,3.5062711238861084,0.24163676798343658,-0.029834311455488205,-0.5041264891624451,0.1447390466928482,1.9448950290679932,-0.38747474551200867,-0.08496271818876266,-0.01626472733914852,-1.2868528366088867,-0.6922628879547119,-4.64308500289917,-0.013063875027000904,-1.3608323335647583,0.4362635314464569,-2.1052348613739014,0.814668595790863,1741504663.2158692,1741504663113,-1.8383031005859376,1.6074027099609376,0.9390717932983041,-3.626718017578125,1.69854931640625
1741504663.2189004,-3.2095658779144287,0.009851617630714224,-0.061335888864872914,-0.9980685619571503,-0.017703836783766747,0.06424611806869507,-0.19832535088062286,2.4127564430236816,-0.15208417177200317,8.804693222045898,0.01010894775390625,0.3854808807373047,-0.05436026677489281,-1.2459226846694946,0.005149920005351305,-0.9214541912078857,0.33550775051116943,1.2592743635177612,0.01506828423589468,0.9393835067749023,-0.07801175117492676,-0.506790280342102,-0.0024795911740511656,0.17605096101760864,0.805867075920105,-0.3864242136478424,0.030276430770754814,-0.8199816942214966,0.07343403995037079,0.06160829961299896,1.435683250427246,-0.5002148151397705,0.011020718142390251,-0.029793787747621536,-0.299458384513855,-2.7587978839874268,0.18165116012096405,0.010899693705141544,-0.14020338654518127,3.2465438842773438,0.14950452744960785,0.022720450535416603,-0.5090575218200684,-0.2938825786113739,1.4097239971160889,-0.1815670281648636,-0.018734533339738846,-0.08263403177261353,-2.165576696395874,0.18896332383155823,-3.7465152740478516,-0.07013656944036484,-1.2917790412902832,-2.409545421600342,-1.262266755104065,0.3850341737270355,1741504663.2158692,1741504663113,-1.8383031005859376,1.6074027099609376,0.9390717932983041,-3.626718017578125,1.69854931640625
1741504663.2388952,-3.2118024826049805,0.013892210233635965,-0.05929895996733567,-0.998143596804396,-0.08647992461919785,0.1932658553123474,-0.032429616898298264,-2.88616943359375,-1.166760802268982,8.917203903198242,0.00514984130859375,0.3740367889404297,-0.1031891331076622,-1.2421079874038696,0.004386968910694122,-0.9351872801780701,0.38014039397239685,1.2611817121505737,0.01506828423589468,0.9325169920921326,-0.08335240930318832,-0.4827573001384735,-0.001716639962978661,0.17948424816131592,0.80663001537323,-0.4338809549808502,0.04295467585325241,-0.8836880922317505,0.07000076025724411,0.04749370738863945,1.354047417640686,-0.4958599805831909,0.008336273021996021,-0.1531357765197754,-0.34482091665267944,-2.32323956489563,0.3261587619781494,-0.039545636624097824,-0.8072549700737,2.9191431999206543,0.16400755941867828,0.0018385985167697072,-0.4147259593009949,-0.2564808130264282,1.379165530204773,0.04078599810600281,0.1909545511007309,0.07179689407348633,-2.3733670711517334,0.7442991137504578,-3.0909595489501953,-0.15216830372810364,-0.7440709471702576,-4.399478435516357,0.5845569968223572,-0.045575935393571854,1741504663.2158692,1741504663113,-1.8383031005859376,1.6074027099609376,0.9390717932983041,-3.626718017578125,1.69854931640625
1741504663.2589686,-3.213389277458191,0.023444445226900243,-0.05656756298806478,-0.9981234737273711,-0.14437657594680786,0.4940232038497925,-0.11191792786121368,-2.6163997650146484,-0.10591065138578415,8.580222129821777,0.00553131103515625,0.3610668182373047,-0.13027389347553253,-1.23600435256958,0.00476844422519207,-0.9523537158966064,0.42706188559532166,1.2627075910568237,0.01506828423589468,0.924887478351593,-0.07877469807863235,-0.4552910625934601,-0.0013351644156500697,0.1825360506772995,0.8077744841575623,-0.4757503569126129,0.04608330875635147,-0.9172579646110535,0.061226826161146164,0.045204851776361465,1.2460898160934448,-0.4582422077655792,0.013738911598920822,-0.0123482346534729,-0.372220516204834,-1.144547700881958,0.3700845539569855,0.0017339689657092094,-0.8705155849456787,3.089613437652588,0.027171269059181213,-0.007204349152743816,-0.5371970534324646,0.258708655834198,1.2032382488250732,-0.049310676753520966,0.1433391571044922,-0.019369734451174736,-2.0710415840148926,0.1377064287662506,-1.2748507261276245,-0.6047753691673279,-0.022807933390140533,-5.760739803314209,2.0112040042877197,0.14014267921447754,1741504663.2158692,1741504663113,-1.8383031005859376,1.6074027099609376,0.9390717932983041,-3.626718017578125,1.69854931640625
1741504663.279693,-3.2156158685684204,0.035857804448496185,-0.0539676455555989,-0.9978986477059274,-0.11184025555849075,0.5650334358215332,-0.12583410739898682,4.778067111968994,2.4181158542633057,6.530299663543701,0.00667572021484375,0.3500041961669922,-0.134470134973526,-1.2299007177352905,0.00476844422519207,-0.9664682745933533,0.4549095928668976,1.2600373029708862,0.015449759550392628,0.919165313243866,-0.06046387553215027,-0.4209582805633545,-0.0078202486038208,0.17719538509845734,0.8081559538841248,-0.5095970630645752,0.03747718408703804,-0.9328984618186951,0.038719769567251205,0.03833829239010811,1.104943871498108,-0.41284242272377014,0.009797221049666405,0.02873307652771473,-0.28720909357070923,-0.037773601710796356,0.399103581905365,0.0016216925578191876,-0.7061157822608948,1.6685830354690552,-0.15848881006240845,0.06860870122909546,-0.38382449746131897,0.9046322107315063,1.7071822881698608,-0.3514575958251953,-0.2973083555698395,-0.06571699678897858,-1.690429449081421,-0.39417895674705505,-0.5721084475517273,-1.2714394330978394,-0.45275619626045227,-7.148512363433838,2.2116777896881104,-0.14385710656642914,1741504663.2158692,1741504663113,-1.8383031005859376,1.6074027099609376,0.9390717932983041,-3.626718017578125,1.69854931640625
1741504663.2990248,-3.219796061515808,0.04158846041626417,-0.0539999031171493,-0.9976745012395292,0.02800878696143627,0.26523810625076294,-0.2042490690946579,4.170844554901123,2.158571481704712,4.590817451477051,0.00896453857421875,0.3454265594482422,-0.11234454810619354,-1.2268489599227905,0.00476844422519207,-0.9714275002479553,0.4663538634777069,1.2581299543380737,0.01506828423589468,0.9153505563735962,-0.04329747334122658,-0.3759441375732422,-0.02689402550458908,0.17071031033992767,0.805867075920105,-0.5308451056480408,0.007639765739440918,-0.9195467829704285,0.00476844422519207,0.01430533267557621,0.953498125076294,-0.3710753917694092,-0.0020600801799446344,0.06419962644577026,-0.15630626678466797,1.2967681884765625,0.1255716234445572,0.005042394157499075,-0.17483751475811005,0.5567521452903748,-0.1575266271829605,-0.026853984221816063,-0.2147415280342102,0.7535752654075623,2.388035774230957,-1.0582700967788696,-0.2794145941734314,-0.14724014699459076,-0.8879826068878174,-1.5300437211990356,0.8731247782707214,-1.6606711149215698,-1.3877419233322144,-7.4096455574035645,1.9640476703643799,-0.5785694718360901,1741504663.2158692,1741504663113,-1.8383031005859376,1.6074027099609376,0.9390717932983041,-3.626718017578125,1.69854931640625
1741504663.3190303,-3.2245633602142334,0.03819070862266043,-0.059357380576361043,-0.9975059754938875,0.3126671612262726,-0.25674882531166077,-0.21747751533985138,4.522591590881348,0.9085044860839844,6.074348449707031,0.01392364501953125,0.3641185760498047,-0.07038223743438721,-1.2283748388290405,0.00476844422519207,-0.9683756828308105,0.465209424495697,1.2508819103240967,0.01506828423589468,0.9119172692298889,-0.03795681521296501,-0.32520791888237,-0.06313420087099075,0.1848248988389969,0.8100633025169373,-0.528471052646637,0.031078530475497246,-0.8878843188285828,-0.026131074875593185,-0.010109102353453636,0.8154039978981018,-0.34964466094970703,-0.007172198500484228,0.1340290606021881,0.48668211698532104,2.281806707382202,-0.11715921014547348,-0.009827880188822746,0.18457381427288055,-0.10292129218578339,-0.5333688259124756,-0.017198141664266586,-0.24110345542430878,0.10147786885499954,2.5467336177825928,-1.8307238817214966,0.9406219720840454,0.4178721606731415,0.31284454464912415,1.703537940979004,1.6135035753250122,-1.5352909564971924,-1.1160799264907837,-6.594216346740723,1.016729474067688,-0.17136327922344208,1741504663.2158692,1741504663113,-1.8383031005859376,1.6074027099609376,0.9390717932983041,-3.626718017578125,1.69854931640625
1741504663.3390741,-3.226696014404297,0.02360377090592592,-0.07205831504164792,-0.9971210865448483,0.6581762433052063,-0.8491518497467041,-0.08659636974334717,-20.403667449951172,-1.260412335395813,23.387662887573242,0.01544952392578125,0.3862438201904297,-0.013923857361078262,-1.2363858222961426,0.005149920005351305,-0.9611276388168335,0.4522392749786377,1.2394375801086426,0.014686808921396732,0.9081025123596191,-0.04940108209848404,-0.28782328963279724,-0.059319447726011276,0.19245441257953644,0.8527885675430298,-0.5164157152175903,0.059562209993600845,-0.84897381067276,-0.040245670825242996,0.00476844422519207,0.8314259648323059,-0.30974018573760986,0.009628360159695148,0.08845583349466324,0.6762540936470032,2.949312448501587,-0.7839474081993103,0.005625911522656679,0.36640116572380066,-0.9983602166175842,-0.7678032517433167,-0.005696485284715891,-0.3301926553249359,-0.7613888382911682,1.5782339572906494,0.32669496536254883,0.5890650749206543,2.539729595184326,0.6333245038986206,1.3354268074035645,2.6422207355499268,-0.34777337312698364,1.0919466018676758,2.0999817848205566,1.9053958654403687,0.78638756275177,1741504663.2158692,1741504663113,-1.8383031005859376,1.6074027099609376,0.9390717932983041,-3.626718017578125,1.69854931640625
1741504663.3590603,-3.224555492401123,0.01914530056555102,-0.07610856915282521,-0.9969157151774489,0.15354935824871063,-0.30408498644828796,0.2320074886083603,-1.3550903797149658,11.965002059936523,5.296736240386963,-0.00209808349609375,0.3797588348388672,0.050164032727479935,-1.2466856241226196,0.005531395319849253,-0.9561684727668762,0.40989547967910767,1.23447847366333,0.015449759550392628,0.9077210426330566,-0.07724879682064056,-0.2958342730998993,-0.06656748056411743,0.1966506391763687,0.9496833682060242,-0.48273903131484985,0.06848282366991043,-0.8196002244949341,-0.02689402550458908,0.05207141116261482,0.8573662638664246,-0.27818629145622253,0.05866461992263794,-0.5625512003898621,-0.04900200664997101,3.210336208343506,-0.5314459204673767,0.046875499188899994,0.2672877907752991,-3.0577759742736816,-0.10551955550909042,0.07323390990495682,0.10364504158496857,-1.3395609855651855,-1.0134756565093994,-0.3059496581554413,-0.13202731311321259,5.269428730010986,1.897392749786377,0.3244486153125763,0.9949735999107361,0.7178105711936951,2.518524169921875,0.37589702010154724,1.4092578887939453,2.181673526763916,1741504663.2158692,1741504663113,-1.8383031005859376,1.6074027099609376,0.9390717932983041,-3.626718017578125,1.69854931640625
1741504663.3790975,-3.2124403715133667,0.012117209463498332,-0.08247990258192617,-0.996519060984231,0.30249297618865967,-0.14166061580181122,0.6977968215942383,3.257477045059204,-1.795282244682312,8.388222694396973,0.01239776611328125,0.3786144256591797,0.11387044936418533,-1.2520263195037842,0.005531395319849253,-0.9496833682060242,0.3545815348625183,1.2371487617492676,0.014686808921396732,0.9111543297767639,-0.09975585341453552,-0.3530556261539459,-0.06733043491840363,0.1813916265964508,1.0961699485778809,-0.43878984451293945,0.06893067806959152,-0.768482506275177,-0.000572213320992887,0.08373387902975082,0.8646143078804016,-0.2583250403404236,0.03678349405527115,0.3436526656150818,-0.05630900338292122,2.8675239086151123,-0.5335797667503357,0.06320005655288696,0.2977696359157562,-3.6033501625061035,0.09327034652233124,-0.12508918344974518,0.1800525039434433,-1.1121522188186646,-2.95845890045166,-0.15415459871292114,-0.7218801975250244,7.581253528594971,2.1269779205322266,-0.06359555572271347,2.7452566623687744,1.4820163249969482,1.1370872259140015,0.7014929056167603,1.0425325632095337,-1.6069906949996948,1741504663.4206083,1741504663193,-1.9228045654296875,1.6133262939453126,1.2500296984681507,-3.657009521484375,1.6672196044921876
1741504663.3991208,-3.188717246055603,0.004217725780558498,-0.07922442427627074,-0.9968478827721576,-0.22310952842235565,-0.4113192558288574,1.2720980644226074,-7.381048202514648,5.176012992858887,14.377486228942871,-0.00400543212890625,0.3973064422607422,0.17528800666332245,-1.2577484846115112,0.00476844422519207,-0.9504463076591492,0.2946898639202118,1.236767292022705,0.014686808921396732,0.9115357995033264,-0.11615930497646332,-0.4484245181083679,-0.06237125024199486,0.17643244564533234,1.2529563903808594,-0.4143579304218292,0.02217559702694416,-0.7463569045066833,0.001716639962978661,0.11005569249391556,0.8672846555709839,-0.24482761323451996,0.008950524963438511,-0.5521804690361023,0.7091019749641418,2.804520606994629,-0.1743474155664444,-0.03885509818792343,-0.07207115739583969,-4.128722667694092,0.023976854979991913,0.055109988898038864,0.043157897889614105,-0.7978786826133728,-4.913116931915283,0.43370869755744934,-0.145441934466362,7.529685020446777,1.018132209777832,-2.717212438583374,0.9770314693450928,-0.19215284287929535,1.3649629354476929,0.09214028716087341,0.5469525456428528,-0.8403366804122925,1741504663.4206083,1741504663193,-1.9228045654296875,1.6133262939453126,1.2500296984681507,-3.657009521484375,1.6672196044921876
1741504663.419168,-3.1603623628616333,0.0007032609430662329,-0.07644848882802349,-0.9970732841571665,-0.06187934800982475,0.00990923773497343,1.4125299453735352,-1.5626362562179565,0.6003932952880859,10.919976234436035,0.01010894775390625,0.3900585174560547,0.23632410168647766,-1.2592743635177612,0.005149920005351305,-0.951972246170044,0.22449836134910583,1.2363858222961426,0.014686808921396732,0.9130617380142212,-0.12684062123298645,-0.5422675013542175,-0.053215838968753815,0.17986571788787842,1.3662546873092651,-0.4258170425891876,-0.0017849382711574435,-0.700579822063446,-0.007438773289322853,0.11234454810619354,0.8794918656349182,-0.24768193066120148,0.01698393002152443,0.34349504113197327,-0.05888429656624794,3.039325714111328,-0.28191572427749634,0.02369220368564129,-0.05601687729358673,-4.765754699707031,-0.08538878709077835,-0.02489497885107994,0.11969815194606781,-0.5363755822181702,-4.489521503448486,0.32081282138824463,0.17802904546260834,5.241250038146973,-0.9078201651573181,-0.4188176095485687,2.4856815338134766,-0.3911857604980469,0.04110443592071533,0.5681349039077759,-0.30861788988113403,0.2911651134490967,1741504663.4206083,1741504663193,-1.9228045654296875,1.6133262939453126,1.2500296984681507,-3.657009521484375,1.6672196044921876
1741504663.4392045,-3.1324843168258667,-0.006172720258430241,-0.07561991340236535,-0.9971176090219398,-0.0720004290342331,-0.36731913685798645,1.3898359537124634,-6.002603530883789,6.255992889404297,15.227795600891113,0.01583099365234375,0.4056987762451172,0.30079346895217896,-1.2615631818771362,0.005149920005351305,-0.9504463076591492,0.1512550562620163,1.232571005821228,0.014686808921396732,0.9119172692298889,-0.12531471252441406,-0.6265735626220703,-0.045204851776361465,0.20160982012748718,1.4070725440979004,-0.462014377117157,0.0156004149466753,-0.6712062358856201,-0.01926451548933983,0.11196307092905045,0.8768215179443359,-0.2748602628707886,0.02691338025033474,0.1618841141462326,0.5071781277656555,2.9869422912597656,-0.026680700480937958,-0.0020916801877319813,0.06649331748485565,-4.826977252960205,-0.25468796491622925,0.029399266466498375,-0.07507698237895966,0.22367194294929504,-4.02012825012207,0.28187865018844604,1.2582828998565674,1.4016138315200806,-1.8637778759002686,0.5158740282058716,1.365415334701538,-0.4351958930492401,-0.01696201041340828,-0.08490142226219177,-1.4947327375411987,0.6430264711380005,1741504663.4206083,1741504663193,-1.9228045654296875,1.6133262939453126,1.2500296984681507,-3.657009521484375,1.6672196044921876
1741504663.459245,-3.1178457736968994,-0.007898416200480318,-0.07292547446383327,-0.9973061165939718,-0.08480413258075714,0.04208938777446747,0.664054274559021,2.1475319862365723,6.526869773864746,9.379951477050781,0.02231597900390625,0.3999767303466797,0.3614480793476105,-1.2619446516036987,0.004386968910694122,-0.951209306716919,0.08144503086805344,1.2291377782821655,0.014686808921396732,0.9122987985610962,-0.12455176562070847,-0.6937133073806763,-0.03490501269698143,0.21763180196285248,1.3838025331497192,-0.49120208621025085,-0.007347914855927229,-0.6284809708595276,-0.03299763426184654,0.11196307092905045,0.8775845170021057,-0.318047434091568,0.043675944209098816,0.18600228428840637,-0.07547062635421753,2.736011028289795,0.041886359453201294,0.01903008669614792,-0.0077306912280619144,-4.544558048248291,-0.2118496596813202,-0.0009441667352803051,0.041796691715717316,0.16320814192295074,-3.3981621265411377,0.5661739110946655,0.7397956252098083,-1.5468957424163818,-1.2934954166412354,-1.328014612197876,2.4470653533935547,-0.7011966705322266,0.0016784814652055502,-0.08301868289709091,-2.1943166255950928,0.6784782409667969,1741504663.4206083,1741504663193,-1.9228045654296875,1.6133262939453126,1.2500296984681507,-3.657009521484375,1.6672196044921876
1741504663.4792745,-3.117717981338501,-0.004786295236671357,-0.0731747983935532,-0.9973076457432632,0.014629785902798176,0.17271870374679565,-0.06409730762243271,3.821533203125,2.2461516857147217,9.315784454345703,0.032998085021972656,0.3976879119873047,0.41523614525794983,-1.2653779983520508,0.005149920005351305,-0.9496833682060242,0.01888304017484188,1.2276118993759155,0.014686808921396732,0.9134432077407837,-0.11043716967105865,-0.7455939650535583,-0.01888304017484188,0.22793163359165192,1.3200961351394653,-0.4952722489833832,-0.014421751722693443,-0.5884260535240173,-0.04596780240535736,0.11158160120248795,0.8619440197944641,-0.36220237612724304,0.057901885360479355,0.30041101574897766,-0.06809926778078079,2.606840133666992,-0.35716235637664795,-0.028309982270002365,0.09260613471269608,-4.202089786529541,-0.07128617912530899,0.0016286150785163045,0.036731597036123276,0.7626315951347351,-2.4178669452667236,0.7586515545845032,0.48949766159057617,-3.3878555297851562,0.04102811589837074,0.05170844867825508,1.4495216608047485,-0.6086897253990173,-0.03436821326613426,-0.9025835394859314,-2.1532366275787354,0.9174509644508362,1741504663.5229611,1741504663313,-2.06019189453125,1.6353035888671876,0.7498894038199692,-3.701405029296875,1.6224266357421875
1741504663.4992511,-3.1192378997802734,0.0017236098261923375,-0.07255689450967992,-0.9973627856644133,-0.03031841851770878,0.4795224368572235,0.03112783469259739,0.1600976288318634,5.146191596984863,4.827816963195801,0.035286903381347656,0.3908214569091797,0.4674982726573944,-1.2691926956176758,0.005149920005351305,-0.9451056718826294,-0.0551232174038887,1.2299007177352905,0.014686808921396732,0.9210727214813232,-0.11348897218704224,-0.7829785346984863,0.000572213320992887,0.23594263195991516,1.2319753170013428,-0.46632105112075806,-0.00747528113424778,-0.5487525463104248,-0.058175019919872284,0.10929274559020996,0.8543145060539246,-0.39588239789009094,0.06272383779287338,0.056431882083415985,-0.1891784518957138,2.5031135082244873,-0.14505383372306824,-0.0018716350896283984,0.2298063486814499,-4.752076148986816,0.16184143722057343,0.004911253694444895,0.5893939137458801,-0.36630335450172424,-1.8462694883346558,1.0387561321258545,0.388811856508255,-4.538780212402344,1.7001242637634277,0.10917945206165314,2.277070999145508,-0.5908829569816589,-0.10691440105438232,-0.370498389005661,-1.5913004875183105,0.024882594123482704,1741504663.5229611,1741504663313,-2.06019189453125,1.6353035888671876,0.7498894038199692,-3.701405029296875,1.6224266357421875
1741504663.5193026,-3.1186896562576294,0.01097787286150406,-0.07275282846491155,-0.9972895829485996,-0.008651385083794594,0.3733685612678528,0.00881321169435978,1.242893099784851,0.3945637047290802,8.156403541564941,0.037957191467285156,0.3912029266357422,0.5014495849609375,-1.2680482864379883,0.005149920005351305,-0.9367132186889648,-0.10204470902681351,1.2299007177352905,0.014686808921396732,0.9370946884155273,-0.12569619715213776,-0.80663001537323,0.039101243019104004,0.23823148012161255,1.128213882446289,-0.4215242862701416,-0.0038139813113957644,-0.5144197940826416,-0.06160829961299896,0.10967422276735306,0.8264667987823486,-0.4256648123264313,0.059736333787441254,0.0751488208770752,0.03450959175825119,1.6321359872817993,0.019502118229866028,-0.001127560273744166,0.4727882444858551,-2.935816526412964,-0.025560501962900162,-0.021173551678657532,1.0677016973495483,-0.738411545753479,-0.9771711230278015,1.8338207006454468,0.19192609190940857,-5.255362510681152,2.2238004207611084,0.2650994062423706,1.658054232597351,-0.08355904370546341,0.04488087072968483,-1.4040385484695435,-1.3941770792007446,-0.06834037601947784,1741504663.5229611,1741504663313,-2.06019189453125,1.6353035888671876,0.7498894038199692,-3.701405029296875,1.6224266357421875
1741504663.5394025,-3.1139341592788696,0.017616876792801852,-0.06954061732221668,-0.9974235550629994,-0.20488153398036957,0.3462284803390503,0.26639580726623535,2.269505023956299,2.149681568145752,5.995766639709473,0.02803802490234375,0.3881511688232422,0.5128938555717468,-1.2661409378051758,0.005149920005351305,-0.9279392957687378,-0.12569619715213776,1.228756308555603,0.014686808921396732,0.951972246170044,-0.15354390442371368,-0.8104447722434998,0.08449683338403702,0.2573052644729614,1.0114823579788208,-0.3742521107196808,0.0033620467875152826,-0.46253910660743713,-0.06008239835500717,0.12073700875043869,0.805867075920105,-0.4481751322746277,0.056806765496730804,-0.2784801125526428,-0.08985664695501328,0.3891671597957611,0.18201245367527008,-0.003941729664802551,0.44053107500076294,-1.2056318521499634,-0.0761842206120491,-0.0024534615222364664,0.9678574800491333,-1.353280782699585,0.052279599010944366,2.375688314437866,1.1183605194091797,-5.770465850830078,2.3755087852478027,0.522797167301178,2.6597394943237305,0.12605227530002594,0.7346422076225281,-1.1635535955429077,-1.1774704456329346,-0.4079779088497162,1741504663.5229611,1741504663313,-2.06019189453125,1.6353035888671876,0.7498894038199692,-3.701405029296875,1.6224266357421875
1741504663.5593102,-3.102091670036316,0.016811201018624492,-0.06226010618583775,-0.9979183647463552,-0.4138142466545105,-0.08032161742448807,0.6334681510925293,3.6098501682281494,0.7619348764419556,7.2635345458984375,0.02651214599609375,0.4049358367919922,0.5052643418312073,-1.2615631818771362,0.005149920005351305,-0.9203097820281982,-0.1184481605887413,1.2268489599227905,0.014686808921396732,0.9618905782699585,-0.18673227727413177,-0.7909895181655884,0.12417028844356537,0.2935454249382019,0.8939879536628723,-0.32733190059661865,0.004835471045225859,-0.4056992530822754,-0.04634927958250046,0.1340886503458023,0.7745860815048218,-0.4667798578739166,0.03329182788729668,-0.09020694345235825,0.483468621969223,-0.5218085646629333,0.3515605628490448,-0.007059975061565638,0.3145587742328644,0.7150149941444397,-0.16798071563243866,0.006313919089734554,0.6081253886222839,-1.814192533493042,1.1277377605438232,1.7567955255508423,1.9097533226013184,-5.783885478973389,2.216445207595825,-0.04239053279161453,2.8936054706573486,0.7243998050689697,0.575370192527771,-1.5671051740646362,-0.8650727868080139,-1.1337658166885376,1741504663.5229611,1741504663313,-2.06019189453125,1.6353035888671876,0.7498894038199692,-3.701405029296875,1.6224266357421875
1741504663.5793598,-3.0838838815689087,0.011617639449890109,-0.051250102737250655,-0.9986182741283246,-0.5906609296798706,-0.19178155064582825,0.9577028751373291,4.698275566101074,6.89121150970459,2.2931203842163086,0.02727508544921875,0.4137105941772461,0.47932401299476624,-1.2546966075897217,0.005149920005351305,-0.916876494884491,-0.0871671661734581,1.2218897342681885,0.014686808921396732,0.9653238654136658,-0.21229113638401031,-0.7536049485206604,0.16079194843769073,0.33283740282058716,0.7761120200157166,-0.30421584844589233,0.004389408975839615,-0.3374151289463043,-0.035667963325977325,0.14400701224803925,0.7513160705566406,-0.46800702810287476,0.033168382942676544,-0.0014218974392861128,0.2770235538482666,-1.4463908672332764,0.47643736004829407,0.004083885811269283,0.15294256806373596,2.282111406326294,-0.3204405903816223,0.014545158483088017,0.1469363272190094,-1.1375195980072021,1.945473313331604,1.683866024017334,1.838310718536377,-5.804330825805664,0.846272885799408,0.14733487367630005,3.3508737087249756,0.5164681077003479,0.4214685261249542,-1.0420281887054443,0.1743011325597763,0.3868892192840576,1741504663.6255903,1741504663413,-2.146784912109375,1.62932568359375,0.920319844273642,-3.7363337402343753,1.5897169189453126
1741504663.5993588,-3.065554618835449,0.0026395688381421205,-0.039033840754499845,-0.999234402906696,-0.6418163776397705,-0.4317516088485718,0.9304896593093872,6.761213302612305,8.400627136230469,19.151411056518555,0.02689361572265625,0.4247732162475586,0.439269095659256,-1.2512633800506592,0.00476844422519207,-0.9138246774673462,-0.04139009863138199,1.2203638553619385,0.014686808921396732,0.9618905782699585,-0.22716869413852692,-0.7207980751991272,0.17414358258247375,0.3591592311859131,0.7036316394805908,-0.29764115810394287,0.03159168362617493,-0.2805752754211426,-0.03299763426184654,0.1493476778268814,0.7551308274269104,-0.45171573758125305,0.04669620096683502,-0.015169361606240273,0.3028831481933594,-2.0828545093536377,0.21618229150772095,-0.004897799342870712,0.15790703892707825,3.113734245300293,-0.07524411380290985,0.013588172383606434,-0.23860256373882294,-0.7867346405982971,1.579390525817871,0.25792378187179565,1.158258080482483,-2.234934091567993,0.49405959248542786,1.4968526363372803,2.6465225219726562,-0.21639123558998108,0.26720038056373596,0.6810525059700012,0.7892934083938599,0.4364960789680481,1741504663.6255903,1741504663413,-2.146784912109375,1.62932568359375,0.920319844273642,-3.7363337402343753,1.5897169189453126
1741504663.6193829,-3.0462934970855713,-0.004821720475975111,-0.03148450992620609,-0.9994926096006704,-0.27708491683006287,-0.10063114762306213,0.9712145328521729,5.772772789001465,3.831333875656128,6.183279514312744,0.034905433654785156,0.4217214584350586,0.38090333342552185,-1.2524077892303467,0.005149920005351305,-0.9134432077407837,0.013542382046580315,1.220745325088501,0.013542382046580315,0.9565499424934387,-0.22220951318740845,-0.6723506450653076,0.14324407279491425,0.35000380873680115,0.7429236173629761,-0.29263806343078613,0.0668867826461792,-0.2637903392314911,-0.037193864583969116,0.1672770231962204,0.813878059387207,-0.4324395954608917,0.0420687310397625,0.23812296986579895,-0.1596740484237671,-3.23186993598938,-0.2318313717842102,-0.007013334892690182,-0.1299791783094406,3.7171671390533447,0.016605021432042122,-0.09475545585155487,-0.28030097484588623,0.4017249345779419,1.9844306707382202,-1.3977926969528198,-0.886149525642395,1.5518919229507446,-0.032014574855566025,1.563157558441162,0.4877254366874695,0.005337386857718229,0.937957763671875,3.7165896892547607,1.1265994310379028,-0.24056898057460785,1741504663.6255903,1741504663413,-2.146784912109375,1.62932568359375,0.920319844273642,-3.7363337402343753,1.5897169189453126
1741504663.6393948,-3.037126660346985,-0.007179545025161385,-0.030136724370615105,-0.9995200007890994,-0.04444561153650284,-0.12693056464195251,0.40397021174430847,-8.491631507873535,-1.9206676483154297,12.949790954589844,0.040246009826660156,0.4274435043334961,0.30193790793418884,-1.2611817121505737,0.00476844422519207,-0.916876494884491,0.06847485899925232,1.2218897342681885,0.015449759550392628,0.9557870030403137,-0.21152819693088531,-0.6555657386779785,0.11158160120248795,0.30308231711387634,0.7391088604927063,-0.30177292227745056,0.08108430355787277,-0.3072785437107086,-0.024986648932099342,0.20237277448177338,0.9470130205154419,-0.3917544484138489,0.030421549454331398,0.10862340778112411,0.164713516831398,-4.034257411956787,-0.5329986214637756,-0.060048364102840424,-0.13368447124958038,3.527602434158325,0.11323130875825882,0.1545366793870926,-0.04599767550826073,0.37513116002082825,1.1749076843261719,-1.7330857515335083,-2.257807970046997,-0.21075110137462616,-0.26226338744163513,0.5703628659248352,-2.5764572620391846,0.6171160936355591,1.9632155895233154,7.241740703582764,2.121044158935547,-0.5450976490974426,1741504663.6255903,1741504663413,-2.146784912109375,1.62932568359375,0.920319844273642,-3.7363337402343753,1.5897169189453126
