Freshhhhh-LC/Legged_odom/data/3/segments/booster_seg_9.65s.csv
time,yaw,projected_gravity_x,projected_gravity_y,projected_gravity_z,ang_vel_x,ang_vel_y,ang_vel_z,lin_acc_x,lin_acc_y,lin_acc_z,q_0,q_1,q_2,q_3,q_4,q_5,q_6,q_7,q_8,q_9,q_10,q_11,q_12,q_13,q_14,q_15,q_16,q_17,q_18,q_19,q_20,q_21,q_22,dq_0,dq_1,dq_2,dq_3,dq_4,dq_5,dq_6,dq_7,dq_8,dq_9,dq_10,dq_11,dq_12,dq_13,dq_14,dq_15,dq_16,dq_17,dq_18,dq_19,dq_20,dq_21,dq_22,mocap_time,mocap_timestamp,robot_x,robot_y,robot_yaw,ball_x,ball_y
1741504457.5258765,0.7709743976593018,0.03000463727985465,-0.053022880031440796,-0.9981424226706708,-0.4123513996601105,-0.8084813356399536,0.8415622711181641,-0.6011331081390381,2.8400321006774902,3.5534322261810303,-0.9924087524414062,0.13904762268066406,0.14667734503746033,-1.3599839210510254,0.00476844422519207,-0.5415045619010925,0.20160982012748718,1.3439619541168213,0.014686808921396732,0.5334935784339905,-0.058175019919872284,-0.5918593406677246,-0.0020981156267225742,-0.029182879254221916,0.6849393248558044,-0.17111817002296448,-0.02616967260837555,-0.6418325901031494,0.02079041674733162,0.0078202486038208,0.9370946884155273,-0.49595126509666443,-0.00041637796675786376,0.016153838485479355,0.19702263176441193,-0.2909712493419647,0.3262844681739807,-0.003154532518237829,-0.03998817875981331,0.758780300617218,0.29468250274658203,0.06236288696527481,0.04152163863182068,0.7113484144210815,-0.7380873560905457,-1.5356059074401855,-0.32930177450180054,2.5980024337768555,-1.7185214757919312,0.45015573501586914,4.6483845710754395,0.26310673356056213,0.5700654983520508,-11.205464363098145,0.8955472111701965,-0.31689193844795227,1741504457.4952033,1741504457353,1.962119384765625,-0.32839761352539065,-1.0370647445298486,3.78654736328125,-1.680209228515625
1741504457.5282586,0.7905428409576416,0.018540938567563996,-0.04604925805841415,-0.998767089680724,-0.4623098075389862,-0.5174145698547363,0.9735463261604309,5.159740924835205,-2.686213493347168,12.909102439880371,-0.9939346313476562,0.14438819885253906,0.14209964871406555,-1.3565505743026733,0.00476844422519207,-0.54112309217453,0.20885786414146423,1.3523544073104858,0.01506828423589468,0.5312047004699707,-0.034142062067985535,-0.5994887948036194,0.012397955171763897,-0.04711223021149635,0.7295719981193542,-0.2152920812368393,-0.016443315893411636,-0.5819409489631653,0.042153049260377884,-0.038719769567251205,0.9061951637268066,-0.42239272594451904,-0.0726049616932869,-0.028419874608516693,0.20534957945346832,-0.3256537616252899,0.09640973061323166,-0.025557659566402435,-0.010713307186961174,0.4294206500053406,0.5265091061592102,-0.03895726799964905,-0.3215295076370239,1.1551852226257324,-0.25081542134284973,0.8575564622879028,-1.1816976070404053,1.7906708717346191,-2.373994827270508,0.6944942474365234,2.2592315673828125,1.8618050813674927,-2.2327933311462402,-0.1504463404417038,3.4082796573638916,-4.119074821472168,1741504457.4952033,1741504457353,1.962119384765625,-0.32839761352539065,-1.0370647445298486,3.78654736328125,-1.680209228515625
1741504457.5301604,0.8010787963867188,0.009503392871536622,-0.027517647448419114,-0.9995761424738157,-0.9162933230400085,-0.4161560833454132,0.40161359310150146,-22.405168533325195,13.516168594360352,14.9852294921875,-0.9939346313476562,0.16231822967529297,0.14515145123004913,-1.3554061651229858,0.00476844422519207,-0.5422675013542175,0.21038375794887543,1.3657060861587524,0.01583123579621315,0.5281528830528259,-0.007438773289322853,-0.6063553690910339,0.005531395319849253,-0.03795681521296501,0.734149694442749,-0.2723991870880127,-0.008881955407559872,-0.5827038884162903,0.04100862145423889,-0.026512550190091133,0.8634698987007141,-0.3707190752029419,-0.0962371826171875,0.02103724516928196,0.5152764916419983,0.23598222434520721,0.09483078867197037,-0.018595246598124504,-0.021429430693387985,0.05746717378497124,0.8710618615150452,0.03290735185146332,-0.1470227837562561,1.4085962772369385,-0.26395586133003235,0.016310887411236763,0.12888312339782715,0.1585673838853836,-2.9076666831970215,0.21088773012161255,0.6194671392440796,-0.5246716141700745,1.0859177112579346,-2.5124032497406006,2.377378463745117,-0.07275085151195526,1741504457.4952033,1741504457353,1.962119384765625,-0.32839761352539065,-1.0370647445298486,3.78654736328125,-1.680209228515625
1741504457.5414898,0.784245491027832,0.053769655092394536,-0.07239925148555383,-0.9959252846351359,0.37784212827682495,-0.2522629499435425,1.3404110670089722,0.23191486299037933,-4.569836616516113,8.420506477355957,-0.9939346313476562,0.20962047576904297,0.1970321238040924,-1.390883445739746,0.00476844422519207,-0.5201418995857239,0.17948424816131592,1.3290843963623047,0.01506828423589468,0.5155642032623291,0.01773861236870289,-0.7551308274269104,-0.002861066721379757,0.040245670825242996,1.0481040477752686,-0.3949607014656067,-0.004891673568636179,-0.4953460097312927,-0.0013351644156500697,0.004005493130534887,0.7227054238319397,-0.26169171929359436,-0.050441812723875046,0.18909890949726105,0.8831915855407715,-0.7514760494232178,0.18453919887542725,-0.03133994713425636,0.3716546595096588,0.41608738899230957,-0.3936583399772644,0.08075033873319626,-0.5395113825798035,-0.26356321573257446,-2.629863977432251,-0.056803278625011444,0.43356263637542725,4.921700954437256,1.586890459060669,-0.08680981397628784,0.04297569766640663,-0.05531362071633339,-0.0720764696598053,-1.0829445123672485,1.1609476804733276,-0.21619026362895966,1741504457.4952033,1741504457353,1.962119384765625,-0.32839761352539065,-1.0370647445298486,3.78654736328125,-1.680209228515625
1741504457.5615265,0.8012514114379883,0.05203350798875186,-0.074771260593732,-0.9958422428455266,0.009098785929381847,0.0665484368801117,0.6361603140830994,1.1717816591262817,-1.196146011352539,8.95373249053955,-0.9905014038085938,0.22602462768554688,0.182154580950737,-1.390120506286621,0.00476844422519207,-0.5174715518951416,0.19016556441783905,1.3271770477294922,0.01430533267557621,0.5094605684280396,0.02536812424659729,-0.7978560924530029,-0.01506828423589468,0.043678950518369675,1.125925064086914,-0.3543107807636261,-0.0039024793077260256,-0.4716945290565491,-0.00667582219466567,0.004005493130534887,0.7112611532211304,-0.2421204298734665,-0.05977105349302292,0.07576774060726166,0.569064736366272,-0.6793453693389893,0.03517552837729454,-0.02224455587565899,0.062055815011262894,0.7277390360832214,-0.1390780210494995,-0.04518740624189377,-0.3772520422935486,0.4065031409263611,-1.9733577966690063,-0.8935354948043823,0.18109406530857086,3.527073621749878,2.044208526611328,0.14687080681324005,1.3069721460342407,-0.2620002329349518,-0.01268448680639267,-0.4393380880355835,0.8765808939933777,-0.6296691298484802,1741504457.5897012,1741504457553,1.9804461669921876,-0.3215204772949219,-0.9983056056988929,3.78385546875,-1.681466064453125
1741504457.5815675,0.798382043838501,0.048048883313541915,-0.07146746846018227,-0.9962849520916266,-0.15062448382377625,-0.2680419385433197,-0.3627794086933136,-2.0153446197509766,0.9762867093086243,12.04068374633789,-0.9916458129882812,0.24738693237304688,0.17872129380702972,-1.383635401725769,0.00476844422519207,-0.5209048390388489,0.200083926320076,1.3256510496139526,0.014686808921396732,0.5086976289749146,0.056267641484737396,-0.8176928162574768,-0.032616160809993744,0.050164032727479935,1.1499580144882202,-0.31234630942344666,0.0007356996648013592,-0.47817960381507874,-0.009346150793135166,-0.0009536888683214784,0.692568838596344,-0.23773130774497986,-0.056734949350357056,0.0051523433066904545,0.6363484859466553,-0.11620047688484192,0.4569135904312134,-0.03147992491722107,-0.19712720811367035,0.5976249575614929,-0.11192061007022858,0.021515192463994026,-0.02257075533270836,1.7862379550933838,-0.8078279495239258,-0.9786843061447144,0.27481043338775635,0.7620771527290344,2.0600099563598633,0.23868797719478607,-0.6131033897399902,-0.09811913222074509,-0.2493661493062973,-1.0309467315673828,0.17566999793052673,0.5415215492248535,1741504457.5897012,1741504457553,1.9804461669921876,-0.3215204772949219,-0.9983056056988929,3.78385546875,-1.681466064453125
1741504457.6015368,0.7774186134338379,0.05066180917172448,-0.06754043863713259,-0.9964294607447892,-0.13444951176643372,0.24237634241580963,-1.098678469657898,4.966501235961914,3.1250269412994385,7.295125484466553,-0.9870681762695312,0.2569236755371094,0.19054703414440155,-1.3790576457977295,0.00476844422519207,-0.5209048390388489,0.1993209719657898,1.3248881101608276,0.01430533267557621,0.5159456729888916,0.0864042118191719,-0.8085374236106873,-0.04100862145423889,0.05054550990462303,1.1175326108932495,-0.2757040560245514,0.0019279145635664463,-0.4648279547691345,-0.02231631986796856,-0.0009536888683214784,0.689517080783844,-0.23672448098659515,-0.03471333533525467,0.07674701511859894,0.30732113122940063,0.7758121490478516,0.19288185238838196,-0.00478697381913662,-0.0014251413522288203,-0.326527863740921,-0.027744127437472343,-0.04894617944955826,0.6601247787475586,1.2984888553619385,0.6114403009414673,-0.32166093587875366,0.01028241403400898,-1.939507007598877,1.745773196220398,-0.04402308911085129,0.8674577474594116,-0.7823228240013123,0.06354976445436478,0.035224903374910355,0.007198468316346407,0.9221857190132141,1741504457.5897012,1741504457553,1.9804461669921876,-0.3215204772949219,-0.9983056056988929,3.78385546875,-1.681466064453125
1741504457.6215763,0.7597291469573975,0.05568548631762193,-0.06836750254672777,-0.9961049197795849,0.11176041513681412,0.1481141299009323,-0.8441340923309326,9.060262680053711,0.12846091389656067,4.989247798919678,-0.9935531616210938,0.2607383728027344,0.20389868319034576,-1.3790576457977295,0.00476844422519207,-0.5201418995857239,0.1840619444847107,1.3248881101608276,0.01506828423589468,0.5315861701965332,0.086785688996315,-0.7803082466125488,-0.05245288833975792,0.05245288833975792,1.040474534034729,-0.2523384094238281,0.0030392238404601812,-0.47779813408851624,-0.03490501269698143,0.004005493130534887,0.6837949156761169,-0.2503792345523834,-0.025512095540761948,-0.17064937949180603,0.1419515162706375,0.581687867641449,0.017834646627306938,-0.006069983821362257,-0.008845624513924122,-0.8789961934089661,-0.012386612594127655,0.05499036982655525,1.0392943620681763,-0.18742509186267853,1.5897624492645264,-0.7745316624641418,0.12212323397397995,-4.008129596710205,0.9719070792198181,0.11245103925466537,-1.0621305704116821,-0.46187183260917664,0.28634217381477356,-0.37126490473747253,-0.8193607330322266,0.5113515257835388,1741504457.5897012,1741504457553,1.9804461669921876,-0.3215204772949219,-0.9983056056988929,3.78385546875,-1.681466064453125
1741504457.641608,0.7444348335266113,0.06222334101428049,-0.07521181888454352,-0.9952243154852574,0.4504487216472626,0.40722793340682983,-0.7532851099967957,2.2643954753875732,-0.14188259840011597,3.610520124435425,-0.9901199340820312,0.2592124938964844,0.20695048570632935,-1.3798205852508545,0.00476844422519207,-0.5224307775497437,0.17757686972618103,1.3248881101608276,0.01430533267557621,0.5449378490447998,0.05245288833975792,-0.7330052852630615,-0.06618601083755493,0.06160829961299896,0.9260318875312805,-0.24503472447395325,0.003321296302601695,-0.47817960381507874,-0.03643091395497322,0.01926451548933983,0.6960021257400513,-0.2718152105808258,-0.015949757769703865,0.09007668495178223,-0.06406763195991516,0.09283638745546341,-0.09843643754720688,-0.003859522519633174,-0.13570480048656464,-0.3753153085708618,-0.008094538003206253,-0.035767752677202225,0.919433057308197,-2.0160272121429443,2.5789406299591064,-0.6657619476318359,0.37408557534217834,-5.896413803100586,0.2766730487346649,-0.04299982637166977,0.06577415019273758,-0.05425795167684555,0.9108029007911682,0.8003209829330444,-1.0420212745666504,0.31237223744392395,1741504457.6896012,1741504457653,1.9945609130859376,-0.3102810668945313,-0.48118232525309257,3.7894191894531253,-1.6790631103515625
1741504457.661668,0.7385053634643555,0.06972865358695204,-0.08730993259702909,-0.993737837932547,0.6362354159355164,0.2934108078479767,-0.12564831972122192,2.8118326663970947,-0.8526726365089417,3.9529073238372803,-0.9935531616210938,0.2550163269042969,0.20466163754463196,-1.3798205852508545,0.005149920005351305,-0.5254825949668884,0.17986571788787842,1.3248881101608276,0.01430533267557621,0.5540932416915894,0.0078202486038208,-0.6677729487419128,-0.0711451917886734,0.07648584991693497,0.7833600640296936,-0.25250443816185,0.0026394121814519167,-0.5029755234718323,-0.03299763426184654,0.038719769567251205,0.7215610146522522,-0.2923853099346161,-0.02448093891143799,-0.08432662487030029,-0.09131009131669998,-0.12310158461332321,0.03223550319671631,-0.00596302654594183,-0.18123674392700195,0.22392281889915466,-0.0036532951053231955,0.00029303328483365476,0.5794286727905273,-2.2432618141174316,3.298661470413208,-0.1557244062423706,0.7446111440658569,-7.475840091705322,-0.5041225552558899,0.031240180134773254,-1.7085129022598267,0.18312205374240875,0.7854337692260742,1.3267884254455566,-0.9835195541381836,-0.5237874388694763,1741504457.6896012,1741504457653,1.9945609130859376,-0.3102810668945313,-0.48118232525309257,3.7894191894531253,-1.6790631103515625
1741504457.681688,0.7421221733093262,0.07050119818272217,-0.0978245023810443,-0.992703353368317,0.4530509114265442,0.08171670138835907,0.35457393527030945,-1.5335103273391724,-7.782599925994873,4.316246032714844,-0.9901199340820312,0.2561607360839844,0.20122835040092468,-1.3775317668914795,0.00476844422519207,-0.533875048160553,0.18520638346672058,1.3248881101608276,0.01430533267557621,0.5571450591087341,-0.04253452271223068,-0.613603413105011,-0.06847485899925232,0.09708552807569504,0.6334401369094849,-0.26814326643943787,0.0025895501021295786,-0.5277714133262634,-0.024605173617601395,0.040245670825242996,0.7665750980377197,-0.29805344343185425,-0.025990968570113182,0.0664791613817215,-0.011754521168768406,-0.18888334929943085,0.15017427504062653,-0.010328859090805054,-0.4059196412563324,0.3844454288482666,0.00025868823286145926,-0.004132328554987907,0.1336049735546112,-2.363011598587036,2.589510679244995,0.16844438016414642,1.0433883666992188,-7.422147274017334,-0.7576320171356201,-0.046756792813539505,-0.8391093015670776,0.29922154545783997,0.06034161150455475,2.5140774250030518,-0.13073313236236572,0.04248536005616188,1741504457.6896012,1741504457653,1.9945609130859376,-0.3102810668945313,-0.48118232525309257,3.7894191894531253,-1.6790631103515625
1741504457.7016428,0.7616095542907715,0.07042234400456661,-0.09351605757473747,-0.9931240810898609,-0.4326228201389313,0.06744490563869476,0.9110954999923706,2.5562925338745117,-8.503589630126953,34.104515075683594,-1.0072860717773438,0.2939271926879883,0.19283588230609894,-1.3752429485321045,0.00476844422519207,-0.54112309217453,0.19169145822525024,1.3248881101608276,0.01430533267557621,0.5571450591087341,-0.056267641484737396,-0.568970799446106,-0.07343403995037079,0.11577782779932022,0.5365453362464905,-0.26778924465179443,-0.0049908054061234,-0.5560005903244019,-0.010490577667951584,0.037193864583969116,0.7986190319061279,-0.2980392575263977,-0.03250962868332863,-0.5465237498283386,0.9683406352996826,-0.5437909960746765,0.19584210216999054,-0.037926141172647476,-0.3887642025947571,0.4542451798915863,-0.005222746171057224,0.009010707028210163,-0.03142816945910454,-0.32053953409194946,1.6508055925369263,-0.38208305835723877,0.7228823900222778,-3.7825205326080322,0.6130965352058411,-0.55417799949646,-1.5548896789550781,0.8131459355354309,-0.15033860504627228,1.3306984901428223,-0.030740445479750633,-0.408903032541275,1741504457.6896012,1741504457653,1.9945609130859376,-0.3102810668945313,-0.48118232525309257,3.7894191894531253,-1.6790631103515625
1741504457.7216663,0.7766125202178955,0.06842504004514174,-0.08241094937640085,-0.9942466742804328,-0.4781400263309479,0.09805763512849808,0.6786448359489441,1.3767389059066772,6.744314670562744,13.978411674499512,-0.9908828735351562,0.2992677688598633,0.17032882571220398,-1.3653244972229004,0.004386968910694122,-0.5468451976776123,0.1958876997232437,1.3283214569091797,0.014686808921396732,0.5483710765838623,-0.038719769567251205,-0.5766003131866455,-0.07686731964349747,0.1039520874619484,0.5693522691726685,-0.2284676879644394,-0.005448132753372192,-0.5521858334541321,-0.01430533267557621,0.02384222112596035,0.8146410584449768,-0.293051540851593,-0.035793203860521317,0.3910866379737854,0.14800433814525604,-1.1549880504608154,0.7097601294517517,-0.017143944278359413,-0.24607574939727783,0.23320361971855164,0.36911994218826294,0.009096473455429077,-0.5742867588996887,0.9817843437194824,-0.6083369851112366,0.192766010761261,-0.7799034118652344,1.8429486751556396,1.7061182260513306,0.2783811390399933,0.6658235192298889,-0.2429509162902832,-0.9684368371963501,0.4046410322189331,0.37815919518470764,0.014023697935044765,1741504457.6896012,1741504457653,1.9945609130859376,-0.3102810668945313,-0.48118232525309257,3.7894191894531253,-1.6790631103515625
1741504457.7417126,0.789196252822876,0.0668564863875841,-0.07409222078663943,-0.9950078155707174,-0.568227231502533,-0.11077888309955597,0.6124563813209534,-0.3162094056606293,6.089883804321289,10.28357219696045,-0.9878311157226562,0.3023195266723633,0.16002899408340454,-1.3557876348495483,0.00476844422519207,-0.5479896068572998,0.19550621509552002,1.3359509706497192,0.01506828423589468,0.5457007884979248,0.0024795911740511656,-0.5857557058334351,-0.026131074875593185,0.05664911866188049,0.5888075232505798,-0.2085658758878708,0.009150741621851921,-0.5533303022384644,-0.008201723918318748,-0.002861066721379757,0.7959487438201904,-0.28423845767974854,-0.02700703963637352,0.08812180906534195,0.06289838254451752,-0.368408739566803,0.5167350769042969,0.0076502407900989056,-0.056622110307216644,-0.03453764691948891,0.48675966262817383,0.02650005929172039,-0.12881384789943695,2.1451096534729004,-0.185508131980896,2.5780491828918457,-2.290374517440796,0.4482851028442383,0.8640748858451843,0.5898597240447998,-0.3830952048301697,0.3132038414478302,-0.9997133016586304,-0.9618251323699951,0.2954542636871338,0.17004400491714478,1741504457.6896012,1741504457653,1.9945609130859376,-0.3102810668945313,-0.48118232525309257,3.7894191894531253,-1.6790631103515625
1741504457.7617621,0.7830829620361328,0.06650841919456987,-0.04586932907576835,-0.9967309741481791,-1.494092345237732,0.05038326233625412,-0.37196776270866394,-10.396848678588867,7.826483726501465,14.740848541259766,-1.0049972534179688,0.3171968460083008,0.16231784224510193,-1.3538802862167358,0.004386968910694122,-0.5521858334541321,0.18978407979011536,1.3508285284042358,0.01583123579621315,0.5395971536636353,0.011635004542768002,-0.570496678352356,-0.0036240178160369396,0.02689402550458908,0.5693522691726685,-0.1899241805076599,-0.017367102205753326,-0.5514228940010071,0.01583123579621315,-0.01506828423589468,0.8062485456466675,-0.2870335876941681,-0.02689303085207939,-0.5928376913070679,0.34599733352661133,0.16514985263347626,0.06884264945983887,0.011854549869894981,-0.3218470811843872,-0.5111621618270874,1.1606905460357666,0.052988335490226746,-0.33019691705703735,0.47214582562446594,0.9313986897468567,1.452739953994751,-1.320987343788147,-0.9619161486625671,1.0266518592834473,-1.5943458080291748,0.04512261599302292,1.1374493837356567,-0.6679236888885498,0.8332108855247498,-0.15488961338996887,0.3759864568710327,1741504457.6896012,1741504457653,1.9945609130859376,-0.3102810668945313,-0.48118232525309257,3.7894191894531253,-1.6790631103515625
1741504457.7817678,0.7723829746246338,0.064702022076093,-0.015687584174255354,-0.9977813127344289,-1.4644309282302856,-0.18317344784736633,-0.7300282120704651,-5.784601211547852,10.400218963623047,12.633378028869629,-0.9847793579101562,0.3168153762817383,0.17261768877506256,-1.3500655889511108,0.00476844422519207,-0.5540932416915894,0.17795833945274353,1.3687578439712524,0.015449759550392628,0.5392156839370728,0.032616160809993744,-0.5807965397834778,0.01773861236870289,0.023460745811462402,0.5651560425758362,-0.15645161271095276,-0.032280679792165756,-0.577744722366333,0.024986648932099342,-0.01926451548933983,0.8539330363273621,-0.3048926889896393,-0.0027001695707440376,0.4882320761680603,0.13718390464782715,0.5498268604278564,0.3462635278701782,-0.012093006633222103,0.02564457431435585,-0.8178839683532715,1.0830692052841187,0.005486824084073305,-0.08859202265739441,1.0533559322357178,-0.8567695021629333,1.0822285413742065,-0.21483314037322998,0.10684838891029358,1.6730797290802002,-0.10344655811786652,-1.6231811046600342,0.4242526888847351,-0.061928123235702515,2.8248748779296875,-1.0825437307357788,1.237350344657898,1741504457.6896012,1741504457653,1.9945609130859376,-0.3102810668945313,-0.48118232525309257,3.7894191894531253,-1.6790631103515625
1741504457.8017938,0.7500150203704834,0.07176951530799912,0.002562788050228519,-0.9974179509061708,-0.7304365634918213,0.4846961200237274,-1.064741849899292,0.5351091623306274,-0.4212021231651306,3.735201597213745,-0.9893569946289062,0.2801933288574219,0.1848248988389969,-1.3447248935699463,0.00476844422519207,-0.5510414242744446,0.16041046380996704,1.3752429485321045,0.014686808921396732,0.5395971536636353,0.030708782374858856,-0.5971999764442444,0.03604944050312042,0.01735713705420494,0.5811780095100403,-0.12591689825057983,-0.014111303724348545,-0.6280995011329651,0.034142062067985535,-0.04100862145423889,0.9508277773857117,-0.34898558259010315,0.0025766068138182163,-0.1372978538274765,-0.964328944683075,0.5941590070724487,0.37069979310035706,-0.007704288698732853,0.07224610447883606,-1.1473828554153442,0.20409171283245087,-0.09622099995613098,0.09975726902484894,-0.5769076943397522,-0.7636646628379822,0.6726772785186768,-0.22108551859855652,0.735371470451355,1.4662338495254517,0.762391209602356,-2.802257537841797,0.534960150718689,-1.3186993598937988,5.215188980102539,-2.3587961196899414,0.02903098426759243,1741504457.8943117,1741504457853,1.977590087890625,-0.2883506774902344,-0.9085558809393558,3.8035302734375,-1.6735325927734375
1741504457.8217878,0.7414431571960449,0.07600968993247134,0.010537946849941398,-0.997051392212336,-0.318695992231369,0.1739884465932846,-0.31145185232162476,-4.402489185333252,-2.7021586894989014,11.08444881439209,-0.9882125854492188,0.2531089782714844,0.18787670135498047,-1.3420546054840088,0.00476844422519207,-0.5525673031806946,0.1493476778268814,1.3679949045181274,0.01430533267557621,0.5407415628433228,0.010872052982449532,-0.6189440488815308,0.038719769567251205,0.023079270496964455,0.5876630544662476,-0.10417884588241577,-0.014396796002984047,-0.7059205174446106,0.03757534176111221,-0.056267641484737396,1.0687037706375122,-0.4031974673271179,-0.0019163275137543678,0.04343412071466446,-0.8600140810012817,-0.033001966774463654,0.07704609632492065,-0.020175831392407417,-0.033635206520557404,-0.6084924936294556,-0.5139483213424683,0.00023321494518313557,0.02995554357767105,-1.0893375873565674,-1.057804822921753,0.18376927077770233,0.370149701833725,0.4025298058986664,0.9829117655754089,-0.15408968925476074,-3.8297533988952637,-0.019332021474838257,-0.34991371631622314,5.800518989562988,-2.742607593536377,-0.20544642210006714,1741504457.8943117,1741504457853,1.977590087890625,-0.2883506774902344,-0.9085558809393558,3.8035302734375,-1.6735325927734375
1741504457.8420222,0.7464213371276855,0.08024838649876252,0.009500822904778676,-0.9967296177140907,0.09386880695819855,0.22239698469638824,0.3907735049724579,4.881840229034424,-0.5762345194816589,7.422600746154785,-0.9916458129882812,0.23403549194335938,0.17948424816131592,-1.3481581211090088,0.005149920005351305,-0.5529488325119019,0.1493476778268814,1.3592209815979004,0.01430533267557621,0.5399786233901978,-0.02384222112596035,-0.622377336025238,0.05397878959774971,0.020027466118335724,0.6105515956878662,-0.09205257147550583,-0.0220235213637352,-0.7581826448440552,0.03032730519771576,-0.048256658017635345,1.1587319374084473,-0.4501529335975647,0.00019354188407305628,-0.10495194047689438,-0.6314255595207214,-0.4188157916069031,-0.47959548234939575,-0.0077659073285758495,-0.02341141551733017,0.08657455444335938,-0.6020601987838745,0.0018947480712085962,-0.05359167233109474,-1.7845416069030762,-0.056817296892404556,0.7226567268371582,-0.13927577435970306,1.1972039937973022,0.5216531753540039,-0.3607498109340668,-2.129716634750366,-0.2286483496427536,0.4970598816871643,4.047168254852295,-2.260948419570923,0.3202621638774872,1741504457.8943117,1741504457853,1.977590087890625,-0.2883506774902344,-0.9085558809393558,3.8035302734375,-1.6735325927734375
1741504457.8620203,0.7678160667419434,0.0770022517870492,0.0036972197141996867,-0.9970240637949059,0.16548225283622742,-0.264868825674057,1.1705341339111328,0.7394422292709351,-3.8063907623291016,12.044775009155273,-0.9843978881835938,0.23022079467773438,0.1684214472770691,-1.3542617559432983,0.005149920005351305,-0.5529488325119019,0.15545128285884857,1.3534988164901733,0.01430533267557621,0.536926805973053,-0.05664911866188049,-0.6273365616798401,0.06389715522527695,0.029182879254221916,0.6261920928955078,-0.09538743644952774,-0.01893775723874569,-0.7673380374908447,0.035667963325977325,-0.03833829239010811,1.176279902458191,-0.4771934151649475,0.009239139966666698,0.20252259075641632,-0.13094742596149445,-0.46092069149017334,-0.32243356108665466,-0.000818028871435672,0.008257027715444565,0.4562990367412567,-0.3439164161682129,0.006013969425112009,-0.2532033920288086,-1.4750480651855469,-0.17971423268318176,0.49902573227882385,0.5400473475456238,0.6774319410324097,-0.2860276699066162,0.22805751860141754,-0.35433846712112427,0.366048663854599,0.45385995507240295,0.30698344111442566,-1.158872365951538,0.3232767581939697,1741504457.8943117,1741504457853,1.977590087890625,-0.2883506774902344,-0.9085558809393558,3.8035302734375,-1.6735325927734375
1741504457.882045,0.7946841716766357,0.0675130422906013,0.0036818971880698244,-0.9977115979849909,-0.10795184224843979,-0.43943285942077637,1.3161702156066895,1.52293860912323,0.10629164427518845,7.4712910652160645,-0.9893569946289062,0.24204635620117188,0.1672770231962204,-1.3538802862167358,0.00476844422519207,-0.5533303022384644,0.16384375095367432,1.3573135137557983,0.01430533267557621,0.535400927066803,-0.0707637146115303,-0.615129292011261,0.0711451917886734,0.024223696440458298,0.6448844075202942,-0.10915077477693558,-0.016439562663435936,-0.7421606779098511,0.04291599988937378,-0.02079041674733162,1.119439959526062,-0.48085886240005493,0.002313971286639571,-0.1638452112674713,0.3311549127101898,-0.022061089053750038,0.072348453104496,-0.013080923818051815,-0.023699305951595306,0.5710612535476685,0.29237204790115356,0.011054474860429764,-0.020001757889986038,-0.43904080986976624,0.6449968218803406,0.3991157114505768,-0.44802358746528625,0.9612228870391846,-0.7309704422950745,0.06810310482978821,1.563306212425232,0.3391721546649933,1.0522898435592651,-3.251833200454712,-0.04248248413205147,-0.4225759208202362,1741504457.8943117,1741504457853,1.977590087890625,-0.2883506774902344,-0.9085558809393558,3.8035302734375,-1.6735325927734375
1741504457.9021065,0.8158233165740967,0.05304070387763812,0.005908879775966508,-0.9985748689367052,-0.18022002279758453,-0.750502347946167,1.0176409482955933,-4.0799174308776855,8.665224075317383,5.9025115966796875,-0.9882125854492188,0.24547958374023438,0.17338064312934875,-1.3519729375839233,0.005149920005351305,-0.5529488325119019,0.17376211285591125,1.3637986183166504,0.014686808921396732,0.534637987613678,-0.04634927958250046,-0.6265735626220703,0.07038223743438721,0.016212711110711098,0.6696802973747253,-0.1309233158826828,-0.020113630220294,-0.6750209927558899,0.05436026677489281,-0.002861066721379757,0.9874494671821594,-0.4694294333457947,0.0028313875664025545,0.006173039320856333,0.09095539152622223,0.32685017585754395,0.09761244803667068,-0.0038801003247499466,0.0037331830244511366,0.6468521356582642,0.3616689145565033,0.006056815851479769,-0.01603572443127632,1.4510109424591064,-0.7234902381896973,-0.03998570516705513,-0.3188381791114807,1.3769925832748413,-1.1827452182769775,-0.18930093944072723,3.6105544567108154,0.6486268639564514,0.8209202885627747,-6.946836948394775,0.6277034878730774,0.1923474222421646,1741504457.8943117,1741504457853,1.977590087890625,-0.2883506774902344,-0.9085558809393558,3.8035302734375,-1.6735325927734375
1741504457.9221437,0.8135111331939697,0.044248128958080155,0.01398009613906941,-0.99892274976379,-0.3820319175720215,-0.3339223563671112,-0.20247171819210052,4.4942946434021,18.87168312072754,24.608217239379883,-0.9882125854492188,0.24319076538085938,0.1832990050315857,-1.3534988164901733,0.00476844422519207,-0.5548561811447144,0.1806286722421646,1.3653244972229004,0.014686808921396732,0.536926805973053,-0.001716639962978661,-0.6483176946640015,0.051689937710762024,0.016594186425209045,0.7169833183288574,-0.15995386242866516,-0.016324272379279137,-0.5991073250770569,0.05741206929087639,-0.008201723918318748,0.8245593905448914,-0.4350135028362274,0.0016472128918394446,-0.06579003483057022,-0.051634665578603745,0.507046103477478,-0.07048796862363815,0.018828528001904488,-0.13301187753677368,0.43289414048194885,0.09514373540878296,0.0197005532681942,0.17657935619354248,2.488875150680542,-1.1423277854919434,-1.0813628435134888,0.03102361038327217,2.5347580909729004,-1.5101414918899536,0.26822537183761597,3.748563528060913,0.03937896341085434,-0.5021350383758545,-7.306889057159424,2.4780054092407227,-0.271420419216156,1741504457.8943117,1741504457853,1.977590087890625,-0.2883506774902344,-0.9085558809393558,3.8035302734375,-1.6735325927734375
1741504457.9433048,0.8004765510559082,0.03712996630625672,0.027986907971331396,-0.9989184644325584,-0.9131680727005005,-0.34573811292648315,-0.8339513540267944,0.10850729048252106,9.229454040527344,14.864680290222168,-0.9916458129882812,0.2615013122558594,0.1981765478849411,-1.3527358770370483,0.00476844422519207,-0.5525673031806946,0.17795833945274353,1.36685049533844,0.01506828423589468,0.534637987613678,0.049782559275627136,-0.6700618267059326,0.05893797054886818,0.006294346414506435,0.7646677494049072,-0.19787795841693878,-0.003554311813786626,-0.577744722366333,0.07457847148180008,-0.04291599988937378,0.8100633025169373,-0.3640252351760864,-0.049140285700559616,-0.015341205522418022,0.6364069581031799,0.7287984490394592,0.05932927876710892,0.008599432185292244,0.24539333581924438,-0.35917383432388306,0.2954842448234558,0.0715252161026001,-0.18922288715839386,2.509883403778076,-0.9061911106109619,0.21226981282234192,-0.32184144854545593,2.1391470432281494,-2.1582529544830322,0.8965680599212646,0.14070414006710052,0.7115705013275146,-1.3763277530670166,-1.0214921236038208,3.265127420425415,-2.1207587718963623,1741504457.8943117,1741504457853,1.977590087890625,-0.2883506774902344,-0.9085558809393558,3.8035302734375,-1.6735325927734375
1741504457.9621696,0.7818520069122314,0.03349199283203261,0.04630700546727297,-0.9983656382612499,-0.7927830815315247,0.022481633350253105,-0.8777775168418884,5.673256874084473,8.616866111755371,7.15023136138916,-0.9973678588867188,0.2618827819824219,0.21763180196285248,-1.3519729375839233,0.00476844422519207,-0.54417484998703,0.1668955534696579,1.3744800090789795,0.01506828423589468,0.5399786233901978,0.07610437273979187,-0.6811245679855347,0.06504157930612564,0.009727626107633114,0.7833600640296936,-0.24945290386676788,0.013505385257303715,-0.5636301040649414,0.0715266615152359,-0.03643091395497322,0.7761120200157166,-0.31235581636428833,-0.040946438908576965,-0.17949658632278442,0.060724999755620956,0.9935914874076843,0.009607137180864811,-0.03666695952415466,0.42521461844444275,-0.7267389297485352,0.4760078489780426,-0.11108168959617615,0.37671592831611633,0.8289563059806824,-0.31720688939094543,0.22872912883758545,0.1480601280927658,0.7344388365745544,-2.5961344242095947,0.7551435828208923,0.9395712018013,0.009293061681091785,0.3279302716255188,-1.7092390060424805,2.469442844390869,1.0754746198654175,1741504457.8943117,1741504457853,1.977590087890625,-0.2883506774902344,-0.9085558809393558,3.8035302734375,-1.6735325927734375
1741504457.9821699,0.7750084400177002,0.036328526965837236,0.04676917511843238,-0.99824490100738,0.06104455888271332,0.16980445384979248,-0.19111008942127228,-2.0525898933410645,1.9610601663589478,16.45183563232422,-0.9889755249023438,0.24700546264648438,0.2309834510087967,-1.3550246953964233,0.005149920005351305,-0.5285343527793884,0.16269932687282562,1.37142813205719,0.013923857361078262,0.54112309217453,0.06198977679014206,-0.6780728101730347,0.07381551712751389,0.014686808921396732,0.7768749594688416,-0.2917754352092743,-0.008372503332793713,-0.5609598159790039,0.0864042118191719,-0.03223468363285065,0.7581826448440552,-0.2797217071056366,-0.019271057099103928,0.2812710702419281,-0.48911499977111816,0.5605292916297913,-0.2821498513221741,0.024124182760715485,0.8285120725631714,-0.10795886814594269,-0.3110926151275635,-0.01874419115483761,-0.018968593329191208,-0.9843452572822571,0.24908699095249176,0.5476031303405762,0.3003420829772949,-0.35590165853500366,-1.9350112676620483,-1.5720875263214111,-0.1313428431749344,0.6487751007080078,0.42091256380081177,-0.7765845060348511,1.3745495080947876,0.4642239511013031,1741504457.8943117,1741504457853,1.977590087890625,-0.2883506774902344,-0.9085558809393558,3.8035302734375,-1.6735325927734375
1741504458.0024853,0.7809004783630371,0.04261420283841516,0.03760541030051798,-0.9983836250823508,0.4268679916858673,0.26017656922340393,0.45503124594688416,1.9132097959518433,3.84149432182312,8.524291038513184,-0.9916458129882812,0.24395370483398438,0.2290760725736618,-1.3752429485321045,0.005149920005351305,-0.5117494463920593,0.1672770231962204,1.361891269683838,0.013923857361078262,0.5327305793762207,0.01201647985726595,-0.6639581918716431,0.07686731964349747,0.038719769567251205,0.7703898549079895,-0.3208531439304352,-0.03417854756116867,-0.5575265288352966,0.08983749151229858,-0.00476844422519207,0.7463569045066833,-0.2642818093299866,-0.02987084910273552,-0.07700066268444061,-0.1280893087387085,-0.22234399616718292,-1.2966251373291016,-0.016188466921448708,0.810258686542511,0.34696513414382935,-0.6529470682144165,0.016600938513875008,-0.5487014651298523,-2.5539629459381104,0.9180356860160828,0.14261901378631592,1.277126431465149,-0.3785298466682434,-1.467617392539978,-0.7885499596595764,0.284944623708725,0.05542200803756714,1.469209909439087,-0.7353514432907104,0.6965375542640686,-0.30721092224121094,1741504458.0992043,1741504457953,1.9757163085937501,-0.294906982421875,-1.4209505692292745,3.8035673828125,-1.6732850341796874
1741504458.022476,0.7950103282928467,0.044825266285022515,0.02063087616908936,-0.9987817892067178,0.8599635362625122,0.049478765577077866,0.7353639006614685,-0.9177073836326599,-1.2137867212295532,13.681022644042969,-0.9893569946289062,0.24357223510742188,0.2157244235277176,-1.3863056898117065,0.005149920005351305,-0.5018310546875,0.17414358258247375,1.3481581211090088,0.013923857361078262,0.5247195959091187,-0.029564354568719864,-0.6528953909873962,0.07267109304666519,0.05893797054886818,0.7730602025985718,-0.3475804030895233,-0.007314714137464762,-0.536163866519928,0.07763027399778366,0.04444190114736557,0.7181277275085449,-0.2542553246021271,-0.02011900395154953,0.06502000242471695,-0.0005988055490888655,-0.7183006405830383,-0.6798952221870422,-0.0058554369024932384,0.4093337953090668,0.46601828932762146,-1.0308599472045898,0.0053830198012292385,-0.5237520337104797,-1.8529016971588135,0.30018138885498047,-0.27743232250213623,0.8835535049438477,0.28503990173339844,-1.3794375658035278,1.5547423362731934,1.3338966369628906,-0.7471153736114502,2.636279344558716,-1.4074015617370605,0.4862876236438751,0.5079178214073181,1741504458.0992043,1741504457953,1.9757163085937501,-0.294906982421875,-1.4209505692292745,3.8035673828125,-1.6732850341796874
1741504458.0424964,0.808912992477417,0.04352415761890788,0.003403427439292543,-0.9990465776855602,0.8081238269805908,-0.1177438274025917,0.7062221765518188,-1.6324495077133179,4.40177059173584,5.256925582885742,-0.9870681762695312,0.2504386901855469,0.20313572883605957,-1.3958425521850586,0.005149920005351305,-0.5048828721046448,0.1810101419687271,1.3294658660888672,0.013923857361078262,0.5197604298591614,-0.04177157208323479,-0.6727321147918701,0.06504157930612564,0.06198977679014206,0.8180742859840393,-0.37498968839645386,0.011042972095310688,-0.5113679766654968,0.0707637146115303,0.0711451917886734,0.699053943157196,-0.24400174617767334,-0.019982971251010895,0.045561254024505615,0.13635516166687012,-0.5380660891532898,-0.6165176630020142,0.002943148370832205,-0.22815833985805511,0.46759212017059326,-1.19817316532135,0.004268294665962458,-0.24620755016803741,-0.45531541109085083,-1.0705382823944092,-0.4294445216655731,0.08460158854722977,2.6171493530273438,-1.3022465705871582,0.46033212542533875,0.7979638576507568,-0.24951115250587463,0.8902955651283264,-1.003524661064148,0.5156981945037842,-0.2674209475517273,1741504458.0992043,1741504457953,1.9757163085937501,-0.294906982421875,-1.4209505692292745,3.8035673828125,-1.6732850341796874
1741504458.062526,0.8108677864074707,0.04172816036024295,-0.005591879491551096,-0.9991133526866217,0.4239746928215027,-0.09152664989233017,0.07399807125329971,-3.2071447372436523,1.4846686124801636,7.945655822753906,-0.9901199340820312,0.2836275100708008,0.1989395022392273,-1.3943166732788086,0.00476844422519207,-0.5186160206794739,0.1844434291124344,1.3191660642623901,0.01430533267557621,0.5224307775497437,-0.025749599561095238,-0.726138710975647,0.0551232174038887,0.0711451917886734,0.9199283123016357,-0.386562705039978,-0.011093590408563614,-0.5006866455078125,0.05664911866188049,0.07305257022380829,0.6815060377120972,-0.2329544872045517,-0.021816052496433258,-0.09400524199008942,0.8148362040519714,-0.1441127359867096,0.21260187029838562,0.007012047804892063,-0.7753181457519531,0.15370295941829681,-0.5520429015159607,-0.0015993895940482616,0.2019679844379425,0.9954724311828613,-2.9744229316711426,-0.3574559688568115,0.38741570711135864,5.446514129638672,-0.41603079438209534,-0.9761146306991577,0.6061423420906067,-0.7444299459457397,0.049479708075523376,-0.749363124370575,0.6092575788497925,0.08203324675559998,1741504458.0992043,1741504457953,1.9757163085937501,-0.294906982421875,-1.4209505692292745,3.8035673828125,-1.6732850341796874
1741504458.0825956,0.7988667488098145,0.04337299039046534,-0.008678577093828183,-0.9990212540302709,0.15913794934749603,0.06742299348115921,-0.636557936668396,-0.8363565802574158,0.40606170892715454,7.825784683227539,-0.9935531616210938,0.2965974807739258,0.20351719856262207,-1.3897390365600586,0.00476844422519207,-0.5415045619010925,0.1810101419687271,1.3187845945358276,0.01430533267557621,0.5308232307434082,0.0036240178160369396,-0.7959487438201904,0.05664911866188049,0.0879301130771637,1.0481040477752686,-0.37873902916908264,-0.0042336927726864815,-0.4976348578929901,0.053215838968753815,0.06885633617639542,0.6746395230293274,-0.22806863486766815,-0.006149671506136656,-0.08961793035268784,0.4356081187725067,0.2918429672718048,0.33720099925994873,0.0031358159612864256,-1.1823813915252686,-0.29982998967170715,0.014724301174283028,0.0036995357368141413,0.6396875381469727,1.4011211395263672,-3.4444189071655273,0.08874669671058655,0.7999430298805237,6.408410549163818,0.532975971698761,0.5205677151679993,0.043169692158699036,-0.09166959673166275,-0.18473060429096222,-0.3117161989212036,0.16001777350902557,0.7197498083114624,1741504458.0992043,1741504457953,1.9757163085937501,-0.294906982421875,-1.4209505692292745,3.8035673828125,-1.6732850341796874
1741504458.1025777,0.7804558277130127,0.04521600654696986,-0.0071467030985208424,-0.9989516691946443,-0.04725528135895729,0.0546640083193779,-0.9109099507331848,-0.15583236515522003,2.335543394088745,15.846725463867188,-0.9908828735351562,0.3095674514770508,0.21648737788200378,-1.380964994430542,0.00476844422519207,-0.5651560425758362,0.17032882571220398,1.3203104734420776,0.01430533267557621,0.5468451976776123,0.021171892061829567,-0.8493552803993225,0.05703059583902359,0.1039520874619484,1.1442358493804932,-0.3554481565952301,-0.0005406739073805511,-0.499542236328125,0.04711223021149635,0.06885633617639542,0.6677729487419128,-0.23766759037971497,-0.021436527371406555,0.05086459964513779,0.40841910243034363,0.720489501953125,0.6271272897720337,-0.0030264004599303007,-1.1756073236465454,-0.7672228813171387,0.07252763211727142,0.006300607696175575,1.1325697898864746,0.695867121219635,-2.4338011741638184,-0.036869749426841736,0.9222654104232788,4.296562194824219,1.2443159818649292,0.051771748811006546,-0.05776559188961983,-0.33120936155319214,-0.006926553789526224,-0.3412669599056244,-0.5863805413246155,-1.0900917053222656,1741504458.0998628,1741504458053,1.9826405029296876,-0.30139752197265623,-1.219857434644613,3.803806640625,-1.6732388916015626
1741504458.1226008,0.7652156352996826,0.04382353404427541,-0.005196843122886767,-0.999025770781428,-0.04509570449590683,-0.0949409008026123,-0.760167121887207,4.5356340408325195,2.696690320968628,10.799419403076172,-0.9901199340820312,0.3244447708129883,0.23250934481620789,-1.373335599899292,0.00476844422519207,-0.5876630544662476,0.15888457000255585,1.3203104734420776,0.01430533267557621,0.568970799446106,0.01583123579621315,-0.8546959757804871,0.054741740226745605,0.10509651154279709,1.1713206768035889,-0.32766032218933105,-0.004123624414205551,-0.5041199326515198,0.03795681521296501,0.07305257022380829,0.6673914790153503,-0.2576729357242584,-0.0308169424533844,0.04548417776823044,0.4409716725349426,0.7527026534080505,0.43474242091178894,-0.0074055190198123455,-1.130194902420044,-0.719078779220581,-0.02593892626464367,0.015191646292805672,1.5051571130752563,-0.4358547329902649,0.18443407118320465,-0.15783217549324036,-0.03880362585186958,0.69865882396698,1.3090637922286987,-0.05592412129044533,-0.26896125078201294,-0.3712320327758789,0.33254584670066833,0.03159487247467041,-1.071319818496704,-0.08271856606006622,1741504458.0998628,1741504458053,1.9826405029296876,-0.30139752197265623,-1.219857434644613,3.803806640625,-1.6732388916015626
1741504458.1426463,0.7547323703765869,0.040124687301352026,-0.007033957043827436,-0.9991699219438475,0.1358184516429901,-0.17899088561534882,-0.4154133200645447,3.906674861907959,5.083600997924805,7.832441806793213,-0.9901199340820312,0.3316926956176758,0.2454795092344284,-1.36685049533844,0.00476844422519207,-0.6097886562347412,0.1508735716342926,1.3203104734420776,0.013923857361078262,0.5937666893005371,-0.013160906732082367,-0.8112077713012695,0.04329747334122658,0.10471503436565399,1.1190584897994995,-0.311710923910141,0.0033266351092606783,-0.507553219795227,0.03185320645570755,0.0871671661734581,0.6738765835762024,-0.2841392755508423,-0.023574067279696465,-0.02072618529200554,0.23824553191661835,0.5752866864204407,0.445629745721817,0.003759021172299981,-1.1385332345962524,-0.5022011995315552,0.013110972940921783,0.00940330047160387,1.7425693273544312,-1.4855434894561768,2.353872776031494,-0.5839055180549622,0.0617629699409008,-3.3254051208496094,0.6427149772644043,0.4754229784011841,-0.04845796525478363,-0.36504223942756653,0.7893835306167603,0.4035550355911255,-1.3988564014434814,0.3780684173107147,1741504458.0998628,1741504458053,1.9826405029296876,-0.30139752197265623,-1.219857434644613,3.803806640625,-1.6732388916015626
1741504458.1677554,0.7530996799468994,0.03461940847609459,-0.014357456805960987,-0.9992974331953577,0.4022674262523651,-0.2924317419528961,-0.060250259935855865,2.6582164764404297,1.8519117832183838,5.84660530090332,-0.9916458129882812,0.3320741653442383,0.2462424635887146,-1.361128330230713,0.005149920005351305,-0.6322957277297974,0.1497291475534439,1.3199290037155151,0.01430533267557621,0.620088517665863,-0.06160829961299896,-0.7402533292770386,0.03299763426184654,0.11005569249391556,0.9924086332321167,-0.31808191537857056,0.006152808200567961,-0.5117494463920593,0.02079041674733162,0.10433356463909149,0.6944762468338013,-0.3160853385925293,-0.017935557290911674,-0.055172476917505264,0.037707459181547165,-0.056638073176145554,0.3653663992881775,-0.006415004841983318,-1.1212111711502075,-0.020598100498318672,-0.031033581122756004,0.015608211979269981,1.72772216796875,-2.5714192390441895,3.808250904083252,-0.42944207787513733,0.3710015118122101,-6.717353343963623,-0.5242220759391785,0.053501542657613754,-0.3241264224052429,-0.628606379032135,0.9654173254966736,1.0721923112869263,-1.6911461353302002,0.22378702461719513,1741504458.2014804,1741504458153,1.9807662353515625,-0.2927158203125,-1.2930401214978022,3.803807373046875,-1.6733016357421875
1741504458.1826754,0.755833625793457,0.026186005836474395,-0.0262258853496596,-0.9993130120417519,0.5808721780776978,-0.4308593273162842,0.15189114212989807,0.2745950222015381,-2.141357183456421,3.130495548248291,-0.9905014038085938,0.3316926956176758,0.2443350851535797,-1.3554061651229858,0.005149920005351305,-0.655184268951416,0.15316243469715118,1.3195475339889526,0.01430533267557621,0.6448844075202942,-0.1180666834115982,-0.6448844075202942,0.022697795182466507,0.13141833245754242,0.8196002244949341,-0.35644689202308655,0.00839270930737257,-0.5285343527793884,0.02079041674733162,0.11310750246047974,0.725375771522522,-0.3539047837257385,-0.0076430621556937695,0.016235170885920525,-0.006863961461931467,-0.04827413707971573,0.3538336455821991,-0.008147213608026505,-1.1533915996551514,0.31501972675323486,-0.073434978723526,0.008730716072022915,1.7027807235717773,-2.7366106510162354,4.939713954925537,-0.5911118984222412,1.2833603620529175,-8.56019401550293,-2.139963150024414,0.20256265997886658,-0.9478220343589783,0.059291575103998184,0.3650711178779602,1.6196352243423462,-1.9518585205078125,0.49325793981552124,1741504458.2014804,1741504458153,1.9807662353515625,-0.2927158203125,-1.2930401214978022,3.803807373046875,-1.6733016357421875
1741504458.202781,0.7554216384887695,0.024981334127573262,-0.030551307942361085,-0.9992209718216575,0.15682639181613922,-0.012038926593959332,-0.0304829403758049,-9.385016441345215,-13.49013614654541,14.189687728881836,-1.0038528442382812,0.3328371047973633,0.2447165697813034,-1.3473951816558838,0.00476844422519207,-0.6799801588058472,0.16155488789081573,1.3184030055999756,0.01430533267557621,0.6666285395622253,-0.1653696447610855,-0.5621042251586914,0.010490577667951584,0.16193637251853943,0.6528953909873962,-0.4047366678714752,0.0011194976978003979,-0.5476081371307373,0.03147173300385475,0.11005569249391556,0.7669565677642822,-0.38908830285072327,0.004564852919429541,-0.43613407015800476,0.042141497135162354,-0.009888413362205029,0.590705156326294,-0.0028754558879882097,-1.228410243988037,0.5580208897590637,-0.06652022153139114,0.014135811477899551,1.4336575269699097,-2.322528600692749,3.5410194396972656,-0.6324549317359924,1.6417583227157593,-7.9594035148620605,-2.061420440673828,-0.7609513401985168,-0.7945214509963989,0.5891663432121277,-0.1536644846200943,2.0544652938842773,-1.7077233791351318,0.5739682912826538,1741504458.2014804,1741504458153,1.9807662353515625,-0.2927158203125,-1.2930401214978022,3.803807373046875,-1.6733016357421875
1741504458.222759,0.757859468460083,0.025854265611919162,-0.029294288615484793,-0.9992364092666864,0.14178644120693207,0.0022188248112797737,0.3522830605506897,1.8289618492126465,15.936997413635254,7.588373184204102,-1.0008010864257812,0.3393220901489258,0.24357213079929352,-1.3317546844482422,0.005912871100008488,-0.699816882610321,0.1672770231962204,1.3233622312545776,0.01430533267557621,0.6815060377120972,-0.1810101419687271,-0.5491340756416321,-0.00019073777366429567,0.1836804747581482,0.6689173579216003,-0.3782297670841217,-0.025261934846639633,-0.5537117719650269,0.0032425422687083483,0.11692225188016891,0.7997635006904602,-0.41250208020210266,0.008842931129038334,-0.010364796034991741,0.125810906291008,-0.08185287564992905,1.0562620162963867,0.12988422811031342,-0.77162104845047,0.36037197709083557,0.6110133528709412,0.028089025989174843,0.944974422454834,-0.2840198874473572,-0.017888018861413002,-0.4846319854259491,0.5850822329521179,1.421436071395874,1.2315917015075684,-1.4982590675354004,-0.11853356659412384,-1.386850357055664,0.30026280879974365,1.1360846757888794,-1.2332251071929932,0.014992456883192062,1741504458.2014804,1741504458153,1.9807662353515625,-0.2927158203125,-1.2930401214978022,3.803807373046875,-1.6733016357421875
1741504458.2427533,0.7618422508239746,0.020593887832775947,-0.038063489605748874,-0.9990630923735317,0.3306732773780823,-0.3252952992916107,0.4198538661003113,-10.627625465393066,-6.4901885986328125,11.99063491821289,-0.9840164184570312,0.3362703323364258,0.23899443447589874,-1.3195475339889526,0.004386968910694122,-0.7143129706382751,0.17299915850162506,1.3245066404342651,0.014686808921396732,0.6986724734306335,-0.1802472025156021,-0.5716410875320435,0.02841992862522602,0.16041046380996704,0.6830319762229919,-0.36895301938056946,-0.040155358612537384,-0.5380712747573853,0.0078202486038208,0.09517814964056015,0.7944228053092957,-0.4410123825073242,0.0019039736362174153,0.34357750415802,-0.042008381336927414,-0.29606884717941284,0.6418178081512451,-0.05789995193481445,-0.8468502163887024,0.38936084508895874,-0.14584732055664062,0.025956982746720314,1.1292245388031006,-0.08163030445575714,-0.5690615177154541,1.6312958002090454,-1.255674958229065,0.28905051946640015,0.3202737271785736,-0.4509214460849762,0.8467686772346497,-0.11502299457788467,-1.1026571989059448,-0.27215808629989624,-1.2180901765823364,-0.06264183670282364,1741504458.2014804,1741504458153,1.9807662353515625,-0.2927158203125,-1.2930401214978022,3.803807373046875,-1.6733016357421875
1741504458.2627861,0.7778346538543701,0.01773381959779459,-0.028877898844396774,-0.9994256243467073,-0.5893511772155762,-0.21403390169143677,0.7573586702346802,4.9435625076293945,0.5907010436058044,8.960012435913086,-1.0130081176757812,0.3526744842529297,0.22755016386508942,-1.311155080795288,0.004386968910694122,-0.732623815536499,0.1813916265964508,1.3229807615280151,0.013923857361078262,0.7146944403648376,-0.16956588625907898,-0.5567635893821716,0.03223468363285065,0.14591439068317413,0.6670100092887878,-0.37818899750709534,-0.007151342462748289,-0.5212863087654114,0.009346150793135166,0.09136339277029037,0.7993820309638977,-0.45125770568847656,0.0021215523593127728,-0.8879422545433044,0.4524373412132263,-0.6426573991775513,0.6346694231033325,-0.003151886397972703,-0.8622812628746033,0.6162111163139343,0.09368408471345901,0.044927556067705154,0.9290302991867065,0.7306775450706482,0.6995111703872681,-0.17145507037639618,-0.5042334794998169,-0.6960499882698059,-0.3902195692062378,1.62003755569458,0.733178973197937,0.3414992690086365,-0.10893168300390244,0.3003324568271637,-0.3929389417171478,0.09533876925706863,1741504458.2014804,1741504458153,1.9807662353515625,-0.2927158203125,-1.2930401214978022,3.803807373046875,-1.6733016357421875
1741504458.2827806,0.7924699783325195,0.007898269056103456,-0.01253969975157525,-0.9998901806078794,-0.8180350065231323,-0.4427736699581146,0.729651689529419,4.194239616394043,1.8709203004837036,6.661498069763184,-0.9927902221679688,0.3568706512451172,0.20771344006061554,-1.2962775230407715,0.004386968910694122,-0.7410162687301636,0.19359883666038513,1.3309917449951172,0.016212711110711098,0.7215610146522522,-0.14400701224803925,-0.5357823967933655,0.01583123579621315,0.12722209095954895,0.6769283413887024,-0.37938106060028076,0.0006066146888770163,-0.5132753252983093,0.0078202486038208,0.08258945494890213,0.802815318107605,-0.45253419876098633,0.004549921490252018,0.4765903949737549,0.16383111476898193,-1.0482016801834106,1.0870440006256104,-0.0029334621503949165,-0.31383001804351807,0.8390231728553772,0.5282247066497803,0.08007526397705078,0.4416438937187195,1.2887742519378662,1.0089486837387085,-0.7907328009605408,-1.3412649631500244,0.6779319047927856,-0.04423156753182411,0.2440456598997116,0.3161301910877228,0.012307047843933105,-0.5427812337875366,0.07995185256004333,-0.013930544257164001,-0.0492059662938118,1741504458.2014804,1741504458153,1.9807662353515625,-0.2927158203125,-1.2930401214978022,3.803807373046875,-1.6733016357421875
1741504458.302836,0.802527904510498,-0.0014410819527054702,-0.004075578265899495,-0.9999906564286508,-0.33776697516441345,-0.43120986223220825,0.4580310881137848,-1.157570242881775,-2.072983741760254,9.98587417602539,-0.9824905395507812,0.3408479690551758,0.1825360506772995,-1.2813999652862549,0.00476844422519207,-0.7413977384567261,0.20923933386802673,1.3321361541748047,0.014686808921396732,0.728427529335022,-0.1199740618467331,-0.5281528830528259,0.018120087683200836,0.0875486359000206,0.6860837936401367,-0.37940460443496704,-0.0027313451282680035,-0.5132753252983093,0.021553369238972664,0.08258945494890213,0.8295185565948486,-0.45582810044288635,-0.0042216540314257145,0.3383975028991699,-0.45666638016700745,-1.3148407936096191,0.8755362033843994,0.005096338223665953,0.018957091495394707,1.0664621591567993,-0.1004868671298027,-0.06125486642122269,0.3811413645744324,1.0227209329605103,0.2823253273963928,0.15654850006103516,-1.6569427251815796,0.25304126739501953,0.06267859786748886,-0.20121453702449799,-0.11529772728681564,0.8618829250335693,0.07081367820501328,1.9640998840332031,-0.24453848600387573,-0.35010403394699097,1741504458.2014804,1741504458153,1.9807662353515625,-0.2927158203125,-1.2930401214978022,3.803807373046875,-1.6733016357421875
1741504458.3228326,0.7962040901184082,-0.005223247220660121,0.00017929612449384764,-0.9999863426774246,-0.15450581908226013,-0.16665279865264893,-0.3865562677383423,1.262777328491211,-1.7649574279785156,10.04664421081543,-0.9901199340820312,0.3171968460083008,0.15774014592170715,-1.2749148607254028,0.004386968910694122,-0.7391088604927063,0.22411687672138214,1.3229807615280151,0.014686808921396732,0.7280460596084595,-0.11615930497646332,-0.5281528830528259,0.01583123579621315,0.09708552807569504,0.6952391862869263,-0.3764145076274872,-0.00019733967201318592,-0.5621042251586914,0.038719769567251205,0.09060044586658478,0.9313725233078003,-0.4604412019252777,0.00036954559618607163,-0.16731999814510345,-0.6503095626831055,-1.218194842338562,0.31324928998947144,-0.006291194818913937,0.07309235632419586,0.9075356721878052,-0.6036918759346008,-0.009205354377627373,-0.1020544096827507,0.0882328599691391,0.021232182160019875,-0.03241734206676483,0.677831768989563,0.5383287668228149,0.030471885576844215,0.23189634084701538,-2.990248203277588,0.6944786310195923,0.446422278881073,5.658374786376953,-0.21450139582157135,0.3210952579975128,1741504458.4063814,1741504458253,1.9730035400390626,-0.2805281982421875,-1.3900397055394673,3.80377197265625,-1.6731746826171876
1741504458.343065,0.781747579574585,-0.005354628921211873,-0.00678367512886128,-0.999962654153075,0.4165084660053253,0.004236829001456499,-0.7510548233985901,-0.1275268942117691,-3.436946153640747,10.437987327575684,-0.9847793579101562,0.2866792678833008,0.14515145123004913,-1.2756778001785278,0.00476844422519207,-0.7360570430755615,0.22106507420539856,1.316495656967163,0.014686808921396732,0.7299534678459167,-0.13103684782981873,-0.5319676399230957,0.02994582988321781,0.12226291000843048,0.7108796834945679,-0.37901192903518677,-0.0027735140174627304,-0.6586175560951233,0.051689937710762024,0.09937438368797302,1.0835813283920288,-0.4691375195980072,0.0007533447351306677,0.1522289216518402,-1.029273271560669,-0.5606765151023865,-0.08756548166275024,-0.015203341841697693,0.11910004168748856,-0.40104034543037415,-0.47156164050102234,0.006408077664673328,0.2625376880168915,-0.9001232981681824,-0.22756238281726837,0.5611212849617004,1.370819330215454,0.7979986071586609,-0.13604380190372467,-0.22038200497627258,-4.765356063842773,0.7208622694015503,0.4227084517478943,7.917746543884277,-0.44178763031959534,-0.08858285844326019,1741504458.4063814,1741504458253,1.9730035400390626,-0.2805281982421875,-1.3900397055394673,3.80377197265625,-1.6731746826171876
1741504458.363111,0.7742066383361816,-0.0054536927224859205,-0.01733581223770824,-0.9998348497875775,0.5166031718254089,-0.041964542120695114,-0.3772014379501343,3.6597588062286377,0.9113060235977173,7.468813419342041,-0.9878311157226562,0.2801933288574219,0.1340886503458023,-1.2817814350128174,0.005149920005351305,-0.7372015118598938,0.21839475631713867,1.306195855140686,0.014686808921396732,0.7360570430755615,-0.16079194843769073,-0.536926805973053,0.03147173300385475,0.15774014592170715,0.7242313027381897,-0.38942965865135193,-0.00549340108409524,-0.7558938264846802,0.06771191209554672,0.1035706102848053,1.2266346216201782,-0.4769836664199829,-0.001419716514647007,-0.08529060333967209,-0.29655078053474426,-0.5526028275489807,-0.39146173000335693,0.0023094024509191513,-0.08504166454076767,-0.02811495214700699,-0.7116972208023071,-0.008423838764429092,0.36313626170158386,-1.5760959386825562,-0.17581841349601746,0.046482570469379425,1.7548794746398926,0.6041070222854614,-0.5864947438240051,-0.04352441802620888,-4.600493431091309,0.6898708343505859,0.12639495730400085,6.593785762786865,-0.34748944640159607,0.023390190675854683,1741504458.4063814,1741504458253,1.9730035400390626,-0.2805281982421875,-1.3900397055394673,3.80377197265625,-1.6731746826171876
1741504458.3832045,0.7694354057312012,-0.011057451407714065,-0.030862102540061526,-0.9994624872376016,0.6942705512046814,-0.37525272369384766,-0.1277904510498047,1.4915305376052856,-3.0829789638519287,10.24930477142334,-0.9851608276367188,0.2664604187011719,0.12149996310472488,-1.289410948753357,0.005149920005351305,-0.7387273907661438,0.22526131570339203,1.295133113861084,0.01430533267557621,0.7375829815864563,-0.18520638346672058,-0.541886031627655,0.034142062067985535,0.17566949129104614,0.7383459210395813,-0.40266215801239014,-0.0045213219709694386,-0.8112077713012695,0.08258945494890213,0.10624094307422638,1.2972075939178467,-0.4815598726272583,0.004362274892628193,0.0674903616309166,-0.4517383277416229,-0.633140504360199,-0.5555952191352844,0.01161948125809431,-0.03452451899647713,0.5549176335334778,-0.7325668931007385,-0.013318316079676151,0.015230742283165455,-1.0505300760269165,-0.28803253173828125,0.22209475934505463,0.9235982298851013,0.6840143203735352,-0.6852994561195374,-0.09106529504060745,-2.1529738903045654,0.6901427507400513,0.09534452855587006,2.841951370239258,-0.2095811665058136,0.229032963514328,1741504458.4063814,1741504458253,1.9730035400390626,-0.2805281982421875,-1.3900397055394673,3.80377197265625,-1.6731746826171876
1741504458.4031603,0.7725725173950195,-0.018526850077368845,-0.0418286099478916,-0.9989530135176719,0.48342278599739075,-0.2908842861652374,0.2395118772983551,3.5265090465545654,-4.377355098724365,7.421531677246094,-0.9889755249023438,0.2790489196777344,0.11043716967105865,-1.297421932220459,0.00476844422519207,-0.7406347990036011,0.23937590420246124,1.2871220111846924,0.01430533267557621,0.734912633895874,-0.1997024416923523,-0.536163866519928,0.031090257689356804,0.18635080754756927,0.7593270540237427,-0.4227263927459717,-0.00366970244795084,-0.7986190319061279,0.09212634712457657,0.11272602528333664,1.2651636600494385,-0.48967939615249634,-0.0059989579021930695,-0.13272742927074432,0.26211097836494446,-0.5225588083267212,-0.4350069463253021,-0.02073354460299015,-0.08154137432575226,0.9767435789108276,-0.4931175410747528,-0.00020683671755250543,-0.14711466431617737,-0.7137371301651001,0.37973079085350037,-0.1043725311756134,0.37713736295700073,1.0467820167541504,-1.1376299858093262,0.14750036597251892,0.8934634327888489,0.43080759048461914,0.3483518660068512,-2.5746095180511475,-0.4527066648006439,-0.5590106844902039,1741504458.4063814,1741504458253,1.9730035400390626,-0.2805281982421875,-1.3900397055394673,3.80377197265625,-1.6731746826171876
1741504458.423139,0.7833418846130371,-0.027714069322409635,-0.04419238310887026,-0.9986385550522028,0.0803387463092804,-0.4249790906906128,0.5581201910972595,0.6293378472328186,2.2241194248199463,6.179840564727783,-1.0000381469726562,0.2859163284301758,0.1024261862039566,-1.297421932220459,0.005149920005351305,-0.7406347990036011,0.25463491678237915,1.2875036001205444,0.014686808921396732,0.7345311641693115,-0.1974135935306549,-0.543411910533905,0.019645990803837776,0.20542457699775696,0.7913710474967957,-0.4538635015487671,0.0013445346849039197,-0.7448310256004333,0.0875486359000206,0.14248111844062805,1.1110475063323975,-0.5181612372398376,-0.007217527367174625,-0.23822350800037384,0.2262919545173645,-0.3372701406478882,0.0015775314532220364,0.0019460235489532351,0.00447367737069726,1.0111141204833984,0.16371476650238037,0.03231887146830559,-0.006860935129225254,0.32409021258354187,-0.5549816489219666,-0.590229332447052,1.0788439512252808,1.7832070589065552,-1.641526222229004,0.3920883536338806,3.016191244125366,-0.3354596793651581,1.6457854509353638,-8.464751243591309,-1.6415469646453857,-0.03163652494549751,1741504458.406444,1741504458353,1.977614501953125,-0.27633966064453125,-1.4220744577748776,3.803817138671875,-1.6732626953125
1741504458.4431992,0.7922966480255127,-0.02891639194501789,-0.046730025554039,-0.9984889318307945,0.21586741507053375,0.05705041065812111,0.44432947039604187,-6.17988395690918,56.35441970825195,16.540754318237305,-0.9996566772460938,0.2798118591308594,0.09784847497940063,-1.296658992767334,0.004386968910694122,-0.7406347990036011,0.26722362637519836,1.295896053314209,0.014686808921396732,0.7352941036224365,-0.17566949129104614,-0.5643930435180664,0.01201647985726595,0.22526131570339203,0.841725766658783,-0.485817015171051,0.01080883014947176,-0.6589990258216858,0.06885633617639542,0.1844434291124344,0.8989471197128296,-0.5316882729530334,0.013860163278877735,-0.04115268960595131,-0.12121574580669403,-0.2660069167613983,0.020359812304377556,-0.045945096760988235,-0.011753836646676064,0.7954921722412109,0.5338069796562195,-0.019052283838391304,0.08050783723592758,1.2389626502990723,-1.0574369430541992,-0.3098064959049225,0.9920212030410767,2.6312079429626465,-1.496540904045105,0.2879163324832916,4.098215579986572,-1.081920862197876,1.7535697221755981,-9.714757919311523,0.689849853515625,1.6260546445846558,1741504458.406444,1741504458353,1.977614501953125,-0.27633966064453125,-1.4220744577748776,3.803817138671875,-1.6732626953125
1741504458.4631913,0.7901570796966553,-0.02988039683811204,-0.04793880429631446,-0.9984032416450963,-0.19159942865371704,0.07060548663139343,-0.31754183769226074,6.155657768249512,-4.548348426818848,2.62644100189209,-0.9893569946289062,0.2901124954223633,0.09555962681770325,-1.3058143854141235,0.004386968910694122,-0.7406347990036011,0.27141985297203064,1.298947811126709,0.01506828423589468,0.7299534678459167,-0.1501106321811676,-0.5575265288352966,0.05207141116261482,0.23861294984817505,0.8730067610740662,-0.5014556050300598,0.0034436825662851334,-0.657473087310791,0.08335240930318832,0.1672770231962204,0.9332799315452576,-0.4513566195964813,0.02596755512058735,0.3170526921749115,0.31444212794303894,-0.021975496783852577,-0.6944078207015991,-0.06284984946250916,-0.00424564303830266,0.1602097600698471,0.1433877795934677,0.0640641376376152,-0.563165009021759,1.2548741102218628,0.5733255743980408,1.969092607498169,0.9320617318153381,0.8737064599990845,-0.7595477104187012,-0.2527482807636261,-0.8984466791152954,-0.006180645432323217,0.12979702651500702,1.2394388914108276,3.685955286026001,-0.12585991621017456,1741504458.406444,1741504458353,1.977614501953125,-0.27633966064453125,-1.4220744577748776,3.803817138671875,-1.6732626953125
1741504458.4878814,0.7803144454956055,-0.029717290412508403,-0.03897223996646113,-0.9987983015416753,-0.25017255544662476,-0.030579423531889915,-0.5832063555717468,7.459201812744141,17.965490341186523,5.20466423034668,-1.0042343139648438,0.2992677688598633,0.10624094307422638,-1.3065773248672485,0.005531395319849253,-0.7406347990036011,0.26684215664863586,1.299710750579834,0.01506828423589468,0.7242313027381897,-0.1367589831352234,-0.5521858334541321,0.05283436179161072,0.28629741072654724,0.8798733353614807,-0.5004186034202576,-0.007699526846408844,-0.656710147857666,0.07267109304666519,0.2161058932542801,0.8955138325691223,-0.42177364230155945,0.022330015897750854,-0.27883005142211914,0.2207685112953186,0.5958462357521057,0.033567897975444794,0.07233675569295883,-0.0039724563248455524,-0.34288036823272705,0.03816617652773857,0.03809740021824837,-0.2919474244117737,0.3626220226287842,0.31617191433906555,0.04070504009723663,2.846325635910034,0.222219780087471,0.16091391444206238,-0.18108291923999786,1.1883817911148071,0.10167651623487473,1.9924625158309937,-2.4231345653533936,1.3956736326217651,0.2167813926935196,1741504458.406444,1741504458353,1.977614501953125,-0.27633966064453125,-1.4220744577748776,3.803817138671875,-1.6732626953125
1741504458.5033343,0.7706384658813477,-0.028956772076724976,-0.05489720665947087,-0.9980720425159118,0.7787168025970459,-0.08229801058769226,-0.3630913197994232,-6.475703716278076,5.9740071296691895,9.456876754760742,-0.9813461303710938,0.2862977981567383,0.12569619715213776,-1.312680959701538,0.005912871100008488,-0.7375829815864563,0.2569237947463989,1.295896053314209,0.013923857361078262,0.7249943017959595,-0.15316243469715118,-0.5308232307434082,0.06771191209554672,0.3393225073814392,0.8642328381538391,-0.49197763204574585,0.006896731443703175,-0.6219958662986755,0.07534141838550568,0.23670557141304016,0.8730067610740662,-0.40005412697792053,0.02143433876335621,0.5932554006576538,-0.23327510058879852,0.9907912015914917,-0.7677717804908752,0.12192272394895554,0.23931539058685303,-0.6690807938575745,-0.33745524287223816,-0.09488586336374283,-0.0008774558664299548,-1.0658503770828247,1.3667728900909424,1.0210683345794678,2.575523614883423,-1.024546504020691,0.44785648584365845,0.5447757244110107,1.3221718072891235,0.20289093255996704,1.2926445007324219,-0.5290144681930542,1.002990484237671,-0.6428186893463135,1741504458.406444,1741504458353,1.977614501953125,-0.27633966064453125,-1.4220744577748776,3.803817138671875,-1.6732626953125
1741504458.5233088,0.7701656818389893,-0.031986389978723676,-0.07117789643445786,-0.9969506396584009,0.7911527752876282,-0.24413549900054932,0.20886419713497162,-0.16982388496398926,6.651106357574463,11.238980293273926,-0.9992752075195312,0.2790489196777344,0.1493476778268814,-1.3287029266357422,0.00476844422519207,-0.7372015118598938,0.2454795092344284,1.2875036001205444,0.01430533267557621,0.7234683632850647,-0.1977950781583786,-0.506027340888977,0.07763027399778366,0.3759441375732422,0.8554589152336121,-0.48038724064826965,-0.003452023956924677,-0.621614396572113,0.07534141838550568,0.2931639552116394,0.8756771087646484,-0.3863815665245056,0.003893403336405754,-0.4657570421695709,-0.14077219367027283,1.1674844026565552,-0.8574389815330505,-0.019696950912475586,-0.019543375819921494,-0.7852028608322144,-0.5882928967475891,0.04549510404467583,-0.045308999717235565,-2.4017319679260254,1.032174825668335,0.2659680247306824,1.7469894886016846,-0.17614850401878357,0.5953181385993958,-0.6919007897377014,0.20436039566993713,0.005603858269751072,2.686755418777466,0.08698154985904694,0.5785473585128784,-0.40588000416755676,1741504458.6111448,1741504458453,1.9890443115234375,-0.2799784851074219,-1.4510026259833029,3.8036396484375,-1.673302734375
1741504458.5433185,0.7821846008300781,-0.03727461970631176,-0.088245234497645,-0.9954011157891102,0.8743495345115662,-0.19076013565063477,0.6022343635559082,4.6910271644592285,-3.580322742462158,9.0927152633667,-1.0000381469726562,0.2809562683105469,0.1668955534696579,-1.3351880311965942,0.005149920005351305,-0.7413977384567261,0.2473868876695633,1.2741519212722778,0.013923857361078262,0.7200350761413574,-0.2454795092344284,-0.5022125840187073,0.07534141838550568,0.41256579756736755,0.8939879536628723,-0.4662099778652191,-0.005906644277274609,-0.6071183085441589,0.09174486994743347,0.3393225073814392,0.8707179427146912,-0.38211819529533386,0.01344971638172865,-0.07568521052598953,0.009121827781200409,0.8234707117080688,-0.5110511183738708,0.009989635087549686,-0.20654018223285675,0.32626742124557495,-0.9351636171340942,-0.008289718069136143,-0.2805704176425934,-2.1798620223999023,-0.04099566489458084,0.06142100319266319,1.615511178970337,2.332634925842285,0.7484630942344666,0.1250750720500946,0.7140792608261108,1.0122698545455933,2.2070720195770264,-0.2781974673271179,0.21125158667564392,0.3237943947315216,1741504458.6111448,1741504458453,1.9890443115234375,-0.2799784851074219,-1.4510026259833029,3.8036396484375,-1.673302734375
1741504458.5633094,0.791785478591919,-0.04401850250179707,-0.09542575662948492,-0.994462818012413,0.3044145703315735,-0.2541343569755554,0.4631201922893524,-1.62566077709198,1.9417064189910889,10.284149169921875,-0.9962234497070312,0.3053712844848633,0.18787670135498047,-1.3351880311965942,0.00476844422519207,-0.7417792081832886,0.2458609938621521,1.2619446516036987,0.01430533267557621,0.7154573798179626,-0.2763790488243103,-0.5247195959091187,0.08983749151229858,0.42973220348358154,0.962272047996521,-0.4479351341724396,0.0036450845655053854,-0.5979629158973694,0.10814831405878067,0.3858625292778015,0.8634698987007141,-0.3816150426864624,0.012063203379511833,0.10372401773929596,0.6480332612991333,1.0970436334609985,0.06554298102855682,-0.018974656239151955,0.009730909019708633,-0.35735905170440674,-0.6847051978111267,0.018929075449705124,-0.26254111528396606,-1.3766529560089111,-1.306671380996704,0.7481380105018616,0.7841463088989258,3.4234910011291504,0.9785633683204651,0.31938737630844116,0.5984009504318237,0.6820546984672546,2.179837465286255,-0.21341437101364136,0.02742273174226284,-0.009536787867546082,1741504458.6111448,1741504458453,1.9890443115234375,-0.2799784851074219,-1.4510026259833029,3.8036396484375,-1.673302734375
1741504458.5833447,0.801781415939331,-0.045941523172669856,-0.09669544189412162,-0.9942531709607345,0.048088014125823975,-0.05899481102824211,0.4276737868785858,2.840240001678467,4.298057556152344,10.191601753234863,-1.0019454956054688,0.3099489212036133,0.2134355753660202,-1.3309917449951172,0.00476844422519207,-0.7410162687301636,0.22640573978424072,1.2600373029708862,0.01430533267557621,0.7146944403648376,-0.2809567451477051,-0.5571450591087341,0.10814831405878067,0.43049514293670654,1.0297932624816895,-0.4262184500694275,-0.0017353234579786658,-0.5819409489631653,0.1184481605887413,0.41180285811424255,0.8554589152336121,-0.38369110226631165,0.013298843055963516,-0.13616879284381866,0.19272422790527344,1.2550139427185059,0.2724282741546631,-0.0036844087298959494,0.032525040209293365,-1.4123713970184326,-0.010323395021259785,-0.012474801391363144,-0.08171067386865616,-0.08172687888145447,-1.6531805992126465,0.8500063419342041,-0.17945866286754608,3.3273379802703857,1.0548114776611328,-0.28853997588157654,0.8192301988601685,0.41198721528053284,1.2161856889724731,-0.4736473858356476,-0.11715161800384521,0.08808179199695587,1741504458.6111448,1741504458453,1.9890443115234375,-0.2799784851074219,-1.4510026259833029,3.8036396484375,-1.673302734375
1741504458.6033552,0.8011429309844971,-0.047684115430781715,-0.09269279829182561,-0.9945522964029668,-0.22715693712234497,-0.07718165963888168,-0.04509088769555092,1.929157018661499,5.689619541168213,11.150940895080566,-0.9996566772460938,0.3130006790161133,0.24204623699188232,-1.3279399871826172,0.00476844422519207,-0.7406347990036011,0.1974135935306549,1.2630890607833862,0.014686808921396732,0.7124055624008179,-0.2771419882774353,-0.5853742361068726,0.12073700875043869,0.42515450716018677,1.0793850421905518,-0.4083876609802246,-0.0009064695914275944,-0.5655375123023987,0.11120012402534485,0.42858776450157166,0.840962827205658,-0.3850264549255371,0.017012156546115875,0.02081984467804432,0.11411619931459427,1.4361679553985596,0.1919991672039032,-0.014124395325779915,0.004523466806858778,-2.032794713973999,0.1748155653476715,0.008746187202632427,-0.12343013286590576,0.223593071103096,-1.303733229637146,0.5064886808395386,-0.23147375881671906,2.160626173019409,0.8194424510002136,0.1840221881866455,0.8397276401519775,-0.4169016480445862,0.7369199395179749,-0.6976414322853088,-0.044797513633966446,0.1996990293264389,1741504458.6111448,1741504458453,1.9890443115234375,-0.2799784851074219,-1.4510026259833029,3.8036396484375,-1.673302734375
1741504458.6267319,0.7963883876800537,-0.048986193663164986,-0.08879952769671356,-0.9948442072562094,-0.18825191259384155,-0.09114224463701248,-0.29422786831855774,1.4557201862335205,3.6214585304260254,9.526355743408203,-0.9977493286132812,0.3118562698364258,0.27141985297203064,-1.3271770477294922,0.005149920005351305,-0.7375829815864563,0.164988175034523,1.2649965286254883,0.01430533267557621,0.7120240926742554,-0.27141985297203064,-0.5994887948036194,0.13141833245754242,0.42820629477500916,1.0957884788513184,-0.39739394187927246,0.004147317726165056,-0.5544747114181519,0.10128175467252731,0.4381246566772461,0.8237964510917664,-0.38727232813835144,0.024510951712727547,0.04679118096828461,-0.005408956203609705,1.4487732648849487,-0.04384596645832062,0.014433936215937138,0.18266791105270386,-2.113581418991089,0.12383939325809479,0.006765620317310095,-0.035840075463056564,0.2651694715023041,-0.5702178478240967,0.5813401937484741,0.17311221361160278,0.5837594866752625,0.4953811466693878,0.18646082282066345,0.5182623267173767,-0.48936590552330017,0.5036479234695435,-0.8860595226287842,-0.1321222186088562,0.43946826457977295,1741504458.611236,1741504458553,1.9953240966796875,-0.27296578979492186,-0.8476747421333456,3.803588623046875,-1.6733458251953126
1741504458.6434126,0.785181999206543,-0.049682253723852814,-0.08742550212187476,-0.9949313821785182,-0.07294414192438126,-0.07309850305318832,-0.5348142981529236,0.03955197334289551,4.969075679779053,10.023591995239258,-0.9981307983398438,0.3091859817504883,0.30079346895217896,-1.3302288055419922,0.005149920005351305,-0.7375829815864563,0.1348516047000885,1.2707185745239258,0.014686808921396732,0.7127870321273804,-0.2790493667125702,-0.5987258553504944,0.14400701224803925,0.4346913993358612,1.0858701467514038,-0.3955409824848175,0.002465066034346819,-0.5491340756416321,0.08373387902975082,0.4533836841583252,0.8070115447044373,-0.3900449573993683,0.034910883754491806,-0.020756788551807404,-0.05916303023695946,1.399528980255127,-0.17010918259620667,0.001145862857811153,0.03189663961529732,-1.9837027788162231,0.4559932351112366,0.00778361177071929,0.06222596764564514,-0.45044878125190735,0.06963150203227997,0.5711116194725037,0.45101913809776306,-0.6692487597465515,0.048887334764003754,-0.0744960755109787,0.3029281795024872,-0.8902035355567932,0.7509481310844421,-0.8002973794937134,-0.09163948148488998,0.5335297584533691,1741504458.611236,1741504458553,1.9953240966796875,-0.27296578979492186,-0.8476747421333456,3.803588623046875,-1.6733458251953126
1741504458.6634514,0.776801586151123,-0.047364426197501766,-0.09019315719190214,-0.9947973690791196,0.12502196431159973,0.08195341378450394,-0.40885281562805176,0.5904170870780945,3.732639789581299,8.350627899169922,-1.0011825561523438,0.3004121780395508,0.3278782367706299,-1.3332805633544922,0.005149920005351305,-0.7375829815864563,0.11120012402534485,1.2768222093582153,0.01430533267557621,0.7135500311851501,-0.29926756024360657,-0.5933852195739746,0.1504921019077301,0.44422826170921326,1.0576409101486206,-0.3981642425060272,-0.00014737634046468884,-0.5479896068572998,0.06427863240242004,0.45986875891685486,0.7921339869499207,-0.3950815498828888,0.050099145621061325,-0.0911816731095314,-0.24526114761829376,1.2717617750167847,-0.2073710411787033,-0.006579484790563583,-0.015500057488679886,-1.5513726472854614,0.3209059238433838,-0.009756567887961864,0.04113883897662163,-1.089390754699707,0.3153870403766632,0.35438671708106995,0.4107666015625,-1.5322691202163696,-0.16975677013397217,-0.14171992242336273,-0.030288681387901306,-0.9980986714363098,0.436757355928421,-0.7905110120773315,-0.2312738448381424,0.7299972772598267,1741504458.611236,1741504458553,1.9953240966796875,-0.27296578979492186,-0.8476747421333456,3.803588623046875,-1.6733458251953126
1741504458.68344,0.7712092399597168,-0.04423246456295992,-0.09447594437179205,-0.9945440085857159,0.20675791800022125,0.12735767662525177,-0.2547275722026825,1.288157343864441,1.1523240804672241,8.803126335144043,-1.0011825561523438,0.2904939651489258,0.3423742949962616,-1.3336620330810547,0.005149920005351305,-0.7379644513130188,0.09517814964056015,1.2749148607254028,0.01430533267557621,0.7135500311851501,-0.33283740282058716,-0.578507661819458,0.15506981313228607,0.44575417041778564,1.0095750093460083,-0.4029238820075989,0.00041241798317059875,-0.5544747114181519,0.04253452271223068,0.4667353332042694,0.7791637778282166,-0.4000904858112335,0.06596545875072479,-0.005387524608522654,-0.2773095965385437,0.5756131410598755,0.010619757696986198,-0.00448226323351264,-0.012221640907227993,-0.940615177154541,-0.1517701894044876,0.009487132541835308,0.0028524829540401697,-1.758788824081421,0.915748119354248,0.16708381474018097,0.05180181935429573,-2.545543909072876,-0.22530381381511688,0.06370463967323303,-0.40230992436408997,-1.0375453233718872,0.2952924370765686,-0.6512015461921692,-0.21485409140586853,0.6964851021766663,1741504458.7161694,1741504458653,1.9912344970703126,-0.2392293701171875,-0.8749695018337408,3.80367431640625,-1.673316650390625
1741504458.703455,0.7704579830169678,-0.04133893917610778,-0.09792529579716742,-0.994334817126923,0.15914160013198853,0.14520297944545746,-0.032774824649095535,1.8848804235458374,0.6456056237220764,9.056541442871094,-1.0015640258789062,0.2843904495239258,0.343137264251709,-1.3325176239013672,0.005149920005351305,-0.7383459210395813,0.08983749151229858,1.2733889818191528,0.01430533267557621,0.7135500311851501,-0.369840532541275,-0.5449378490447998,0.15850308537483215,0.4503318965435028,0.9340428709983826,-0.40491005778312683,0.0006481711170636117,-0.5621042251586914,0.026131074875593185,0.47436484694480896,0.7665750980377197,-0.4033220112323761,0.07665473222732544,-0.007462331559509039,-0.1902281641960144,-0.03144444525241852,0.08681835234165192,-0.011981219053268433,-0.024538513273000717,-0.26273491978645325,-0.06378365308046341,0.0018634721636772156,-0.002152391942217946,-1.8332396745681763,1.816433310508728,0.18289287388324738,0.3316640555858612,-4.065347194671631,-0.08927970379590988,0.01925756223499775,-0.3421476185321808,-0.7677499651908875,0.3289582133293152,-0.6612972617149353,-0.15904931724071503,0.5270037651062012,1741504458.7161694,1741504458653,1.9912344970703126,-0.2392293701171875,-0.8749695018337408,3.80367431640625,-1.673316650390625
1741504458.7331653,0.77077317237854,-0.03969337063844332,-0.09881694881984401,-0.9943136562238777,0.008185802958905697,0.09558077156543732,0.038449324667453766,1.4735159873962402,-1.2769664525985718,7.211284160614014,-1.0015640258789062,0.2824831008911133,0.3374151289463043,-1.3309917449951172,0.00476844422519207,-0.7383459210395813,0.09250781685113907,1.2737704515457153,0.01430533267557621,0.7131685614585876,-0.4064621925354004,-0.5029755234718323,0.16041046380996704,0.4705500900745392,0.8321889042854309,-0.4096851348876953,0.001226050895638764,-0.5628671646118164,0.013542382046580315,0.47589075565338135,0.7543678879737854,-0.4047616720199585,0.08154268562793732,-0.015787320211529732,-0.06143709272146225,-0.2876370847225189,0.1274605244398117,-0.0069116028025746346,0.022456565871834755,0.2001631259918213,0.01257121842354536,0.005384485237300396,0.01605140045285225,-1.7539806365966797,2.081048011779785,0.06611939519643784,1.1425102949142456,-5.349246025085449,-0.31342142820358276,0.035157036036252975,-0.011470281518995762,-0.520833432674408,-0.0009869675850495696,-0.5755446553230286,-0.03915560990571976,0.1970665454864502,1741504458.7161694,1741504458653,1.9912344970703126,-0.2392293701171875,-0.8749695018337408,3.80367431640625,-1.673316650390625
1741504458.7462626,0.7742428779602051,-0.03836189056167003,-0.09358187179916977,-0.9948722524138958,-0.30444779992103577,0.1056530624628067,0.14792267978191376,-2.9814608097076416,-1.8582531213760376,7.929703235626221,-1.0034713745117188,0.2824831008911133,0.32940414547920227,-1.3267955780029297,0.00476844422519207,-0.7387273907661438,0.09594109654426575,1.2741519212722778,0.01430533267557621,0.7146944403648376,-0.42858776450157166,-0.46063172817230225,0.15468832850456238,0.4957274794578552,0.7150759100914001,-0.42577797174453735,0.005259637255221605,-0.5609598159790039,0.015449759550392628,0.4686427116394043,0.7440680265426636,-0.4045087397098541,0.08204229176044464,-0.030163973569869995,0.014658906497061253,-0.4698256552219391,0.24185974895954132,-0.0060804421082139015,-0.07328975945711136,0.24149806797504425,0.005238970275968313,0.0001929022400872782,0.0643547847867012,-0.913539707660675,2.2040083408355713,-0.4158789813518524,1.260813593864441,-5.841412544250488,-0.8525453209877014,0.18040676414966583,0.12358686327934265,0.1708245873451233,-0.4638204276561737,-0.4332358241081238,0.01119003165513277,0.026194071397185326,1741504458.7161694,1741504458653,1.9912344970703126,-0.2392293701171875,-0.8749695018337408,3.80367431640625,-1.673316650390625
1741504458.7635167,0.7783472537994385,-0.028922141387531304,-0.08116036328412954,-0.9962813383623864,-0.6396742463111877,0.523004949092865,0.25217559933662415,-4.857882976531982,1.4916678667068481,7.982421398162842,-1.0111007690429688,0.2756156921386719,0.3107118308544159,-1.3210734128952026,0.005149920005351305,-0.7398717999458313,0.09975585341453552,1.2760592699050903,0.014686808921396732,0.7173647880554199,-0.42629891633987427,-0.42935073375701904,0.15697719156742096,0.5098420977592468,0.6147478222846985,-0.446153461933136,0.00030849690665490925,-0.5552376508712769,0.016212711110711098,0.46139466762542725,0.7425421476364136,-0.40422266721725464,0.08106330782175064,-0.2177060842514038,-0.19856061041355133,-1.0184216499328613,0.4602786898612976,-0.0014355462044477463,-0.01749982312321663,0.3085208237171173,0.17874710261821747,0.009725251235067844,0.22355423867702484,0.24255943298339844,1.3442323207855225,0.260515958070755,0.5117900371551514,-4.7925944328308105,-0.8428586721420288,-0.4414559006690979,0.2844616174697876,0.04962865263223648,-0.37889087200164795,-0.046994298696517944,0.0050339484587311745,-0.05283784866333008,1741504458.7161694,1741504458653,1.9912344970703126,-0.2392293701171875,-0.8749695018337408,3.80367431640625,-1.673316650390625
1741504458.7835464,0.7885093688964844,-0.017129961724165785,-0.0667893248827695,-0.9976200431492105,-0.6800315976142883,0.522955060005188,0.5854360461235046,-6.480345726013184,1.123414158821106,19.06329917907715,-1.0088119506835938,0.2718009948730469,0.28248265385627747,-1.311155080795288,0.005149920005351305,-0.7360570430755615,0.11196307092905045,1.2772036790847778,0.01430533267557621,0.7204165458679199,-0.41485464572906494,-0.42858776450157166,0.15926603972911835,0.5140383243560791,0.6052109599113464,-0.4376623034477234,-0.01764657348394394,-0.5540932416915894,0.00858320016413927,0.46063172817230225,0.7455939650535583,-0.403648316860199,0.07910747081041336,0.006973427254706621,-0.07032802700996399,-1.5036513805389404,0.6324552297592163,0.0009233636083081365,0.28357774019241333,0.9038272500038147,0.06613422185182571,-0.017029138281941414,0.14031469821929932,0.559421956539154,-0.06312469393014908,-0.168620303273201,0.052408814430236816,0.29202011227607727,0.3460816442966461,-0.3996700942516327,0.009719261899590492,-0.5063085556030273,0.2417236566543579,0.06270695477724075,-0.015168287791311741,-0.17116625607013702,1741504458.8158655,1741504458753,1.983230712890625,-0.18706167602539062,-0.7721791198944714,3.80381640625,-1.6733295898437501
1741504458.8035898,0.8033218383789062,-0.006985361222841228,-0.05845194287216208,-0.9982657837986113,-0.3918338716030121,0.5647854208946228,0.766814649105072,3.700770854949951,0.6808581352233887,7.427585601806641,-0.9946975708007812,0.2588310241699219,0.2439536154270172,-1.311918020248413,0.005149920005351305,-0.732623815536499,0.1340886503458023,1.2806370258331299,0.014686808921396732,0.725375771522522,-0.4011215269565582,-0.4339284300804138,0.15735866129398346,0.4957274794578552,0.6158922910690308,-0.4366810619831085,-0.00041621612035669386,-0.5472266674041748,0.01926451548933983,0.46368351578712463,0.7448310256004333,-0.41588690876960754,0.04930442199110985,0.3880840241909027,-0.3260520398616791,-2.0153355598449707,-0.09400492906570435,-0.016493724659085274,0.17773886024951935,1.5506865978240967,0.26850417256355286,0.003908236976712942,0.36873316764831543,0.7068497538566589,-0.18818281590938568,0.09913435578346252,-0.9425647258758545,0.2964763641357422,0.045924656093120575,0.6387800574302673,0.42965325713157654,0.6391474604606628,0.21705710887908936,0.09638794511556625,-0.6952216625213623,-1.639738917350769,1741504458.8158655,1741504458753,1.983230712890625,-0.18706167602539062,-0.7721791198944714,3.80381640625,-1.6733295898437501
1741504458.8236258,0.8149917125701904,0.003155376648369466,-0.05204760901903076,-0.9986396196794963,-0.3481605350971222,0.5660702586174011,0.522855281829834,1.6280044317245483,2.891000270843506,7.411977291107178,-0.9969863891601562,0.24776840209960938,0.1985580176115036,-1.3115365505218506,0.005149920005351305,-0.7288090586662292,0.1646067053079605,1.2836887836456299,0.014686808921396732,0.725375771522522,-0.39578089118003845,-0.43087664246559143,0.1657511293888092,0.47665369510650635,0.6029220819473267,-0.43345990777015686,-0.00793873518705368,-0.5510414242744446,0.03604944050312042,0.47550925612449646,0.7829785346984863,-0.43887895345687866,0.0042214347049593925,-0.04456043243408203,-0.3192691504955292,-2.254544973373413,0.046847857534885406,-0.009444116614758968,0.17025110125541687,2.1097605228424072,0.1875079870223999,0.013080187141895294,-0.08855492621660233,0.17686501145362854,0.13512712717056274,-0.09544729441404343,-0.8227909207344055,-0.659177839756012,0.24527885019779205,-0.33420079946517944,-0.37278640270233154,0.8812336325645447,0.6451725363731384,2.4881560802459717,-1.2095353603363037,-2.308053970336914,1741504458.8158655,1741504458753,1.983230712890625,-0.18706167602539062,-0.7721791198944714,3.80381640625,-1.6733295898437501
1741504458.843657,0.8154692649841309,0.012307664695377595,-0.04576976463531738,-0.9988761935470151,-0.2543856203556061,0.42552900314331055,-0.10672540962696075,1.15669584274292,2.208773374557495,8.655559539794922,-0.9908828735351562,0.23708724975585938,0.16117341816425323,-1.3081032037734985,0.00476844422519207,-0.7249943017959595,0.18558785319328308,1.292462706565857,0.014686808921396732,0.724612832069397,-0.3923476040363312,-0.42896926403045654,0.15392538905143738,0.4839017391204834,0.5968185067176819,-0.42684781551361084,-0.0011532807257026434,-0.5956740379333496,0.06961929053068161,0.4736018776893616,0.88979172706604,-0.46193772554397583,-0.005085943266749382,0.16321641206741333,-0.2838549315929413,-1.783151388168335,0.24732893705368042,-0.017241181805729866,0.1893409788608551,1.2314280271530151,0.6467472910881042,0.02604321390390396,-0.011922278441488743,0.22484853863716125,0.12707021832466125,-0.4243767559528351,0.2994832396507263,-0.28299835324287415,0.23230062425136566,0.631843090057373,-2.489067316055298,1.7757117748260498,-0.27218136191368103,5.710361957550049,-1.0774837732315063,0.1375907063484192,1741504458.8158655,1741504458753,1.983230712890625,-0.18706167602539062,-0.7721791198944714,3.80381640625,-1.6733295898437501
1741504458.863702,0.802492618560791,0.017579149170663014,-0.047060623180505,-0.9987373384730832,0.10030617564916611,0.23537661135196686,-0.7331385016441345,0.5171515345573425,-0.8823583126068115,7.190032482147217,-0.9813461303710938,0.22449874877929688,0.1363775134086609,-1.3065773248672485,0.00476844422519207,-0.7272831201553345,0.1974135935306549,1.2970404624938965,0.014686808921396732,0.7257572412490845,-0.3900587558746338,-0.42668038606643677,0.14286258816719055,0.4877164959907532,0.5933852195739746,-0.420642226934433,0.0020870177540928125,-0.6750209927558899,0.11196307092905045,0.439269095659256,1.050011396408081,-0.48052144050598145,0.011481165885925293,0.26954710483551025,-0.34927526116371155,-1.1913700103759766,0.06840749084949493,-0.005993303377181292,-0.14140191674232483,0.7720975279808044,0.25340479612350464,-0.008928170427680016,0.0523640476167202,0.14045673608779907,0.08457159250974655,-0.6271085739135742,0.26196742057800293,-0.17637108266353607,0.2538149058818817,-0.09029899537563324,-4.121349334716797,2.0132012367248535,-1.829237461090088,8.3582181930542,-0.9782556891441345,0.49290671944618225,1741504458.8158655,1741504458753,1.983230712890625,-0.18706167602539062,-0.7721791198944714,3.80381640625,-1.6733295898437501
1741504458.8836884,0.7838430404663086,0.019089014266744187,-0.052044871303952474,-0.9984622881738094,0.27083003520965576,-0.02716156095266342,-1.0006285905838013,1.0935554504394531,-0.7364178895950317,7.526145935058594,-0.9874496459960938,0.21457958221435547,0.1180666834115982,-1.3042885065078735,0.00476844422519207,-0.7291905283927917,0.21152819693088531,1.297421932220459,0.014686808921396732,0.724612832069397,-0.3854810297489166,-0.42553597688674927,0.12417028844356537,0.4869535267353058,0.5907148718833923,-0.4182412326335907,0.001785116153769195,-0.7631418108940125,0.14782176911830902,0.3912031650543213,1.205653429031372,-0.4975343942642212,-0.007220439147204161,-0.1371288150548935,-0.30209672451019287,-0.9003186225891113,0.15568891167640686,-0.008691645227372646,-0.08851522207260132,0.980442225933075,0.0007719870191067457,0.0077232299372553825,-0.1055036336183548,0.21269161999225616,0.0982721820473671,-0.9730366468429565,-0.05096973478794098,-0.09542545676231384,0.08989415317773819,0.16902264952659607,-4.279886245727539,1.650136113166809,-2.431004285812378,7.340704917907715,-0.8006029725074768,-0.928310215473175,1741504458.9182305,1741504458853,1.9785972900390625,-0.13249018859863282,-0.7019369938099912,3.8036467285156252,-1.6733553466796875
1741504458.9037344,0.7637579441070557,0.015096281889638302,-0.05842072678224987,-0.9981779004542938,0.33868804574012756,-0.2650282084941864,-0.9851749539375305,2.510925769805908,-2.9926133155822754,11.798921585083008,-0.9851608276367188,0.20809459686279297,0.1039520874619484,-1.303907036781311,0.00476844422519207,-0.728427529335022,0.22793163359165192,1.297421932220459,0.014686808921396732,0.7242313027381897,-0.3854810297489166,-0.4201953113079071,0.11043716967105865,0.4797055125236511,0.5918593406677246,-0.41738083958625793,0.008658969774842262,-0.8188372850418091,0.16956588625907898,0.34580758213996887,1.3036926984786987,-0.5059630274772644,0.0008291094563901424,0.05300843343138695,-0.1688987910747528,-0.6451377272605896,0.002520115813240409,-0.004460357129573822,0.03767877072095871,1.152278184890747,0.004410717636346817,-0.010048101656138897,-0.006335320882499218,-0.09417999535799026,0.35295569896698,-0.7117544412612915,-0.38593679666519165,0.06049115210771561,0.029831968247890472,0.2594260275363922,-2.315722703933716,0.9591827988624573,-2.189171552658081,4.0793657302856445,-0.35471111536026,0.7793970108032227,1741504458.9182305,1741504458853,1.9785972900390625,-0.13249018859863282,-0.7019369938099912,3.8036467285156252,-1.6733553466796875
1741504458.9237232,0.7492332458496094,0.009293818227925582,-0.05852686694277209,-0.9982425711161639,-0.04956495389342308,-0.3484754264354706,-0.6217852234840393,0.968621015548706,-0.7795333862304688,9.324915885925293,-0.9920272827148438,0.21992111206054688,0.09441519528627396,-1.303144097328186,0.005149920005351305,-0.728427529335022,0.2454795092344284,1.300473690032959,0.014686808921396732,0.7249943017959595,-0.387006938457489,-0.41561761498451233,0.09441519528627396,0.47703516483306885,0.5922408103942871,-0.4224057197570801,0.009834281168878078,-0.8272297382354736,0.182154580950737,0.308041512966156,1.3078888654708862,-0.5109200477600098,0.007856533862650394,-0.18756763637065887,0.3858488202095032,-0.45990824699401855,0.05805664137005806,0.005764043424278498,-0.0016083687078207731,1.142876148223877,0.24933132529258728,0.01033986546099186,0.039210207760334015,0.0012873070081695914,0.05905892327427864,-0.8208727836608887,-0.0646747574210167,-0.039719000458717346,-0.3482622802257538,0.2341800481081009,-0.06582195311784744,0.60508131980896,-1.7037162780761719,-0.5755524039268494,-0.24357861280441284,0.004527796059846878,1741504458.9182305,1741504458853,1.9785972900390625,-0.13249018859863282,-0.7019369938099912,3.8036467285156252,-1.6733553466796875
1741504458.9437659,0.746448278427124,0.0020490383826466305,-0.052948045182621785,-0.9985951661975163,-0.2867298126220703,-0.29778939485549927,-0.07775035500526428,1.6677496433258057,-0.9602521657943726,8.051055908203125,-0.9992752075195312,0.22297286987304688,0.08907453715801239,-1.3016180992126465,0.00476844422519207,-0.7288090586662292,0.2630273997783661,1.3065773248672485,0.01506828423589468,0.724612832069397,-0.3885328471660614,-0.41371023654937744,0.08106355369091034,0.4697871506214142,0.6013962030410767,-0.4367291033267975,0.017950382083654404,-0.7856488823890686,0.18711376190185547,0.2809567451477051,1.2148088216781616,-0.5198982954025269,-0.004695066716521978,-0.2021862268447876,0.10312306880950928,-0.32317861914634705,0.09576760232448578,-0.03679212927818298,-0.037574175745248795,1.1876579523086548,0.4458901882171631,0.025335628539323807,-0.03444219008088112,-0.04388342797756195,0.2074187695980072,-0.686521589756012,-0.49712738394737244,0.6185771226882935,-0.7583244442939758,0.33562517166137695,2.3920445442199707,0.11596180498600006,-1.2303460836410522,-5.405757904052734,-0.4793093502521515,-0.4658769369125366,1741504458.9182305,1741504458853,1.9785972900390625,-0.13249018859863282,-0.7019369938099912,3.8036467285156252,-1.6733553466796875
1741504458.9638445,0.7488713264465332,-0.0008043259446318901,-0.04639645414842405,-0.9989227808505661,-0.33402490615844727,-0.12634143233299255,0.08158441632986069,-0.8039925694465637,-2.37320876121521,5.871630668640137,-0.9962234497070312,0.22220993041992188,0.07495994865894318,-1.3016180992126465,0.005149920005351305,-0.7307164072990417,0.2790493667125702,1.3130624294281006,0.01506828423589468,0.7242313027381897,-0.38090333342552185,-0.4179064631462097,0.06733043491840363,0.4522392749786377,0.6212329268455505,-0.45678946375846863,0.021581947803497314,-0.7219424843788147,0.17872129380702972,0.26760509610176086,1.041237473487854,-0.5395587682723999,-0.002811912912875414,0.06652748584747314,0.0027515070978552103,-0.655464768409729,-0.006212205626070499,0.0032484647817909718,-0.12356668710708618,1.026399850845337,0.35396283864974976,-0.0016035607550293207,0.005397888831794262,0.518754243850708,-0.2598007619380951,-0.6687059998512268,-0.7656733989715576,1.0487303733825684,-1.0256342887878418,0.28161364793777466,3.1452603340148926,-0.46445542573928833,-0.5983874201774597,-9.056170463562012,-1.0973974466323853,0.13933363556861877,1741504458.9182305,1741504458853,1.9785972900390625,-0.13249018859863282,-0.7019369938099912,3.8036467285156252,-1.6733553466796875
1741504458.9838293,0.7482173442840576,0.0025480639090691504,-0.040987038506489895,-0.9991564292165581,-0.20155316591262817,0.2199360728263855,-0.10382763296365738,-3.2594313621520996,7.792666435241699,4.309494495391846,-0.9946975708007812,0.21648693084716797,0.06885633617639542,-1.301236629486084,0.00476844422519207,-0.7360570430755615,0.2962157726287842,1.314206838607788,0.01506828423589468,0.7242313027381897,-0.3694590628147125,-0.42858776450157166,0.050164032727479935,0.44384679198265076,0.6475547552108765,-0.4727657437324524,0.02049311436712742,-0.657473087310791,0.1501106321811676,0.26989394426345825,0.8424887657165527,-0.5713961124420166,-0.005408612545579672,0.04549873247742653,-0.07934834063053131,-0.19466134905815125,0.03483869880437851,0.006258122157305479,-0.2249046415090561,1.1659579277038574,0.049238983541727066,0.01684761233627796,-0.011245927773416042,0.525444746017456,-0.6140413284301758,-0.8031191825866699,-0.2761577069759369,1.3314228057861328,-0.7255138158798218,-0.14090102910995483,3.298638343811035,-1.5480060577392578,0.18305343389511108,-9.755887985229492,-1.4685629606246948,-0.23702824115753174,1741504459.0206008,1741504458953,1.9807102050781251,-0.098264892578125,-0.8124930369705209,3.803704833984375,-1.6732349853515625
1741504459.0038152,0.7453582286834717,0.00579691784312537,-0.04766848979949771,-0.998846390003866,0.29844486713409424,0.06506184488534927,-0.02341821976006031,-5.887083053588867,-9.916997909545898,21.7280330657959,-0.9874496459960938,0.20962047576904297,0.071908138692379,-1.3103920221328735,0.005531395319849253,-0.7410162687301636,0.3114747703075409,1.308484673500061,0.014686808921396732,0.7196536064147949,-0.34847790002822876,-0.4362172782421112,0.05436026677489281,0.4373617172241211,0.6677729487419128,-0.47593533992767334,0.029560670256614685,-0.6349660754203796,0.1497291475534439,0.2660791873931885,0.840199887752533,-0.5222176313400269,0.002250147983431816,0.2219424694776535,-0.03132965415716171,0.10793549567461014,-0.9084248542785645,0.03271660953760147,-0.218891903758049,0.9522070288658142,-0.4223311245441437,-0.027957212179899216,-0.5139862895011902,0.9601746201515198,-0.06787478923797607,0.49729713797569275,-0.3074119985103607,0.6383102536201477,-0.08725842833518982,0.5291107296943665,0.5749465227127075,-0.16026335954666138,-0.15477146208286285,1.3475286960601807,2.5573978424072266,0.4451043903827667,1741504459.0206008,1741504458953,1.9807102050781251,-0.098264892578125,-0.8124930369705209,3.803704833984375,-1.6732349853515625
1741504459.02384,0.7363572120666504,0.01812277609766785,-0.04291339041192718,-0.998914413706133,-0.1867183893918991,0.4515741169452667,-0.40864670276641846,12.523795127868652,-4.921374797821045,0.6861519813537598,-1.0091934204101562,0.21305370330810547,0.08602273464202881,-1.317258596420288,0.004386968910694122,-0.7410162687301636,0.3110933005809784,1.304669976234436,0.01583123579621315,0.7154573798179626,-0.36755168437957764,-0.42744335532188416,0.03681239113211632,0.4560540020465851,0.6597619652748108,-0.470307320356369,-0.0016509965062141418,-0.6528953909873962,0.11081864684820175,0.28591591119766235,0.8375295400619507,-0.4947025179862976,0.0035875928588211536,-0.6782339215278625,0.15214644372463226,0.8687737584114075,-0.25156742334365845,-0.009825463406741619,0.0350288562476635,-0.18060652911663055,-0.17715005576610565,0.07356815785169601,-0.13788773119449615,-1.2022662162780762,0.3988668620586395,-1.011480689048767,0.9634195566177368,-0.6007224321365356,0.40887778997421265,-1.646077275276184,-0.6918309330940247,-1.5914908647537231,0.7349615693092346,-0.9620643854141235,1.0649032592773438,0.32656100392341614,1741504459.0206008,1741504458953,1.9807102050781251,-0.098264892578125,-0.8124930369705209,3.803704833984375,-1.6732349853515625
