Freshhhhh-LC/Legged_odom/data/3/segments/booster_seg_9.37s.csv
time,yaw,projected_gravity_x,projected_gravity_y,projected_gravity_z,ang_vel_x,ang_vel_y,ang_vel_z,lin_acc_x,lin_acc_y,lin_acc_z,q_0,q_1,q_2,q_3,q_4,q_5,q_6,q_7,q_8,q_9,q_10,q_11,q_12,q_13,q_14,q_15,q_16,q_17,q_18,q_19,q_20,q_21,q_22,dq_0,dq_1,dq_2,dq_3,dq_4,dq_5,dq_6,dq_7,dq_8,dq_9,dq_10,dq_11,dq_12,dq_13,dq_14,dq_15,dq_16,dq_17,dq_18,dq_19,dq_20,dq_21,dq_22,mocap_time,mocap_timestamp,robot_x,robot_y,robot_yaw,ball_x,ball_y
1741504932.5567217,-0.6994754076004028,0.010640615959586635,0.07932383050282336,-0.9967921083186603,-0.018329884856939316,0.07302118092775345,0.9065616726875305,2.8188624382019043,1.0567115545272827,6.222989559173584,-0.01888275146484375,0.23060226440429688,0.2927824854850769,-1.2684297561645508,0.005149920005351305,-0.9496833682060242,0.06198977679014206,1.2432523965835571,0.0036240178160369396,0.916113555431366,0.06923781335353851,-0.7097352743148804,-0.10662241280078888,-0.18940261006355286,1.568818211555481,-0.43408793210983276,-0.00023904096451587975,-0.5140383243560791,0.01430533267557621,-0.23670557141304016,0.7455939650535583,-0.3488548696041107,-0.021369781345129013,0.22630180418491364,0.03604947403073311,2.725531816482544,-0.5023099780082703,-0.00930818635970354,-0.053889498114585876,-4.318906307220459,-0.5030705332756042,-0.07037456333637238,0.15599094331264496,-1.9302462339401245,-5.253181457519531,-0.47079962491989136,2.2389402389526367,1.5329145193099976,-2.248795509338379,-0.529635488986969,2.1112263202667236,1.167559266090393,1.3630484342575073,-0.49977755546569824,-1.2322825193405151,0.9321305155754089,1741504932.5561192,1741504932373,1.5948970947265626,0.7614242553710938,-1.8549399344659674,3.26078662109375,-0.4196302490234375
1741504932.5755248,-0.64776211977005,0.037985910491380594,0.06116235728054493,-0.9974047506684675,0.22590206563472748,0.3064691126346588,0.24306675791740417,3.314868927001953,0.17053769528865814,8.787071228027344,0.02689361572265625,0.21190929412841797,0.4797055125236511,-1.2535521984100342,0.005149920005351305,-0.9351872801780701,-0.10662241280078888,1.223797082901001,0.0032425422687083483,0.960746169090271,-0.01506828423589468,-0.994316041469574,0.011635004542768002,-0.015449759550392628,1.058022379875183,-0.3559112250804901,-0.0028156505431979895,-0.3900587558746338,0.058175019919872284,-0.1836804747581482,0.7478827834129333,-0.5185585021972656,-0.02635754644870758,0.2616156041622162,-0.10902513563632965,0.957815945148468,0.4573644995689392,-0.005814380012452602,0.4663597345352173,-0.48719772696495056,-0.3370358347892761,0.005199846811592579,0.7149150371551514,-0.8911619186401367,0.044938962906599045,2.156797170639038,1.5045316219329834,-8.75139331817627,2.4393222332000732,0.32160046696662903,1.8151088953018188,0.42675673961639404,0.8033509850502014,0.18001310527324677,-1.6994543075561523,0.24433155357837677,1741504932.5561192,1741504932373,1.5948970947265626,0.7614242553710938,-1.8549399344659674,3.26078662109375,-0.4196302490234375
1741504932.577432,-0.621566891670227,0.00279492986651581,0.050476374569818995,-0.9987213445087316,0.2959519624710083,-0.13524070382118225,-0.017724141478538513,2.9909896850585938,4.207712173461914,6.744973659515381,0.033379554748535156,0.24967575073242188,0.29964902997016907,-1.2577484846115112,0.004386968910694122,-0.9065766334533691,0.08983749151229858,1.2421079874038696,0.004005493130534887,0.954261064529419,-0.06923781335353851,-0.8054856061935425,0.07534141838550568,0.06160829961299896,0.8497368097305298,-0.2712380290031433,-0.01654391922056675,-0.2935454249382019,0.10967422276735306,-0.06160829961299896,1.0141527652740479,-0.47048014402389526,-0.08173481374979019,-0.27967652678489685,-0.23277422785758972,-4.032569408416748,-0.15828800201416016,-0.056160327047109604,-0.009555640630424023,3.325805425643921,0.3025709092617035,-0.00021073497191537172,0.012764690443873405,0.09123392403125763,2.006760597229004,-1.9051281213760376,-1.378774642944336,0.9046147465705872,-0.3399752974510193,-0.6355594396591187,-3.2732298374176025,0.18352724611759186,2.0728394985198975,8.036641120910645,2.236793279647827,-0.1694919764995575,1741504932.5561192,1741504932373,1.5948970947265626,0.7614242553710938,-1.8549399344659674,3.26078662109375,-0.4196302490234375
1741504932.5792496,-0.6291730403900146,-0.0018821943613877767,0.03530018078564277,-0.9993749819666724,0.7633731961250305,-0.23004494607448578,-0.4686953127384186,-5.5110297203063965,-3.2110118865966797,12.853899002075195,0.047493934631347656,0.2615013122558594,0.21763180196285248,-1.2596558332443237,0.005149920005351305,-0.9054322242736816,0.14019227027893066,1.2455412149429321,0.004386968910694122,0.9531166553497314,-0.06656748056411743,-0.7814526557922363,0.05397878959774971,0.0398641936480999,0.8600366115570068,-0.28049173951148987,-0.01684415526688099,-0.4011215269565582,0.11730372905731201,-0.02384222112596035,1.192301869392395,-0.4251402020454407,-0.08227045834064484,0.4291488826274872,0.37303003668785095,-4.1630682945251465,-0.21033787727355957,-0.04435599595308304,-0.0027313516475260258,3.422687530517578,0.21237057447433472,0.02356255240738392,-0.11262170225381851,0.07489925622940063,1.243424415588379,-0.8839945793151855,-0.7902277708053589,0.493272066116333,-0.4789819121360779,0.07963500916957855,-5.716066360473633,0.3422301113605499,1.9507620334625244,8.770870208740234,2.188838481903076,0.21930637955665588,1741504932.5561192,1741504932373,1.5948970947265626,0.7614242553710938,-1.8549399344659674,3.26078662109375,-0.4196302490234375
1741504932.5965838,-0.6447064876556396,8.073166818901614e-05,0.021982834146079225,-0.999758345044093,0.6346937417984009,0.21509364247322083,-0.8199563026428223,-1.2090660333633423,-1.126680850982666,10.522542953491211,0.039864540100097656,0.2584495544433594,0.13027389347553253,-1.2566040754318237,0.00476844422519207,-0.9084840416908264,0.18520638346672058,1.2501189708709717,0.004386968910694122,0.9500648379325867,-0.07381551712751389,-0.7433050870895386,0.0555046908557415,0.04253452271223068,0.8669031858444214,-0.2931171953678131,-0.023831596598029137,-0.5254825949668884,0.1356145590543747,0.005912871100008488,1.3471808433532715,-0.4026583731174469,-0.027348604053258896,-0.20914492011070251,-0.03424540162086487,-4.3717122077941895,0.3017735481262207,-0.010108557529747486,-0.14035075902938843,2.965956449508667,0.364078164100647,0.005090302787721157,-0.23343345522880554,-0.4589090943336487,1.9926767349243164,0.10305321216583252,0.24076521396636963,0.2563232481479645,-0.6329405307769775,-0.3579857647418976,-6.16954231262207,1.0287773609161377,1.3725467920303345,7.235274314880371,0.9184796214103699,3.105959415435791,1741504932.5561192,1741504932373,1.5948970947265626,0.7614242553710938,-1.8549399344659674,3.26078662109375,-0.4196302490234375
1741504932.6165915,-0.6633914709091187,0.00035846899077916143,0.010425239335202778,-0.9999455914622487,0.5656527280807495,-0.06804899126291275,-0.9466848969459534,2.4724457263946533,-1.081822395324707,12.317432403564453,0.035668373107910156,0.2687492370605469,0.05092698708176613,-1.2485930919647217,0.005149920005351305,-0.9107728600502014,0.23289081454277039,1.2531707286834717,0.004386968910694122,0.9454871416091919,-0.0871671661734581,-0.7112611532211304,0.06046387553215027,0.05207141116261482,0.8672846555709839,-0.3083600699901581,-0.03173073008656502,-0.6509880423545837,0.14400701224803925,0.01926451548933983,1.4368276596069336,-0.41716426610946655,-0.0001549328735563904,-0.14744120836257935,0.35969454050064087,-3.8520028591156006,0.49949878454208374,-0.006964529864490032,-0.14169088006019592,3.228574275970459,0.1435757577419281,0.007963893935084343,-0.28591015934944153,-0.6988542675971985,1.5489015579223633,0.16971559822559357,0.3503999710083008,0.006400616839528084,-0.7998557090759277,-0.30701854825019836,-6.150950908660889,0.2810854911804199,0.5746024250984192,3.9105517864227295,-1.0764572620391846,0.8247658014297485,1741504932.6461535,1741504932473,1.6759598388671875,0.6955289306640625,-2.115300808828856,3.30645849609375,-0.4654073486328125
1741504932.636645,-0.6778714656829834,0.0016725090451083038,-0.0016374706804235001,-0.9999972606978804,0.6217463612556458,0.14885804057121277,-0.548428475856781,0.24960483610630035,-0.28413155674934387,9.837641716003418,0.032235145568847656,0.2637901306152344,-0.010109102353453636,-1.2440153360366821,0.005149920005351305,-0.917639434337616,0.2809567451477051,1.2554595470428467,0.004005493130534887,0.9431982636451721,-0.09861142933368683,-0.6654840707778931,0.06046387553215027,0.05359731614589691,0.8665217161178589,-0.3317951560020447,-0.03538486361503601,-0.7570382356643677,0.13904783129692078,0.024223696440458298,1.4543755054473877,-0.4560808539390564,-0.009470954537391663,-0.12767617404460907,-0.08508864045143127,-3.078057289123535,0.23372353613376617,0.018232528120279312,-0.3434574604034424,3.243805408477783,0.12818044424057007,-0.013415333814918995,-0.06868211179971695,-0.5158922076225281,2.3437039852142334,-0.0018977170111611485,0.06494207680225372,-0.05177571624517441,-1.2432904243469238,-0.24805870652198792,-5.011894226074219,-0.3415493369102478,0.27102130651474,0.39981207251548767,-2.0037789344787598,-0.33069685101509094,1741504932.6461535,1741504932473,1.6759598388671875,0.6955289306640625,-2.115300808828856,3.30645849609375,-0.4654073486328125
1741504932.656638,-0.6807861328125,0.002658351220267169,-0.011225450089341824,-0.9999334590056888,0.38561761379241943,-0.010049358010292053,-0.06225720793008804,0.20222066342830658,0.33817824721336365,7.64826774597168,0.02803802490234375,0.2679862976074219,-0.06427863240242004,-1.2424894571304321,0.00476844422519207,-0.927176296710968,0.32940414547920227,1.2535521984100342,0.004005493130534887,0.9416723847389221,-0.11387044936418533,-0.6368734240531921,0.06008239835500717,0.058175019919872284,0.8661402463912964,-0.3633403182029724,-0.040024034678936005,-0.8455405235290527,0.1180666834115982,0.040627144277095795,1.41470205783844,-0.4821931719779968,0.0075000314973294735,-0.14644500613212585,0.13316333293914795,-2.7114791870117188,0.1355617642402649,-0.017725910991430283,-0.5056895017623901,3.2168757915496826,-0.07870974391698837,0.011023164726793766,-0.1318386346101761,-0.8068598508834839,1.2241796255111694,-0.01972186751663685,0.29204803705215454,0.006216367706656456,-1.6639174222946167,-0.17472857236862183,-4.118069171905518,-1.1094921827316284,0.9784780740737915,-2.3642802238464355,-0.9760556221008301,1.1572730541229248,1741504932.6461535,1741504932473,1.6759598388671875,0.6955289306640625,-2.115300808828856,3.30645849609375,-0.4654073486328125
1741504932.6766825,-0.6770371198654175,0.004422354066806483,-0.0179732200471166,-0.9998286883989905,0.3675447404384613,0.12742958962917328,0.27619490027427673,4.222416400909424,-2.1467397212982178,6.3940205574035645,0.01888275146484375,0.2622642517089844,-0.1188296303153038,-1.2402005195617676,0.00476844422519207,-0.9454871416091919,0.3751811981201172,1.2562226057052612,0.004386968910694122,0.9412909150123596,-0.12340734153985977,-0.6097886562347412,0.06313420087099075,0.06618601083755493,0.8745326995849609,-0.40199318528175354,-0.0452735610306263,-0.9065766334533691,0.0875486359000206,0.06618601083755493,1.3319218158721924,-0.4724661409854889,0.0194235909730196,-0.2616080641746521,-0.141813725233078,-2.519193649291992,0.10762880742549896,-0.029721131548285484,-0.9869519472122192,3.060603141784668,0.16514673829078674,0.03283762186765671,-0.03426986187696457,-0.43207526206970215,1.6478853225708008,0.1641685664653778,0.4152772128582001,0.557909369468689,-1.9681862592697144,-0.2359827309846878,-2.817411184310913,-1.57241690158844,1.3333735466003418,-4.2946977615356445,0.7584864497184753,0.3898536264896393,1741504932.6461535,1741504932473,1.6759598388671875,0.6955289306640625,-2.115300808828856,3.30645849609375,-0.4654073486328125
1741504932.6966867,-0.6729097366333008,0.010746649353380404,-0.02439156490140852,-0.9996447174318163,0.2895583212375641,0.3033889830112457,0.20791512727737427,0.5435898303985596,-4.080608367919922,9.103497505187988,0.01697540283203125,0.2576866149902344,-0.1520180106163025,-1.23905611038208,0.00476844422519207,-0.9634165167808533,0.42515450716018677,1.2581299543380737,0.004005493130534887,0.9348058104515076,-0.11959258466959,-0.5903334021568298,0.06427863240242004,0.07343403995037079,0.8859769701957703,-0.4440504312515259,-0.05141662061214447,-0.9283207654953003,0.05664911866188049,0.09250781685113907,1.2006943225860596,-0.43488895893096924,0.010822559706866741,-0.08572869002819061,-0.1687244474887848,-1.4129053354263306,0.08364792168140411,-0.0023961281403899193,-0.8574938774108887,3.201418399810791,0.06721607595682144,-0.017764566466212273,-0.484561562538147,0.30631759762763977,0.8787278532981873,0.00604302017018199,0.3511756360530853,0.5917834043502808,-2.125995635986328,-0.3966963589191437,-0.9844563603401184,-1.5634443759918213,1.1842737197875977,-7.069785118103027,1.9581859111785889,-0.3732016980648041,1741504932.6461535,1741504932473,1.6759598388671875,0.6955289306640625,-2.115300808828856,3.30645849609375,-0.4654073486328125
1741504932.7167168,-0.667088508605957,0.017367830818814003,-0.02615553026973514,-0.9995070018208767,0.10503233224153519,0.3495967388153076,0.2565597593784332,1.2546095848083496,-1.5475221872329712,4.994589328765869,0.01201629638671875,0.24891281127929688,-0.16308079659938812,-1.2363858222961426,0.00476844422519207,-0.9771496057510376,0.4549095928668976,1.2588928937911987,0.00476844422519207,0.9279392957687378,-0.09861142933368683,-0.5678263306617737,0.045204851776361465,0.07305257022380829,0.9115357995033264,-0.4832887351512909,-0.04988390952348709,-0.9111543297767639,0.013542382046580315,0.10509651154279709,0.9969863295555115,-0.39561572670936584,-4.323535176808946e-05,-0.176424041390419,-0.25831082463264465,-0.3974761366844177,0.18574880063533783,-0.009018263779580593,-0.665461003780365,1.7679922580718994,0.029865436255931854,0.04718894138932228,-0.4505021274089813,1.229686975479126,1.0740370750427246,-1.2563108205795288,0.010825270786881447,1.3807144165039062,-1.9661333560943604,0.2535416781902313,1.4899016618728638,-2.2907979488372803,0.5327522158622742,-10.5953950881958,1.864974021911621,-0.5693906545639038,1741504932.7470775,1741504932573,1.7425294189453124,0.613301513671875,-2.1769679541410336,3.3517250976562503,-0.507012451171875
1741504932.7367728,-0.6655675172805786,0.011374961207809516,-0.023226595534493587,-0.9996655118175268,-0.27976301312446594,-0.6608421802520752,0.0020266775973141193,-13.732731819152832,-4.047179222106934,18.993444442749023,0.00553131103515625,0.2779045104980469,-0.14820325374603271,-1.231045126914978,0.005149920005351305,-0.9802014231681824,0.4663538634777069,1.2569855451583862,0.00476844422519207,0.9164950251579285,-0.06351567804813385,-0.5388342142105103,0.04139009863138199,0.05703059583902359,0.9439612627029419,-0.5177172422409058,-0.020870639011263847,-0.8718623518943787,-0.03833829239010811,0.06237125024199486,0.9267948269844055,-0.3021162152290344,0.05391314998269081,-0.16986481845378876,0.871344268321991,0.9483457207679749,0.3639689087867737,-0.009446164593100548,-0.06210722401738167,0.6029635667800903,-0.17440831661224365,0.0313434973359108,-1.011452078819275,1.6339523792266846,1.5687878131866455,0.6041139364242554,-1.0302163362503052,1.4276666641235352,-1.673097014427185,1.7325217723846436,2.3506901264190674,-2.101249933242798,-2.718763828277588,-0.2921033799648285,5.017555236816406,2.790097951889038,1741504932.7470775,1741504932573,1.7425294189453124,0.613301513671875,-2.1769679541410336,3.3517250976562503,-0.507012451171875
1741504932.7568169,-0.6739978194236755,0.017504511427292417,-0.013527048821902513,-0.9997552755699075,-0.4794512093067169,0.21257758140563965,-0.37009426951408386,-0.1411035805940628,-0.6609198451042175,6.913743019104004,0.00133514404296875,0.2691307067871094,-0.10471503436565399,-1.229519248008728,0.004005493130534887,-0.9767681360244751,0.4484245181083679,1.2569855451583862,0.005149920005351305,0.9077210426330566,-0.06351567804813385,-0.5037384629249573,0.031090257689356804,0.05436026677489281,0.9580758213996887,-0.5344504117965698,0.004824105184525251,-0.804341197013855,-0.03147173300385475,0.03376058489084244,0.9245060086250305,-0.2313491702079773,0.06007438525557518,-0.06388851255178452,-0.052264053374528885,2.4281227588653564,0.08632899820804596,0.06708811223506927,0.14989978075027466,-1.4549686908721924,-0.04430029168725014,0.003009006381034851,-0.3284883201122284,-0.1008438915014267,1.813835620880127,-0.3119385540485382,-0.06381098926067352,0.6699612736701965,-0.44501420855522156,0.7811177372932434,2.522263526916504,-0.020272888243198395,-0.7444926500320435,-1.1677731275558472,3.044320821762085,-0.30769971013069153,1741504932.7470775,1741504932573,1.7425294189453124,0.613301513671875,-2.1769679541410336,3.3517250976562503,-0.507012451171875
1741504932.7768118,-0.6735700368881226,0.015447140029257317,-0.008089401529052196,-0.9998479621661577,-0.20199054479599,0.010496633127331734,-0.06561024487018585,-3.7193610668182373,0.08167765289545059,17.100461959838867,0.00705718994140625,0.2752342224121094,-0.04406042397022247,-1.232571005821228,0.00476844422519207,-0.9676127433776855,0.4060807228088379,1.2550780773162842,0.00476844422519207,0.9096284508705139,-0.08144503086805344,-0.47550925612449646,0.037193864583969116,0.06771191209554672,0.9836347103118896,-0.5099123120307922,-0.00744670769199729,-0.7551308274269104,-0.014686808921396732,0.06008239835500717,0.9073395729064941,-0.22155027091503143,0.006632942706346512,0.16110049188137054,0.17654961347579956,2.7059054374694824,-0.40790802240371704,-0.10098249465227127,0.5151272416114807,-2.909911870956421,-0.21733927726745605,-0.022823311388492584,0.013616417534649372,-1.1870073080062866,1.498541235923767,0.33488917350769043,0.8179029822349548,1.861356258392334,1.4343096017837524,-0.11513660103082657,2.720029592514038,1.365403652191162,1.282249093055725,-0.12287624180316925,-0.17407450079917908,-2.8291709423065186,1741504932.7470775,1741504932573,1.7425294189453124,0.613301513671875,-2.1769679541410336,3.3517250976562503,-0.507012451171875
1741504932.7968054,-0.6701264381408691,0.016924469116717335,0.002104799109434173,-0.9998545555058626,-0.541117250919342,-0.02531534433364868,0.2820468842983246,-7.082431316375732,5.0500593185424805,14.225895881652832,-0.00972747802734375,0.2908754348754883,0.024986648932099342,-1.2516448497772217,0.005149920005351305,-0.9596017599105835,0.3568703830242157,1.2470670938491821,0.00476844422519207,0.9088655114173889,-0.12836651504039764,-0.4854276478290558,0.03604944050312042,0.11158160120248795,1.0538262128829956,-0.46977144479751587,0.003573814406991005,-0.7192721366882324,0.012779430486261845,0.08907453715801239,0.8989471197128296,-0.27536964416503906,-0.00274753593839705,-0.5334137082099915,0.560361921787262,3.620241403579712,-1.1270126104354858,-0.01997268572449684,0.317255437374115,-3.470585823059082,-0.5710204243659973,-0.0003165690286550671,0.06187119707465172,-2.359517812728882,-1.0980228185653687,-0.04365048557519913,2.3234949111938477,3.7791545391082764,2.007619857788086,0.44796377420425415,1.6005189418792725,0.9200439453125,1.7820297479629517,-0.8506041169166565,-2.940854549407959,0.2024601548910141,1741504932.7470775,1741504932573,1.7425294189453124,0.613301513671875,-2.1769679541410336,3.3517250976562503,-0.507012451171875
1741504932.8169332,-0.6616360545158386,0.02160049045868896,0.00442995397975913,-0.9997568676031594,-0.03918852657079697,0.39211344718933105,0.4404001533985138,9.539763450622559,0.7854294180870056,5.244532108306885,-0.00324249267578125,0.2859163284301758,0.09365224838256836,-1.2661409378051758,0.005149920005351305,-0.955024003982544,0.30041199922561646,1.23753023147583,0.004005493130534887,0.9138246774673462,-0.16155488789081573,-0.536163866519928,0.040627144277095795,0.15316243469715118,1.1758984327316284,-0.4240051507949829,0.014575185254216194,-0.6658655405044556,0.029564354568719864,0.10585946589708328,0.882543683052063,-0.33357107639312744,0.014451539143919945,0.13986146450042725,-0.0563422292470932,3.5353565216064453,-1.0960451364517212,0.0008129418129101396,0.24970124661922455,-3.90950083732605,-0.6641775369644165,-0.052565205842256546,0.34449511766433716,-1.4879951477050781,-2.7092196941375732,0.3135468363761902,1.9541058540344238,6.3885579109191895,2.2710232734680176,0.4496956467628479,2.9120192527770996,0.9187776446342468,0.7011445760726929,-0.636981725692749,-2.703909158706665,0.8006786108016968,1741504932.8468094,1741504932673,1.8063066406250001,0.5244293823242188,-2.062464320186255,3.391470703125,-0.5449647827148437
1741504932.836884,-0.6448013782501221,0.02108781548711604,0.004648177343973176,-0.9997668220567035,-0.057210519909858704,-0.11645031720399857,0.9156800508499146,8.416583061218262,-3.538694381713867,11.044864654541016,0.00057220458984375,0.2950716018676758,0.1680399775505066,-1.2806370258331299,0.005149920005351305,-0.9496833682060242,0.24090181291103363,1.227993369102478,0.0036240178160369396,0.9142061471939087,-0.18902114033699036,-0.6139848828315735,0.04940108209848404,0.18520638346672058,1.3082703351974487,-0.3923913240432739,0.00645437091588974,-0.6303883194923401,0.037193864583969116,0.12455176562070847,0.8634698987007141,-0.36857137084007263,0.008584442548453808,0.07859691232442856,0.30168789625167847,3.7680814266204834,-0.774318277835846,-0.025142602622509003,0.2587352991104126,-3.835996150970459,-0.6275658011436462,0.012361512519419193,-0.0021527293138206005,-1.5038682222366333,-4.116008758544922,0.11343447118997574,1.5729213953018188,6.232872009277344,1.232654094696045,-0.36208853125572205,1.7044113874435425,0.4436771273612976,0.9109995365142822,-0.9565013647079468,-1.6268404722213745,-0.4599413275718689,1741504932.8468094,1741504932673,1.8063066406250001,0.5244293823242188,-2.062464320186255,3.391470703125,-0.5449647827148437
1741504932.8568716,-0.6220862865447998,0.024468389994716944,0.004678383683923843,-0.9996896571522446,0.0033049408812075853,0.2787303924560547,1.1955726146697998,11.645787239074707,0.02065197192132473,5.141629695892334,-0.00896453857421875,0.2904939651489258,0.24204623699188232,-1.2825443744659424,0.005149920005351305,-0.9470130205154419,0.1832990050315857,1.2203638553619385,0.0032425422687083483,0.9145876169204712,-0.21686884760856628,-0.6811245679855347,0.04596780240535736,0.2313649207353592,1.4047837257385254,-0.39519351720809937,0.0033965737093240023,-0.5693522691726685,0.038719769567251205,0.1363775134086609,0.8436331748962402,-0.37785711884498596,0.009567148983478546,-0.28784647583961487,-0.1533924639225006,3.7155027389526367,-0.16417548060417175,0.014325871132314205,0.08547339588403702,-3.929020881652832,-0.48048630356788635,-0.07627999782562256,0.06020166352391243,-1.222669005393982,-3.11515212059021,-0.12633895874023438,2.2109274864196777,4.470890045166016,-0.3786371946334839,0.03495773673057556,3.2300662994384766,0.03726549819111824,0.5260289907455444,-1.1088453531265259,-0.293969988822937,0.17765621840953827,1741504932.8468094,1741504932673,1.8063066406250001,0.5244293823242188,-2.062464320186255,3.391470703125,-0.5449647827148437
1741504932.8769057,-0.5984386205673218,0.01642369954613126,0.004399493816825447,-0.9998554428252987,0.007745502982288599,-0.515167236328125,1.1899815797805786,-8.021867752075195,-1.4832299947738647,11.105596542358398,-0.00743865966796875,0.3088045120239258,0.31605249643325806,-1.2806370258331299,0.005149920005351305,-0.9424353241920471,0.12607766687870026,1.2173120975494385,0.004005493130534887,0.9126802682876587,-0.23365376889705658,-0.7433050870895386,0.056267641484737396,0.2584496736526489,1.4429312944412231,-0.41883936524391174,0.0058561405166983604,-0.5228122472763062,0.03681239113211632,0.14209964871406555,0.8112077713012695,-0.3762279748916626,0.007350695785135031,0.005521432962268591,0.5526907444000244,3.6457722187042236,0.15470999479293823,-0.0006998637109063566,0.2523724138736725,-3.7635865211486816,-0.15446695685386658,0.11753987520933151,-0.1277511715888977,-0.7379633188247681,-3.004408836364746,0.515408992767334,1.2773364782333374,1.4186160564422607,-1.24785578250885,-0.1302003264427185,2.261183023452759,-0.012757399119436741,0.15886913239955902,-1.615952968597412,0.015282060950994492,-0.1653750240802765,1741504932.8468094,1741504932673,1.8063066406250001,0.5244293823242188,-2.062464320186255,3.391470703125,-0.5449647827148437
1741504932.8970623,-0.5829805135726929,0.01798863536381782,0.010603540546383907,-0.9997819631927897,-0.34962359070777893,0.13267435133457184,0.6781254410743713,0.5343858599662781,3.8624608516693115,8.379596710205078,-0.00209808349609375,0.2977418899536133,0.37937742471694946,-1.2756778001785278,0.004386968910694122,-0.9390020370483398,0.07305257022380829,1.2180750370025635,0.004005493130534887,0.9126802682876587,-0.24242770671844482,-0.7951858043670654,0.07534141838550568,0.26722362637519836,1.427672266960144,-0.43962880969047546,-0.005150984041392803,-0.45719844102859497,0.038719769567251205,0.15468832850456238,0.7875562906265259,-0.378358393907547,0.00761055015027523,0.13982075452804565,-0.26303189992904663,2.9401962757110596,0.37726542353630066,-0.030779091641306877,0.15338480472564697,-3.4849274158477783,0.02546144276857376,-0.03895013406872749,-0.00791713036596775,-0.22735607624053955,-2.5619571208953857,1.0920374393463135,0.1286841630935669,-1.0922225713729858,-0.9264063239097595,-0.49969568848609924,3.3150179386138916,0.18704457581043243,0.7244734168052673,-1.1720101833343506,-0.14179851114749908,0.037326205521821976,1741504932.8468094,1741504932673,1.8063066406250001,0.5244293823242188,-2.062464320186255,3.391470703125,-0.5449647827148437
1741504932.9169936,-0.5815246105194092,0.018556299021680874,0.020315153548788264,-0.9996214074853074,-0.48732438683509827,-0.007727505639195442,0.006924909073859453,-2.0051515102386475,-2.5114781856536865,8.251945495605469,-0.00133514404296875,0.2985048294067383,0.4339284300804138,-1.2657594680786133,0.005531395319849253,-0.9355688095092773,0.02536812424659729,1.2180750370025635,0.004005493130534887,0.9126802682876587,-0.23517967760562897,-0.84592205286026,0.11005569249391556,0.2607385218143463,1.3727397918701172,-0.44286245107650757,-0.004748456180095673,-0.41218432784080505,0.04749370738863945,0.16346226632595062,0.7497901916503906,-0.38841673731803894,0.006084419321268797,0.023755652830004692,0.03939763456583023,2.976289749145508,0.6148738861083984,0.055182114243507385,0.21343259513378143,-3.142101287841797,-0.0014824847457930446,0.015286983922123909,-0.00043749326141551137,0.38794371485710144,-2.518350124359131,1.7731454372406006,-0.4202340245246887,-3.0741939544677734,0.03402484953403473,0.04705864563584328,2.102971076965332,0.3550907075405121,0.2259046733379364,-1.8837170600891113,-0.5607860684394836,-0.007477436680346727,1741504932.9487255,1741504932773,1.88307958984375,0.45665151977539065,-2.0022757068030907,3.428255859375,-0.5777348022460937
1741504932.9370234,-0.5773259401321411,0.02271381431675132,0.03152944477929097,-0.9992447031388726,-0.5700548887252808,0.25463855266571045,0.26490354537963867,-1.5763472318649292,4.6540117263793945,6.1756978034973145,-0.00514984130859375,0.2908754348754883,0.49305713176727295,-1.2634705305099487,0.00476844422519207,-0.9287022352218628,-0.03185320645570755,1.221508264541626,0.004005493130534887,0.9203097820281982,-0.23556114733219147,-0.8844510316848755,0.1520180106163025,0.25349050760269165,1.2850003242492676,-0.42335838079452515,-0.006606274750083685,-0.36259251832962036,0.04940108209848404,0.16346226632595062,0.7127870321273804,-0.40488025546073914,0.007218881510198116,-0.1154753714799881,-0.1855393499135971,2.897711753845215,0.2552295923233032,-0.0309214498847723,0.3101668655872345,-3.7232043743133545,0.3190482258796692,0.023700589314103127,0.5592890977859497,-0.08445856720209122,-1.8787670135498047,2.0489237308502197,-0.357822448015213,-4.490199089050293,1.1667109727859497,-0.17807909846305847,2.773674964904785,0.10033676028251648,0.007930085994303226,-1.8182239532470703,-0.8553867936134338,0.06769341975450516,1741504932.9487255,1741504932773,1.88307958984375,0.45665151977539065,-2.0022757068030907,3.428255859375,-0.5777348022460937
1741504932.9570086,-0.5732036828994751,0.02822614101501335,0.039243549174412695,-0.9988309310446869,-0.36020877957344055,0.20914104580879211,0.2305559366941452,-11.933496475219727,-0.9053335189819336,8.43862533569336,-0.00324249267578125,0.2862977981567383,0.5216678380966187,-1.2562226057052612,0.005149920005351305,-0.9233615398406982,-0.0722896158695221,1.227230429649353,0.004005493130534887,0.9359502792358398,-0.2454795092344284,-0.8947508931159973,0.19398032128810883,0.2473868876695633,1.1766613721847534,-0.3859978914260864,-0.007302702404558659,-0.31452658772468567,0.048638131469488144,0.15545128285884857,0.6677729487419128,-0.4327700138092041,0.002437759656459093,0.017975065857172012,-0.11087123304605484,1.253971815109253,0.5208248496055603,0.006630473304539919,0.23350858688354492,-2.432894229888916,0.24802546203136444,-0.017177797853946686,1.0068639516830444,-0.6470348238945007,-0.173354372382164,2.1192567348480225,-0.2214977741241455,-5.525396347045898,1.9390203952789307,0.01109770592302084,2.0863704681396484,-0.05647607892751694,-0.5340904593467712,-2.3564515113830566,-1.438801646232605,-0.2405381053686142,1741504932.9487255,1741504932773,1.88307958984375,0.45665151977539065,-2.0022757068030907,3.428255859375,-0.5777348022460937
1741504932.9770072,-0.5627386569976807,0.035927292188949085,0.04220259000225496,-0.9984629042047939,-0.1459873765707016,0.36570867896080017,0.519827663898468,1.6202324628829956,2.8568005561828613,6.270592212677002,0.00057220458984375,0.2801933288574219,0.5281528830528259,-1.2543151378631592,0.005149920005351305,-0.9206912517547607,-0.09098191559314728,1.2241785526275635,0.0032425422687083483,0.952735185623169,-0.27103838324546814,-0.890554666519165,0.22449836134910583,0.2584496736526489,1.0393301248550415,-0.34685155749320984,0.0008922431152313948,-0.25616082549095154,0.040245670825242996,0.14782176911830902,0.6322957277297974,-0.4590446650981903,0.0036994062829762697,0.13535800576210022,-0.17923066020011902,0.12547384202480316,0.0677734985947609,-0.010087033733725548,0.12755057215690613,-1.0063034296035767,-0.25898078083992004,-0.015530898235738277,1.0446181297302246,-1.2159464359283447,0.37856677174568176,1.4185023307800293,0.6638256907463074,-6.940217018127441,1.9045146703720093,0.3739546239376068,3.032740831375122,-0.5193598866462708,-0.222543865442276,-1.6104415655136108,-1.229468584060669,0.13950133323669434,1741504932.9487255,1741504932773,1.88307958984375,0.45665151977539065,-2.0022757068030907,3.428255859375,-0.5777348022460937
1741504932.9970315,-0.5506742000579834,0.03818171116317961,0.04136644584591899,-0.9984142297116605,0.02097547985613346,-0.02593199722468853,0.5848775506019592,3.2379844188690186,0.24694988131523132,9.782867431640625,-0.00133514404296875,0.2862977981567383,0.5132753252983093,-1.2543151378631592,0.005149920005351305,-0.917639434337616,-0.08907453715801239,1.2203638553619385,0.0036240178160369396,0.9641794562339783,-0.290875107049942,-0.8604180812835693,0.23403525352478027,0.28324559330940247,0.8882657885551453,-0.32617077231407166,0.008758315816521645,-0.20351719856262207,0.045204851776361465,0.1497291475534439,0.6059738993644714,-0.47024837136268616,0.0027192591223865747,-0.038218967616558075,0.11769962310791016,-0.8431954979896545,-0.00025935721350833774,0.0018260811921209097,0.18898658454418182,0.19572286307811737,-0.1953970044851303,0.013822358101606369,0.67572021484375,-0.8928772807121277,1.5812963247299194,0.6193154454231262,1.2290868759155273,-7.490062236785889,0.7580524682998657,0.42143306136131287,2.564629554748535,0.2735555171966553,0.07778924703598022,-1.1662644147872925,-0.3864702880382538,-0.01452216599136591,1741504932.9487255,1741504932773,1.88307958984375,0.45665151977539065,-2.0022757068030907,3.428255859375,-0.5777348022460937
1741504933.017084,-0.5349888801574707,0.03355344419059171,0.040543487483754144,-0.9986142358316366,-0.005697366315871477,-0.2487179934978485,0.7148465514183044,-9.870585441589355,-20.376073837280273,29.785743713378906,-0.01239776611328125,0.2969789505004883,0.4804684519767761,-1.2550780773162842,0.005149920005351305,-0.9145876169204712,-0.06809338182210922,1.220745325088501,0.002861066721379757,0.9668498039245605,-0.2943083941936493,-0.8215075731277466,0.24013885855674744,0.3099488914012909,0.7593270540237427,-0.32538121938705444,0.012713022530078888,-0.15583276748657227,0.0558861680328846,0.1363775134086609,0.6158922910690308,-0.47194111347198486,-0.002293862635269761,-0.3197377920150757,0.33012402057647705,-1.789120078086853,-0.05637939274311066,-0.002010151045396924,0.11133243143558502,1.5840009450912476,0.021733367815613747,-0.03749079257249832,0.05921442061662674,-0.08606411516666412,1.7884162664413452,0.059007249772548676,1.5431705713272095,-5.55082893371582,0.2714602053165436,0.16475559771060944,2.376647710800171,0.5849961638450623,-0.8798195719718933,0.9925339221954346,-0.05734524130821228,-0.07057178765535355,1741504933.0580091,1741504932973,2.0475869140625003,0.3595649108886719,-2.009037080092365,3.49676904296875,-0.6415709838867187
1741504933.0370946,-0.5210741758346558,0.02647099602391647,0.041638877541475994,-0.9987820033653929,0.07883761823177338,-0.2632615268230438,0.7386950254440308,-3.0930137634277344,-0.994343638420105,9.271078109741211,-0.01697540283203125,0.3061342239379883,0.4335469603538513,-1.2543151378631592,0.005149920005351305,-0.9115357995033264,-0.03185320645570755,1.223034143447876,0.002861066721379757,0.9603646993637085,-0.2744716703891754,-0.7768749594688416,0.20122835040092468,0.3213931620121002,0.8039597272872925,-0.31533083319664,0.030266331508755684,-0.14248111844062805,0.03757534176111221,0.12378881871700287,0.6788357496261597,-0.4655359387397766,-0.008241016417741776,-0.142249196767807,0.2809576094150543,-2.593306064605713,-0.04299698770046234,0.00917438417673111,0.06499973684549332,2.5606753826141357,0.2293126881122589,-0.0031303244177252054,-0.44277307391166687,1.314818263053894,2.242694139480591,-2.026299476623535,0.10290245711803436,2.4106085300445557,0.02390739507973194,1.0378608703613281,0.2977268695831299,-0.6105101108551025,-0.7121267318725586,3.2668049335479736,0.5176478624343872,-0.31550413370132446,1741504933.0580091,1741504932973,2.0475869140625003,0.3595649108886719,-2.009037080092365,3.49676904296875,-0.6415709838867187
1741504933.0571012,-0.5129139423370361,0.024903857299923334,0.03424308511021722,-0.9991032023838776,0.3701235353946686,-0.12154480814933777,0.45353642106056213,4.596773624420166,-11.917130470275879,11.785240173339844,-0.00209808349609375,0.3061342239379883,0.3591592311859131,-1.2630890607833862,0.005531395319849253,-0.9172579646110535,0.0078202486038208,1.224941611289978,0.004005493130534887,0.9576943516731262,-0.24357213079929352,-0.761997401714325,0.17643244564533234,0.2748531401157379,0.810826301574707,-0.3409377634525299,0.04140165075659752,-0.16956588625907898,0.04711223021149635,0.12340734153985977,0.7913710474967957,-0.4306277334690094,-0.02059030905365944,0.2804224193096161,0.10559611767530441,-3.8185527324676514,-0.5051144957542419,0.029100414365530014,-0.26794567704200745,2.511657476425171,0.02792792022228241,0.062279049307107925,-0.12385494261980057,1.489156723022461,0.8019578456878662,-1.3954812288284302,-2.5466432571411133,-0.2843601703643799,-1.3784610033035278,0.39281487464904785,-1.5290718078613281,0.548224925994873,0.5683764219284058,6.179312229156494,1.904518723487854,-0.406460702419281,1741504933.0580091,1741504932973,2.0475869140625003,0.3595649108886719,-2.009037080092365,3.49676904296875,-0.6415709838867187
1741504933.0771236,-0.5076876878738403,0.022837946033699714,0.028885763262659056,-0.9993217904667623,0.3044399321079254,-0.15177685022354126,0.2713741660118103,1.1461715698242188,8.00973892211914,7.872051239013672,-0.01583099365234375,0.3038454055786133,0.2744716703891754,-1.2646150588989258,0.00476844422519207,-0.9195467829704285,0.049782559275627136,1.2260860204696655,0.0036240178160369396,0.9576943516731262,-0.20733195543289185,-0.7288090586662292,0.134470134973526,0.24090181291103363,0.8093003630638123,-0.3521263599395752,0.03427626192569733,-0.23517967760562897,0.06542305648326874,0.15468832850456238,0.9618905782699585,-0.3832780122756958,-0.029813257977366447,-0.32576099038124084,0.028688505291938782,-4.2442450523376465,-0.0451803132891655,-0.0007324960315600038,-0.03597505763173103,2.9462966918945312,0.25543180108070374,-0.043296538293361664,-0.04591549187898636,1.720246434211731,1.6289877891540527,-2.3015670776367188,-1.6187450885772705,0.05056462809443474,-0.4489481449127197,-0.0698809027671814,-3.6331186294555664,1.0843462944030762,1.7134473323822021,8.745542526245117,2.382225751876831,-0.48310399055480957,1741504933.0580091,1741504932973,2.0475869140625003,0.3595649108886719,-2.009037080092365,3.49676904296875,-0.6415709838867187
1741504933.0971386,-0.5145177841186523,0.012416813879010427,0.014300794876654591,-0.9998206389142953,0.743354082107544,-0.553978681564331,-0.35583218932151794,0.021438561379909515,0.579728364944458,6.539837837219238,-0.00400543212890625,0.3290224075317383,0.19359883666038513,-1.2676668167114258,0.005149920005351305,-0.9164950251579285,0.09594109654426575,1.236767292022705,0.005149920005351305,0.9569314122200012,-0.1848248988389969,-0.692568838596344,0.09670405089855194,0.21763180196285248,0.8070115447044373,-0.35740238428115845,0.029443800449371338,-0.33665215969085693,0.10090028494596481,0.1832990050315857,1.1579689979553223,-0.33119919896125793,-0.03367234021425247,0.3254612982273102,0.7080840468406677,-4.041640758514404,-0.19279217720031738,-0.0028124433010816574,0.11075269430875778,3.12577486038208,0.6997551321983337,0.11419402807950974,-0.03724713996052742,0.9603160619735718,1.9371709823608398,-1.5438939332962036,-0.8949288129806519,-0.13991817831993103,-0.27589473128318787,-0.5040447115898132,-5.202422618865967,1.6278798580169678,1.237654447555542,9.767292976379395,2.5692405700683594,-0.12457436323165894,1741504933.0580091,1741504932973,2.0475869140625003,0.3595649108886719,-2.009037080092365,3.49676904296875,-0.6415709838867187
1741504933.1171618,-0.5267083644866943,0.0021864733466830932,0.0006453661322540809,-0.9999974014150536,0.6571244597434998,-0.5162696242332458,-0.6821000576019287,-1.3215504884719849,-3.320265531539917,13.021636962890625,-0.01468658447265625,0.3309297561645508,0.11348897218704224,-1.2661409378051758,0.005149920005351305,-0.9164950251579285,0.14629587531089783,1.2447782754898071,0.00476844422519207,0.9573128819465637,-0.16994735598564148,-0.647936224937439,0.08411535620689392,0.2141985148191452,0.8009079098701477,-0.3623355031013489,0.015148230828344822,-0.45681697130203247,0.13981078565120697,0.18787670135498047,1.3273441791534424,-0.30303385853767395,-0.012146768160164356,-0.2789774537086487,0.11306972801685333,-3.958646297454834,0.13308537006378174,-0.010973655618727207,-0.025778817012906075,3.44156551361084,0.48118069767951965,-0.00617267657071352,0.0024357521906495094,0.7161073684692383,2.235708236694336,-0.3533138930797577,-0.06372777372598648,-0.28279924392700195,-0.21446198225021362,-0.6745833158493042,-6.107362747192383,1.8607817888259888,0.0781901627779007,8.098812103271484,0.9976854920387268,1.258411169052124,1741504933.1507106,1741504933073,2.11764990234375,0.29983880615234376,-2.180314724724727,3.518517578125,-0.664476806640625
1741504933.1371806,-0.5453945398330688,-0.00821042708024397,-0.008244129209891817,-0.9999323093193513,0.39309442043304443,-0.5203096270561218,-0.941864013671875,1.5673754215240479,-2.857813835144043,9.8517427444458,-0.02918243408203125,0.3316926956176758,0.04444190114736557,-1.2604187726974487,0.00476844422519207,-0.917639434337616,0.1989395022392273,1.2524077892303467,0.005149920005351305,0.9565499424934387,-0.15659570693969727,-0.6036850810050964,0.08220797777175903,0.2138170450925827,0.7982375621795654,-0.36344605684280396,0.009195036254823208,-0.5796520709991455,0.164988175034523,0.17261768877506256,1.4360647201538086,-0.3267253637313843,-0.00836782157421112,-0.43315136432647705,0.027106091380119324,-3.494694232940674,0.4308811128139496,-0.015819398686289787,-0.06400442123413086,3.4761674404144287,0.5006009936332703,0.01779859885573387,-0.04176727309823036,0.6426559090614319,2.1340506076812744,-0.17035627365112305,-0.06070646271109581,-0.1679215133190155,-0.08979532122612,-0.3093537986278534,-6.010441780090332,1.0758291482925415,-1.001968264579773,4.945815086364746,-1.525057077407837,-0.0007788900984451175,1741504933.1507106,1741504933073,2.11764990234375,0.29983880615234376,-2.180314724724727,3.518517578125,-0.664476806640625
1741504933.1572251,-0.5635181665420532,-0.016790671979139457,-0.010656935114203413,-0.999802231978135,0.08453653007745743,-0.41721007227897644,-0.9014244079589844,0.09930776804685593,-3.9621474742889404,8.877994537353516,-0.037194252014160156,0.3244447708129883,-0.007057297509163618,-1.2493560314178467,0.00476844422519207,-0.9203097820281982,0.25349050760269165,1.2585114240646362,0.005149920005351305,0.9569314122200012,-0.14591439068317413,-0.5613412857055664,0.07305257022380829,0.20771344006061554,0.7944228053092957,-0.3730112612247467,-0.0019889853429049253,-0.6948577165603638,0.16994735598564148,0.1356145590543747,1.4707789421081543,-0.37826254963874817,-0.0057252258993685246,-0.25817298889160156,-0.1880284696817398,-2.4163105487823486,0.7521058917045593,-0.003473724005743861,-0.141091451048851,3.6811461448669434,0.36713337898254395,0.0050064558163285255,0.023210804909467697,0.6107168793678284,2.030273914337158,-0.46245869994163513,-0.4307185113430023,-0.12491246312856674,-0.5900582671165466,-0.46945324540138245,-5.628382205963135,0.05094652250409126,-1.842680811882019,1.1855640411376953,-2.6485695838928223,0.15064159035682678,1741504933.1507106,1741504933073,2.11764990234375,0.29983880615234376,-2.180314724724727,3.518517578125,-0.664476806640625
1741504933.1779826,-0.5753358602523804,-0.021362009575357648,-0.01042934585914482,-0.9997174067164444,-0.027929099276661873,-0.21251969039440155,-0.6238044500350952,1.4338871240615845,-0.5856291055679321,8.600871086120605,-0.045205116271972656,0.3202486038208008,-0.0558861680328846,-1.2421079874038696,0.005149920005351305,-0.924887478351593,0.308804452419281,1.2604187726974487,0.00476844422519207,0.9565499424934387,-0.1333257108926773,-0.536926805973053,0.06733043491840363,0.20237277448177338,0.7982375621795654,-0.3972816467285156,-0.005609535612165928,-0.7959487438201904,0.15583276748657227,0.10700388997793198,1.437209129333496,-0.4282885789871216,0.007538182195276022,-0.2433158904314041,-0.11266562342643738,-2.4558796882629395,0.4430525600910187,-0.009931624867022038,-0.2711521089076996,3.6647164821624756,0.04880279302597046,-0.0032415699679404497,-0.027618709951639175,0.5832396149635315,0.9332152009010315,-0.25035253167152405,-0.2129683941602707,0.23471036553382874,-1.2769736051559448,-0.09226547181606293,-4.853546142578125,-0.791098952293396,-1.2842646837234497,-2.1168668270111084,-2.327962636947632,0.7205895185470581,1741504933.1507106,1741504933073,2.11764990234375,0.29983880615234376,-2.180314724724727,3.518517578125,-0.664476806640625
1741504933.1972497,-0.5806334018707275,-0.019669562486972034,-0.011173005033740649,-0.9997441033935069,0.0424080491065979,0.21314002573490143,-0.17684617638587952,2.1069231033325195,-0.2557165026664734,7.8261494636535645,-0.056267738342285156,0.2996492385864258,-0.10013733059167862,-1.238293170928955,0.005149920005351305,-0.9412909150123596,0.3583962619304657,1.2600373029708862,0.00476844422519207,0.9565499424934387,-0.12378881871700287,-0.5224307775497437,0.06694895774126053,0.1958876997232437,0.8150225281715393,-0.42883026599884033,-0.015054309740662575,-0.8672846555709839,0.1340886503458023,0.09212634712457657,1.3536659479141235,-0.4403880536556244,0.01581135205924511,-0.3437293767929077,-0.6275551319122314,-2.1310081481933594,0.1962694227695465,-0.008235946297645569,-0.8656449317932129,3.2393267154693604,-0.011383173055946827,-0.004719664342701435,-0.008467086590826511,0.4333744943141937,0.8532533645629883,0.021296512335538864,-0.3112266957759857,1.0435460805892944,-1.5983561277389526,-0.4474887251853943,-3.2400732040405273,-1.064043402671814,-0.6583357453346252,-4.510373592376709,-0.17976492643356323,0.3024210035800934,1741504933.1507106,1741504933073,2.11764990234375,0.29983880615234376,-2.180314724724727,3.518517578125,-0.664476806640625
1741504933.2172756,-0.5774663686752319,-0.008416813136917913,-0.011089791621181977,-0.9999030821926778,-0.02526504546403885,0.5604665279388428,0.24347488582134247,5.595160484313965,-0.4659409821033478,9.102128028869629,-0.06275272369384766,0.2855348587036133,-0.13103684782981873,-1.235241413116455,0.005149920005351305,-0.9584572911262512,0.3995956480503082,1.2608002424240112,0.00476844422519207,0.9557870030403137,-0.11425192654132843,-0.5125123858451843,0.0715266615152359,0.19016556441783905,0.8352407217025757,-0.46366387605667114,-0.026234712451696396,-0.9145876169204712,0.10891126841306686,0.0883115902543068,1.2216753959655762,-0.4114043116569519,0.013917103409767151,-0.20921142399311066,-0.43742311000823975,-1.39603590965271,0.22755742073059082,0.0007340253214351833,-0.8425098061561584,2.769817590713501,0.12611013650894165,0.01660417579114437,-0.0701344683766365,0.5220102667808533,0.47601789236068726,0.14036814868450165,-0.3563339412212372,1.0597611665725708,-1.715699315071106,-0.5903315544128418,-2.3658437728881836,-1.317431926727295,-0.12251661717891693,-7.071910858154297,1.713018774986267,0.05347387492656708,1741504933.2564425,1741504933173,2.193745361328125,0.23163238525390625,-2.1847450994391457,3.556371826171875,-0.6891930541992187
1741504933.2373328,-0.5702419281005859,0.004975762640933503,-0.009633119188167403,-0.9999412206729191,-0.045279767364263535,0.7385722398757935,0.32047712802886963,3.2786052227020264,-0.4863116443157196,5.979033470153809,-0.07114505767822266,0.2809562683105469,-0.14171816408634186,-1.231045126914978,0.005149920005351305,-0.9714275002479553,0.44689860939979553,1.2646150588989258,0.005149920005351305,0.9443427324295044,-0.09594109654426575,-0.4964904189109802,0.0715266615152359,0.17528800666332245,0.8638513684272766,-0.4999642074108124,-0.03465547412633896,-0.9229800701141357,0.07343403995037079,0.08525978773832321,1.046959638595581,-0.36526814103126526,0.005147362593561411,-0.250637024641037,-0.19983263313770294,-0.32611843943595886,0.25078344345092773,-0.004141836892813444,-0.5926641225814819,2.869387149810791,0.17373253405094147,0.00034491813858039677,-0.738079845905304,0.9293873310089111,0.8585770726203918,-0.04347657784819603,-0.8292116522789001,1.3736839294433594,-1.9083163738250732,-0.3375834822654724,0.0777612030506134,-1.9041775465011597,-0.33370333909988403,-8.873973846435547,2.3193209171295166,-0.5037582516670227,1741504933.2564425,1741504933173,2.193745361328125,0.23163238525390625,-2.1847450994391457,3.556371826171875,-0.6891930541992187
1741504933.2573726,-0.5643019676208496,0.011014182933314104,-0.009523305204253584,-0.9998939915972583,-0.0006760807591490448,0.19234322011470795,0.27157914638519287,-0.23035697638988495,3.072155237197876,7.607137203216553,-0.07534122467041016,0.2916383743286133,-0.12684062123298645,-1.2291377782821655,0.00476844422519207,-0.9767681360244751,0.4690241813659668,1.2615631818771362,0.005531395319849253,0.9321355223655701,-0.06656748056411743,-0.4804684519767761,0.048256658017635345,0.16231784224510193,0.8871213793754578,-0.5375988483428955,-0.030202332884073257,-0.9008545279502869,0.03185320645570755,0.06046387553215027,0.8569847941398621,-0.32300394773483276,-0.0017239877488464117,-0.14384545385837555,0.28092628717422485,0.9209792613983154,0.10574695467948914,-0.0156392902135849,-0.2573089897632599,1.3861364126205444,-0.16680967807769775,0.015480837784707546,-0.8610710501670837,1.5526387691497803,0.9358909726142883,-1.4964467287063599,-0.4351360499858856,1.1592360734939575,-1.8713945150375366,0.3989083170890808,1.137555480003357,-2.2495577335357666,-1.4683088064193726,-9.210159301757812,2.3292462825775146,-0.20468664169311523,1741504933.2564425,1741504933173,2.193745361328125,0.23163238525390625,-2.1847450994391457,3.556371826171875,-0.6891930541992187
1741504933.2773824,-0.5701361894607544,0.007057024728473917,-0.006197965858693932,-0.999955890837789,-0.26251956820487976,-0.0952073186635971,-0.44570204615592957,-7.918036937713623,5.668539524078369,18.762996673583984,-0.07648563385009766,0.3217744827270508,-0.0864042118191719,-1.2314265966415405,0.004005493130534887,-0.9767681360244751,0.4705500900745392,1.2562226057052612,0.005531395319849253,0.9130617380142212,-0.04253452271223068,-0.4396505653858185,0.04406042397022247,0.14515145123004913,0.9103913903236389,-0.564077615737915,-0.001222515245899558,-0.8508812189102173,0.0078202486038208,0.001716639962978661,0.8806362748146057,-0.24223290383815765,-0.01085902564227581,-0.10633428394794464,0.8249753713607788,2.1248419284820557,-0.2530631721019745,-0.10297134518623352,0.04505225643515587,-0.3025669753551483,-0.31743890047073364,0.029199782758951187,-1.3009837865829468,0.736106812953949,2.107451915740967,-0.2683631181716919,-0.7675108313560486,0.8294541239738464,-1.1201218366622925,1.4524798393249512,3.2885756492614746,-0.5426730513572693,-2.6651527881622314,1.8986334800720215,3.8133976459503174,-0.8653220534324646,1741504933.2564425,1741504933173,2.193745361328125,0.23163238525390625,-2.1847450994391457,3.556371826171875,-0.6891930541992187
1741504933.2973614,-0.5796627998352051,0.007483728221583614,0.0009683049597823492,-0.9999715276933691,-0.3455289900302887,-0.24833837151527405,-0.49035507440567017,-9.18778133392334,23.613075256347656,8.323606491088867,-0.09212589263916016,0.3374147415161133,-0.018120087683200836,-1.2306636571884155,0.006294346414506435,-0.9737163186073303,0.4369802474975586,1.2527892589569092,0.005531395319849253,0.9077210426330566,-0.05130846053361893,-0.4018844962120056,0.029182879254221916,0.14820325374603271,0.9294651746749878,-0.5482100248336792,-0.0032758675515651703,-0.8127336502075195,0.001716639962978661,0.007438773289322853,0.8638513684272766,-0.1914258748292923,-0.03415554016828537,-0.42650383710861206,0.7120489478111267,3.6394495964050293,0.08997368812561035,0.19862370193004608,0.12130453437566757,-2.500896692276001,-0.25429782271385193,0.00396747188642621,-0.23709993064403534,-0.36536091566085815,1.7900742292404175,-0.6432496905326843,0.2903577983379364,0.9238361120223999,1.094358205795288,-0.2285987138748169,1.5280951261520386,-0.38697800040245056,0.7685128450393677,-1.606225848197937,2.1787610054016113,-0.8558242917060852,1741504933.2564425,1741504933173,2.193745361328125,0.23163238525390625,-2.1847450994391457,3.556371826171875,-0.6891930541992187
1741504933.3173792,-0.58814537525177,0.007062772242503517,0.001516656723929248,-0.9999739081599242,-0.034736763685941696,0.10523374378681183,-0.4324219524860382,3.115816354751587,-4.786818027496338,9.918288230895996,-0.07572269439697266,0.3377962112426758,0.051689937710762024,-1.2413450479507446,0.005149920005351305,-0.970283031463623,0.3896772861480713,1.2443968057632446,0.00476844422519207,0.9065766334533691,-0.06961929053068161,-0.3892957866191864,0.03528648987412453,0.15506981313228607,0.9901197552680969,-0.5132657289505005,0.008648444898426533,-0.7608529925346375,0.03604944050312042,0.03490501269698143,0.8768215179443359,-0.18672670423984528,-0.03946032375097275,0.4538688659667969,0.11233692616224289,3.193657159805298,-0.9948825836181641,0.0055700731463730335,0.21162761747837067,-3.116201639175415,-0.5988491773605347,-0.06693136692047119,-0.17553269863128662,-1.1161062717437744,0.3938889801502228,0.46775633096694946,0.4593307375907898,3.745347261428833,1.7179205417633057,0.8617170453071594,2.565086603164673,2.1930506229400635,1.1846940517425537,1.5009180307388306,-0.23456884920597076,-0.15813791751861572,1741504933.3573241,1741504933273,2.27789404296875,0.16297842407226562,-2.139183545029095,3.56701904296875,-0.714350830078125
1741504933.3374357,-0.5846017599105835,0.000955081108577161,0.009121337644899481,-0.9999579436254526,-0.38784122467041016,-0.38457000255584717,0.30534398555755615,-7.955561637878418,8.426545143127441,11.839042663574219,-0.10242652893066406,0.3721294403076172,0.11730372905731201,-1.2558410167694092,0.00476844422519207,-0.9611276388168335,0.33512628078460693,1.235241413116455,0.004386968910694122,0.9065766334533691,-0.10776684433221817,-0.4350728690624237,0.034142062067985535,0.1665140837430954,1.114862322807312,-0.47081777453422546,0.017519863322377205,-0.7413977384567261,0.0551232174038887,0.06466010212898254,0.8821622133255005,-0.23566296696662903,-0.03621868044137955,-0.7937078475952148,1.0557879209518433,3.4806246757507324,-0.7483582496643066,-0.05687751621007919,0.510047197341919,-3.65679931640625,-0.6135135889053345,0.008518395014107227,0.11117754876613617,-1.7990796566009521,-2.8041915893554688,-0.0797475054860115,0.3702111840248108,6.669607639312744,2.156444549560547,0.3120070993900299,1.0755419731140137,0.7035061120986938,1.3387972116470337,-0.1341724991798401,-2.6827855110168457,0.2537727653980255,1741504933.3573241,1741504933273,2.27789404296875,0.16297842407226562,-2.139183545029095,3.56701904296875,-0.714350830078125
1741504933.3574553,-0.5703634023666382,0.00526663228603446,0.01168260132289715,-0.9999178863340199,-0.08158141374588013,0.34387895464897156,0.7426426410675049,6.472076892852783,-5.055548667907715,6.771827697753906,-0.09403419494628906,0.3698406219482422,0.17376211285591125,-1.2669038772583008,0.005531395319849253,-0.953498125076294,0.27218279242515564,1.231808066368103,0.0036240178160369396,0.9115357995033264,-0.1367589831352234,-0.5231937170028687,0.03604944050312042,0.15850308537483215,1.2731746435165405,-0.42779532074928284,0.014611659571528435,-0.7001983523368835,0.06885633617639542,0.06771191209554672,0.8863584399223328,-0.29539430141448975,-0.04042312130331993,0.1494484543800354,0.052146706730127335,2.727548599243164,-0.9433324933052063,0.029487496241927147,0.36471042037010193,-4.337270259857178,-0.24444931745529175,-0.05787048488855362,0.35250017046928406,-1.2992714643478394,-4.455203056335449,0.1661582589149475,-0.5854492783546448,7.63201904296875,2.071997880935669,-0.4308846890926361,1.964785099029541,0.54714035987854,0.2207481414079666,0.30855458974838257,-2.752310276031494,-0.25996699929237366,1741504933.3573241,1741504933273,2.27789404296875,0.16297842407226562,-2.139183545029095,3.56701904296875,-0.714350830078125
1741504933.3775077,-0.5499581098556519,0.0063950826364507826,0.016067153591302803,-0.9998504635662007,-0.23532824218273163,-0.022642942145466805,1.0253492593765259,-1.6912630796432495,-1.2992013692855835,8.573533058166504,-0.09556007385253906,0.3854808807373047,0.23250934481620789,-1.2737704515457153,0.00476844422519207,-0.9451056718826294,0.20618753135204315,1.228756308555603,0.0036240178160369396,0.9138246774673462,-0.16155488789081573,-0.6242847442626953,0.02536812424659729,0.1489662081003189,1.3960098028182983,-0.4110029339790344,-9.891291847452521e-05,-0.6719691753387451,0.071908138692379,0.07038223743438721,0.8783474564552307,-0.33861231803894043,-0.04015066847205162,-0.05131534859538078,0.49680835008621216,2.957857847213745,-0.21730166673660278,-0.025456735864281654,0.36358964443206787,-4.448861598968506,-0.1799708753824234,0.03169025108218193,0.13046149909496307,-1.1091609001159668,-5.010218620300293,-0.5803631544113159,-0.10798000544309616,5.59694766998291,0.49299725890159607,-0.47954875230789185,1.552554726600647,0.07175760716199875,0.08573482930660248,-0.4895097315311432,-2.046592950820923,0.18396009504795074,1741504933.3573241,1741504933273,2.27789404296875,0.16297842407226562,-2.139183545029095,3.56701904296875,-0.714350830078125
1741504933.3974955,-0.5242739915847778,0.00870048639598922,0.02080715239591057,-0.9997456496257668,-0.23144347965717316,0.11604296416044235,1.256569504737854,2.6049318313598633,0.6901659369468689,8.984075546264648,-0.09365177154541016,0.3889141082763672,0.2927824854850769,-1.2733889818191528,0.005149920005351305,-0.9378576278686523,0.14057374000549316,1.225704550743103,0.002861066721379757,0.9145876169204712,-0.1676585078239441,-0.7051575779914856,0.016975661739706993,0.15545128285884857,1.4520866870880127,-0.42360788583755493,0.009997998364269733,-0.621614396572113,0.07038223743438721,0.07038223743438721,0.8672846555709839,-0.37024977803230286,-0.03125385567545891,0.0752636045217514,0.14610418677330017,2.7947299480438232,0.005951065570116043,0.0016182707622647285,0.3502267599105835,-4.353455066680908,-0.2554903030395508,-0.04971727356314659,0.01586669683456421,-0.0780518651008606,-3.6813395023345947,-0.23388653993606567,0.3355269134044647,2.276956081390381,-0.7042620778083801,0.5195903182029724,2.5393943786621094,-0.12353608757257462,0.010625573806464672,-0.6406051516532898,-1.5520782470703125,0.49891868233680725,1741504933.3573241,1741504933273,2.27789404296875,0.16297842407226562,-2.139183545029095,3.56701904296875,-0.714350830078125
1741504933.417502,-0.5100136995315552,0.006053394920608279,0.02449193796043246,-0.9996817000350049,-0.19659310579299927,-0.20823357999324799,0.5991848111152649,-1.7020633220672607,1.8408318758010864,8.916704177856445,-0.08754825592041016,0.3995952606201172,0.34885939955711365,-1.2714815139770508,0.00476844422519207,-0.9359502792358398,0.07915617525577545,1.222271203994751,0.004386968910694122,0.9122987985610962,-0.16308079659938812,-0.7745860815048218,0.02384222112596035,0.15392538905143738,1.4448386430740356,-0.44198527932167053,0.001299432828091085,-0.5716410875320435,0.06847485899925232,0.06961929053068161,0.8485923409461975,-0.3998274803161621,-0.019594281911849976,0.15701036155223846,0.32719525694847107,2.6992011070251465,0.14834637939929962,-0.01517841499298811,0.024715406820178032,-3.8833978176116943,-0.16658121347427368,0.14009612798690796,-0.12266650050878525,0.4124642610549927,-3.4018919467926025,0.43790483474731445,-0.09168180823326111,-0.7715531587600708,-0.839591383934021,-0.6976742744445801,2.447216510772705,-0.040544793009757996,-0.057268962264060974,-0.9199736714363098,-1.4867018461227417,0.54941326379776,1741504933.4597917,1741504933373,2.35225927734375,0.12559838104248047,-2.6358827972597543,3.604016845703125,-0.7319983520507812
1741504933.4375117,-0.5111297369003296,0.00413511166946222,0.030215004453991487,-0.999534869005242,-0.2946413457393646,-0.05205579847097397,-0.22425329685211182,-2.053743600845337,1.7135051488876343,7.567563056945801,-0.08373355865478516,0.3973064422607422,0.39921414852142334,-1.2672853469848633,0.005149920005351305,-0.9397650361061096,0.025749599561095238,1.2260860204696655,0.00476844422519207,0.9130617380142212,-0.1348516047000885,-0.8314259648323059,0.03604944050312042,0.1508735716342926,1.3941023349761963,-0.44793492555618286,-0.01082009170204401,-0.5159456729888916,0.06694895774126053,0.06275273114442825,0.8306630253791809,-0.4256507158279419,-0.01581641472876072,0.10254332423210144,-0.04422173276543617,2.4406425952911377,0.2094716727733612,0.031219759956002235,-0.18266041576862335,-3.5403378009796143,0.2932130992412567,0.006835629232227802,0.010575954802334309,1.5734689235687256,-2.754495620727539,0.6440428495407104,-0.22695492208003998,-2.749465227127075,-0.12819747626781464,-0.3326791524887085,2.9034247398376465,-0.13430315256118774,-0.3978957533836365,-0.8751657605171204,-1.228990077972412,0.1426243931055069,1741504933.4597917,1741504933373,2.35225927734375,0.12559838104248047,-2.6358827972597543,3.604016845703125,-0.7319983520507812
1741504933.457551,-0.5192114114761353,0.003988318747581041,0.03390047566871203,-0.9994172557360628,-0.13892358541488647,-0.028980039060115814,-0.3003908097743988,-0.6284974217414856,-0.530962347984314,8.548074722290039,-0.08449649810791016,0.3953990936279297,0.464446485042572,-1.2669038772583008,0.005149920005351305,-0.9344243407249451,-0.03337911143898964,1.2379117012023926,0.005149920005351305,0.916113555431366,-0.10814831405878067,-0.881017804145813,0.05664911866188049,0.14476996660232544,1.3193331956863403,-0.4316793978214264,-0.004094748292118311,-0.4720759987831116,0.06313420087099075,0.040627144277095795,0.8077744841575623,-0.45058196783065796,-0.01281940657645464,-0.007832576520740986,-0.05032385513186455,3.209211826324463,0.08666599541902542,-0.013379108160734177,0.2590945065021515,-3.8646047115325928,0.7302525043487549,0.0017830063588917255,0.25327619910240173,1.2120822668075562,-2.415466547012329,1.0050489902496338,-0.3187706172466278,-3.9059202671051025,1.0351536273956299,0.315676748752594,1.9300376176834106,-0.22741113603115082,-1.2701274156570435,-1.2031282186508179,-1.2999850511550903,0.00926380604505539,1741504933.4597917,1741504933373,2.35225927734375,0.12559838104248047,-2.6358827972597543,3.604016845703125,-0.7319983520507812
1741504933.4780123,-0.5227420330047607,0.0037138367380557037,0.03961158893571914,-0.9992082512863225,-0.319399893283844,0.05114567652344704,-0.17112131416797638,0.8254119753837585,-1.9563684463500977,7.900286674499512,-0.08335208892822266,0.3934917449951172,0.5025940537452698,-1.2623261213302612,0.005149920005351305,-0.9313725233078003,-0.08068207651376724,1.2379117012023926,0.004386968910694122,0.9302281141281128,-0.10090028494596481,-0.9107728600502014,0.0883115902543068,0.14400701224803925,1.2235828638076782,-0.39146485924720764,-0.007693367078900337,-0.43202105164527893,0.054741740226745605,0.01926451548933983,0.7940413355827332,-0.48312893509864807,-0.014692564494907856,0.024197962135076523,-0.03300139680504799,1.5864756107330322,0.2990581691265106,0.012130824849009514,0.12936218082904816,-2.895568370819092,-0.15457528829574585,-0.04475637897849083,1.016558289527893,0.1517583727836609,-1.2715466022491455,1.6257455348968506,0.02678789012134075,-5.018798828125,2.0967109203338623,-0.08289842307567596,2.3708078861236572,-0.3118125796318054,-0.9137703776359558,-0.5161281824111938,-1.6575103998184204,-0.04114405810832977,1741504933.4597917,1741504933373,2.35225927734375,0.12559838104248047,-2.6358827972597543,3.604016845703125,-0.7319983520507812
1741504933.4975755,-0.5172989368438721,0.007765659308139166,0.0444219738878859,-0.9989826739095198,-0.2141362726688385,0.14779721200466156,0.34191733598709106,7.35012674331665,5.643618106842041,5.483506202697754,-0.09365177154541016,0.3904399871826172,0.5148012638092041,-1.2585114240646362,0.005149920005351305,-0.924887478351593,-0.10051880776882172,1.231808066368103,0.0036240178160369396,0.9454871416091919,-0.11577782779932022,-0.9107728600502014,0.12569619715213776,0.1501106321811676,1.1079957485198975,-0.3424687683582306,-0.002292433986440301,-0.3934920132160187,0.05397878959774971,0.015449759550392628,0.7784008383750916,-0.5213778018951416,-0.00943766813725233,-0.26087307929992676,-0.04062797501683235,0.446863055229187,0.25000765919685364,-0.016013624146580696,0.3589431345462799,-1.005334496498108,-0.3920362889766693,-0.012006837874650955,0.9617332816123962,-0.9530015587806702,0.06837691366672516,1.7515754699707031,0.40916693210601807,-5.875652313232422,2.483816623687744,0.2790057063102722,1.8665701150894165,0.019605251029133797,-0.14202535152435303,-0.83027184009552,-1.9277595281600952,0.19097693264484406,1741504933.4597917,1741504933373,2.35225927734375,0.12559838104248047,-2.6358827972597543,3.604016845703125,-0.7319983520507812
1741504933.5176022,-0.503774881362915,0.00844243384193384,0.044527833102198,-0.9989724707868818,0.0008862243266776204,0.0013295396929606795,0.7615455389022827,-0.9060943126678467,-1.6675015687942505,7.079771995544434,-0.09212589263916016,0.3908214569091797,0.5045014023780823,-1.2558410167694092,0.005149920005351305,-0.9206912517547607,-0.09632257372140884,1.2268489599227905,0.0036240178160369396,0.9580758213996887,-0.14324407279491425,-0.8955138325691223,0.15430685877799988,0.17719538509845734,0.9718089699745178,-0.30287376046180725,0.003829174442216754,-0.3370336592197418,0.056267641484737396,0.021553369238972664,0.7661936283111572,-0.5503829717636108,-0.014545794576406479,-0.011301794089376926,0.03503786772489548,-0.7194737792015076,0.15523722767829895,-0.007997317239642143,0.16966727375984192,0.4521295428276062,-0.320740669965744,0.007263518404215574,0.763769268989563,-1.3388468027114868,1.2395203113555908,1.2896379232406616,1.5238168239593506,-6.792660713195801,1.7195215225219727,0.3956798315048218,2.8449840545654297,0.10684400051832199,0.4750552773475647,-0.7774919867515564,-1.3273489475250244,-0.07036316394805908,1741504933.5674675,1741504933473,2.44094384765625,0.08107598114013673,-1.8337995999728272,3.626604248046875,-0.7468673706054688
1741504933.5376327,-0.4836679697036743,0.0048896023811867435,0.04472427944612167,-0.9989874026315742,-0.012077892199158669,-0.3335287570953369,0.9758954644203186,3.2984108924865723,1.6162707805633545,9.667613983154297,-0.09479713439941406,0.4003582000732422,0.4736018776893616,-1.2535521984100342,0.005149920005351305,-0.9180209040641785,-0.06961929053068161,1.2211267948150635,0.0036240178160369396,0.9637979865074158,-0.1657511293888092,-0.8558403849601746,0.16956588625907898,0.21152819693088531,0.8340963125228882,-0.29542428255081177,0.009659341536462307,-0.2771419882774353,0.06961929053068161,0.02880140393972397,0.7482643127441406,-0.5560895204544067,-0.010916048660874367,-0.06780196726322174,0.3219478130340576,-1.4579070806503296,0.08674664795398712,0.0015874523669481277,0.18114633858203888,1.9361629486083984,-0.3475569188594818,0.004481677897274494,0.2560395896434784,-0.9250292778015137,1.9458810091018677,0.990730881690979,1.7349308729171753,-6.875924587249756,0.04664302244782448,0.25607621669769287,2.9966936111450195,0.6760480999946594,0.3132270872592926,-0.9017336368560791,-0.11261724680662155,-0.25669944286346436,1741504933.5674675,1741504933473,2.44094384765625,0.08107598114013673,-1.8337995999728272,3.626604248046875,-0.7468673706054688
1741504933.557647,-0.4659074544906616,-0.004980018732366826,0.047787280418181505,-0.9988451207487873,-0.21897028386592865,-0.5560053586959839,0.741001307964325,-14.608818054199219,6.071419715881348,23.84431266784668,-0.10128211975097656,0.4118032455444336,0.4343098998069763,-1.2531707286834717,0.00476844422519207,-0.9134432077407837,-0.02994582988321781,1.2196009159088135,0.0036240178160369396,0.960746169090271,-0.1668955534696579,-0.8146410584449768,0.17299915850162506,0.23289081454277039,0.7913710474967957,-0.2896868586540222,0.01126960851252079,-0.21877622604370117,0.07267109304666519,0.025749599561095238,0.761997401714325,-0.5511694550514221,-0.029264912009239197,-0.21318474411964417,0.3617459535598755,-2.0586986541748047,0.04454661160707474,0.001159903360530734,0.275632381439209,2.6385743618011475,-0.026216058060526848,0.012656522914767265,-0.308828741312027,0.057790230959653854,2.1411445140838623,-0.3272763788700104,1.0138907432556152,-0.034608323127031326,0.5534342527389526,0.15230420231819153,2.77687931060791,-0.2859801650047302,-0.1430082470178604,1.126820683479309,0.2323530614376068,-0.8012723922729492,1741504933.5674675,1741504933473,2.44094384765625,0.08107598114013673,-1.8337995999728272,3.626604248046875,-0.7468673706054688
1741504933.577723,-0.4572925567626953,-0.011052558537920925,0.04535587240953246,-0.9989097485697774,0.16075517237186432,-0.26328355073928833,0.3113117218017578,2.117156744003296,1.2989264726638794,1.7937253713607788,-0.08678531646728516,0.4121847152709961,0.37975889444351196,-1.2581299543380737,0.005149920005351305,-0.9111543297767639,0.01201647985726595,1.2218897342681885,0.004005493130534887,0.9554055333137512,-0.1337071806192398,-0.7829785346984863,0.14629587531089783,0.22297245264053345,0.8497368097305298,-0.3011113405227661,0.021547585725784302,-0.20160982012748718,0.06885633617639542,0.024986648932099342,0.8104447722434998,-0.5337242484092712,-0.040115587413311005,0.43881455063819885,-0.016024475917220116,-2.965104341506958,-0.5236358642578125,0.006966107990592718,-0.023255109786987305,2.79923415184021,0.11309593170881271,0.022591963410377502,-0.27174389362335205,1.7620302438735962,0.8338773250579834,-1.0762885808944702,-0.9873980283737183,2.3041293621063232,-0.8919020891189575,0.44853055477142334,0.4863089919090271,-0.029513709247112274,-0.061778899282217026,2.95525860786438,1.122944951057434,-0.433461993932724,1741504933.5674675,1741504933473,2.44094384765625,0.08107598114013673,-1.8337995999728272,3.626604248046875,-0.7468673706054688
1741504933.5976737,-0.4612969160079956,-0.013392166356508204,0.04213136159775249,-0.9990223211971787,0.12005262076854706,-0.008378393016755581,-0.28284937143325806,-5.895798683166504,1.069310188293457,13.371864318847656,-0.09060001373291016,0.4102773666381836,0.3103303611278534,-1.2665224075317383,0.004386968910694122,-0.9172579646110535,0.050164032727479935,1.2260860204696655,0.004005493130534887,0.9561684727668762,-0.09288929402828217,-0.763523280620575,0.12569619715213776,0.17452506721019745,0.8546959757804871,-0.32972681522369385,0.016793889924883842,-0.23289081454277039,0.07419699430465698,0.043678950518369675,0.9267948269844055,-0.49481186270713806,-0.04827798157930374,-0.0876765102148056,-0.1022077202796936,-3.545262575149536,-0.4668895900249481,-0.074260413646698,-0.2706716060638428,2.507323980331421,0.3544211983680725,0.016076041385531425,0.0995296761393547,1.9143141508102417,1.4041731357574463,-1.0551178455352783,-2.2029054164886475,0.18170835077762604,-1.2774707078933716,-0.6145414710044861,-1.8527348041534424,0.11669959872961044,1.1814945936203003,6.4540228843688965,2.0186119079589844,-0.34189486503601074,1741504933.5674675,1741504933473,2.44094384765625,0.08107598114013673,-1.8337995999728272,3.626604248046875,-0.7468673706054688
1741504933.6177142,-0.4714778661727905,-0.012984570302164955,0.03359824600496209,-0.9993510688439065,0.496625155210495,-0.05005119740962982,-0.6686147451400757,-3.429946184158325,1.3924466371536255,10.257277488708496,-0.08030033111572266,0.4152364730834961,0.23708705604076385,-1.2669038772583008,0.005149920005351305,-0.917639434337616,0.09136339277029037,1.2363858222961426,0.004005493130534887,0.9584572911262512,-0.06351567804813385,-0.7421606779098511,0.09937438368797302,0.1516365259885788,0.8596551418304443,-0.33461347222328186,0.005573787726461887,-0.32101166248321533,0.08945601433515549,0.07648584991693497,1.100366234779358,-0.44912710785865784,-0.05350419133901596,0.3523485064506531,0.12009543180465698,-3.7833218574523926,-0.09923850744962692,-0.006409874185919762,-0.005864412989467382,2.819671392440796,0.7490168809890747,0.01329108327627182,0.0817950963973999,1.1924935579299927,0.8499366044998169,-1.2318633794784546,-1.0777486562728882,0.27166634798049927,-0.16976748406887054,-0.26611289381980896,-4.978000164031982,0.9579127430915833,1.650749921798706,8.777247428894043,2.301025152206421,-0.28856661915779114,1741504933.6653259,1741504933573,2.52608349609375,0.03210462951660156,-2.5657289211380445,3.643048828125,-0.760978515625
1741504933.637749,-0.4919523000717163,-0.00987361998768519,0.019322342434395436,-0.9997645516376278,0.6835218667984009,0.2567613422870636,-1.0896004438400269,-1.9921268224716187,-1.5715057849884033,10.371566772460938,-0.08030033111572266,0.4175252914428711,0.15774014592170715,-1.2672853469848633,0.00476844422519207,-0.917639434337616,0.1329442262649536,1.2451597452163696,0.004386968910694122,0.9580758213996887,-0.05245288833975792,-0.7082093358039856,0.09670405089855194,0.15850308537483215,0.8665217161178589,-0.34410369396209717,-0.0003013853565789759,-0.44308385252952576,0.11005569249391556,0.08945601433515549,1.28080415725708,-0.4118892252445221,-0.03172742947936058,0.014377967454493046,0.09107605367898941,-4.000782012939453,0.025240536779165268,-0.021904489025473595,-0.022213244810700417,2.831408977508545,0.45868849754333496,0.0006013480597175658,-0.01990860514342785,0.4652535319328308,1.7868452072143555,-0.08517047017812729,0.5470892786979675,0.20580145716667175,-0.5565931797027588,-0.40448638796806335,-6.099465370178223,1.1578696966171265,0.43391960859298706,8.802474975585938,1.6353358030319214,1.5829923152923584,1741504933.6653259,1741504933573,2.52608349609375,0.03210462951660156,-2.5657289211380445,3.643048828125,-0.760978515625
1741504933.6578047,-0.515724778175354,-0.009294054773642788,0.007924257246512377,-0.9999254105646859,0.5344967842102051,-0.02582329325377941,-1.1714671850204468,-3.6954612731933594,1.141160011291504,10.141168594360352,-0.08525943756103516,0.4358358383178711,0.08220797777175903,-1.2615631818771362,0.005149920005351305,-0.9172579646110535,0.17948424816131592,1.2516448497772217,0.004386968910694122,0.9573128819465637,-0.05092698708176613,-0.6799801588058472,0.1039520874619484,0.1661325991153717,0.8672846555709839,-0.35739144682884216,-0.011042619124054909,-0.5727855563163757,0.11768520623445511,0.07915617525577545,1.412413239479065,-0.41146939992904663,0.0025188783183693886,-0.1359882801771164,0.5641629099845886,-3.7143092155456543,0.4570620357990265,-0.000761837640311569,0.0036481954157352448,3.2157883644104004,0.45140960812568665,0.010998943820595741,-0.06854221224784851,-0.039730608463287354,1.3364441394805908,0.32118114829063416,0.26035553216934204,0.060610461980104446,-0.6682201027870178,-0.6200212836265564,-6.422345161437988,0.09103880822658539,-0.6618680357933044,6.024292469024658,-0.3807108402252197,1.192758560180664,1741504933.6653259,1741504933573,2.52608349609375,0.03210462951660156,-2.5657289211380445,3.643048828125,-0.760978515625
1741504933.6777842,-0.5340887308120728,-0.008912928668554651,0.0004333186986832586,-0.9999601851761172,0.318284809589386,0.0766059011220932,-0.7555661201477051,0.7369065880775452,-0.23842599987983704,7.646917819976807,-0.10090065002441406,0.4411764144897461,0.019645990803837776,-1.2520263195037842,0.005149920005351305,-0.917639434337616,0.23403525352478027,1.2573670148849487,0.004005493130534887,0.9565499424934387,-0.05207141116261482,-0.6361104846000671,0.10433356463909149,0.16308079659938812,0.8669031858444214,-0.37329286336898804,-0.020443210378289223,-0.6841763854026794,0.11387044936418533,0.04787518084049225,1.4730678796768188,-0.44669532775878906,-0.007086845580488443,-0.46688002347946167,0.20006254315376282,-3.037724733352661,0.6404788494110107,0.0018231610301882029,-0.018625006079673767,3.736999034881592,0.37341925501823425,-0.007301316596567631,-0.03120790235698223,0.0027773233596235514,2.34144926071167,0.006665211170911789,-0.069907046854496,-0.06646101176738739,-0.8458165526390076,-0.4499220848083496,-5.279882907867432,-0.23969827592372894,-1.6789747476577759,2.4642162322998047,-1.912032961845398,-0.3700520694255829,1741504933.6653259,1741504933573,2.52608349609375,0.03210462951660156,-2.5657289211380445,3.643048828125,-0.760978515625
1741504933.6978483,-0.5425678491592407,-0.01165296212390487,-0.0013153678171735127,-0.9999312367764317,0.03511151671409607,-0.21126620471477509,-0.3627232313156128,-4.485654830932617,-3.040409564971924,10.26863956451416,-0.11081886291503906,0.4514760971069336,-0.02994582988321781,-1.2447782754898071,0.00476844422519207,-0.9195467829704285,0.2931639552116394,1.2592743635177612,0.004005493130534887,0.9557870030403137,-0.06046387553215027,-0.5994887948036194,0.10433356463909149,0.16231784224510193,0.8600366115570068,-0.3931725025177002,-0.029823075979948044,-0.777256429195404,0.10509651154279709,0.01888304017484188,1.4631494283676147,-0.48656463623046875,0.0025815023109316826,-0.3163246214389801,0.32409822940826416,-2.486356019973755,0.473332941532135,-0.04482317343354225,-0.09317158907651901,3.797682285308838,0.09153784066438675,0.01815134286880493,-0.09367559850215912,-0.5064570307731628,1.7380492687225342,0.0021711066365242004,-0.03605608269572258,-0.3232423961162567,-1.0198898315429688,-0.49067923426628113,-4.673069477081299,-0.4742058217525482,-1.3160871267318726,-1.0005446672439575,-1.8391923904418945,0.8054097890853882,1741504933.6653259,1741504933573,2.52608349609375,0.03210462951660156,-2.5657289211380445,3.643048828125,-0.760978515625
1741504933.7178159,-0.5469725131988525,-0.01397343696002522,-0.0007586981542748345,-0.9999020789240488,-0.010156959295272827,-0.09417304396629333,-0.2515251934528351,-1.8882496356964111,-2.210315704345703,7.338480472564697,-0.11387062072753906,0.4510946273803711,-0.08182650804519653,-1.2386746406555176,0.005149920005351305,-0.9267948269844055,0.34885939955711365,1.2642335891723633,0.004386968910694122,0.9523537158966064,-0.06427863240242004,-0.5643930435180664,0.10700388997793198,0.16041046380996704,0.8596551418304443,-0.4188925623893738,-0.037104979157447815,-0.8443961143493652,0.09136339277029037,0.007057297509163618,1.3975356817245483,-0.5018339157104492,0.014647838659584522,-0.10937078297138214,0.03720313310623169,-2.412515640258789,0.395981103181839,-0.011233590543270111,-0.5201760530471802,3.5710012912750244,0.3046485185623169,0.029976876452565193,-0.24698641896247864,-0.06694727391004562,2.011579990386963,0.15700314939022064,-0.16127540171146393,0.01957339234650135,-1.3955364227294922,-0.4506692588329315,-3.2221336364746094,-0.7512199282646179,-0.4738287925720215,-3.6928837299346924,-0.4296813905239105,0.40434545278549194,1741504933.6653259,1741504933573,2.52608349609375,0.03210462951660156,-2.5657289211380445,3.643048828125,-0.760978515625
1741504933.737916,-0.5516749620437622,-0.012422533621082435,-0.0009401455885617046,-0.9999223953811143,-0.004410125780850649,0.06303200125694275,-0.2731015980243683,-3.513916492462158,-1.8070341348648071,9.528487205505371,-0.11692237854003906,0.4499502182006836,-0.11501488089561462,-1.2348599433898926,0.005149920005351305,-0.9424353241920471,0.39730677008628845,1.2638521194458008,0.004386968910694122,0.9451056718826294,-0.0551232174038887,-0.5342565178871155,0.11348897218704224,0.16002899408340454,0.8600366115570068,-0.45174896717071533,-0.05084885284304619,-0.883306622505188,0.071908138692379,0.005149920005351305,1.2903410196304321,-0.47706085443496704,0.011394106782972813,-0.08917215466499329,-0.01247565820813179,-1.49967360496521,0.27946069836616516,0.0043554482981562614,-0.755297839641571,3.2401413917541504,-0.09317625313997269,0.015233687125146389,-0.5456151366233826,0.6900266408920288,1.341543436050415,0.40277186036109924,-0.01795164681971073,0.05056479573249817,-1.6827665567398071,-0.8145257830619812,-1.573908805847168,-1.0446062088012695,-0.025472605600953102,-5.605050086975098,1.5598726272583008,0.0013133299071341753,1741504933.772387,1741504933673,2.604902587890625,-0.038743476867675784,-2.3604001830620787,3.6506767578125,-0.770767333984375
1741504933.7578828,-0.5574328899383545,-0.002183453074783128,0.0008357919927569061,-0.9999972669884729,-0.0984501764178276,0.5313112735748291,-0.3208402693271637,4.481610298156738,-6.761535167694092,4.416525363922119,-0.12073707580566406,0.4419393539428711,-0.12874799966812134,-1.2283748388290405,0.00476844422519207,-0.9588387608528137,0.4404135048389435,1.2623261213302612,0.004386968910694122,0.9336614012718201,-0.024223696440458298,-0.5098420977592468,0.11539635062217712,0.14858472347259521,0.8676661252975464,-0.48458871245384216,-0.06596041470766068,-0.892080545425415,0.0394827201962471,0.005531395319849253,1.1472877264022827,-0.43236249685287476,0.009591946378350258,-0.12538667023181915,-0.2669900357723236,-0.5500004291534424,0.4063348174095154,0.00010336578270653263,-0.776107132434845,2.616560220718384,-0.170810267329216,0.01196984387934208,-0.7875242829322815,1.6883940696716309,1.16251540184021,0.03073366917669773,-0.8094915747642517,0.31481897830963135,-1.6496474742889404,-0.43275588750839233,-0.33298546075820923,-1.7503491640090942,0.005447987467050552,-7.563709735870361,2.2131967544555664,-0.17046648263931274,1741504933.772387,1741504933673,2.604902587890625,-0.038743476867675784,-2.3604001830620787,3.6506767578125,-0.770767333984375
1741504933.777878,-0.5640687942504883,0.005373156851629787,0.0031718219399695367,-0.9999805341760553,-0.0788322389125824,0.3618617653846741,-0.3366069197654724,-1.6784030199050903,0.5722157955169678,5.947295188903809,-0.12417030334472656,0.4438467025756836,-0.11959258466959,-1.2241785526275635,0.00476844422519207,-0.9691386222839355,0.46253910660743713,1.2596558332443237,0.004386968910694122,0.9237430095672607,0.01926451548933983,-0.4873350262641907,0.09708552807569504,0.12149996310472488,0.8745326995849609,-0.512596607208252,-0.057193297892808914,-0.8741512298583984,-0.004386968910694122,-0.00476844422519207,0.9596017599105835,-0.38727203011512756,0.0018715271726250648,-0.12869617342948914,0.02394743636250496,0.6111497282981873,0.22881589829921722,-0.01724296063184738,-0.46712979674339294,1.3798480033874512,-0.1478448063135147,-0.01748734340071678,-0.6508578062057495,2.236706018447876,1.1397597789764404,-1.0276042222976685,-1.394723892211914,0.3753604292869568,-1.387041449546814,0.7030875086784363,1.2364908456802368,-2.1958277225494385,-0.6827166676521301,-9.534882545471191,2.2470195293426514,-0.5220800638198853,1741504933.772387,1741504933673,2.604902587890625,-0.038743476867675784,-2.3604001830620787,3.6506767578125,-0.770767333984375
1741504933.7978935,-0.570810079574585,0.0028841739580678207,0.001995165989114771,-0.9999938504077189,-0.019748149439692497,-0.42074161767959595,-0.33358174562454224,0.4577767252922058,-14.594173431396484,17.096466064453125,-0.11692237854003906,0.4739837646484375,-0.09174486994743347,-1.222271203994751,0.00476844422519207,-0.969520092010498,0.4686427116394043,1.2558410167694092,0.004386968910694122,0.9119172692298889,0.058175019919872284,-0.4491874575614929,0.07648584991693497,0.09441519528627396,0.8806362748146057,-0.5386804342269897,-0.032361336052417755,-0.837911069393158,-0.034142062067985535,-0.07915617525577545,0.9096284508705139,-0.3081575036048889,-0.013108406215906143,0.234131321310997,0.9668794274330139,1.3829224109649658,0.009810940362513065,-0.042988620698451996,0.04164702072739601,0.2540598213672638,-0.33994895219802856,0.003647373989224434,-1.0125017166137695,1.552482008934021,2.019943952560425,-0.5222660303115845,-1.3294241428375244,-0.006681529805064201,-1.315379023551941,1.2355730533599854,2.299616813659668,-0.829969584941864,-4.232691764831543,-0.16393281519412994,3.766997814178467,-1.2020456790924072,1741504933.772387,1741504933673,2.604902587890625,-0.038743476867675784,-2.3604001830620787,3.6506767578125,-0.770767333984375
1741504933.8179758,-0.5818012952804565,0.008173637347788858,0.009151813144709751,-0.9999247151504312,-0.31120994687080383,0.4044082760810852,-0.3780348002910614,12.195281028747559,8.94135570526123,-2.64593505859375,-0.14171791076660156,0.4674978256225586,-0.040245670825242996,-1.223034143447876,0.004386968910694122,-0.9634165167808533,0.44651713967323303,1.2512633800506592,0.00476844422519207,0.9061951637268066,0.056267641484737396,-0.3995956480503082,0.056267641484737396,0.07839322835206985,0.8756771087646484,-0.5433862805366516,-0.0034755906090140343,-0.769245445728302,-0.03185320645570755,-0.09670405089855194,0.9031433463096619,-0.2583793103694916,-0.05083687976002693,-0.7295175194740295,-0.07037703692913055,2.940089225769043,0.02296815812587738,-0.025495244190096855,0.3545103967189789,-1.8057974576950073,-0.2720129191875458,-9.160075569525361e-05,-0.13553057610988617,0.0015601167688146234,2.581465721130371,-0.7549417018890381,-0.9186863899230957,-0.17684924602508545,0.22339966893196106,1.0462548732757568,2.9822466373443604,-0.03826538845896721,-0.18352735042572021,-1.0810215473175049,2.1478638648986816,-1.9444918632507324,1741504933.772387,1741504933673,2.604902587890625,-0.038743476867675784,-2.3604001830620787,3.6506767578125,-0.770767333984375
1741504933.8379679,-0.5872806310653687,0.009479344411981809,0.009920497078449787,-0.9999058584523022,-0.002914944663643837,0.07986439019441605,-0.3557778000831604,-21.8629150390625,2.1487069129943848,15.804634094238281,-0.12569618225097656,0.47894287109375,0.019645990803837776,-1.223034143447876,0.00476844422519207,-0.9588387608528137,0.40951400995254517,1.2478300333023071,0.004386968910694122,0.9065766334533691,0.03376058489084244,-0.36793315410614014,0.06160829961299896,0.058175019919872284,0.9054322242736816,-0.5165552496910095,0.00023914595658425242,-0.7234683632850647,-0.00476844422519207,-0.05893797054886818,0.8802548050880432,-0.2516425549983978,-0.06110111624002457,0.35055866837501526,0.24330490827560425,2.794501781463623,-0.1474280059337616,-0.041060369461774826,0.17441017925739288,-2.4276630878448486,-0.35803624987602234,0.07321377098560333,-0.08970058709383011,-1.0922164916992188,1.4656745195388794,0.44500383734703064,-0.9501169323921204,2.1756551265716553,1.3333358764648438,0.3909602761268616,2.3129138946533203,1.7643992900848389,1.9366538524627686,-0.4752481281757355,-0.13253088295459747,-0.04989232122898102,1741504933.772387,1741504933673,2.604902587890625,-0.038743476867675784,-2.3604001830620787,3.6506767578125,-0.770767333984375
1741504933.8579712,-0.5896246433258057,0.013872615232482047,0.016506736219027342,-0.9997675120776864,-0.37442752718925476,0.1399209350347519,-0.0735141783952713,-9.182732582092285,4.742039203643799,9.578557014465332,-0.13752174377441406,0.4991607666015625,0.07915617525577545,-1.2386746406555176,0.00476844422519207,-0.9546425342559814,0.3580147922039032,1.2428709268569946,0.004005493130534887,0.9073395729064941,0.00667582219466567,-0.39692530035972595,0.05855649709701538,0.04329747334122658,1.0088120698928833,-0.4781012535095215,0.011747030541300774,-0.6826505064964294,0.031090257689356804,-0.029564354568719864,0.8772030472755432,-0.2903927266597748,-0.04365295544266701,-0.37889647483825684,0.650305986404419,3.2813565731048584,-0.981331467628479,-0.03921319916844368,0.24264472723007202,-3.6670777797698975,-0.22862844169139862,-0.009141488000750542,0.1268913447856903,-1.2709330320358276,-1.972373127937317,-0.22544974088668823,-0.8666777610778809,5.838420391082764,2.054389238357544,0.413427472114563,2.015801429748535,1.4154189825057983,1.4598850011825562,-0.48673215508461,-2.2127015590667725,0.99351567029953,1741504933.772387,1741504933673,2.604902587890625,-0.038743476867675784,-2.3604001830620787,3.6506767578125,-0.770767333984375
1741504933.8780024,-0.587380051612854,0.019149002825271988,0.02004527515174049,-0.9996156774655391,-0.13995356857776642,0.2918771207332611,0.132476344704628,-2.886610507965088,0.19281455874443054,7.580392360687256,-0.13408851623535156,0.5075531005859375,0.14286258816719055,-1.2535521984100342,0.005531395319849253,-0.9473945498466492,0.2904936373233795,1.2413450479507446,0.004005493130534887,0.9130617380142212,-0.0020981156267225742,-0.4812313914299011,0.04749370738863945,0.024986648932099342,1.1820019483566284,-0.43285831809043884,0.021436218172311783,-0.6353475451469421,0.051689937710762024,-0.018501564860343933,0.8592736721038818,-0.33564168214797974,-0.03563668206334114,0.059842512011528015,0.3365124762058258,3.371525764465332,-1.0663968324661255,0.01798657886683941,0.26059889793395996,-4.558287620544434,-0.1518416553735733,-0.00805339403450489,0.3530808985233307,-0.25838524103164673,-4.606882095336914,-0.6564906239509583,-1.0581068992614746,8.634580612182617,2.214935064315796,0.29748764634132385,2.342970132827759,1.0647468566894531,0.37874361872673035,-0.8752163648605347,-2.1059460639953613,0.32450392842292786,1741504933.772387,1741504933673,2.604902587890625,-0.038743476867675784,-2.3604001830620787,3.6506767578125,-0.770767333984375
1741504933.8980227,-0.5818718671798706,0.023744493410811345,0.02498324302388933,-0.9994058417883465,-0.2635190188884735,0.21322496235370636,0.3483845293521881,0.31604674458503723,2.5380167961120605,8.834118843078613,-0.13637733459472656,0.5197601318359375,0.20923933386802673,-1.2630890607833862,0.005149920005351305,-0.9454871416091919,0.21915769577026367,1.2356228828430176,0.004005493130534887,0.9153505563735962,-0.001716639962978661,-0.5918593406677246,0.020027466118335724,0.013923857361078262,1.3578622341156006,-0.40396222472190857,0.005445584189146757,-0.5899519324302673,0.05130846053361893,-0.014686808921396732,0.8413442969322205,-0.36131352186203003,-0.030921760946512222,-0.09690622240304947,0.39056164026260376,3.2232120037078857,-0.5496243834495544,0.01673145405948162,0.13013717532157898,-4.63024377822876,-0.4218539297580719,-0.005999516695737839,0.11354472488164902,0.04068181291222572,-5.3987650871276855,-1.4742138385772705,-0.43375322222709656,8.279860496520996,1.1056606769561768,-0.7775796055793762,2.305819511413574,-0.14148558676242828,0.10025886446237564,-0.9376605153083801,-1.1089625358581543,0.15432971715927124,1741504933.772387,1741504933673,2.604902587890625,-0.038743476867675784,-2.3604001830620787,3.6506767578125,-0.770767333984375
1741504933.918074,-0.5692281723022461,0.024807322021077372,0.026951634680996955,-0.9993288778786314,-0.05982474982738495,-0.011825581081211567,0.6342580318450928,0.8518593907356262,2.0047173500061035,8.981060028076172,-0.12989234924316406,0.5361642837524414,0.27103838324546814,-1.2718631029129028,0.005149920005351305,-0.9409094452857971,0.15316243469715118,1.2321895360946655,0.004005493130534887,0.9157320261001587,-0.005912871100008488,-0.6921873688697815,-0.0009536888683214784,0.01583123579621315,1.4730678796768188,-0.4071424901485443,0.0058449343778193,-0.5395971536636353,0.04100862145423889,-0.016594186425209045,0.8180742859840393,-0.37410780787467957,-0.023745201528072357,0.1469305455684662,0.4883391857147217,3.1442413330078125,-0.5919201374053955,-0.008311047218739986,0.2514802813529968,-4.354182720184326,-0.22850996255874634,0.020195960998535156,0.009157702326774597,-0.2278827428817749,-4.82052755355835,-1.0852057933807373,0.18030411005020142,5.194573879241943,-0.35163483023643494,0.2581820785999298,2.5147552490234375,-0.5473010540008545,-0.020094377920031548,-1.290343999862671,-0.6077003479003906,0.3325612545013428,1741504933.772387,1741504933673,2.604902587890625,-0.038743476867675784,-2.3604001830620787,3.6506767578125,-0.770767333984375
1741504933.9381027,-0.553290843963623,0.02257946638470711,0.02419806630015366,-0.9994521605785418,0.12699121236801147,-0.13685908913612366,0.8222947716712952,-1.630988597869873,-0.8372495174407959,9.313322067260742,-0.11768531799316406,0.5468454360961914,0.33131152391433716,-1.2745333909988403,0.005149920005351305,-0.9359502792358398,0.09174486994743347,1.2299007177352905,0.004005493130534887,0.916113555431366,-0.005531395319849253,-0.777256429195404,-0.016975661739706993,0.04139009863138199,1.508163571357727,-0.4246711730957031,0.007125829346477985,-0.47894254326820374,0.0398641936480999,-0.013923857361078262,0.7852674126625061,-0.3848176598548889,-0.02283332124352455,0.33808889985084534,0.33744892477989197,2.887899875640869,-0.14360840618610382,-0.0038753487169742584,0.17027364671230316,-3.91156268119812,-0.15835630893707275,-0.001054032240062952,0.017643284052610397,0.13309705257415771,-4.337584972381592,-0.6819379329681396,1.290102481842041,1.1445902585983276,-0.8460292220115662,-0.21026591956615448,3.060490608215332,-0.04085201025009155,0.19757619500160217,-1.6646449565887451,-0.5183082222938538,0.05471699684858322,1741504933.9700065,1741504933773,2.697465576171875,-0.11360699462890625,-2.198137882105202,3.707226318359375,-0.742720703125
1741504933.9580796,-0.5436185598373413,0.021096666669984353,0.023095664488359716,-0.9995106407323818,0.030503302812576294,-0.0746084600687027,0.3837350606918335,-0.8377669453620911,2.580335855484009,7.523055076599121,-0.11577796936035156,0.5502786636352539,0.38319218158721924,-1.2730075120925903,0.00476844422519207,-0.9378576278686523,0.0394827201962471,1.2283748388290405,0.004005493130534887,0.916113555431366,-0.0024795911740511656,-0.8520256280899048,-0.016594186425209045,0.06694895774126053,1.4745937585830688,-0.4331066608428955,-0.010520735755562782,-0.4190509021282196,0.040245670825242996,-0.009727626107633114,0.7444495558738708,-0.3995029330253601,-0.021503319963812828,0.05220642685890198,0.13556471467018127,2.4107627868652344,0.11711502075195312,-0.026786239817738533,-0.12673352658748627,-3.3170323371887207,-0.10936389863491058,0.024520214647054672,0.011099686846137047,0.29401108622550964,-3.818976402282715,0.08338353782892227,1.323081374168396,-2.1477818489074707,-0.22545680403709412,-0.8388573527336121,2.943864107131958,0.0028954767622053623,0.163142591714859,-2.0136823654174805,-0.7685633897781372,0.10839544981718063,1741504933.9700065,1741504933773,2.697465576171875,-0.11360699462890625,-2.198137882105202,3.707226318359375,-0.742720703125
1741504933.9780886,-0.5433529615402222,0.02219742561705687,0.023396382582301693,-0.9994798064883742,-0.015541908331215382,0.09720468521118164,-0.05297347158193588,-0.6302316188812256,1.2078592777252197,5.472517013549805,-0.11005592346191406,0.5510416030883789,0.421339750289917,-1.2684297561645508,0.005149920005351305,-0.9409094452857971,-0.004386968910694122,1.2321895360946655,0.004386968910694122,0.919165313243866,0.010872052982449532,-0.9130617380142212,-0.005912871100008488,0.08487831056118011,1.3918135166168213,-0.41952380537986755,-0.007551997434347868,-0.3686961233615875,0.0398641936480999,-0.007438773289322853,0.7043945789337158,-0.41826310753822327,-0.015266260132193565,0.16246910393238068,0.038470037281513214,1.8364017009735107,0.24416187405586243,0.013585519976913929,-0.12079054117202759,-2.975221872329712,0.46427908539772034,0.016137005761265755,0.22951345145702362,0.6997514963150024,-2.884775161743164,0.5364996790885925,0.921596109867096,-4.522787570953369,0.8764176964759827,0.37669336795806885,2.4292967319488525,-0.009096567519009113,0.11294297873973846,-1.9455243349075317,-0.9506876468658447,0.3225340247154236,1741504933.9700065,1741504933773,2.697465576171875,-0.11360699462890625,-2.198137882105202,3.707226318359375,-0.742720703125
1741504933.9981244,-0.5420477390289307,0.02759471570807744,0.022531259785276044,-0.9993652355357768,0.042504917830228806,0.29097169637680054,0.167534738779068,-2.9872100353240967,3.5410268306732178,7.977084636688232,-0.10891151428222656,0.5495157241821289,0.46253910660743713,-1.2676668167114258,0.005149920005351305,-0.9359502792358398,-0.05283436179161072,1.2409635782241821,0.004386968910694122,0.9302281141281128,0.010490577667951584,-0.9489204287528992,0.009346150793135166,0.09632257372140884,1.2781338691711426,-0.37885725498199463,-0.005652108695358038,-0.33436331152915955,0.0398641936480999,-0.00858320016413927,0.6692988276481628,-0.44324415922164917,-0.015340425074100494,0.03133155405521393,-0.01586960442364216,2.0186078548431396,0.0703321248292923,-0.021106839179992676,0.22572359442710876,-3.0581088066101074,0.39150872826576233,-0.011488459073007107,0.8636062145233154,-0.24142692983150482,-1.504766821861267,0.8741836547851562,0.6139388680458069,-5.820520877838135,2.168221950531006,-0.041497912257909775,1.774827480316162,-0.013799467124044895,-0.05346120893955231,-1.5554145574569702,-1.2947986125946045,-0.05361563339829445,1741504933.9700065,1741504933773,2.697465576171875,-0.11360699462890625,-2.198137882105202,3.707226318359375,-0.742720703125
1741504934.0193882,-0.5407874584197998,0.04058714405006068,0.020886190794512594,-0.9989576821727509,0.10608209669589996,0.6423787474632263,0.028718911111354828,3.95003080368042,0.5653218626976013,4.671205997467041,-0.10471534729003906,0.5449380874633789,0.483138769865036,-1.2615631818771362,0.005149920005351305,-0.9351872801780701,-0.08602273464202881,1.2363858222961426,0.0036240178160369396,0.9481574892997742,-0.010490577667951584,-0.9653238654136658,0.03604944050312042,0.11158160120248795,1.1358433961868286,-0.32856282591819763,-0.0013421011390164495,-0.2962157726287842,0.03795681521296501,-0.002861066721379757,0.647936224937439,-0.4731856882572174,-0.015773262828588486,0.12461032718420029,-0.18048404157161713,0.863953709602356,0.4412691593170166,-4.350849849288352e-06,0.04279729351401329,-2.165423631668091,-0.4092756509780884,-0.004590009339153767,1.1565558910369873,-1.2598650455474854,-0.6612278819084167,1.497726321220398,0.6929875016212463,-7.340224266052246,2.539475440979004,0.3251221179962158,1.7629835605621338,-0.1462881863117218,0.4145806133747101,-1.105850338935852,-1.5056369304656982,-0.02176993153989315,1741504933.9700065,1741504933773,2.697465576171875,-0.11360699462890625,-2.198137882105202,3.707226318359375,-0.742720703125
1741504934.0381758,-0.5375665426254272,0.049192177100171014,0.014829140911119473,-0.9986792409437495,0.3203090727329254,0.41952013969421387,0.1712789684534073,-0.14100633561611176,1.5714353322982788,6.064774513244629,-0.10318946838378906,0.5487527847290039,0.4873350262641907,-1.2581299543380737,0.005149920005351305,-0.9317540526390076,-0.09746700525283813,1.228756308555603,0.004005493130534887,0.9630350470542908,-0.04253452271223068,-0.9561684727668762,0.06656748056411743,0.13141833245754242,0.9821087718009949,-0.28473716974258423,0.00438335258513689,-0.25654229521751404,0.043678950518369675,0.01430533267557621,0.6300068497657776,-0.49784278869628906,-0.013839438557624817,0.0353865846991539,0.08259718865156174,0.04875050112605095,0.18566448986530304,0.0029940837994217873,0.17012594640254974,-0.4858468174934387,-0.5080167651176453,0.005010024178773165,0.9556882977485657,-1.5601646900177002,0.7217512726783752,1.4237041473388672,1.2330944538116455,-7.756163597106934,1.9915984869003296,0.26958510279655457,2.1179513931274414,0.4273112118244171,0.9891323447227478,-0.8363661766052246,-1.1332370042800903,-0.11617489159107208,1741504934.0748167,1741504933873,2.7842724609375002,-0.16097158813476564,-2.7319449852955024,3.44280419921875,-0.8668782958984376
1741504934.0582397,-0.5346472263336182,0.05158557425598221,0.010257447553856094,-0.9986158987810881,0.14123396575450897,0.006065441761165857,0.1266164630651474,-2.636373996734619,-2.806245803833008,8.272790908813477,-0.10433387756347656,0.5659189224243164,0.47436484694480896,-1.2562226057052612,0.005149920005351305,-0.9267948269844055,-0.09136339277029037,1.2218897342681885,0.004005493130534887,0.9710460305213928,-0.06809338182210922,-0.9229800701141357,0.08182650804519653,0.1676585078239441,0.841725766658783,-0.2722729742527008,0.008402797393500805,-0.2141985148191452,0.06580453366041183,0.02079041674733162,0.6239032745361328,-0.5030916333198547,-0.03345097601413727,-0.04838385805487633,0.4636654853820801,-0.6951132416725159,0.14278972148895264,-0.011709945276379585,0.2930675446987152,0.5589677095413208,-0.45698848366737366,0.022644689306616783,0.3882032334804535,-1.2096924781799316,1.776473045349121,1.0254894495010376,1.8232232332229614,-6.804762840270996,0.2879490256309509,0.19126948714256287,2.106142520904541,1.2162535190582275,0.02214021049439907,-0.17577721178531647,-0.14868487417697906,-1.19985830783844,1741504934.0748167,1741504933873,2.7842724609375002,-0.16097158813476564,-2.7319449852955024,3.44280419921875,-0.8668782958984376
