Freshhhhh-LC/Legged_odom/data/3/segments/booster_seg_9.88s.csv
time,yaw,projected_gravity_x,projected_gravity_y,projected_gravity_z,ang_vel_x,ang_vel_y,ang_vel_z,lin_acc_x,lin_acc_y,lin_acc_z,q_0,q_1,q_2,q_3,q_4,q_5,q_6,q_7,q_8,q_9,q_10,q_11,q_12,q_13,q_14,q_15,q_16,q_17,q_18,q_19,q_20,q_21,q_22,dq_0,dq_1,dq_2,dq_3,dq_4,dq_5,dq_6,dq_7,dq_8,dq_9,dq_10,dq_11,dq_12,dq_13,dq_14,dq_15,dq_16,dq_17,dq_18,dq_19,dq_20,dq_21,dq_22,mocap_time,mocap_timestamp,robot_x,robot_y,robot_yaw,ball_x,ball_y
1741504849.7521803,-3.330824851989746,0.036554334365296426,-0.004487749331857429,-0.9993215902526296,0.2357587367296219,-0.2738906443119049,-0.32594969868659973,-18.499601364135742,2.1877899169921875,25.891244888305664,-0.037957191467285156,0.17719554901123047,0.482375830411911,-1.2566040754318237,0.005531395319849253,-0.9149690866470337,-0.12874799966812134,1.2241785526275635,0.01430533267557621,0.9714275002479553,0.15392538905143738,-0.8199816942214966,-0.07801175117492676,-0.0711451917886734,0.9187838435173035,-0.3525420129299164,-0.004538347944617271,-0.6078813076019287,-0.08564125746488571,-0.086785688996315,0.9233615398406982,-0.41470837593078613,0.046892840415239334,-0.33141064643859863,1.3256984949111938,0.3835028111934662,0.17687281966209412,0.04501510038971901,0.7120112180709839,-0.027406370267271996,-0.47576162219047546,-0.03364158049225807,0.39133748412132263,-1.2682443857192993,2.5071232318878174,1.5801291465759277,4.216587543487549,0.6099082231521606,4.476351737976074,0.08350230008363724,0.32910600304603577,-0.21400724351406097,0.8525756001472473,2.2743139266967773,-1.4818165302276611,-0.6407544016838074,1741504849.7984102,1741504849653,0.7088641357421875,-0.10909196472167969,0.6551360896945205,-6.3690439453125,1.5091148681640625
1741504849.754327,-3.336612343788147,0.05277166820046918,-0.021071268891448225,-0.9983842710412879,0.09145841747522354,0.1648963838815689,0.07064163684844971,-7.277092933654785,-4.109251499176025,18.741506576538086,-0.06389713287353516,0.17109203338623047,0.4060807228088379,-1.2569855451583862,0.005149920005351305,-0.9157320261001587,-0.06198977679014206,1.224560022354126,0.012779430486261845,0.968757152557373,0.15774014592170715,-0.7303349375724792,-0.05855649709701538,-0.06809338182210922,0.881017804145813,-0.24938572943210602,0.03815319016575813,-0.5907148718833923,-0.06923781335353851,-0.09479667246341705,0.9878309369087219,-0.47044265270233154,-0.008973706513643265,-0.9554688334465027,0.26799634099006653,-2.7693817615509033,0.2713741362094879,-0.0049947393126785755,-0.2518956959247589,2.845292568206787,0.5733250975608826,0.05779192969202995,-0.32552340626716614,0.24211092293262482,3.1611311435699463,-0.4867914319038391,0.051754940301179886,-0.5516114234924316,1.7808985710144043,0.14719189703464508,0.490517795085907,0.08053313195705414,-0.5324649214744568,2.207179069519043,-0.7853679060935974,-0.2449650764465332,1741504849.7984102,1741504849653,0.7088641357421875,-0.10909196472167969,0.6551360896945205,-6.3690439453125,1.5091148681640625
1741504849.7650764,-3.3898075819015503,-0.0027561299533562593,-0.09180900688108978,-0.9957728204782396,0.07859797775745392,0.2644917964935303,0.2500796914100647,1.3930987119674683,2.6274025440216064,8.797329902648926,0.031472206115722656,0.19703197479248047,0.5106050372123718,-1.2592743635177612,0.005149920005351305,-0.9187838435173035,-0.06809338182210922,1.236767292022705,0.014686808921396732,0.9370946884155273,0.015449759550392628,-0.7974746227264404,-0.05855649709701538,0.12378881871700287,1.1720836162567139,-0.454133003950119,-0.011627152562141418,-0.45834288001060486,-0.0879301130771637,-0.08068207651376724,0.8367666006088257,-0.4795914888381958,0.016425469890236855,-0.23496492207050323,-0.3570743799209595,1.7304801940917969,0.1529364138841629,0.0074045793153345585,0.23426349461078644,-3.2984745502471924,0.017065461724996567,0.024424545466899872,0.7637564539909363,-0.06884828209877014,-0.7396937608718872,0.3602885603904724,0.4996948838233948,-5.792910575866699,1.8030540943145752,-0.31671756505966187,1.7265968322753906,0.005095860455185175,0.14279983937740326,-0.5291673541069031,-1.4786574840545654,0.2602967917919159,1741504849.7984102,1741504849653,0.7088641357421875,-0.10909196472167969,0.6551360896945205,-6.3690439453125,1.5091148681640625
1741504849.7850504,-3.385221242904663,0.004463350481919381,-0.09435677070766943,-0.9955284417454359,0.13587692379951477,0.4473887085914612,0.2616980969905853,2.1165058612823486,-0.8587825298309326,8.950304985046387,0.02117156982421875,0.18482494354248047,0.5285343527793884,-1.2596558332443237,0.005149920005351305,-0.9134432077407837,-0.10013733059167862,1.23295259475708,0.01430533267557621,0.9504463076591492,0.00019073777366429567,-0.7921339869499207,-0.03795681521296501,0.1367589831352234,1.0435264110565186,-0.4089726209640503,-0.008244427852332592,-0.42820629477500916,-0.08106355369091034,-0.07763027399778366,0.8241779208183289,-0.5066154599189758,0.020088162273168564,-0.32196399569511414,-0.3779607117176056,0.7329199314117432,-0.022044198587536812,-0.0024715550243854523,0.247084379196167,-1.9351439476013184,-0.2280704826116562,-0.02433580532670021,0.9229384064674377,-0.8113902807235718,0.47286030650138855,1.1583704948425293,0.7147572040557861,-6.427096843719482,2.2598562240600586,0.2554760277271271,1.5161298513412476,0.44925835728645325,0.17130117118358612,-0.5272583365440369,-1.326685905456543,0.18654955923557281,1741504849.7984102,1741504849653,0.7088641357421875,-0.10909196472167969,0.6551360896945205,-6.3690439453125,1.5091148681640625
1741504849.8050969,-3.3809555768966675,0.015352301660530381,-0.09297321634406755,-0.9955502437729415,-0.09338021278381348,0.4996313154697418,0.18481381237506866,2.8899199962615967,-0.974238932132721,6.297408580780029,0.01583099365234375,0.18368053436279297,0.5254825949668884,-1.2569855451583862,0.005149920005351305,-0.9134432077407837,-0.10700388997793198,1.2299007177352905,0.01430533267557621,0.9611276388168335,-0.022697795182466507,-0.7833600640296936,-0.011635004542768002,0.164988175034523,0.9180209040641785,-0.3623971939086914,-0.0007537412457168102,-0.39501792192459106,-0.06961929053068161,-0.06656748056411743,0.8119707107543945,-0.5298354029655457,0.013558486476540565,-0.16858844459056854,-0.014698542654514313,-0.2010921984910965,0.1905292570590973,-0.004648830275982618,-0.040095459669828415,-0.21095141768455505,-0.1992349624633789,0.0015518534928560257,0.6625778079032898,-1.1154600381851196,0.2972249388694763,1.3416086435317993,1.533597707748413,-6.195123672485352,2.27013897895813,0.32992544770240784,1.6869505643844604,0.7146422266960144,0.6160814166069031,-0.6654391288757324,-1.0701913833618164,-0.366250604391098,1741504849.7984102,1741504849653,0.7088641357421875,-0.10909196472167969,0.6551360896945205,-6.3690439453125,1.5091148681640625
1741504849.8251069,-3.3778239488601685,0.019734744275179066,-0.0861097842617546,-0.9960901791117045,-0.3905991017818451,0.22165484726428986,0.13006259500980377,3.624528408050537,-2.831388473510742,7.329042434692383,0.00476837158203125,0.18749523162841797,0.509079098701477,-1.2535521984100342,0.005149920005351305,-0.916113555431366,-0.09288929402828217,1.2276118993759155,0.01430533267557621,0.9660868048667908,-0.035667963325977325,-0.7715343236923218,0.009727626107633114,0.20389868319034576,0.8218890428543091,-0.3286507725715637,0.004517506808042526,-0.34733349084854126,-0.04139009863138199,-0.05703059583902359,0.7932783961296082,-0.5375922918319702,0.0061159152537584305,-0.32088539004325867,0.06466854363679886,-0.9697383642196655,0.20547878742218018,-0.0005494222859852016,-0.13322444260120392,1.1679025888442993,-0.1563834547996521,-0.003819200210273266,0.22226658463478088,-0.4775870442390442,0.6172933578491211,1.3566747903823853,1.7514899969100952,-4.549867630004883,1.4599028825759888,0.20942480862140656,2.447392702102661,1.3890284299850464,0.45599910616874695,-0.934827446937561,-0.16228018701076508,-0.1503201723098755,1741504849.7984102,1741504849653,0.7088641357421875,-0.10909196472167969,0.6551360896945205,-6.3690439453125,1.5091148681640625
1741504849.845204,-3.372998356819153,0.017154198626334372,-0.07703254425357542,-0.996880996205319,-0.4385366439819336,-0.16381649672985077,0.2486926019191742,2.6785409450531006,-4.374924659729004,3.5859854221343994,0.00057220458984375,0.20923900604248047,0.4736018776893616,-1.2501189708709717,0.005149920005351305,-0.9157320261001587,-0.05664911866188049,1.2241785526275635,0.01430533267557621,0.9649423956871033,-0.03643091395497322,-0.7528420090675354,0.03528648987412453,0.2294575423002243,0.7532234787940979,-0.32433587312698364,0.01036161184310913,-0.291638046503067,-0.02079041674733162,-0.06046387553215027,0.7841230034828186,-0.5105032920837402,0.00791686587035656,-0.12684503197669983,0.6503753662109375,-1.9223153591156006,0.16742393374443054,0.006436952855437994,0.0002751440624706447,2.58359956741333,-0.2402944415807724,0.003925343044102192,-0.10917282104492188,0.010785505175590515,0.9580095410346985,1.0788261890411377,1.287162184715271,-3.2591404914855957,0.037938442081213,0.2992461323738098,2.6432294845581055,0.9817602038383484,-0.26413974165916443,-0.3650243282318115,1.4148916006088257,-0.2685645520687103,1741504849.7984102,1741504849653,0.7088641357421875,-0.10909196472167969,0.6551360896945205,-6.3690439453125,1.5091148681640625
1741504849.8651333,-3.3663684129714966,0.006156554668357477,-0.06381439026140157,-0.9979427941671712,-0.6849451065063477,-0.6293380260467529,0.2740452289581299,-8.970260620117188,4.977423191070557,17.47098731994629,-0.00324249267578125,0.22907638549804688,0.422102689743042,-1.2463041543960571,0.005149920005351305,-0.9134432077407837,-0.002861066721379757,1.224941611289978,0.01430533267557621,0.9596017599105835,-0.042153049260377884,-0.7265201807022095,0.04444190114736557,0.22106507420539856,0.7440680265426636,-0.32695168256759644,0.039849258959293365,-0.25501641631126404,-0.009727626107633114,-0.06008239835500717,0.8134965896606445,-0.4926772117614746,-0.00863823015242815,-0.11381862312555313,0.6770702600479126,-2.614321708679199,0.31448888778686523,0.015619848854839802,0.1875915229320526,3.7284789085388184,0.12524811923503876,0.012379473075270653,-0.406130313873291,-0.3309306800365448,1.6107162237167358,0.17143039405345917,-0.7004340291023254,0.7077494263648987,0.029075689613819122,1.7445186376571655,1.5097006559371948,0.3445104956626892,0.3028412461280823,1.9849547147750854,0.7305598855018616,-0.8188403844833374,1741504849.7984102,1741504849653,0.7088641357421875,-0.10909196472167969,0.6551360896945205,-6.3690439453125,1.5091148681640625
1741504849.8851733,-3.3589584827423096,0.0018177732593372227,-0.058139646068668054,-0.9983068051733333,-0.20678101480007172,-0.059844616800546646,0.300676167011261,6.33890438079834,-0.44522175192832947,8.809965133666992,-0.00019073486328125,0.21801280975341797,0.35000380873680115,-1.2485930919647217,0.005149920005351305,-0.9134432077407837,0.05970092490315437,1.231045126914978,0.014686808921396732,0.9557870030403137,-0.03528648987412453,-0.6963835954666138,0.025749599561095238,0.19130998849868774,0.7803082466125488,-0.32933247089385986,0.06590954959392548,-0.26722362637519836,-0.004386968910694122,-0.037193864583969116,0.9134432077407837,-0.4740935266017914,-0.0180488433688879,0.12925565242767334,-0.2543673515319824,-3.8708767890930176,-0.3711467981338501,0.021631984040141106,-0.0943005308508873,4.125406265258789,0.4103771150112152,0.0024037049151957035,-0.18504755198955536,0.2844344675540924,0.890504777431488,-0.956616997718811,-1.5911908149719238,1.2813273668289185,-0.17129585146903992,1.0674657821655273,-1.1578609943389893,0.3977707326412201,1.2586146593093872,5.569965362548828,1.1981515884399414,-0.24963095784187317,1741504849.7984102,1741504849653,0.7088641357421875,-0.10909196472167969,0.6551360896945205,-6.3690439453125,1.5091148681640625
1741504849.9052033,-3.3591132164001465,-0.0002594652440156973,-0.05946483860243237,-0.998230367023451,0.13077427446842194,0.04235269874334335,-0.03396070376038551,-6.797330856323242,-0.9111358523368835,14.907732009887695,-0.00324249267578125,0.21572399139404297,0.25616082549095154,-1.2596558332443237,0.00476844422519207,-0.9164950251579285,0.1184481605887413,1.2348599433898926,0.014686808921396732,0.9557870030403137,-0.037193864583969116,-0.6719691753387451,0.006294346414506435,0.1504921019077301,0.7837415337562561,-0.330288290977478,0.06923958659172058,-0.344663143157959,0.004005493130534887,0.016212711110711098,1.0679408311843872,-0.43150630593299866,-0.0227513425052166,-0.13632993400096893,-0.15922990441322327,-4.783562183380127,-0.6820254921913147,-0.06512610614299774,-0.14344622194766998,3.8407442569732666,0.22310568392276764,-0.0059487358666956425,0.024115312844514847,-0.12435731291770935,1.5817062854766846,-0.955618143081665,-1.8919334411621094,0.15733912587165833,0.0547848679125309,0.1690043807029724,-4.141358852386475,0.41105759143829346,2.7051756381988525,8.069467544555664,2.1467926502227783,-0.18755339086055756,1741504850.002014,1741504849753,0.6159738159179687,-0.08858089447021485,0.793988839578266,-6.369056640625,1.5077030029296876
1741504849.9252133,-3.369410991668701,0.004666453055095445,-0.069921134563298,-0.9975416077323621,0.5362900495529175,0.1711680293083191,-0.669650137424469,7.223255157470703,-0.5769367814064026,8.60433578491211,-0.00095367431640625,0.21190929412841797,0.16079194843769073,-1.2661409378051758,0.005149920005351305,-0.9164950251579285,0.17490653693675995,1.23600435256958,0.01430533267557621,0.9557870030403137,-0.040245670825242996,-0.6437399983406067,-0.01201647985726595,0.14057374000549316,0.7887006998062134,-0.32837972044944763,0.06890540570020676,-0.4533836841583252,0.027656977996230125,0.06313420087099075,1.2434195280075073,-0.4007037580013275,-0.007487024646252394,0.053354259580373764,-0.05733346939086914,-4.615851402282715,-0.46491628885269165,0.004158169496804476,0.01578957587480545,3.54202938079834,0.0802346020936966,0.002948216861113906,-0.02835243009030819,-0.08123783022165298,1.3287440538406372,-0.6573081612586975,-0.26289963722229004,0.22665998339653015,-0.014957450330257416,-0.05256189778447151,-5.617562770843506,1.1950017213821411,2.086801052093506,8.491212844848633,1.23519766330719,0.9554927349090576,1741504850.002014,1741504849753,0.6159738159179687,-0.08858089447021485,0.793988839578266,-6.369056640625,1.5077030029296876
1741504849.9452407,-3.3900479078292847,0.008183926255450665,-0.08093579869231064,-0.9966857176869163,0.5387406349182129,0.12106148153543472,-1.0523868799209595,1.6700973510742188,-2.6205666065216064,12.805920600891113,-0.01087188720703125,0.21152782440185547,0.07915617525577545,-1.2657594680786133,0.00476844422519207,-0.9164950251579285,0.22602425515651703,1.238293170928955,0.015449759550392628,0.9557870030403137,-0.037193864583969116,-0.612077534198761,-0.007057297509163618,0.14515145123004913,0.7894636392593384,-0.3321780860424042,0.06050829216837883,-0.5674448609352112,0.04749370738863945,0.07457847148180008,1.3826581239700317,-0.4160411059856415,-0.00549393380060792,-0.28447800874710083,0.026168640702962875,-4.033611297607422,0.0802299976348877,-0.012367906048893929,-0.008071293123066425,3.4190287590026855,0.12981802225112915,0.06787722557783127,-0.007243627682328224,0.1886361539363861,1.6607484817504883,0.23279422521591187,0.306199848651886,0.021945834159851074,-0.20086415112018585,-0.4521927535533905,-5.568851470947266,0.9945664405822754,0.21551460027694702,6.4740986824035645,-1.108856201171875,-0.0545937605202198,1741504850.002014,1741504849753,0.6159738159179687,-0.08858089447021485,0.793988839578266,-6.369056640625,1.5077030029296876
1741504849.9652674,-3.4131338596343994,0.010811868877899238,-0.08651489956465735,-0.996191886959879,0.2420395314693451,0.01989261619746685,-1.1722619533538818,2.916452646255493,-5.884418487548828,8.85184097290039,-0.02193450927734375,0.22068405151367188,0.01125352829694748,-1.2596558332443237,0.00476844422519207,-0.916876494884491,0.273708701133728,1.2436338663101196,0.015449759550392628,0.955024003982544,-0.03643091395497322,-0.580033540725708,-0.005531395319849253,0.14515145123004913,0.7890821695327759,-0.339324951171875,0.04800993576645851,-0.6692988276481628,0.048256658017635345,0.06160829961299896,1.4551384449005127,-0.46018093824386597,-0.006407128181308508,-0.356373131275177,0.352541983127594,-2.9886016845703125,0.4446031451225281,-0.01610689051449299,-0.04237889498472214,3.102144241333008,0.3691536784172058,0.008727917447686195,-0.07611942291259766,0.05415903404355049,1.5931158065795898,-0.026702119037508965,-0.07931619137525558,-0.028528546914458275,-0.44749489426612854,-0.7162467241287231,-5.0280985832214355,-0.08172179013490677,-0.6747229695320129,3.052861452102661,-2.2839720249176025,0.07805955410003662,1741504850.002014,1741504849753,0.6159738159179687,-0.08858089447021485,0.793988839578266,-6.369056640625,1.5077030029296876
1741504849.9852855,-3.4287493228912354,0.012410056723085691,-0.08661116094831542,-0.9961648946290542,0.004018613137304783,0.009224745444953442,-0.7739851474761963,4.378120422363281,-2.009254217147827,7.425345420837402,-0.02307891845703125,0.21877670288085938,-0.0394827201962471,-1.2512633800506592,0.005149920005351305,-0.9180209040641785,0.32024872303009033,1.2489745616912842,0.01506828423589468,0.9531166553497314,-0.032616160809993744,-0.5445563197135925,-0.0078202486038208,0.14248111844062805,0.7875562906265259,-0.3575517535209656,0.03505238518118858,-0.7558938264846802,0.043678950518369675,0.043678950518369675,1.4570459127426147,-0.506540834903717,0.005166016984730959,-0.009891987778246403,0.020802227780222893,-2.492760419845581,0.4679725468158722,-0.018731310963630676,-0.08824508637189865,3.0975658893585205,0.3459455966949463,-0.01925341784954071,-0.18398191034793854,0.07699456810951233,1.7196478843688965,-0.15671731531620026,-0.12019475549459457,-0.08464877307415009,-0.9952753782272339,-0.6010309457778931,-3.98482608795166,-0.19100193679332733,-1.0063507556915283,-0.4378618597984314,-2.3131392002105713,0.6943382620811462,1741504850.002014,1741504849753,0.6159738159179687,-0.08858089447021485,0.793988839578266,-6.369056640625,1.5077030029296876
1741504850.005285,-3.441746234893799,0.014058740521593041,-0.08566741499886925,-0.9962245960737759,-0.04078624024987221,0.04068923741579056,-0.5978918671607971,-0.12224391847848892,-2.1995272636413574,8.019607543945312,-0.01773834228515625,0.21496105194091797,-0.09288929402828217,-1.2470670938491821,0.00476844422519207,-0.9252689480781555,0.36373692750930786,1.2501189708709717,0.01506828423589468,0.9470130205154419,-0.03833829239010811,-0.5193789601325989,-0.00858320016413927,0.14248111844062805,0.7867932915687561,-0.38418588042259216,0.0429145023226738,-0.8226520419120789,0.03833829239010811,0.03147173300385475,1.4009689092636108,-0.5347830653190613,0.004265444353222847,0.12636102735996246,-0.09272650629281998,-2.5052220821380615,0.3277765214443207,-0.01922239549458027,-0.47830939292907715,2.8818140029907227,0.04105854034423828,-0.004447051789611578,-0.4291793704032898,-0.4151291847229004,1.0815677642822266,-0.017773767933249474,0.019221683964133263,-0.0005671060644090176,-1.3420263528823853,0.45159849524497986,-3.1039299964904785,-0.3260897994041443,-0.521328866481781,-3.1933915615081787,-1.1457933187484741,-0.15306182205677032,1741504850.002105,1741504849813,0.5553607788085938,-0.08628825378417969,0.6336935921984376,-6.3677138671875,1.507653564453125
1741504850.0253296,-3.4499820470809937,0.01702420125614316,-0.08310575759364226,-0.9963953079106591,-0.15717963874340057,0.19979636371135712,-0.46380794048309326,2.600266456604004,0.5891963839530945,7.086487770080566,-0.01201629638671875,0.21267223358154297,-0.12912946939468384,-1.239819049835205,0.00476844422519207,-0.9416723847389221,0.41218432784080505,1.2524077892303467,0.015449759550392628,0.9367132186889648,-0.04406042397022247,-0.49229419231414795,-0.007438773289322853,0.14324407279491425,0.7913710474967957,-0.41346362233161926,0.04887186363339424,-0.8672846555709839,0.02994582988321781,0.02384222112596035,1.3040741682052612,-0.5234460234642029,0.012776652351021767,0.1687028706073761,-0.061496928334236145,-1.5711554288864136,0.45838451385498047,-0.004085484892129898,-0.8322697281837463,3.2763051986694336,0.1404673457145691,0.0038964408449828625,-0.7818683981895447,-0.14913788437843323,1.5020157098770142,0.04710426181554794,0.019748752936720848,0.29062074422836304,-1.461924433708191,0.3441121578216553,-2.0109736919403076,-0.427942156791687,-0.2464839220046997,-5.033167839050293,0.8699309229850769,0.7007437944412231,1741504850.002105,1741504849813,0.5553607788085938,-0.08628825378417969,0.6336935921984376,-6.3677138671875,1.507653564453125
1741504850.0453591,-3.4585894346237183,0.025514633082690256,-0.07875881935319808,-0.9965671336506869,-0.19797241687774658,0.44359901547431946,-0.3942309021949768,4.157316207885742,-2.4712276458740234,6.9523115158081055,-0.00782012939453125,0.19741344451904297,-0.14019227027893066,-1.23295259475708,0.00476844422519207,-0.9573128819465637,0.44384679198265076,1.2516448497772217,0.01506828423589468,0.9267948269844055,-0.040627144277095795,-0.4667353332042694,-0.00858320016413927,0.14171816408634186,0.7951858043670654,-0.44521766901016235,0.04810241237282753,-0.8756771087646484,0.012397955171763897,0.01773861236870289,1.1724650859832764,-0.4835830330848694,0.02077263966202736,0.14548330008983612,-0.4197525382041931,-0.4716125428676605,0.4561777114868164,0.002580885775387287,-0.8146457076072693,1.8638137578964233,-0.0048895953223109245,-0.010731859132647514,-0.6274784803390503,0.30444803833961487,1.3919717073440552,-0.11772333085536957,-0.07613320648670197,0.23048828542232513,-1.6162779331207275,-0.0782708153128624,-0.28476235270500183,-0.9530120491981506,-0.41468971967697144,-6.824119567871094,2.024632453918457,0.34384456276893616,1741504850.002105,1741504849813,0.5553607788085938,-0.08628825378417969,0.6336935921984376,-6.3677138671875,1.507653564453125
1741504850.065355,-3.463959574699402,0.03242538130960431,-0.07653909641109051,-0.9965391920880485,-0.07309973239898682,0.2391807734966278,-0.26406875252723694,-0.8777051568031311,-0.13573653995990753,6.82117223739624,-0.00209808349609375,0.19855785369873047,-0.13179980218410492,-1.227230429649353,0.00476844422519207,-0.968757152557373,0.46215763688087463,1.2512633800506592,0.01506828423589468,0.918402373790741,-0.02727550081908703,-0.4346913993358612,-0.018120087683200836,0.135233074426651,0.7990005612373352,-0.4764271676540375,0.03980093449354172,-0.8672846555709839,-0.014686808921396732,-0.0013351644156500697,1.0061417818069458,-0.44021913409233093,0.015318220481276512,0.16828462481498718,0.006337364669889212,0.6593825221061707,0.3525370955467224,-0.002003182889893651,-0.4789028763771057,1.0753419399261475,-0.06877991557121277,-0.02742728963494301,-0.5388436913490295,0.6201706528663635,1.538875937461853,-0.4681372344493866,-0.44335249066352844,0.08423029631376266,-1.594171404838562,-0.48939424753189087,0.7471203207969666,-1.518352746963501,-1.0605758428573608,-8.306427955627441,2.149110794067383,-0.3761799931526184,1741504850.1041505,1741504849953,0.42222830200195316,-0.04962123489379883,0.6051455331521134,-6.3685654296875,1.508139404296875
1741504850.085408,-3.4664849042892456,0.035960656666755055,-0.07962933649651874,-0.9961756872867457,0.20405213534832,0.1344171166419983,-0.1168195828795433,0.6718106865882874,2.929157018661499,7.720262050628662,0.01354217529296875,0.19779491424560547,-0.10128175467252731,-1.2283748388290405,0.00476844422519207,-0.9710460305213928,0.464446485042572,1.2474485635757446,0.01506828423589468,0.9130617380142212,-0.01926451548933983,-0.3923476040363312,-0.046730753034353256,0.12760357558727264,0.8024337887763977,-0.49797573685646057,0.012218530289828777,-0.837911069393158,-0.04596780240535736,-0.029564354568719864,0.8524070978164673,-0.406171590089798,-0.006214788183569908,0.4572484493255615,-0.006468822713941336,1.6605937480926514,-0.12073861062526703,-0.0003169678966514766,-0.08000148832798004,0.09306225180625916,-0.2971021234989166,0.008085648529231548,-0.36532753705978394,0.3312804698944092,2.1048741340637207,-1.5924983024597168,-0.41306039690971375,0.19130323827266693,-0.934831440448761,-1.329930305480957,1.5044031143188477,-1.576884150505066,-1.2554727792739868,-7.390847682952881,1.696386694908142,-0.9289093017578125,1741504850.1041505,1741504849953,0.42222830200195316,-0.04962123489379883,0.6051455331521134,-6.3685654296875,1.508139404296875
1741504850.1054494,-3.463233709335327,0.026726445624287835,-0.08786481171576332,-0.9957738056237698,0.3666585385799408,-0.6120342016220093,0.2480769157409668,-0.07013081759214401,-8.825623512268066,10.539289474487305,0.01964569091796875,0.23022079467773438,-0.05436026677489281,-1.23447847366333,0.005149920005351305,-0.9668498039245605,0.46101319789886475,1.2405821084976196,0.01506828423589468,0.9073395729064941,-0.016212711110711098,-0.34847790002822876,-0.061226826161146164,0.12264438718557358,0.8146410584449768,-0.4942624568939209,0.016522537916898727,-0.8070115447044373,-0.06961929053068161,-0.04787518084049225,0.8310444951057434,-0.3551352024078369,0.0028931577689945698,0.21227291226387024,1.0101863145828247,2.4723029136657715,-0.534864068031311,0.0028203667607158422,0.22456933557987213,-0.3409278988838196,-0.45556730031967163,0.004421324003487825,-0.44035667181015015,-0.016994044184684753,2.01072096824646,-0.2705835998058319,-0.36123645305633545,0.5721953511238098,0.34881654381752014,0.8324218988418579,2.121047019958496,-0.8691762685775757,-0.6970488429069519,0.6282795071601868,2.427032709121704,0.41282185912132263,1741504850.1041505,1741504849953,0.42222830200195316,-0.04962123489379883,0.6051455331521134,-6.3685654296875,1.508139404296875
1741504850.1254463,-3.46023690700531,0.025968867341140026,-0.09010972752865666,-0.99559321760131,0.12561048567295074,0.050715625286102295,0.297736257314682,11.387141227722168,4.251584529876709,5.991601943969727,0.00972747802734375,0.21877670288085938,0.010490577667951584,-1.23905611038208,0.005149920005351305,-0.959983229637146,0.42820629477500916,1.238293170928955,0.015449759550392628,0.9077210426330566,-0.034142062067985535,-0.3229190409183502,-0.06885633617639542,0.12111848592758179,0.8573662638664246,-0.4635774791240692,0.03795042634010315,-0.7600900530815125,-0.07343403995037079,-0.01926451548933983,0.8588922023773193,-0.3384946286678314,0.001306499121710658,-0.2963857054710388,-0.28614944219589233,3.351816415786743,-0.2722051441669464,0.04109308868646622,0.30109909176826477,-2.5030887126922607,-0.01040763221681118,0.02657104656100273,0.12160900235176086,-0.8041164875030518,1.0325474739074707,-0.36600831151008606,-0.10980512946844101,2.5863592624664307,1.6230558156967163,0.7599921226501465,1.433668851852417,-0.2226581573486328,1.5444576740264893,0.6440660357475281,0.6035663485527039,0.19234630465507507,1741504850.1041505,1741504849953,0.42222830200195316,-0.04962123489379883,0.6051455331521134,-6.3685654296875,1.508139404296875
1741504850.1454499,-3.455562949180603,0.01898792262613748,-0.09522933570711058,-0.9952742498503246,0.2688456177711487,-0.22933843731880188,0.2907395660877228,-6.352262496948242,1.0950335264205933,13.950517654418945,0.02803802490234375,0.23022079467773438,0.08258945494890213,-1.2459226846694946,0.00476844422519207,-0.9557870030403137,0.37861448526382446,1.23905611038208,0.015449759550392628,0.9081025123596191,-0.042153049260377884,-0.3538185656070709,-0.06427863240242004,0.11081864684820175,0.961509108543396,-0.42519381642341614,0.04848095402121544,-0.7288090586662292,-0.05207141116261482,0.01125352829694748,0.8585107326507568,-0.3363543152809143,0.009232703596353531,0.4657043516635895,0.18501263856887817,3.619199514389038,-0.5128366947174072,-0.06049641594290733,0.215208038687706,-3.367546796798706,-0.02068200334906578,-0.04982271417975426,0.03642578795552254,-0.138920396566391,-1.7968339920043945,0.26868554949760437,-0.5751813650131226,5.703547954559326,1.9452162981033325,0.4410865604877472,1.9612023830413818,1.3256635665893555,1.290419578552246,0.19589941203594208,0.12714920938014984,0.21982677280902863,1741504850.1041505,1741504849953,0.42222830200195316,-0.04962123489379883,0.6051455331521134,-6.3685654296875,1.508139404296875
1741504850.165504,-3.4448354244232178,0.020338907878583116,-0.09260304798037047,-0.9954953562579042,-0.21428199112415314,0.058717280626297,0.6679410338401794,2.420062303543091,5.96420431137085,9.635735511779785,0.02269744873046875,0.23060226440429688,0.15621423721313477,-1.2501189708709717,0.005531395319849253,-0.9508277773857117,0.31490805745124817,1.23753023147583,0.01430533267557621,0.9081025123596191,-0.038719769567251205,-0.42744335532188416,-0.06656748056411743,0.09822995215654373,1.1152437925338745,-0.3928133547306061,0.021533815190196037,-0.6864652633666992,-0.038719769567251205,0.03299763426184654,0.8714808821678162,-0.3369368612766266,0.005546551197767258,-0.06390298902988434,0.06246699020266533,3.6122114658355713,-0.2312665730714798,0.04122338071465492,0.26008284091949463,-4.296281337738037,-0.07499228417873383,0.009207378141582012,0.013995307497680187,0.1991078108549118,-3.8030261993408203,-0.23855988681316376,-0.660694420337677,7.94907808303833,1.4741860628128052,-1.6344166994094849,1.8402795791625977,0.560480535030365,1.122843623161316,0.4429679811000824,-0.07672014832496643,-0.11465492099523544,1741504850.206631,1741504850053,0.3209801025390625,-0.015526638984680177,0.6613445808114293,-6.36894384765625,1.508464111328125
1741504850.1855345,-3.424741506576538,0.014186914976292101,-0.08902594680007649,-0.9959282666135174,-0.17120572924613953,-0.22671715915203094,1.0027052164077759,-1.4065351486206055,1.9326964616775513,10.010530471801758,0.02231597900390625,0.23403549194335938,0.22297245264053345,-1.2554595470428467,0.005149920005351305,-0.9485389590263367,0.24929426610469818,1.2371487617492676,0.014686808921396732,0.9084840416908264,-0.032616160809993744,-0.5231937170028687,-0.06466010212898254,0.09746700525283813,1.267071008682251,-0.3913375437259674,-0.002868007170036435,-0.6464102864265442,-0.02994582988321781,0.03643091395497322,0.8665217161178589,-0.3380417227745056,0.006355336867272854,0.02344057522714138,0.10866442322731018,3.4173097610473633,-0.35512644052505493,-0.0056479312479496,0.1017754077911377,-4.4047627449035645,-0.09449540823698044,-0.0050107561983168125,0.02383195050060749,0.2771753966808319,-4.757125377655029,0.15837733447551727,0.02701564133167267,7.259973049163818,-0.24500079452991486,-0.5954440832138062,2.1661503314971924,0.29772308468818665,0.18354348838329315,-0.2588663399219513,-0.04861065745353699,-0.07107362896203995,1741504850.206631,1741504850053,0.3209801025390625,-0.015526638984680177,0.6613445808114293,-6.36894384765625,1.508464111328125
1741504850.2055373,-3.39980947971344,0.011301101830915598,-0.08494377911700968,-0.9963216546310373,-0.21678578853607178,-0.06616130471229553,1.2987545728683472,3.1980950832366943,3.888853073120117,9.993040084838867,0.02880096435546875,0.23365402221679688,0.2939268946647644,-1.2562226057052612,0.005149920005351305,-0.9485389590263367,0.17910276353359222,1.233715534210205,0.01430533267557621,0.9107728600502014,-0.02727550081908703,-0.6109330654144287,-0.06160829961299896,0.10585946589708328,1.3666361570358276,-0.42274540662765503,0.017909862101078033,-0.5968185067176819,-0.04177157208323479,0.0398641936480999,0.8634698987007141,-0.3392634987831116,0.008524005301296711,0.1849622279405594,-0.004598969127982855,3.567167282104492,-0.036198996007442474,-0.0017127909231930971,0.009287084452807903,-4.726809978485107,-0.21259301900863647,0.0032198461703956127,0.2084638774394989,0.2520240843296051,-4.192605495452881,-0.02703276090323925,0.3697206676006317,4.349642276763916,-1.7047713994979858,1.086108922958374,2.3465311527252197,-0.5867093205451965,-0.007335681468248367,-0.15513986349105835,-0.1025262251496315,0.17185716331005096,1741504850.206631,1741504850053,0.3209801025390625,-0.015526638984680177,0.6613445808114293,-6.36894384765625,1.508464111328125
1741504850.2255425,-3.3748732805252075,0.0036032506058896103,-0.08382410869154576,-0.9964740515372886,-0.03049769438803196,-0.2785399258136749,1.155545949935913,-3.5751125812530518,0.554855465888977,11.753677368164062,0.031853675842285156,0.23975753784179688,0.3595407009124756,-1.2581299543380737,0.005149920005351305,-0.9489204287528992,0.11272602528333664,1.2299007177352905,0.01430533267557621,0.9142061471939087,-0.01773861236870289,-0.6857023239135742,-0.06504157930612564,0.12378881871700287,1.3941023349761963,-0.4593937397003174,-0.0010357151040807366,-0.5601968169212341,-0.05054550990462303,0.03452353551983833,0.8562218546867371,-0.3542780876159668,0.008078374899923801,0.11816041171550751,0.15538059175014496,3.4018521308898926,-0.20609965920448303,-0.025199662894010544,-0.04828653484582901,-4.4531707763671875,-0.28316473960876465,0.004798923619091511,0.18642760813236237,0.3544868230819702,-3.586369514465332,-0.17738361656665802,0.9958291053771973,0.8400281071662903,-1.71711266040802,-1.35283625125885,1.9656422138214111,-0.5021809935569763,-0.2772505581378937,-0.3336923122406006,-0.9583215117454529,-0.04638742282986641,1741504850.206631,1741504850053,0.3209801025390625,-0.015526638984680177,0.6613445808114293,-6.36894384765625,1.508464111328125
1741504850.2455976,-3.367026448249817,0.004556923234535306,-0.08349328603311897,-0.9964979205387365,-0.010128078050911427,0.11127329617738724,0.3036103844642639,1.5832726955413818,4.221943378448486,9.56036376953125,0.02918243408203125,0.23098373413085938,0.40989547967910767,-1.2592743635177612,0.00476844422519207,-0.9508277773857117,0.053215838968753815,1.225704550743103,0.01506828423589468,0.9142061471939087,-0.007438773289322853,-0.7448310256004333,-0.06351567804813385,0.14171816408634186,1.3601510524749756,-0.48014405369758606,-0.014211646281182766,-0.5086976289749146,-0.0551232174038887,0.03147173300385475,0.848210871219635,-0.3907323479652405,0.010188468731939793,-0.06000243499875069,-0.20821279287338257,2.414280414581299,0.005570295732468367,-0.00335387559607625,-0.04488596320152283,-3.8440585136413574,-0.3187035322189331,0.014908217824995518,0.014087936840951443,0.6373133659362793,-2.8068954944610596,0.10462523996829987,0.857598602771759,-2.1125216484069824,-0.8853045701980591,-0.11034084111452103,2.4559473991394043,-0.19627706706523895,-0.1310052126646042,-0.5198022723197937,-1.9238598346710205,0.23023541271686554,1741504850.206631,1741504850053,0.3209801025390625,-0.015526638984680177,0.6613445808114293,-6.36894384765625,1.508464111328125
1741504850.2656133,-3.370699882507324,0.007418903916471073,-0.08217969070247795,-0.9965899148098596,-0.07957462966442108,0.11403996497392654,-0.16512325406074524,-5.906473636627197,0.4846683740615845,13.117361068725586,0.01850128173828125,0.22793197631835938,0.4663538634777069,-1.2638521194458008,0.005149920005351305,-0.9451056718826294,-0.006294346414506435,1.224941611289978,0.014686808921396732,0.9153505563735962,0.002861066721379757,-0.7883192300796509,-0.05664911866188049,0.1520180106163025,1.28233003616333,-0.4711819291114807,-0.004183595534414053,-0.483138769865036,-0.0551232174038887,0.027656977996230125,0.8287556171417236,-0.4339030385017395,0.033814527094364166,-0.3038921058177948,-0.12094885110855103,3.1872897148132324,-0.3585074841976166,-0.007150181569159031,0.39383718371391296,-4.296751499176025,0.14116187393665314,-0.008374444209039211,0.18876594305038452,0.29374590516090393,-2.0988290309906006,0.36147987842559814,0.42772266268730164,-4.201385498046875,0.7214232087135315,0.25373268127441406,1.281743049621582,-0.004773018416017294,-0.1520388275384903,-0.9535782933235168,-2.1440072059631348,1.1965168714523315,1741504850.3074956,1741504850153,0.23140611267089845,0.006153712272644043,0.6819848475105098,-6.36967431640625,1.508202880859375
1741504850.2858553,-3.372130513191223,0.01578902595547052,-0.07968141903211717,-0.9966953286337835,-0.12247753143310547,0.46751439571380615,-0.10599254071712494,-3.0779194831848145,3.5072946548461914,6.804541110992432,0.00629425048828125,0.21076488494873047,0.509079098701477,-1.2634705305099487,0.005149920005351305,-0.9359502792358398,-0.06771191209554672,1.2268489599227905,0.01506828423589468,0.9260318875312805,-0.0024795911740511656,-0.8169298768043518,-0.040627144277095795,0.16041046380996704,1.1804760694503784,-0.43253329396247864,-0.010079508647322655,-0.4369802474975586,-0.054741740226745605,0.032616160809993744,0.8146410584449768,-0.46774059534072876,0.03901240602135658,-0.3795803189277649,-0.4806704521179199,1.738854169845581,0.06953445822000504,-0.0017494767671450973,0.39452463388442993,-3.7215158939361572,0.00553998863324523,0.030731966719031334,0.8235065340995789,-0.27754372358322144,-1.163443684577942,1.0485354661941528,0.2592991292476654,-5.230439186096191,2.019805908203125,-0.1996319741010666,2.148106336593628,0.040641769766807556,0.29236364364624023,-0.9481757879257202,-1.6000893115997314,-0.021502673625946045,1741504850.3074956,1741504850153,0.23140611267089845,0.006153712272644043,0.6819848475105098,-6.36967431640625,1.508202880859375
1741504850.3058975,-3.376251697540283,0.024094661749938573,-0.07597325191183797,-0.9968186957862982,-0.21096102893352509,0.36896875500679016,-0.1449233442544937,-5.173658847808838,-1.3066703081130981,10.315913200378418,-0.00209808349609375,0.20885753631591797,0.5273899435997009,-1.2657594680786133,0.005149920005351305,-0.9275577664375305,-0.10624094307422638,1.222271203994751,0.014686808921396732,0.9431982636451721,-0.02231631986796856,-0.8207446336746216,-0.009346150793135166,0.16918440163135529,1.0614557266235352,-0.38554102182388306,-0.0049470458179712296,-0.4056992530822754,-0.05054550990462303,0.035667963325977325,0.7932783961296082,-0.49225690960884094,0.036030758172273636,-0.25261229276657104,-0.001173836993984878,0.8654361963272095,-0.18827441334724426,-0.01935039833188057,0.44196051359176636,-2.2672414779663086,-0.3036482334136963,0.007950080558657646,1.1728575229644775,-1.1710894107818604,-0.03546888753771782,1.5733752250671387,0.5241907835006714,-5.87654447555542,2.3267629146575928,0.29548564553260803,1.7729856967926025,0.20066297054290771,0.23623070120811462,-0.7406333684921265,-1.14463210105896,-0.12218756973743439,1741504850.3074956,1741504850153,0.23140611267089845,0.006153712272644043,0.6819848475105098,-6.36967431640625,1.508202880859375
1741504850.3258958,-3.37490713596344,0.034518353356551554,-0.06867835448377299,-0.9970415071133967,-0.33901408314704895,0.3398949205875397,0.07092776894569397,4.970578193664551,-2.1527395248413086,5.094029426574707,-0.00705718994140625,0.20962047576904297,0.5235751867294312,-1.2634705305099487,0.005149920005351305,-0.9206912517547607,-0.11425192654132843,1.2218897342681885,0.014686808921396732,0.9569314122200012,-0.05054550990462303,-0.8165484070777893,0.027656977996230125,0.1962691694498062,0.9412909150123596,-0.33978375792503357,0.0015535678248852491,-0.3614480793476105,-0.040627144277095795,0.053215838968753815,0.7749675512313843,-0.5129550695419312,0.020934121683239937,-0.16737431287765503,0.07675910741090775,-0.29007184505462646,0.16506506502628326,-0.009715435095131397,0.29601773619651794,-0.2378692775964737,-0.007847488857805729,-0.0003764938155654818,0.8495837450027466,-1.3672369718551636,0.31230267882347107,1.8886295557022095,1.3864654302597046,-5.850454807281494,2.1881699562072754,0.33522775769233704,2.1400816440582275,0.5155300498008728,0.8553701639175415,-1.1676853895187378,-0.975705623626709,-0.8714073896408081,1741504850.3074956,1741504850153,0.23140611267089845,0.006153712272644043,0.6819848475105098,-6.36967431640625,1.508202880859375
1741504850.3459418,-3.367998719215393,0.03235622407483015,-0.06021359102257167,-0.9976609635641689,-0.4584711194038391,-0.09544488787651062,0.38090527057647705,-0.16384685039520264,-6.609684467315674,7.063751220703125,-0.01163482666015625,0.22602462768554688,0.5045014023780823,-1.2596558332443237,0.005149920005351305,-0.916113555431366,-0.09822995215654373,1.2218897342681885,0.014686808921396732,0.9657053351402283,-0.08106355369091034,-0.7967116832733154,0.0558861680328846,0.2294575423002243,0.8333333134651184,-0.3173975348472595,0.007861834019422531,-0.3065156042575836,-0.016212711110711098,0.061226826161146164,0.7524605393409729,-0.5140025019645691,0.014661267399787903,-0.1487019807100296,0.5408294200897217,-1.1510238647460938,0.27644822001457214,0.0011173918610438704,0.1765100061893463,1.2892225980758667,-0.00635623699054122,-0.0006902946624904871,0.48746010661125183,-1.403234839439392,1.1848136186599731,1.5212299823760986,1.7317417860031128,-5.33672571182251,0.8389871716499329,0.2979009449481964,2.8153932094573975,1.1630403995513916,0.29010653495788574,-1.0643510818481445,0.11741159856319427,-0.04287726432085037,1741504850.3074956,1741504850153,0.23140611267089845,0.006153712272644043,0.6819848475105098,-6.36967431640625,1.508202880859375
1741504850.3659642,-3.35651433467865,0.027057571188836824,-0.04773700383889765,-0.9984933982284742,-0.6219584941864014,-0.2819148898124695,0.491399884223938,32.75443649291992,-3.510363817214966,15.408971786499023,-0.01773834228515625,0.23746871948242188,0.4655908942222595,-1.2524077892303467,0.005149920005351305,-0.9142061471939087,-0.06008239835500717,1.2218897342681885,0.014686808921396732,0.9664682745933533,-0.09632257372140884,-0.770008385181427,0.08411535620689392,0.24891279637813568,0.7482643127441406,-0.3201525807380676,0.026417942717671394,-0.25501641631126404,0.0009536888683214784,0.054741740226745605,0.7562752962112427,-0.4978272616863251,0.02777065895497799,-0.1731601506471634,0.3336136043071747,-2.060335874557495,0.42999061942100525,0.00249269837513566,0.1076546236872673,2.696641445159912,-0.013357589021325111,0.0015118622686713934,-0.049106646329164505,-0.7166977524757385,1.0985487699508667,1.2604475021362305,0.8713443279266357,-3.4321393966674805,0.014771254733204842,1.232907772064209,2.4073474407196045,0.6589446067810059,-0.3697129487991333,0.5475056171417236,0.621367335319519,0.224950909614563,1741504850.4125085,1741504850253,0.1300600128173828,0.01239859676361084,0.7608374485478262,-6.3682509765625,1.50845361328125
1741504850.3859541,-3.343908905982971,0.018550266952503055,-0.03637902433964531,-0.9991658792132998,-0.5074330568313599,-0.1637612283229828,0.6196802854537964,-3.963366985321045,-0.2333303987979889,10.762289047241211,-0.01659393310546875,0.24166488647460938,0.41180285811424255,-1.2497375011444092,0.005149920005351305,-0.9119172692298889,-0.008964675478637218,1.223797082901001,0.01430533267557621,0.9611276388168335,-0.09441519528627396,-0.7242313027381897,0.0711451917886734,0.24052032828330994,0.7902265787124634,-0.30660200119018555,0.08725479990243912,-0.23823148012161255,-0.0024795911740511656,0.05130846053361893,0.8199816942214966,-0.48317110538482666,0.02082216367125511,0.002329041948541999,0.04292857646942139,-3.0958495140075684,0.07200782001018524,-0.009612783789634705,-0.021659428253769875,3.5290818214416504,0.21893523633480072,-0.04336683824658394,-0.32733556628227234,0.3142551779747009,2.237891674041748,-0.9109448790550232,-0.7436131834983826,2.2023565769195557,0.8397827744483948,3.389665126800537,0.5279618501663208,0.0016880945768207312,-0.2016284316778183,3.707777261734009,0.9376592636108398,-0.37135234475135803,1741504850.4125085,1741504850253,0.1300600128173828,0.01239859676361084,0.7608374485478262,-6.3682509765625,1.50845361328125
1741504850.4059772,-3.3362432718276978,0.018556792537653497,-0.030717903396445975,-0.9993558204471725,-0.302249014377594,-0.020129043608903885,0.2962438762187958,-4.376700401306152,-5.903054237365723,11.607598304748535,-0.01277923583984375,0.23746871948242188,0.33016708493232727,-1.2554595470428467,0.005531395319849253,-0.916876494884491,0.04482337832450867,1.2276118993759155,0.015449759550392628,0.9580758213996887,-0.07419699430465698,-0.7074463963508606,0.051689937710762024,0.1997024416923523,0.7875562906265259,-0.27972376346588135,0.13904206454753876,-0.2801937758922577,0.01201647985726595,0.051689937710762024,0.9493018984794617,-0.444458931684494,0.011749736964702606,0.07416331768035889,-0.09637288004159927,-4.209277153015137,-0.40643933415412903,-0.023069074377417564,-0.23176230490207672,3.5583903789520264,0.22504639625549316,0.13566717505455017,-0.19307903945446014,1.0467735528945923,1.015194296836853,-1.0088675022125244,-2.0940849781036377,-0.44938895106315613,1.4913716316223145,1.5107899904251099,-2.4983322620391846,0.7602428793907166,0.14385700225830078,6.885066509246826,2.0320146083831787,-0.36844995617866516,1741504850.4125085,1741504850253,0.1300600128173828,0.01239859676361084,0.7608374485478262,-6.3682509765625,1.50845361328125
1741504850.425987,-3.3387365341186523,0.02296419280549872,-0.027648886757609133,-0.9993538837218059,-0.023979004472494125,0.1549704670906067,-0.2547077238559723,-1.7078218460083008,-2.901538848876953,14.838339805603027,-0.02155303955078125,0.22755050659179688,0.24204623699188232,-1.2569855451583862,0.00476844422519207,-0.918402373790741,0.09479667246341705,1.235241413116455,0.01583123579621315,0.9576943516731262,-0.05703059583902359,-0.6731135845184326,0.01888304017484188,0.15354390442371368,0.7803082466125488,-0.24450385570526123,0.08716676384210587,-0.36678874492645264,0.02841992862522602,0.07381551712751389,1.126688003540039,-0.3980617821216583,0.0021100868470966816,-0.22756266593933105,-0.33729466795921326,-4.301136493682861,-0.0375831313431263,0.03390829637646675,0.007475859485566616,3.301406145095825,0.569767415523529,-0.01720075123012066,-0.006857230328023434,0.8909685611724854,1.3084524869918823,-1.8268370628356934,-2.0753254890441895,-0.29866743087768555,1.7678353786468506,-2.3008739948272705,-4.704469680786133,1.0719044208526611,1.1107031106948853,9.106710433959961,2.3033437728881836,-0.41445907950401306,1741504850.4125085,1741504850253,0.1300600128173828,0.01239859676361084,0.7608374485478262,-6.3682509765625,1.50845361328125
1741504850.4460568,-3.354666590690613,0.02071184261214378,-0.0321482355875688,-0.9992684877069906,0.24825121462345123,-0.07107549160718918,-0.8694496154785156,-1.6053386926651,-0.30162057280540466,13.330887794494629,-0.01621246337890625,0.23785018920898438,0.16269932687282562,-1.2588928937911987,0.005149920005351305,-0.916876494884491,0.14476996660232544,1.2413450479507446,0.015449759550392628,0.9573128819465637,-0.034142062067985535,-0.650225043296814,0.010872052982449532,0.13981078565120697,0.7864118218421936,-0.22345809638500214,0.08289161324501038,-0.4736018776893616,0.05245288833975792,0.08411535620689392,1.2972075939178467,-0.3781757652759552,-0.00809695478528738,0.08706527203321457,0.16549138724803925,-3.95133638381958,-0.14561858773231506,-0.027024269104003906,0.028747867792844772,3.2945525646209717,0.323758065700531,-0.00241193943656981,-0.01703151874244213,1.1532739400863647,1.3958183526992798,-0.19699473679065704,-0.4157814085483551,0.37919744849205017,0.7885133028030396,0.23753641545772552,-5.218868255615234,1.2898705005645752,0.37188073992729187,8.250121116638184,0.6161879897117615,-0.460428386926651,1741504850.4125085,1741504850253,0.1300600128173828,0.01239859676361084,0.7608374485478262,-6.3682509765625,1.50845361328125
1741504850.466041,-3.3756263256073,0.023643923914164908,-0.035418274931711,-0.9990928438652752,0.16527540981769562,0.08775791525840759,-1.0358425378799438,3.238114595413208,-1.4337332248687744,11.98221206665039,-0.02994537353515625,0.24395370483398438,0.08525978773832321,-1.2543151378631592,0.005149920005351305,-0.916876494884491,0.19436179101467133,1.2466856241226196,0.015449759550392628,0.9573128819465637,-0.016212711110711098,-0.6219958662986755,0.009727626107633114,0.14248111844062805,0.7944228053092957,-0.2299911081790924,0.08232524991035461,-0.5724040865898132,0.07534141838550568,0.07495994865894318,1.4070725440979004,-0.4025563895702362,-0.009192164987325668,-0.3609624207019806,0.1896577775478363,-3.7696220874786377,0.3578096330165863,0.00953672081232071,0.010071038268506527,3.396559953689575,0.36403125524520874,0.005589401815086603,-0.012531386688351631,0.7607581615447998,1.2942200899124146,-0.13841122388839722,0.09317983686923981,0.43130457401275635,-0.49007341265678406,-0.3160029649734497,-5.039778709411621,0.881112277507782,-0.5333036184310913,4.843347549438477,-1.4986491203308105,-0.09284667670726776,1741504850.5138597,1741504850353,0.022509178161621093,0.0035719826221466064,0.39426763670281695,-6.36874072265625,1.508341552734375
1741504850.486162,-3.3935091495513916,0.024614336426031357,-0.03594567859140037,-0.9990505706083702,0.029172729700803757,0.060245759785175323,-0.765500545501709,0.22518140077590942,-0.2749229073524475,10.105796813964844,-0.040627479553222656,0.24547958374023438,0.01926451548933983,-1.2493560314178467,0.005149920005351305,-0.9172579646110535,0.24891279637813568,1.2531707286834717,0.015449759550392628,0.9573128819465637,-0.0036240178160369396,-0.5979629158973694,0.000572213320992887,0.1367589831352234,0.7990005612373352,-0.2652550935745239,0.07315035164356232,-0.6666285395622253,0.07801175117492676,0.056267641484737396,1.4429312944412231,-0.44955724477767944,-0.003867913968861103,-0.30927684903144836,0.038987595587968826,-3.363027572631836,0.31321826577186584,0.009538606740534306,-0.015358035452663898,3.5744380950927734,0.40167519450187683,-0.018235258758068085,-0.025049159303307533,0.7650059461593628,1.3008660078048706,-0.42923155426979065,-0.32119128108024597,0.13827106356620789,-1.9037240743637085,-0.42704564332962036,-4.516898155212402,0.05367523431777954,-0.9193878173828125,1.2392466068267822,-2.406245470046997,0.3105638325214386,1741504850.5138597,1741504850353,0.022509178161621093,0.0035719826221466064,0.39426763670281695,-6.36874072265625,1.508341552734375
1741504850.5061107,-3.4040201902389526,0.03141504266623312,-0.03494124047108508,-0.9988954924358306,-0.060131970793008804,0.34842440485954285,-0.5047301054000854,3.8959646224975586,-0.13784141838550568,7.7236809730529785,-0.038338661193847656,0.23823165893554688,-0.03757534176111221,-1.2463041543960571,0.00476844422519207,-0.9199283123016357,0.30231937766075134,1.2558410167694092,0.01506828423589468,0.9557870030403137,0.00019073777366429567,-0.5678263306617737,-0.0024795911740511656,0.1340886503458023,0.7982375621795654,-0.31464216113090515,0.07900217175483704,-0.7516975402832031,0.07343403995037079,0.03337911143898964,1.41622793674469,-0.49363675713539124,0.0042855157516896725,0.015900053083896637,-0.19535313546657562,-2.925802230834961,0.17990325391292572,-0.03992041200399399,-0.19081580638885498,3.567086935043335,0.11406954377889633,-0.013850619085133076,-0.1145840585231781,0.08496757596731186,1.4220495223999023,-0.0901658907532692,-0.006296984385699034,-0.06613677740097046,-2.5299787521362305,0.5031718611717224,-4.391944885253906,-0.20654235780239105,-1.0993468761444092,-1.6807050704956055,-2.070798873901367,0.31924018263816833,1741504850.5138597,1741504850353,0.022509178161621093,0.0035719826221466064,0.39426763670281695,-6.36874072265625,1.508341552734375
1741504850.5261734,-3.4130645990371704,0.04057587316329561,-0.03244345107355025,-0.9986495987079124,-0.09253739565610886,0.455177903175354,-0.38996168971061707,1.5657758712768555,0.013582834042608738,7.259339809417725,-0.036812782287597656,0.23289108276367188,-0.09327077120542526,-1.2421079874038696,0.00476844422519207,-0.9298466444015503,0.35191118717193604,1.2573670148849487,0.015449759550392628,0.9538795948028564,-0.005531395319849253,-0.5518043637275696,-0.00019073777366429567,0.14171816408634186,0.7970931529998779,-0.3610723316669464,0.09226272255182266,-0.8218890428543091,0.06771191209554672,0.01583123579621315,1.349469780921936,-0.5075888633728027,0.008334585465490818,0.04054706171154976,-0.1352580338716507,-2.5707504749298096,0.33458685874938965,-0.033815596252679825,-0.6454651951789856,3.2666800022125244,0.1473109871149063,0.006632196716964245,-0.14833465218544006,-0.3985949158668518,0.6571589112281799,0.1406816989183426,0.348707377910614,-0.039876788854599,-2.193795680999756,0.46512943506240845,-3.3811838626861572,-0.328940212726593,-0.7921201586723328,-3.563964366912842,-0.39382973313331604,0.19382113218307495,1741504850.5138597,1741504850353,0.022509178161621093,0.0035719826221466064,0.39426763670281695,-6.36874072265625,1.508341552734375
1741504850.5461998,-3.4181883335113525,0.05089133332043381,-0.029048094661161268,-0.9982816638551589,-0.18189825117588043,0.5532194972038269,-0.24233634769916534,-3.744746208190918,0.917881965637207,7.780869007110596,-0.032998085021972656,0.22297286987304688,-0.13103684782981873,-1.2379117012023926,0.00476844422519207,-0.9454871416091919,0.3927290737628937,1.2596558332443237,0.015449759550392628,0.9477760195732117,-0.01125352829694748,-0.5254825949668884,0.004005493130534887,0.14820325374603271,0.7967116832733154,-0.3940402865409851,0.08005690574645996,-0.8749141693115234,0.0555046908557415,-0.000572213320992887,1.259060025215149,-0.4831962287425995,0.014360632747411728,0.10809528082609177,-0.3315979838371277,-1.7471100091934204,0.21764089167118073,-0.013498670421540737,-0.8029519319534302,2.6770308017730713,0.13711348176002502,0.011138309724628925,-0.46013087034225464,-0.27207329869270325,1.4216820001602173,0.16785702109336853,0.2728804349899292,-0.03890000656247139,-1.54254949092865,-0.8196465373039246,-2.4189646244049072,-0.7481056451797485,-0.7852482795715332,-4.691650867462158,1.4143301248550415,0.32223352789878845,1741504850.5138597,1741504850353,0.022509178161621093,0.0035719826221466064,0.39426763670281695,-6.36874072265625,1.508341552734375
1741504850.5661836,-3.422367811203003,0.06208563792200525,-0.025615991256444294,-0.9977420481045025,-0.13046836853027344,0.5358526110649109,-0.23317278921604156,0.09107916802167892,-4.235167980194092,8.075267791748047,-0.02880096435546875,0.22335433959960938,-0.14515145123004913,-1.2333340644836426,0.00476844422519207,-0.959983229637146,0.4331654906272888,1.2604187726974487,0.01506828423589468,0.9367132186889648,-0.009346150793135166,-0.4972533881664276,0.001716639962978661,0.1501106321811676,0.7955672740936279,-0.42296767234802246,0.06316293776035309,-0.8962767720222473,0.03452353551983833,-0.021553369238972664,1.1442358493804932,-0.439371794462204,0.012855691835284233,0.11850101500749588,-0.008144144900143147,-0.49244219064712524,0.3321012556552887,-0.005866440013051033,-0.6763503551483154,2.6634740829467773,-0.04020055755972862,-0.023939799517393112,-0.7946056127548218,0.19584710896015167,1.5257630348205566,-0.11545481532812119,0.04992905259132385,-0.019249198958277702,-1.4511648416519165,-0.7148366570472717,-0.941727876663208,-1.0303641557693481,-1.095489263534546,-5.8284759521484375,2.1688127517700195,-0.08675244450569153,1741504850.5138597,1741504850353,0.022509178161621093,0.0035719826221466064,0.39426763670281695,-6.36874072265625,1.508341552734375
1741504850.5861695,-3.425480842590332,0.0670639876892109,-0.023065298907109233,-0.9974820367011865,-0.11173015087842941,0.15797029435634613,-0.16599930822849274,2.0497395992279053,1.0554778575897217,7.657560348510742,-0.02002716064453125,0.23212814331054688,-0.135233074426651,-1.2291377782821655,0.00476844422519207,-0.968757152557373,0.45796138048171997,1.2592743635177612,0.015449759550392628,0.924887478351593,-0.0024795911740511656,-0.4537651538848877,-0.005531395319849253,0.1493476778268814,0.7898451089859009,-0.45145538449287415,0.047726526856422424,-0.9039062857627869,0.007057297509163618,-0.05054550990462303,1.0191118717193604,-0.39344048500061035,0.007483732420951128,0.23871342837810516,0.2789081335067749,0.6914109587669373,0.25195714831352234,-0.0060946824960410595,-0.3708875775337219,1.4669216871261597,-0.03399937227368355,0.024157151579856873,-0.7959543466567993,0.3478351831436157,2.146465301513672,-0.44080424308776855,-0.02766483835875988,-0.4219145178794861,-1.4318856000900269,-0.8831907510757446,-0.1254543662071228,-1.494702696800232,-1.3846813440322876,-6.150931358337402,2.2979538440704346,-0.3028865158557892,1741504850.6242404,1741504850453,-0.07999048614501954,0.01598342227935791,0.5720164055627872,-6.3685927734375,1.5084147949218751
1741504850.6062434,-3.429336905479431,0.06377943388051696,-0.023487987012442677,-0.9976875754864265,0.08021257072687149,-0.21597997844219208,-0.19703544676303864,2.16416597366333,1.8330713510513306,8.574400901794434,-0.01087188720703125,0.2538719177246094,-0.10051880776882172,-1.228756308555603,0.005149920005351305,-0.9683756828308105,0.465209424495697,1.2588928937911987,0.01506828423589468,0.9149690866470337,0.004005493130534887,-0.3923476040363312,-0.021553369238972664,0.14476996660232544,0.7768749594688416,-0.4683865010738373,0.035655539482831955,-0.889028787612915,-0.02536812424659729,-0.08411535620689392,0.9008545279502869,-0.352051317691803,-0.0009632502915337682,0.24140985310077667,0.674858570098877,1.8323650360107422,-0.0340174101293087,-0.0022817421704530716,0.08299781382083893,0.29466450214385986,-0.06354870647192001,-0.00974170584231615,-0.6048903465270996,0.29787763953208923,3.1476094722747803,-0.7649251222610474,-0.3270709812641144,-0.677381157875061,-0.705762505531311,-0.2826361358165741,0.9039073586463928,-1.5473605394363403,-1.6787729263305664,-5.778195381164551,1.9077693223953247,-0.512058436870575,1741504850.6242404,1741504850453,-0.07999048614501954,0.01598342227935791,0.5720164055627872,-6.3685927734375,1.5084147949218751
1741504850.6263013,-3.434332013130188,0.053130989186799246,-0.031434656844614106,-0.9980926611978937,0.4450625777244568,-0.6072525382041931,-0.2310784012079239,3.297783851623535,1.214771032333374,6.355340957641602,-0.00553131103515625,0.2653160095214844,-0.045204851776361465,-1.2314265966415405,0.005149920005351305,-0.962272047996521,0.45986875891685486,1.2546966075897217,0.01506828423589468,0.9092469811439514,0.005149920005351305,-0.33398184180259705,-0.05207141116261482,0.14629587531089783,0.7665750980377197,-0.46359944343566895,0.06746373325586319,-0.8543145060539246,-0.051689937710762024,-0.11577782779932022,0.7921339869499207,-0.33751583099365234,-0.006330066826194525,0.17526449263095856,0.38324597477912903,3.0960259437561035,-0.20638886094093323,-0.00581787247210741,0.3354494869709015,-0.4987030625343323,-0.301358699798584,-0.00859452411532402,-0.3365602493286133,-0.0337582565844059,2.6531152725219727,-1.6807045936584473,0.12937846779823303,-0.4694276750087738,0.36556777358055115,1.419176459312439,1.8336509466171265,-1.2823290824890137,-1.4399842023849487,-5.269071578979492,0.44816577434539795,-0.24958519637584686,1741504850.6242404,1741504850453,-0.07999048614501954,0.01598342227935791,0.5720164055627872,-6.3685927734375,1.5084147949218751
1741504850.64624,-3.4378716945648193,0.038042694995783256,-0.045567173455737506,-0.998236638308128,0.7533852458000183,-0.7151859998703003,-0.11558710038661957,3.320969820022583,8.667973518371582,10.829828262329102,-0.00286102294921875,0.2637901306152344,0.023079270496964455,-1.235241413116455,0.005149920005351305,-0.9584572911262512,0.440032035112381,1.2485930919647217,0.01506828423589468,0.9096284508705139,0.004386968910694122,-0.291638046503067,-0.09060044586658478,0.15316243469715118,0.7963302135467529,-0.4514002799987793,0.08567921072244644,-0.812352180480957,-0.0715266615152359,-0.09937438368797302,0.7001983523368835,-0.34723249077796936,-0.009208645671606064,0.08264779299497604,-0.04514160752296448,3.39460825920105,-0.23237991333007812,-0.011876028962433338,0.16620498895645142,-1.3658572435379028,-0.394491970539093,-0.0024067978374660015,0.042472731322050095,-0.007087863516062498,1.9685125350952148,-1.538354516029358,0.27546724677085876,2.051288604736328,0.6530486345291138,0.8819878101348877,1.9605637788772583,-0.9998496770858765,1.2985399961471558,-4.009115695953369,-0.2881641685962677,0.014000723138451576,1741504850.6242404,1741504850453,-0.07999048614501954,0.01598342227935791,0.5720164055627872,-6.3685927734375,1.5084147949218751
1741504850.666265,-3.4374523162841797,0.02249853452869028,-0.06109421967719072,-0.9978784055515464,0.6244529485702515,-0.6267604827880859,0.021089822053909302,-8.135261535644531,-7.760858058929443,12.366341590881348,0.00324249267578125,0.2656974792480469,0.09365224838256836,-1.2440153360366821,0.00476844422519207,-0.954261064529419,0.4056992530822754,1.2421079874038696,0.01506828423589468,0.9084840416908264,-0.007438773289322853,-0.2950713336467743,-0.07839322835206985,0.12798504531383514,0.8924620151519775,-0.42662525177001953,0.10235488414764404,-0.7738231420516968,-0.06008239835500717,-0.05245288833975792,0.7425421476364136,-0.33345428109169006,0.0026906454004347324,0.18293233215808868,0.02413034625351429,3.5971601009368896,-0.6122295260429382,-0.04584738612174988,0.22765161097049713,-2.558150291442871,-0.4377433955669403,0.009240996092557907,-0.11255963891744614,-0.8449283838272095,-0.5148701071739197,0.3156527876853943,-1.2823185920715332,5.095859050750732,1.4022167921066284,0.5943994522094727,2.0081920623779297,1.0990711450576782,2.2108614444732666,2.73608136177063,0.5345959663391113,0.5276428461074829,1741504850.6242404,1741504850453,-0.07999048614501954,0.01598342227935791,0.5720164055627872,-6.3685927734375,1.5084147949218751
1741504850.6863093,-3.429366111755371,0.016458625009273115,-0.06108165402916193,-0.9979970667310931,-0.027660727500915527,-0.43924322724342346,0.43657606840133667,-13.34284496307373,5.1043381690979,13.265886306762695,-0.01697540283203125,0.2622642517089844,0.16269932687282562,-1.2440153360366821,0.005149920005351305,-0.9485389590263367,0.3423742949962616,1.2501189708709717,0.016212711110711098,0.9107728600502014,-0.009727626107633114,-0.3603036403656006,-0.09517814964056015,0.10738536715507507,1.032463550567627,-0.3823871612548828,0.0988425612449646,-0.7589455842971802,-0.040245670825242996,-0.004386968910694122,0.7665750980377197,-0.3394308090209961,0.008964096195995808,-0.4833025336265564,0.03426416590809822,3.370215892791748,0.06589303910732269,-0.020905926823616028,0.248607337474823,-4.432435989379883,0.6681685447692871,0.09859289973974228,0.21727730333805084,-0.006261598318815231,-3.5164406299591064,-0.79315584897995,-1.2052977085113525,7.37477970123291,2.151315212249756,-0.3260287046432495,0.8552971482276917,0.7950247526168823,2.277223587036133,0.7464995384216309,-0.3452815115451813,0.4617981016635895,1741504850.7266412,1741504850553,-0.18645529174804687,0.031100893020629884,0.6372251503031686,-6.367853515625,1.5086152343750001
1741504850.7063475,-3.4147884845733643,0.014072354179450925,-0.058943081964215584,-0.9981621521257995,-0.14862003922462463,-0.09162445366382599,0.8448346257209778,1.5608277320861816,-4.460960388183594,10.010480880737305,-0.00019073486328125,0.24814987182617188,0.22602425515651703,-1.2417265176773071,0.005149920005351305,-0.9489204287528992,0.264934778213501,1.2546966075897217,0.014686808921396732,0.9134432077407837,-0.0078202486038208,-0.44728007912635803,-0.09708552807569504,0.0715266615152359,1.1884870529174805,-0.35945287346839905,0.04233022406697273,-0.7131685614585876,-0.016594186425209045,0.01125352829694748,0.775730550289154,-0.3388907015323639,0.011745050549507141,0.3576175570487976,-0.37787118554115295,2.8868813514709473,-0.00487229460850358,0.08756543695926666,-0.0027366052381694317,-5.127138137817383,0.14304330945014954,-0.15581947565078735,0.04965312406420708,0.2086062729358673,-4.470990180969238,-0.09179845452308655,-1.5777541399002075,7.421822547912598,0.9670355916023254,-3.2118124961853027,2.1256728172302246,0.9314253926277161,0.6203171610832214,0.41857144236564636,0.03051665611565113,-0.046282809227705,1741504850.7266412,1741504850553,-0.18645529174804687,0.031100893020629884,0.6372251503031686,-6.367853515625,1.5086152343750001
1741504850.7264283,-3.397497773170471,0.00637200726152981,-0.04782081935308015,-0.9988356054726218,-0.575443685054779,-0.36056259274482727,0.8396012187004089,-4.945087432861328,4.533308506011963,13.550640106201172,-0.01201629638671875,0.2599754333496094,0.28629741072654724,-1.2432523965835571,0.004386968910694122,-0.9508277773857117,0.19283588230609894,1.2535521984100342,0.014686808921396732,0.9103913903236389,0.0036240178160369396,-0.5449378490447998,-0.09517814964056015,0.06008239835500717,1.3040741682052612,-0.37436366081237793,0.014762898907065392,-0.6879911422729492,-0.02880140393972397,0.026131074875593185,0.7738231420516968,-0.3401581048965454,0.0130057567730546,-0.33869093656539917,0.24675871431827545,2.8528199195861816,-0.03878884017467499,-0.08300245553255081,-0.07143726944923401,-4.868232727050781,-0.06482119113206863,0.04306149482727051,-0.10847093164920807,0.6916047930717468,-4.852878570556641,0.14479903876781464,-0.37106016278266907,5.286864280700684,-1.1655874252319336,-0.573086142539978,1.4199963808059692,-0.587553858757019,0.5025957226753235,0.0058168950490653515,-0.03996888920664787,0.26598313450813293,1741504850.7266412,1741504850553,-0.18645529174804687,0.031100893020629884,0.6372251503031686,-6.367853515625,1.5086152343750001
1741504850.7464716,-3.379822254180908,0.003983897794442156,-0.04173551145576512,-0.9991207512817903,-0.24665136635303497,-0.040101710706949234,0.8177328109741211,5.686003684997559,1.8900184631347656,7.490858554840088,0.00247955322265625,0.2626457214355469,0.343137264251709,-1.2466856241226196,0.005149920005351305,-0.9508277773857117,0.1192111074924469,1.2520263195037842,0.01430533267557621,0.9134432077407837,0.02079041674733162,-0.6277180314064026,-0.09174486994743347,0.06733043491840363,1.362821340560913,-0.4212590754032135,0.020700542256236076,-0.6372548937797546,-0.0394827201962471,0.01735713705420494,0.7749675512313843,-0.3447278141975403,0.016748210415244102,0.35193681716918945,0.10791773349046707,2.7647573947906494,-0.3500721752643585,0.028458867222070694,0.012778890319168568,-4.813910007476807,-0.16421988606452942,-0.056155893951654434,0.15957394242286682,0.639991283416748,-4.104773998260498,0.12545761466026306,0.4476391673088074,2.524582624435425,-2.439418077468872,0.16711589694023132,2.4240946769714355,-0.46806222200393677,-0.4353105425834656,-0.16286994516849518,-0.30875521898269653,0.19709685444831848,1741504850.7266412,1741504850553,-0.18645529174804687,0.031100893020629884,0.6372251503031686,-6.367853515625,1.5086152343750001
1741504850.7664335,-3.3708417415618896,-0.002858410655057409,-0.040537789246517505,-0.9991739173595016,-0.048093076795339584,-0.33631592988967896,0.4106992483139038,-2.3709774017333984,-3.3588156700134277,8.977814674377441,0.00629425048828125,0.2645530700683594,0.3919661343097687,-1.2512633800506592,0.005149920005351305,-0.9504463076591492,0.05283436179161072,1.2432523965835571,0.01506828423589468,0.9130617380142212,0.032616160809993744,-0.7021057605743408,-0.07839322835206985,0.0722896158695221,1.3643473386764526,-0.47195008397102356,0.010795067995786667,-0.6109330654144287,-0.050164032727479935,0.013542382046580315,0.763523280620575,-0.3548585772514343,0.037264928221702576,0.12254529446363449,0.08148416131734848,2.360124111175537,-0.2830948829650879,-0.015312383882701397,0.01765921525657177,-4.226958751678467,-0.6202479004859924,0.05562601611018181,-0.0024592748377472162,0.7019429802894592,-3.505963087081909,0.5360523462295532,0.5052210092544556,-0.3048204481601715,-2.488379716873169,-0.6444942951202393,1.2014747858047485,-0.40641769766807556,-0.24241040647029877,-0.4846988618373871,-0.46225205063819885,1.0234935283660889,1741504850.7266412,1741504850553,-0.18645529174804687,0.031100893020629884,0.6372251503031686,-6.367853515625,1.5086152343750001
1741504850.7864218,-3.3658474683761597,-0.002650982622021166,-0.038677752397418566,-0.9992482192931954,-0.08648592233657837,0.05925106629729271,0.17894357442855835,0.01263807900249958,3.6693429946899414,6.401156902313232,-0.00286102294921875,0.2561607360839844,0.42782482504844666,-1.2550780773162842,0.005149920005351305,-0.9515907764434814,-0.005912871100008488,1.2386746406555176,0.01430533267557621,0.9142061471939087,0.046730753034353256,-0.7616159319877625,-0.0715266615152359,0.086785688996315,1.3197146654129028,-0.5042970776557922,-0.011559882201254368,-0.5682078003883362,-0.059319447726011276,0.013160906732082367,0.7631418108940125,-0.3663824498653412,0.047844067215919495,-0.2028602808713913,-0.20048151910305023,1.743328332901001,-0.15222103893756866,0.0038403405342251062,-0.02634314075112343,-3.9669575691223145,-0.19032804667949677,-0.026494070887565613,0.043265487998723984,0.6669064164161682,-2.8998260498046875,0.39206674695014954,0.5180718302726746,-2.482591390609741,-1.378093957901001,-0.8649487495422363,2.1756327152252197,-0.5417960286140442,0.052336420863866806,-0.01611727476119995,-0.55513995885849,0.3625951111316681,1741504850.8211954,1741504850653,-0.2716160583496094,0.05206562042236328,0.38803865822939193,-6.36878759765625,1.5083248291015625
1741504850.8064792,-3.35804283618927,-0.0012341740434829505,-0.04100188752999606,-0.9991583067929766,0.10641512274742126,0.1113281175494194,0.45005467534065247,-3.178989887237549,2.635773181915283,10.274531364440918,-0.01239776611328125,0.24395370483398438,0.46177613735198975,-1.2581299543380737,0.005149920005351305,-0.9458686113357544,-0.06351567804813385,1.23447847366333,0.014686808921396732,0.9187838435173035,0.051689937710762024,-0.7970931529998779,-0.06198977679014206,0.0879301130771637,1.2438009977340698,-0.5008023381233215,-0.011489465832710266,-0.5518043637275696,-0.06580453366041183,0.009346150793135166,0.7623788714408875,-0.37912678718566895,0.05767066404223442,-0.28255733847618103,-0.3266729414463043,1.6894890069961548,-0.2697628438472748,-0.038880396634340286,0.25412553548812866,-3.5712623596191406,-0.33418965339660645,0.049856752157211304,0.4002441465854645,0.07414257526397705,-1.5103474855422974,0.42479854822158813,0.0619281604886055,-3.85604190826416,0.468177855014801,0.024776889011263847,0.8406173586845398,-0.369098424911499,-0.10530544817447662,0.17233534157276154,-0.6389378309249878,0.4906916916370392,1741504850.8211954,1741504850653,-0.2716160583496094,0.05206562042236328,0.38803865822939193,-6.36878759765625,1.5083248291015625
1741504850.8265178,-3.350621223449707,0.00874927559723632,-0.04290189615702639,-0.999040978880574,0.11375400424003601,0.4610776901245117,0.36214372515678406,6.260887622833252,-0.6967774629592896,4.989996910095215,-0.01697540283203125,0.23136520385742188,0.47589075565338135,-1.2569855451583862,0.005149920005351305,-0.9390020370483398,-0.1024261862039566,1.2299007177352905,0.01430533267557621,0.9340428709983826,0.04329747334122658,-0.8154039978981018,-0.045204851776361465,0.08564125746488571,1.1305028200149536,-0.4657582640647888,-0.013349847868084908,-0.5277714133262634,-0.0715266615152359,0.018120087683200836,0.7749675512313843,-0.39612722396850586,0.062225356698036194,-0.15654225647449493,-0.29041722416877747,0.5452462434768677,0.07295136153697968,0.002337171696126461,0.375337690114975,-2.455904722213745,-0.30548354983329773,-0.009502986446022987,1.0455135107040405,-0.5271295309066772,-0.8346565365791321,1.0741846561431885,-0.1478683054447174,-6.068191051483154,1.924391746520996,-0.05057339370250702,1.0362131595611572,-0.16050675511360168,0.4069935977458954,0.48441651463508606,-0.9282198548316956,0.2468305230140686,1741504850.8211954,1741504850653,-0.2716160583496094,0.05206562042236328,0.38803865822939193,-6.36878759765625,1.5083248291015625
1741504850.8465128,-3.3447128534317017,0.012536722570801049,-0.04428950869347604,-0.9989400732811119,0.052185412496328354,0.2063307762145996,0.262713223695755,0.56577467918396,-0.2390371412038803,6.27275276184082,-0.01964569091796875,0.23441696166992188,0.47817960381507874,-1.2569855451583862,0.005149920005351305,-0.9306095838546753,-0.11692225188016891,1.225704550743103,0.014686808921396732,0.9500648379325867,0.024223696440458298,-0.8077744841575623,-0.02040894143283367,0.08983749151229858,0.9855420589447021,-0.4216405749320984,-0.005303474143147469,-0.5128938555717468,-0.06351567804813385,0.03376058489084244,0.7867932915687561,-0.4147288203239441,0.06780876219272614,-0.10165608674287796,0.08047796785831451,0.0330803319811821,0.014028463512659073,-0.010703904554247856,0.3968711495399475,-0.7857291102409363,-0.32789093255996704,0.005599406082183123,1.0383282899856567,-0.9286845922470093,0.585420548915863,1.3193625211715698,0.2755149006843567,-7.461301803588867,2.14560604095459,0.49104082584381104,0.8116820454597473,0.5460572838783264,0.8936975002288818,0.7095717191696167,-0.900745153427124,0.15398740768432617,1741504850.8211954,1741504850653,-0.2716160583496094,0.05206562042236328,0.38803865822939193,-6.36878759765625,1.5083248291015625
1741504850.8667428,-3.34294331073761,0.016979953066859007,-0.041990165990908664,-0.998973726958774,-0.15501974523067474,0.20197758078575134,0.05426976829767227,1.317077398300171,-4.724968433380127,8.070019721984863,-0.02574920654296875,0.23785018920898438,0.4674982726573944,-1.2550780773162842,0.005149920005351305,-0.924124538898468,-0.11387044936418533,1.219219446182251,0.014686808921396732,0.9626535177230835,0.008964675478637218,-0.775730550289154,-0.0032425422687083483,0.11539635062217712,0.8276112079620361,-0.38984760642051697,0.006627754308283329,-0.49267566204071045,-0.038719769567251205,0.04749370738863945,0.802815318107605,-0.4316849112510681,0.05938729643821716,-0.17675510048866272,0.10625899583101273,-0.6717715263366699,0.1402585506439209,-0.002300573978573084,0.24260641634464264,0.3827632665634155,-0.40061184763908386,0.003217104822397232,0.789927065372467,-0.6758175492286682,1.6641639471054077,0.7982547879219055,1.3371130228042603,-7.8028059005737305,1.5104635953903198,0.4538206458091736,0.9645371437072754,1.3100731372833252,0.6561080813407898,0.7613586783409119,-0.8478752374649048,-0.5796022415161133,1741504850.8211954,1741504850653,-0.2716160583496094,0.05206562042236328,0.38803865822939193,-6.36878759765625,1.5083248291015625
1741504850.8865385,-3.343165636062622,0.013714337119074951,-0.0355955391681895,-0.9992721724078532,-0.2394040822982788,-0.28003013134002686,0.04487960413098335,14.870719909667969,3.05757474899292,17.093809127807617,-0.043297767639160156,0.2618827819824219,0.4491874575614929,-1.2512633800506592,0.005149920005351305,-0.919165313243866,-0.08945601433515549,1.2154046297073364,0.01430533267557621,0.9664682745933533,0.0032425422687083483,-0.7440680265426636,0.023079270496964455,0.15850308537483215,0.8012893795967102,-0.3400023579597473,0.042634475976228714,-0.46368351578712463,-0.038719769567251205,0.0555046908557415,0.8211261034011841,-0.4476280212402344,0.04030117020010948,-0.5243232846260071,0.7508805394172668,-0.983768105506897,0.28899654746055603,0.02149030566215515,0.354364275932312,1.7953603267669678,-0.22798499464988708,0.0008289607940241694,0.09383367002010345,-0.13928546011447906,2.0797860622406006,0.772558867931366,2.2221930027008057,0.6092023253440857,2.4965546131134033,2.2597432136535645,1.4708627462387085,-0.2279258668422699,0.45361605286598206,0.8144338130950928,-0.9135156869888306,-1.096570372581482,1741504850.9242995,1741504850753,-0.35291265869140626,0.043716094970703126,0.14858939730521814,-6.3688422851562505,1.508384033203125
1741504850.9065502,-3.3379430770874023,0.020735187717176733,-0.035186426709034546,-0.9991656356009163,-0.05781659483909607,0.3331109881401062,0.28204628825187683,3.290231227874756,-7.844366550445557,5.343857288360596,-0.032235145568847656,0.24509811401367188,0.4026474356651306,-1.2520263195037842,0.005531395319849253,-0.917639434337616,-0.04291599988937378,1.212734341621399,0.013542382046580315,0.9660868048667908,0.02040894143283367,-0.7070649266242981,0.019645990803837776,0.1520180106163025,0.8127336502075195,-0.30277130007743835,0.10016170144081116,-0.43087664246559143,-0.026512550190091133,0.053215838968753815,0.8340963125228882,-0.4684889316558838,-0.0023312608245760202,0.2614334225654602,-0.3770298957824707,-2.6036012172698975,-0.11959878355264664,0.011523444205522537,0.014501439407467842,3.2903640270233154,-0.15637588500976562,-0.0046285600401461124,-0.08002792298793793,0.77149498462677,1.2405654191970825,0.13338252902030945,-0.7576797008514404,-0.4018532633781433,1.8248018026351929,2.3495733737945557,1.5335721969604492,0.6333444714546204,-0.12850257754325867,0.7080516815185547,-0.9290629029273987,-1.997874140739441,1741504850.9242995,1741504850753,-0.35291265869140626,0.043716094970703126,0.14858939730521814,-6.3688422851562505,1.508384033203125
1741504850.92682,-3.3338733911514282,0.021617741974108828,-0.02888078970425533,-0.9993490747571638,-0.39843815565109253,0.16042642295360565,0.2597334086894989,-2.5619330406188965,-15.353434562683105,16.035066604614258,-0.052071571350097656,0.2538719177246094,0.33360037207603455,-1.2531707286834717,0.00476844422519207,-0.9164950251579285,0.01430533267557621,1.215023159980774,0.014686808921396732,0.9603646993637085,0.032616160809993744,-0.6708247661590576,0.02536812424659729,0.12684062123298645,0.7940413355827332,-0.2649848759174347,0.0827692300081253,-0.42553597688674927,-0.020027466118335724,0.04787518084049225,0.8878843188285828,-0.4683764576911926,0.0035038848873227835,-0.5219314098358154,0.22692717611789703,-3.398003578186035,-0.013570589944720268,-0.04385576397180557,0.06465461105108261,3.79052472114563,0.3072100579738617,0.08749551326036453,-0.4068991541862488,0.49497169256210327,2.039705753326416,-0.5849943161010742,-1.0005464553833008,-0.4520470201969147,1.8496145009994507,-1.327100396156311,0.09148675948381424,0.417754203081131,-0.17408400774002075,3.436621904373169,0.2212572991847992,0.4739369750022888,1741504850.9243722,1741504850853,-0.4526226501464844,0.032106456756591795,0.06562581259331185,-6.36891455078125,1.5082962646484375
1741504850.9466257,-3.33552885055542,0.023003208637512023,-0.020349345456629257,-0.9995282669999213,-0.3530612587928772,0.007364477962255478,-0.20849677920341492,0.6213424801826477,-2.890888214111328,9.937797546386719,-0.051690101623535156,0.2668418884277344,0.2626459002494812,-1.2512633800506592,0.00476844422519207,-0.9138246774673462,0.0715266615152359,1.236767292022705,0.016212711110711098,0.9538795948028564,0.038719769567251205,-0.6475547552108765,0.01888304017484188,0.11501488089561462,0.8031967878341675,-0.2430250346660614,0.07093878090381622,-0.4694056510925293,-0.010490577667951584,0.03528648987412453,1.0053788423538208,-0.453510582447052,0.00858272798359394,-0.046076372265815735,0.4298398792743683,-3.534573554992676,0.17046737670898438,0.009864695370197296,0.14341625571250916,3.891326904296875,1.5451459884643555,0.10940475761890411,-0.42136701941490173,0.3701881170272827,1.0780047178268433,-0.15367430448532104,-0.5662375688552856,0.48420342803001404,0.7685272693634033,-0.1587173193693161,-2.6672070026397705,0.5600184202194214,-0.6092502474784851,6.075826168060303,0.761993408203125,-0.030429231002926826,1741504850.9243722,1741504850853,-0.4526226501464844,0.032106456756591795,0.06562581259331185,-6.36891455078125,1.5082962646484375
1741504850.966617,-3.349186897277832,0.02452810523445609,-0.016231818773932104,-0.9995673564662352,-0.16274961829185486,0.07567347586154938,-0.7461432218551636,-4.256633281707764,-3.86523699760437,14.319565773010254,-0.040627479553222656,0.2691307067871094,0.19398032128810883,-1.2474485635757446,0.00476844422519207,-0.9153505563735962,0.13065537810325623,1.2539336681365967,0.015449759550392628,0.9477760195732117,0.04711223021149635,-0.6239032745361328,0.01735713705420494,0.11654078215360641,0.8165484070777893,-0.25256237387657166,0.06743407249450684,-0.5514228940010071,0.005912871100008488,0.013542382046580315,1.1552987098693848,-0.444137305021286,-0.008272014558315277,0.2709609568119049,0.0938228964805603,-3.557387351989746,0.25891807675361633,0.011113238520920277,-0.05320451408624649,3.8205337524414062,1.0129023790359497,-0.08491240441799164,-0.42260855436325073,0.4558883607387543,0.9876402020454407,-0.1014799252152443,0.0734960064291954,0.6220449209213257,-0.7290401458740234,-0.39996448159217834,-4.242521286010742,0.771787703037262,-1.108167290687561,7.592223167419434,0.4228084683418274,-0.6553118824958801,1741504850.9243722,1741504850853,-0.4526226501464844,0.032106456756591795,0.06562581259331185,-6.36891455078125,1.5082962646484375
1741504850.9866521,-3.3671669960021973,0.02585953699728284,-0.015985779583856847,-0.9995377627670614,0.04980701208114624,0.07914463430643082,-0.9500143527984619,-4.161159992218018,-3.3193891048431396,14.306273460388184,-0.050545692443847656,0.2676048278808594,0.12378881871700287,-1.2463041543960571,0.005149920005351305,-0.9164950251579285,0.18749523162841797,1.2646150588989258,0.015449759550392628,0.9451056718826294,0.06084534898400307,-0.6029220819473267,0.01888304017484188,0.1180666834115982,0.8241779208183289,-0.29187965393066406,0.06157296150922775,-0.647173285484314,0.015449759550392628,-0.010109102353453636,1.2926298379898071,-0.4452882409095764,0.000836072547826916,-0.28086188435554504,-0.017834588885307312,-3.5669138431549072,-0.06353704631328583,-0.008141040802001953,-0.07419485598802567,3.7405972480773926,0.7078436613082886,0.03712024912238121,-0.1575809270143509,0.6984466910362244,1.129712700843811,0.0768285021185875,0.14780831336975098,0.3670419454574585,-2.1119887828826904,-0.2969799339771271,-4.5956926345825195,0.4964137375354767,-1.1600085496902466,6.513030529022217,-0.1349399834871292,0.5548189282417297,1741504851.0241868,1741504850953,-0.5498932495117188,0.028997325897216798,-0.0873257081638823,-6.3676748046875,1.5085793457031251
1741504851.006721,-3.385795474052429,0.03266479058534047,-0.017494403495576724,-0.999313242833472,0.08236067742109299,0.32860067486763,-0.9365344643592834,1.0607936382293701,-2.0204429626464844,9.365452766418457,-0.050927162170410156,0.2607383728027344,0.05703059583902359,-1.2451597452163696,0.00476844422519207,-0.918402373790741,0.2466239482164383,1.2695741653442383,0.015449759550392628,0.9447242021560669,0.06542305648326874,-0.5754558444023132,0.019645990803837776,0.1188296303153038,0.8245593905448914,-0.3396649658679962,0.06587918102741241,-0.732623815536499,0.02841992862522602,-0.02880140393972397,1.3742656707763672,-0.45392730832099915,0.004888288211077452,-0.05904025584459305,-0.2060541957616806,-3.430467128753662,0.17827141284942627,-0.03175769001245499,-0.12116453051567078,3.983232021331787,0.2725633680820465,-0.019064441323280334,-0.006104068364948034,0.08363553881645203,1.397689938545227,0.027593303471803665,0.017048390582203865,-0.007622453384101391,-2.388005256652832,0.4234461486339569,-4.22066068649292,0.6080670952796936,-0.8826459050178528,3.4842464923858643,-0.45353832840919495,0.037862539291381836,1741504851.0241868,1741504850953,-0.5498932495117188,0.028997325897216798,-0.0873257081638823,-6.3676748046875,1.5085793457031251
1741504851.0266838,-3.399190902709961,0.03775329525419649,-0.016247900502757925,-0.9991549901925637,-0.05251837894320488,0.25191888213157654,-0.5742018222808838,1.2530772686004639,-1.8584791421890259,8.788394927978516,-0.054741859436035156,0.2618827819824219,0.00019073777366429567,-1.2417265176773071,0.005531395319849253,-0.9206912517547607,0.30384528636932373,1.2711000442504883,0.01506828423589468,0.9443427324295044,0.07038223743438721,-0.543411910533905,0.020027466118335724,0.12111848592758179,0.8188372850418091,-0.3819069266319275,0.07180516421794891,-0.8009079098701477,0.03643091395497322,-0.039101243019104004,1.3883802890777588,-0.45857012271881104,-0.0025144945830106735,-0.12362778931856155,0.032768212258815765,-2.666581392288208,0.1836245357990265,0.04945692792534828,-0.09274959564208984,3.7689249515533447,0.08063920587301254,-0.02214841917157173,-0.06679186224937439,0.24817897379398346,1.6332995891571045,-0.007934512570500374,0.13730117678642273,-0.33241721987724304,-1.9993976354599,0.07500001788139343,-3.1983823776245117,0.32454735040664673,-0.4566406309604645,0.2315974086523056,-0.11689015477895737,-0.26178640127182007,1741504851.0241868,1741504850953,-0.5498932495117188,0.028997325897216798,-0.0873257081638823,-6.3676748046875,1.5085793457031251
1741504851.0468464,-3.406090021133423,0.042400653773427055,-0.013349821294436001,-0.9990114948442748,-0.15289689600467682,0.19884131848812103,-0.2850314974784851,0.9748656749725342,-0.031802963465452194,9.175508499145508,-0.053215980529785156,0.2618827819824219,-0.05283436179161072,-1.2417265176773071,0.00476844422519207,-0.9252689480781555,0.3549630045890808,1.2714815139770508,0.015449759550392628,0.9431982636451721,0.06694895774126053,-0.5064088106155396,0.020027466118335724,0.12149996310472488,0.8085374236106873,-0.4120151996612549,0.06052975356578827,-0.84897381067276,0.03299763426184654,-0.04749370738863945,1.349469780921936,-0.450156569480896,0.0038186360616236925,0.017908308655023575,0.01702253147959709,-2.8327524662017822,-0.01427175011485815,0.02746935375034809,-0.29935863614082336,3.346017599105835,0.03666515275835991,-0.010190963745117188,-0.08352195471525192,-0.1729297637939453,1.839051604270935,-0.011341536417603493,0.07128314673900604,-0.4962306320667267,-1.4249275922775269,-0.5865770578384399,-2.1999759674072266,-0.28416985273361206,-0.33137020468711853,-2.2822980880737305,0.5040832161903381,0.3602670729160309,1741504851.0241868,1741504850953,-0.5498932495117188,0.028997325897216798,-0.0873257081638823,-6.3676748046875,1.5085793457031251
1741504851.066741,-3.4097641706466675,0.04495317172470442,-0.009303082908677377,-0.9989457768068714,-0.1932741105556488,0.10503271222114563,-0.15179529786109924,-0.9737637042999268,0.8214666843414307,7.402770519256592,-0.047875404357910156,0.2630271911621094,-0.09479667246341705,-1.2409635782241821,0.00476844422519207,-0.9386205673217773,0.404936283826828,1.2714815139770508,0.015449759550392628,0.9416723847389221,0.06542305648326874,-0.4671168029308319,0.021553369238972664,0.12569619715213776,0.8012893795967102,-0.437712162733078,0.04415210336446762,-0.8791103959083557,0.016594186425209045,-0.06160829961299896,1.275844931602478,-0.4292639195919037,0.007928772829473019,0.14209435880184174,0.04094097018241882,-1.9441206455230713,0.04618186503648758,-0.013078197836875916,-0.7099096179008484,3.443007707595825,0.018041053786873817,-0.004954085219651461,-0.14964500069618225,-0.02463439106941223,1.880008578300476,0.10191048681735992,0.19850830733776093,-0.41500529646873474,-1.2848981618881226,-0.9821091294288635,-1.2963443994522095,-0.9379462599754333,-0.8045987486839294,-3.874023675918579,1.1793968677520752,0.12625852227210999,1741504851.0241868,1741504850953,-0.5498932495117188,0.028997325897216798,-0.0873257081638823,-6.3676748046875,1.5085793457031251
1741504851.0868073,-3.4155601263046265,0.045683787911694126,-0.004670983065071336,-0.9989450302390244,-0.2102166712284088,0.010156111791729927,-0.2852323651313782,0.9403913617134094,-1.65617835521698,9.413285255432129,-0.041008949279785156,0.2668418884277344,-0.11539635062217712,-1.239819049835205,0.00476844422519207,-0.9531166553497314,0.4514763057231903,1.2676668167114258,0.01506828423589468,0.9340428709983826,0.0707637146115303,-0.42858776450157166,0.020027466118335724,0.12836651504039764,0.7890821695327759,-0.4638400971889496,0.03273177891969681,-0.8928435444831848,-0.012397955171763897,-0.08373387902975082,1.1846723556518555,-0.39597663283348083,0.004293195437639952,0.17393188178539276,0.10911453515291214,-0.8707475662231445,0.05376699939370155,-0.013852406293153763,-0.6898947358131409,2.819673776626587,-0.333781898021698,-0.002505303593352437,-0.5586898326873779,0.2865077257156372,1.96366548538208,-0.0825519785284996,0.07743223756551743,-0.583676278591156,-1.3648858070373535,-0.33369532227516174,-0.5874584913253784,-1.5626600980758667,-1.1248633861541748,-4.559025764465332,1.7612406015396118,-0.11556679755449295,1741504851.1266654,1741504851053,-0.6452917480468751,0.032625286102294926,-0.13158322440123804,-6.3694638671875,1.508169189453125
1741504851.1068237,-3.42143976688385,0.043817947754831,-0.001015864800863751,-0.9990390159914985,-0.1409718096256256,-0.10581063479185104,-0.3220427632331848,7.571813583374023,1.0504080057144165,5.642881393432617,-0.037575721740722656,0.2672233581542969,-0.11310750246047974,-1.239819049835205,0.00476844422519207,-0.9626535177230835,0.47703516483306885,1.2619446516036987,0.01506828423589468,0.925650417804718,0.07724879682064056,-0.3889143168926239,0.012397955171763897,0.12912946939468384,0.770008385181427,-0.487177312374115,0.029955022037029266,-0.881780743598938,-0.04749370738863945,-0.11577782779932022,1.0797665119171143,-0.35535329580307007,0.0024072136729955673,0.09451381862163544,0.016887987032532692,0.2866930663585663,-0.005520084872841835,-0.0032171402126550674,-0.45813313126564026,1.542264461517334,-0.35021868348121643,-0.006485871970653534,-0.5646805763244629,0.3347148895263672,1.9584037065505981,-0.4756968319416046,0.021121807396411896,-1.0386557579040527,-1.0877734422683716,-0.16328684985637665,0.7374218702316284,-1.7427312135696411,-1.6474326848983765,-5.399488925933838,1.993189811706543,-0.027176059782505035,1741504851.1266654,1741504851053,-0.6452917480468751,0.032625286102294926,-0.13158322440123804,-6.3694638671875,1.508169189453125
1741504851.126856,-3.429002523422241,0.0401025247753388,-0.002090087482491732,-0.9991933842059599,0.09355895221233368,-0.15391738712787628,-0.3765529990196228,0.2439085841178894,1.8775609731674194,10.035758972167969,-0.02994537353515625,0.2641716003417969,-0.08907453715801239,-1.2405821084976196,0.005149920005351305,-0.967231273651123,0.482375830411911,1.2558410167694092,0.01506828423589468,0.9180209040641785,0.08335240930318832,-0.32978561520576477,-0.0020981156267225742,0.12798504531383514,0.7429236173629761,-0.49591872096061707,0.027729244902729988,-0.8543145060539246,-0.07610437273979187,-0.15850308537483215,0.9691386222839355,-0.3211795389652252,0.0006797934183850884,0.20130445063114166,-0.09317129105329514,1.326017141342163,-0.06751113384962082,0.002206192584708333,-0.13739614188671112,0.17836785316467285,-0.4023149311542511,0.01358675118535757,-0.44780611991882324,0.2579299211502075,3.091958999633789,-0.6630192399024963,-0.06752259284257889,-1.4271109104156494,-0.3017631769180298,-0.043538641184568405,1.453834056854248,-1.3394975662231445,-2.18921160697937,-5.5236334800720215,1.5880658626556396,-0.2573475241661072,1741504851.1266654,1741504851053,-0.6452917480468751,0.032625286102294926,-0.13158322440123804,-6.3694638671875,1.508169189453125
1741504851.1468086,-3.4358880519866943,0.033639003035309624,-0.00854368264576508,-0.9993975299957665,0.3720588982105255,-0.37965792417526245,-0.29569506645202637,-2.299105167388916,-2.176112651824951,8.459037780761719,-0.02079010009765625,0.2653160095214844,-0.048256658017635345,-1.2432523965835571,0.005149920005351305,-0.9637979865074158,0.47436484694480896,1.2493560314178467,0.01506828423589468,0.9142061471939087,0.08182650804519653,-0.264934778213501,-0.018120087683200836,0.12493324279785156,0.7173647880554199,-0.4874630868434906,0.05003904923796654,-0.8241779208183289,-0.09861142933368683,-0.19016556441783905,0.8562218546867371,-0.30858731269836426,-0.0052364119328558445,0.2655033767223358,0.03359202295541763,2.1957430839538574,-0.1992415338754654,-0.0010904513765126467,0.20417176187038422,-0.6784679889678955,-0.4311603307723999,0.014963537454605103,-0.24695856869220734,-0.13192375004291534,3.1732499599456787,-0.86556476354599,-0.17086368799209595,-1.106190800666809,0.5236917734146118,1.3428822755813599,1.5592068433761597,-1.0723867416381836,-1.2653720378875732,-5.564390182495117,0.44071847200393677,-0.23029473423957825,1741504851.1266654,1741504851053,-0.6452917480468751,0.032625286102294926,-0.13158322440123804,-6.3694638671875,1.508169189453125
1741504851.1668353,-3.4409204721450806,0.026057178980832235,-0.01886500685085575,-0.999482433532515,0.5537469387054443,-0.4082243740558624,-0.2162756621837616,1.5883922576904297,-0.860279381275177,4.952939987182617,-0.01773834228515625,0.2653160095214844,0.007438773289322853,-1.2440153360366821,0.005149920005351305,-0.962272047996521,0.4507133662700653,1.2459226846694946,0.015449759550392628,0.9119172692298889,0.07305257022380829,-0.2141985148191452,-0.053215838968753815,0.12493324279785156,0.7234683632850647,-0.47295427322387695,0.0716492161154747,-0.7810711860656738,-0.10929274559020996,-0.1848248988389969,0.7486457824707031,-0.328810453414917,-0.0081349927932024,0.10868218541145325,0.03075285628437996,2.7314250469207764,-0.027503253892064095,-0.00260050967335701,0.008574730716645718,-1.7374472618103027,-0.17398697137832642,0.02566191926598549,-0.12821711599826813,-0.44807103276252747,2.1916534900665283,-1.9731693267822266,-0.0003746340807992965,0.6723722815513611,0.7411500215530396,0.8864186406135559,2.1232969760894775,-0.3042006194591522,0.5481236577033997,-5.412651062011719,-1.2682294845581055,-0.1552838236093521,1741504851.1266654,1741504851053,-0.6452917480468751,0.032625286102294926,-0.13158322440123804,-6.3694638671875,1.508169189453125
1741504851.1868682,-3.4430289268493652,0.018208382179218538,-0.03404536228988151,-0.9992544061073567,0.8109359741210938,-0.319610595703125,-0.04562154784798622,13.506647109985352,-7.117178440093994,19.159122467041016,-0.01316070556640625,0.2653160095214844,0.0722896158695221,-1.2436338663101196,0.005149920005351305,-0.9641794562339783,0.41409170627593994,1.2440153360366821,0.01506828423589468,0.9122987985610962,0.06656748056411743,-0.20962081849575043,-0.07686731964349747,0.11463340371847153,0.8016708493232727,-0.4550478756427765,0.08444435149431229,-0.7524605393409729,-0.09975585341453552,-0.14362554252147675,0.6788357496261597,-0.34873878955841064,-0.00016316543042194098,0.11738120019435883,-0.03266199678182602,3.1906611919403076,0.028846215456724167,0.000692695495672524,-0.06094229966402054,-2.5554394721984863,-0.15334086120128632,-0.002762998454272747,0.02207529917359352,-0.22989602386951447,-0.17734624445438385,-0.6852869987487793,-0.8936025500297546,4.619287490844727,1.0050170421600342,0.7010777592658997,1.1205875873565674,0.6315810680389404,2.345492362976074,-2.133417844772339,-0.20091721415519714,0.5864638686180115,1741504851.2318282,1741504851153,-0.7368936767578125,0.052765953063964845,-0.22196548282213288,-6.36869140625,1.5085091552734375
1741504851.2069561,-3.4426920413970947,0.016937338149812242,-0.040791626118838055,-0.9990241087256002,0.1064666211605072,0.22456367313861847,0.04991905763745308,12.621272087097168,-2.2256360054016113,6.599518299102783,-0.02536773681640625,0.2622642517089844,0.1356145590543747,-1.2459226846694946,0.004386968910694122,-0.9637979865074158,0.361066609621048,1.2413450479507446,0.015449759550392628,0.9077210426330566,0.05092698708176613,-0.2618829607963562,-0.07801175117492676,0.07724879682064056,0.9454871416091919,-0.420204222202301,0.09425296634435654,-0.7310978770256042,-0.07000076025724411,-0.08144503086805344,0.7406347990036011,-0.3388785719871521,0.008559154346585274,-0.4024997651576996,-0.14649610221385956,3.4596550464630127,-0.07215641438961029,-0.037850938737392426,0.029685573652386665,-3.7844443321228027,-0.0858016237616539,0.042778417468070984,-0.24872253835201263,-0.7492837309837341,-3.059664726257324,-0.6665679216384888,-1.8374171257019043,7.300970077514648,1.9451110363006592,0.3589184284210205,0.5610048770904541,1.5885838270187378,3.157456159591675,2.8335609436035156,0.16073714196681976,0.3852512240409851,1741504851.2318282,1741504851153,-0.7368936767578125,0.052765953063964845,-0.22196548282213288,-6.36869140625,1.5085091552734375
1741504851.2269151,-3.4337124824523926,0.012894039357655703,-0.03707838400582013,-0.9992291715059965,-0.14914192259311676,-0.20349974930286407,0.42748892307281494,-8.413884162902832,7.541586399078369,16.536272048950195,-0.02079010009765625,0.2729454040527344,0.1958876997232437,-1.2409635782241821,0.004386968910694122,-0.9637979865074158,0.28439003229141235,1.2497375011444092,0.01583123579621315,0.9092469811439514,0.06046387553215027,-0.36297398805618286,-0.09861142933368683,0.03337911143898964,1.118677020072937,-0.37490588426589966,0.09095557034015656,-0.7223239541053772,-0.04596780240535736,-0.04100862145423889,0.7539864182472229,-0.34652990102767944,0.02166076749563217,0.24371632933616638,0.2469257414340973,3.100938558578491,0.359954833984375,-0.09536228328943253,-0.02128578908741474,-5.273548126220703,0.5133569836616516,0.008068504743278027,0.11923395842313766,0.5801498293876648,-4.91216516494751,-1.0053647756576538,-2.4117822647094727,8.780876159667969,2.1699178218841553,-0.4674820005893707,1.0184160470962524,1.160182237625122,1.708223581314087,0.39456185698509216,-0.2734221816062927,0.752491295337677,1741504851.2318282,1741504851153,-0.7368936767578125,0.052765953063964845,-0.22196548282213288,-6.36869140625,1.5085091552734375
1741504851.2469363,-3.420094132423401,0.013946104374749314,-0.02899575446462218,-0.9994822421613081,-0.4804587662220001,-0.0696825236082077,0.8503895998001099,2.6070003509521484,2.958324909210205,10.956908226013184,-0.01239776611328125,0.2805747985839844,0.25349050760269165,-1.2386746406555176,0.005912871100008488,-0.960746169090271,0.1997024416923523,1.2527892589569092,0.01506828423589468,0.9122987985610962,0.07381551712751389,-0.47589075565338135,-0.1180666834115982,-0.010109102353453636,1.283092975616455,-0.3564188480377197,0.028843490406870842,-0.6822690367698669,-0.042153049260377884,-0.03032730519771576,0.763523280620575,-0.3409228026866913,0.019337033852934837,0.1807466596364975,0.24102693796157837,2.9886345863342285,0.04332646727561951,0.13845115900039673,0.2333093136548996,-5.586010456085205,0.17524681985378265,-0.04237433522939682,0.13098354637622833,0.7483447194099426,-5.671163082122803,-1.0576751232147217,-1.7974449396133423,7.990548610687256,0.7678524255752563,-3.2349183559417725,1.6860249042510986,0.0062528131529688835,0.27236485481262207,0.46160459518432617,0.2777486741542816,-0.22500944137573242,1741504851.2318282,1741504851153,-0.7368936767578125,0.052765953063964845,-0.22196548282213288,-6.36869140625,1.5085091552734375
1741504851.2669773,-3.400424599647522,0.0041025054113831205,-0.018011522839823876,-0.999829362688624,-0.5048785209655762,-0.481815904378891,0.9771057963371277,-3.0765769481658936,3.972384452819824,11.381887435913086,-0.01926422119140625,0.2954530715942383,0.3061341345310211,-1.2424894571304321,0.004386968910694122,-0.955024003982544,0.12912946939468384,1.2546966075897217,0.015449759550392628,0.9122987985610962,0.09632257372140884,-0.5861371755599976,-0.12111848592758179,-0.01506828423589468,1.3895246982574463,-0.37924477458000183,0.014907105825841427,-0.6540398001670837,-0.0558861680328846,-0.03185320645570755,0.76276034116745,-0.340267539024353,0.017560023814439774,-0.15177114307880402,0.47806277871131897,2.5823183059692383,-0.32818603515625,-0.05099758878350258,0.3359833061695099,-4.598062515258789,-0.013524879701435566,0.008605465292930603,0.01983662322163582,1.1643508672714233,-5.396544456481934,0.19916366040706635,-0.08172079175710678,4.761565685272217,-1.4578959941864014,0.015325391665101051,1.5992261171340942,-0.6426256895065308,-0.10253709554672241,0.014539283700287342,0.020190125331282616,0.02446080930531025,1741504851.2318282,1741504851153,-0.7368936767578125,0.052765953063964845,-0.22196548282213288,-6.36869140625,1.5085091552734375
