Freshhhhh-LC/Legged_odom/data/3/segments/booster_seg_10.0s.csv
time,yaw,projected_gravity_x,projected_gravity_y,projected_gravity_z,ang_vel_x,ang_vel_y,ang_vel_z,lin_acc_x,lin_acc_y,lin_acc_z,q_0,q_1,q_2,q_3,q_4,q_5,q_6,q_7,q_8,q_9,q_10,q_11,q_12,q_13,q_14,q_15,q_16,q_17,q_18,q_19,q_20,q_21,q_22,dq_0,dq_1,dq_2,dq_3,dq_4,dq_5,dq_6,dq_7,dq_8,dq_9,dq_10,dq_11,dq_12,dq_13,dq_14,dq_15,dq_16,dq_17,dq_18,dq_19,dq_20,dq_21,dq_22,mocap_time,mocap_timestamp,robot_x,robot_y,robot_yaw,ball_x,ball_y
1741504919.836613,-3.9494407176971436,-0.025617313213453875,-0.05673125378666654,-0.9980607787642577,-0.1922888159751892,0.507106363773346,0.5775540471076965,0.29220467805862427,-2.8258917331695557,10.54604434967041,1.0049972534179688,0.8909358978271484,0.1810101419687271,-1.3542617559432983,0.005149920005351305,-0.5651560425758362,0.19016556441783905,1.3454878330230713,0.004005493130534887,0.5575265288352966,-0.3130006790161133,-0.5300602912902832,-0.0020981156267225742,0.2969787120819092,0.648699164390564,-0.16836784780025482,0.06059475243091583,-0.7127870321273804,-0.05207141116261482,0.23861294984817505,0.9210727214813232,-0.3020403981208801,0.0019211121834814548,0.15360766649246216,0.045305345207452774,0.015345662832260132,0.39648720622062683,-0.004382577259093523,0.05243344232439995,-0.2188071757555008,1.3026833534240723,0.04179290309548378,0.040098920464515686,0.611901044845581,-0.7918190360069275,-0.16011494398117065,-0.1364235281944275,-0.9326796531677246,0.3034556806087494,-0.02000793255865574,-2.2890493869781494,2.3424694538116455,1.236735463142395,4.685522556304932,-2.885674476623535,-1.1950392723083496,1741504919.8382719,1741504919673,-1.4174986572265624,0.18030734252929687,2.2117640975300623,-2.748571044921875,-0.43090142822265626
1741504919.838501,-3.9009883403778076,-0.00783581463436739,-0.02141085746492762,-0.9997400538098052,-0.4818882346153259,-0.20907644927501678,0.9284379482269287,-0.13386039435863495,6.6727986335754395,9.58980655670166,0.9767684936523438,0.8932247161865234,0.19130998849868774,-1.3401471376419067,0.005149920005351305,-0.5609598159790039,0.16117341816425323,1.3790576457977295,0.004005493130534887,0.5617227554321289,-0.230601966381073,-0.5743114352226257,-0.004386968910694122,0.230601966381073,0.6189440488815308,-0.15771564841270447,0.03792249411344528,-0.8539330363273621,0.09822995215654373,0.18673227727413177,1.2293049097061157,-0.3615707457065582,0.0017750191036611795,-0.3280406594276428,-0.0022494453005492687,0.2807273864746094,-0.0270167738199234,-0.02929704450070858,0.17098794877529144,-0.025610821321606636,-0.020312387496232986,-0.0025745234452188015,0.02666343003511429,1.2759490013122559,-0.9166539907455444,0.007579372730106115,0.10566580295562744,-0.622686505317688,0.015167872421443462,0.09595328569412231,0.5124215483665466,1.2608106136322021,-0.16586484014987946,-0.3083858788013458,0.5716557502746582,-0.007131492253392935,1741504919.8382719,1741504919673,-1.4174986572265624,0.18030734252929687,2.2117640975300623,-2.748571044921875,-0.43090142822265626
1741504919.840409,-2.37225741147995,0.013557855949414966,-0.09837558860846986,-0.9950569974167269,-0.37566906213760376,-0.5954418182373047,0.3869275748729706,-3.8021254539489746,-7.899533271789551,17.90451431274414,-0.11158180236816406,0.4488058090209961,0.3530556261539459,-1.2722445726394653,0.00476844422519207,-0.9313725233078003,-0.00858320016413927,1.218456506729126,0.004386968910694122,0.9340428709983826,-0.37899595499038696,-0.45834288001060486,0.07686731964349747,0.3728923499584198,0.8291370868682861,-0.5002392530441284,0.016982821747660637,-0.39768826961517334,-0.2157244235277176,0.4240100681781769,0.8558403849601746,-0.4833286702632904,0.001963307149708271,-0.7621889114379883,-0.0029040139634162188,-0.21084988117218018,0.4528456926345825,-0.0021359696984291077,-0.2829119861125946,-0.950318455696106,0.9748413562774658,0.07573236525058746,0.9280158877372742,1.0776315927505493,1.8952919244766235,-2.938875913619995,-1.033375859260559,-3.3567259311676025,0.8512595891952515,1.0405765771865845,-0.2788611054420471,1.8777629137039185,0.9634472727775574,5.673172473907471,0.012063655070960522,0.67448490858078,1741504919.8382719,1741504919673,-1.4174986572265624,0.18030734252929687,2.2117640975300623,-2.748571044921875,-0.43090142822265626
1741504919.8603866,-2.364231050014496,0.005172721790935666,-0.09090502496056577,-0.995846132385015,-0.3429405987262726,-0.2560577988624573,0.34256628155708313,-7.930488586425781,-5.836965084075928,13.93014907836914,-0.13179969787597656,0.4423208236694336,0.33665215969085693,-1.2611817121505737,0.005149920005351305,-0.9317540526390076,-0.005149920005351305,1.2428709268569946,0.005149920005351305,0.9477760195732117,-0.3595407009124756,-0.39616236090660095,0.031090257689356804,0.3377965986728668,0.7608529925346375,-0.4745995104312897,0.026126742362976074,-0.4373617172241211,-0.16155488789081573,0.41599908471107483,1.0095750093460083,-0.47944679856300354,0.01858687587082386,-0.5670700669288635,-0.1821545660495758,-1.047501564025879,0.6986972093582153,0.003198428312316537,-0.0019365428015589714,0.4542032480239868,1.6694344282150269,0.003395799780264497,0.856351375579834,1.0996198654174805,3.4336695671081543,-2.172912120819092,-1.7130049467086792,-3.413684368133545,1.3139550685882568,-0.19526530802249908,-2.2157583236694336,2.858786106109619,-0.6262146830558777,7.876251697540283,0.20999178290367126,0.28965505957603455,1741504919.8382719,1741504919673,-1.4174986572265624,0.18030734252929687,2.2117640975300623,-2.748571044921875,-0.43090142822265626
1741504919.880418,-2.3557960391044617,0.004886500182751849,-0.08188515150350532,-0.9966297928916293,-0.4957001209259033,-0.0762040764093399,0.4157448410987854,-5.845804214477539,-2.637443780899048,14.040143013000488,-0.14782142639160156,0.4320211410522461,0.29888609051704407,-1.2516448497772217,0.005149920005351305,-0.9298466444015503,0.013160906732082367,1.2627075910568237,0.005149920005351305,0.9569314122200012,-0.3419928252696991,-0.34695202112197876,-0.0020981156267225742,0.308041512966156,0.6776912808418274,-0.4542008936405182,0.028456026688218117,-0.5022125840187073,-0.0879301130771637,0.3873884081840515,1.181620478630066,-0.4739220142364502,-0.005240910686552525,-0.4983896315097809,-0.2815442383289337,-1.9955272674560547,0.6611249446868896,-0.0059385644271969795,0.09469280391931534,1.302811622619629,1.2277599573135376,0.020573819056153297,0.47292813658714294,0.964616060256958,2.103438138961792,-1.4529787302017212,-1.5190911293029785,-4.166255950927734,0.9184526801109314,0.43001651763916016,-3.6971476078033447,3.5173702239990234,-1.554649829864502,8.503226280212402,0.2778450846672058,-1.08285653591156,1741504919.8382719,1741504919673,-1.4174986572265624,0.18030734252929687,2.2117640975300623,-2.748571044921875,-0.43090142822265626
1741504919.9003744,-2.3418752551078796,0.011195321454780981,-0.07177401636194572,-0.9973580878264331,-0.50022953748703,0.511324942111969,0.7002972364425659,0.7719059586524963,-0.2321612685918808,8.894107818603516,-0.16727733612060547,0.4179067611694336,0.2447165697813034,-1.2421079874038696,0.00476844422519207,-0.9287022352218628,0.04634927958250046,1.2772036790847778,0.005149920005351305,0.962272047996521,-0.3084229826927185,-0.30384528636932373,-0.021553369238972664,0.26722362637519836,0.612840473651886,-0.4388616681098938,0.03361466899514198,-0.5838482975959778,-0.006294346414506435,0.3385595381259918,1.3323034048080444,-0.4705413281917572,0.0010882815113291144,-0.6033267974853516,-0.49107661843299866,-2.9249041080474854,0.5832438468933105,-0.016998201608657837,0.01787596382200718,2.348942518234253,0.9018378257751465,-0.00820630881935358,0.3312445282936096,1.8934334516525269,2.4654488563537598,-0.8440885543823242,-2.1176915168762207,-3.034029245376587,0.7764331102371216,-0.11140117049217224,-4.106815338134766,3.7798399925231934,-2.7179317474365234,7.459620475769043,0.18402431905269623,0.6664354801177979,1741504919.8382719,1741504919673,-1.4174986572265624,0.18030734252929687,2.2117640975300623,-2.748571044921875,-0.43090142822265626
1741504919.9204025,-2.3303738832473755,0.027930791699632446,-0.059692475195348836,-0.9978259764508461,-0.6378408074378967,0.8635702133178711,0.5356042981147766,4.720603942871094,-5.454367637634277,7.898029804229736,-0.18711376190185547,0.4030284881591797,0.18673227727413177,-1.23753023147583,0.005149920005351305,-0.9290837049484253,0.08449683338403702,1.2859776020050049,0.005531395319849253,0.9649423956871033,-0.2595941126346588,-0.2790493667125702,-0.02689402550458908,0.22220951318740845,0.5621042251586914,-0.43399113416671753,0.025169454514980316,-0.6723506450653076,0.06618601083755493,0.2603570520877838,1.4509422779083252,-0.47013184428215027,0.0011451549362391233,-0.6021071076393127,-0.4262775480747223,-2.6968209743499756,0.28938978910446167,-0.006017581559717655,0.007387279532849789,2.5662569999694824,0.5035360455513,0.04866757243871689,0.061466652899980545,2.5704495906829834,0.7689300179481506,-0.22266370058059692,-2.0873537063598633,-2.5377490520477295,0.0977374017238617,-0.2423909604549408,-4.536895275115967,3.485004186630249,-3.9208199977874756,5.39879035949707,0.005811196751892567,-0.2913825809955597,1741504919.8382719,1741504919673,-1.4174986572265624,0.18030734252929687,2.2117640975300623,-2.748571044921875,-0.43090142822265626
1741504919.9404862,-2.3214460611343384,0.04804155668779554,-0.04297496839624033,-0.9979204181308023,-0.8629121780395508,1.1248738765716553,0.33873605728149414,-0.039734963327646255,4.500308036804199,4.31663179397583,-0.21572399139404297,0.3946361541748047,0.135233074426651,-1.2321895360946655,0.004386968910694122,-0.9294651746749878,0.13027389347553253,1.2890294790267944,0.005531395319849253,0.961509108543396,-0.1974135935306549,-0.2603570520877838,-0.025749599561095238,0.18596932291984558,0.5312047004699707,-0.43695834279060364,0.024107707664370537,-0.7696269154548645,0.11692225188016891,0.18520638346672058,1.5047303438186646,-0.46685361862182617,-0.0021010173950344324,-0.8645107746124268,-0.27540192008018494,-2.5946593284606934,0.3733311593532562,-0.02052116021513939,-0.05729850381612778,3.15901780128479,0.18087893724441528,0.00496902409940958,-0.21666458249092102,3.152027130126953,1.0836938619613647,0.1384032815694809,-1.9191175699234009,-1.4242134094238281,-0.17009055614471436,-0.22147810459136963,-4.825308799743652,2.3755686283111572,-3.6274168491363525,2.279576063156128,0.22578758001327515,0.11819857358932495,1741504919.8382719,1741504919673,-1.4174986572265624,0.18030734252929687,2.2117640975300623,-2.748571044921875,-0.43090142822265626
1741504919.9605823,-2.3195741176605225,0.07120411794760746,-0.0285709455073767,-0.9970524934325763,-0.7188020944595337,1.061813235282898,0.06986182183027267,-0.9630716443061829,-0.4606020450592041,7.572756767272949,-0.22831344604492188,0.3950176239013672,0.08907453715801239,-1.2260860204696655,0.005149920005351305,-0.9294651746749878,0.1810101419687271,1.2844517230987549,0.005531395319849253,0.9576943516731262,-0.13790340721607208,-0.25463491678237915,-0.01888304017484188,0.15850308537483215,0.501068115234375,-0.44724777340888977,0.014908463694155216,-0.8661402463912964,0.1367589831352234,0.12607766687870026,1.5054932832717896,-0.45419740676879883,0.010578549467027187,-0.4348732829093933,-0.01773916929960251,-2.1948723793029785,0.36975178122520447,0.025869421660900116,0.030898353084921837,3.4350836277008057,-0.4400997459888458,0.004822767339646816,-0.25622081756591797,2.8861730098724365,0.05850809067487717,0.23255158960819244,-1.2209497690200806,-1.506411075592041,-0.6074333190917969,-0.28434479236602783,-4.884615421295166,0.6799424290657043,-2.7350099086761475,-0.3443310558795929,0.7719064354896545,0.6102761030197144,1741504920.0430644,1741504919773,-1.4043768310546876,0.09819400787353516,2.4632805471687265,-2.64069970703125,-0.45092297363281253
1741504919.98047,-2.3153119683265686,0.09023738388398353,-0.015146350609847516,-0.9958051027249147,-0.6516078114509583,1.032542109489441,0.18006765842437744,-0.7868770360946655,4.825590133666992,4.037632942199707,-0.24052047729492188,0.3953990936279297,0.050164032727479935,-1.223797082901001,0.00476844422519207,-0.9298466444015503,0.23861294984817505,1.2737704515457153,0.005149920005351305,0.9557870030403137,-0.09517814964056015,-0.2462424635887146,-0.02079041674733162,0.13981078565120697,0.482375830411911,-0.46071305871009827,0.023790143430233,-0.9630350470542908,0.12760357558727264,0.08449683338403702,1.4745937585830688,-0.42932286858558655,0.006910619325935841,-0.3855223059654236,0.02226078510284424,-1.9193893671035767,0.14197225868701935,-0.006376664619892836,-0.032714441418647766,3.8969974517822266,-0.6762433648109436,-0.02503112331032753,-0.07454165071249008,1.958234429359436,0.5928736925125122,-0.11575675755739212,-0.9326715469360352,-0.8232846856117249,-0.6295055747032166,0.29418325424194336,-4.639822959899902,-0.6015865206718445,-2.081639528274536,-1.617248296737671,1.304853081703186,-0.24580861628055573,1741504920.0430644,1741504919773,-1.4043768310546876,0.09819400787353516,2.4632805471687265,-2.64069970703125,-0.45092297363281253
1741504920.0004945,-2.308943748474121,0.10884196799014018,-0.009417022921374614,-0.9940144594940918,-0.29517117142677307,0.8303951025009155,0.32349807024002075,3.222160816192627,0.24227890372276306,7.06369686126709,-0.2538719177246094,0.4030284881591797,0.016975661739706993,-1.226467490196228,0.005531395319849253,-0.9298466444015503,0.30079346895217896,1.2596558332443237,0.004386968910694122,0.9557870030403137,-0.06542305648326874,-0.24242770671844482,-0.03147173300385475,0.11387044936418533,0.45910581946372986,-0.4676320254802704,0.01912473700940609,-1.058022379875183,0.09517814964056015,0.05207141116261482,1.437209129333496,-0.3953927159309387,0.00046874547842890024,-0.39224669337272644,0.2504332661628723,-1.7386622428894043,-0.32425081729888916,0.03207126259803772,-0.021543361246585846,4.063645839691162,-1.0331705808639526,-0.05649033933877945,-0.020404577255249023,1.4556350708007812,0.06392115354537964,-0.8532636761665344,-1.294710397720337,-1.318255066871643,-0.28539273142814636,-0.19124814867973328,-4.68973445892334,-1.8530827760696411,-1.502577781677246,-1.9636601209640503,1.7235667705535889,-0.2741380035877228,1741504920.0430644,1741504919773,-1.4043768310546876,0.09819400787353516,2.4632805471687265,-2.64069970703125,-0.45092297363281253
1741504920.0205145,-2.30139023065567,0.12026360295189774,-0.008492532065942702,-0.9927056677102922,-0.014939541928470135,0.5598409175872803,0.3398606777191162,-1.71206533908844,2.06636905670166,10.555768966674805,-0.2683677673339844,0.4198141098022461,-0.013923857361078262,-1.235241413116455,0.005149920005351305,-0.9306095838546753,0.3580147922039032,1.2436338663101196,0.004005493130534887,0.9554055333137512,-0.038719769567251205,-0.22640573978424072,-0.058175019919872284,0.07915617525577545,0.42515450716018677,-0.4647114872932434,0.02814161777496338,-1.1331731081008911,0.04711223021149635,0.016212711110711098,1.3876173496246338,-0.35996606945991516,0.002873113611713052,-0.44688695669174194,0.5218292474746704,-1.415570616722107,-0.5430341958999634,-0.026408102363348007,-0.06461192667484283,3.7464261054992676,-1.0511232614517212,-0.007161077577620745,-0.03438133746385574,1.2983973026275635,1.276789665222168,-1.2318733930587769,-1.8228832483291626,-1.7412657737731934,0.253130704164505,0.5178014636039734,-3.455885887145996,-2.5434956550598145,-2.072934865951538,-2.5858917236328125,1.6759893894195557,0.02375698834657669,1741504920.0430644,1741504919773,-1.4043768310546876,0.09819400787353516,2.4632805471687265,-2.64069970703125,-0.45092297363281253
1741504920.040554,-2.298701286315918,0.12979654760834278,-0.013715901092532942,-0.9914457777842292,0.2635207176208496,0.4093519449234009,0.15901826322078705,2.1374595165252686,-1.7517986297607422,14.397229194641113,-0.2725639343261719,0.4293508529663086,-0.02841992862522602,-1.2409635782241821,0.005149920005351305,-0.9313725233078003,0.4015030264854431,1.2291377782821655,0.004005493130534887,0.955024003982544,-0.016212711110711098,-0.1806286722421646,-0.08106355369091034,0.04901960864663124,0.3767071068286896,-0.45263344049453735,0.0370299406349659,-1.1575875282287598,-0.020027466118335724,-0.03604944050312042,1.3075073957443237,-0.33521318435668945,-0.002007952891290188,-0.14394459128379822,0.32918599247932434,-0.5252602696418762,-0.37394702434539795,-0.005787652451545,-0.004565638490021229,2.751046895980835,-0.8948854804039001,0.0018081030575558543,-0.06823938339948654,1.181565523147583,2.2501375675201416,-1.0782973766326904,-1.327662706375122,-2.6930992603302,0.5906875729560852,0.40854358673095703,-0.8423619866371155,-3.6228997707366943,-2.405726194381714,-4.1644368171691895,1.1176323890686035,-0.28761786222457886,1741504920.0430644,1741504919773,-1.4043768310546876,0.09819400787353516,2.4632805471687265,-2.64069970703125,-0.45092297363281253
1741504920.0605497,-2.297702670097351,0.13124289195852917,-0.018037596787362824,-0.991186132072326,0.1500733494758606,0.03559781238436699,-0.012803750112652779,0.16227397322654724,-1.697705864906311,9.068939208984375,-0.2836275100708008,0.4545278549194336,-0.024605173617601395,-1.2451597452163696,0.005149920005351305,-0.9298466444015503,0.44308385252952576,1.223797082901001,0.004386968910694122,0.9424353241920471,0.01583123579621315,-0.10624094307422638,-0.09632257372140884,0.029564354568719864,0.3217746317386627,-0.4330606460571289,0.053487420082092285,-1.1449989080429077,-0.09060044586658478,-0.08907453715801239,1.1812390089035034,-0.32775506377220154,-0.005777204409241676,-0.29937607049942017,0.6970798969268799,0.26578328013420105,-0.16924786567687988,-0.01639922708272934,0.027157055214047432,2.9222161769866943,-0.1623399406671524,0.026559891179203987,-0.9245801568031311,1.609832763671875,3.7134828567504883,-0.7345008850097656,-0.842470645904541,-2.7478392124176025,1.066766381263733,0.7162821292877197,1.252877950668335,-3.4010963439941406,-2.7841312885284424,-6.716598987579346,0.1588529646396637,-0.1394052803516388,1741504920.0455148,1741504919973,-1.4494854736328124,-0.07859282684326171,-2.4760773646248473,-2.476271240234375,-0.5005274963378906
1741504920.080574,-2.30061411857605,0.12304932961809822,-0.01926371854624061,-0.9922135715803869,0.05436462163925171,-0.5291622281074524,-0.06076185032725334,1.6867035627365112,-1.0432530641555786,3.2121999263763428,-0.2950716018676758,0.4884796142578125,-0.009346150793135166,-1.2436338663101196,0.005149920005351305,-0.9302281141281128,0.4701686203479767,1.224941611289978,0.004386968910694122,0.9275577664375305,0.04253452271223068,-0.028038453310728073,-0.11310750246047974,0.03147173300385475,0.273708701133728,-0.40608492493629456,0.07914985716342926,-1.0786221027374268,-0.12531471252441406,-0.14782176911830902,1.0160601139068604,-0.34488165378570557,-0.0039034488145262003,-0.3400343656539917,1.0374386310577393,0.8993685245513916,0.06216266006231308,0.029275959357619286,-0.010966341942548752,1.528935194015503,0.04757405444979668,0.02280461974442005,-0.9691479802131653,1.236855149269104,4.003681659698486,-0.9200692176818848,0.5272060632705688,-2.017399549484253,1.4288098812103271,1.439469814300537,3.6423816680908203,-1.4516940116882324,-2.8975179195404053,-8.313728332519531,-1.07728111743927,0.03137095645070076,1741504920.0455148,1741504919973,-1.4494854736328124,-0.07859282684326171,-2.4760773646248473,-2.476271240234375,-0.5005274963378906
1741504920.1010363,-2.3034268617630005,0.10735078411146066,-0.017906701774747093,-0.9940599374193716,-0.012487777508795261,-0.79562908411026,-0.0753643587231636,0.635231077671051,2.0587446689605713,1.473490834236145,-0.3007936477661133,0.5079345703125,0.02040894143283367,-1.2409635782241821,0.005149920005351305,-0.9290837049484253,0.47703516483306885,1.227993369102478,0.004005493130534887,0.9153505563735962,0.061226826161146164,0.023079270496964455,-0.1489662081003189,0.05970092490315437,0.30384528636932373,-0.3810611963272095,0.1052812710404396,-0.9740977883338928,-0.14171816408634186,-0.15583276748657227,0.8268482685089111,-0.3932637870311737,-0.00413643941283226,-0.1996796876192093,0.6024811863899231,1.5642001628875732,0.16899605095386505,0.002175459871068597,0.0755133405327797,0.2557556629180908,0.19443392753601074,-0.0033130510710179806,-0.752141535282135,0.9819603562355042,1.9632641077041626,-1.9760972261428833,1.5580686330795288,2.2992396354675293,1.1163383722305298,1.2519714832305908,5.316769123077393,-0.8660493493080139,0.34163790941238403,-9.122200965881348,-2.5465691089630127,0.18177631497383118,1741504920.1455052,1741504920073,-1.4974539794921875,-0.16504930114746094,2.9361852817623335,-2.3985380859375,-0.5259597778320313
1741504920.121078,-2.2969290614128113,0.08800333452883664,-0.028261417609890854,-0.9957191900262268,0.684297502040863,-0.9534875750541687,0.48904237151145935,-17.953088760375977,31.335933685302734,45.868621826171875,-0.2943086624145508,0.522430419921875,0.04787518084049225,-1.2432523965835571,0.005149920005351305,-0.925650417804718,0.4732204079627991,1.23295259475708,0.004005493130534887,0.9061951637268066,0.08030059933662415,-0.0020981156267225742,-0.16918440163135529,0.09784847497940063,0.44499123096466064,-0.37244170904159546,0.12381672859191895,-0.8745326995849609,-0.15468832850456238,-0.09517814964056015,0.6830319762229919,-0.41750702261924744,0.029231997206807137,0.14077088236808777,0.5235501527786255,1.178520917892456,-0.24842581152915955,0.011465237475931644,0.15582579374313354,-0.35565271973609924,0.27753859758377075,-0.028567612171173096,-0.5074703097343445,1.0621767044067383,-1.6515259742736816,-0.7333943843841553,1.9212177991867065,8.220683097839355,0.4158298671245575,0.8038854598999023,4.755760192871094,-0.6297433972358704,3.2348103523254395,-6.107165813446045,-0.0025309910997748375,2.592012882232666,1741504920.1455052,1741504920073,-1.4974539794921875,-0.16504930114746094,2.9361852817623335,-2.3985380859375,-0.5259597778320313
1741504920.1411126,-2.291366398334503,0.0784186396343809,-0.045837387108466104,-0.9958661812216347,0.6684226989746094,-0.42391860485076904,0.2270830273628235,-0.994856595993042,-6.790253639221191,5.652385711669922,-0.3072786331176758,0.5495157241821289,0.06580453366041183,-1.2615631818771362,0.005149920005351305,-0.9267948269844055,0.44537270069122314,1.23295259475708,0.004005493130534887,0.8894102573394775,0.09174486994743347,-0.10852979123592377,-0.17872129380702972,0.13027389347553253,0.6845578551292419,-0.3489197790622711,0.13760635256767273,-0.8455405235290527,-0.13752193748950958,-0.03757534176111221,0.7375829815864563,-0.3431461751461029,0.11474212259054184,-0.3930606544017792,0.9773143529891968,1.1180987358093262,-1.1972547769546509,-0.022812416777014732,-0.09683187305927277,-2.31876802444458,-0.026088153943419456,0.1584671586751938,-1.1979210376739502,0.6114932894706726,-5.960111141204834,-1.1192517280578613,1.3516513109207153,12.544281005859375,1.6311355829238892,0.5222650766372681,0.8156636357307434,0.1753789186477661,3.0780792236328125,2.755510091781616,3.8023734092712402,3.9121904373168945,1741504920.1455052,1741504920073,-1.4974539794921875,-0.16504930114746094,2.9361852817623335,-2.3985380859375,-0.5259597778320313
1741504920.1611075,-2.282387673854828,0.0664076201104441,-0.053028605880083235,-0.9963824541558737,0.3900897800922394,-0.568795382976532,0.4489462375640869,-7.024189472198486,7.464279651641846,4.222403526306152,-0.3328371047973633,0.5754556655883789,0.09517814964056015,-1.2661409378051758,0.004386968910694122,-0.926413357257843,0.37975889444351196,1.2333340644836426,0.005912871100008488,0.882543683052063,0.13904783129692078,-0.26836803555488586,-0.21648737788200378,0.10471503436565399,0.9645609259605408,-0.2948943078517914,0.1427827775478363,-0.8024337887763977,-0.152399480342865,0.032616160809993744,0.7421606779098511,-0.2875020205974579,0.12255223095417023,-0.6597871780395508,0.8218503594398499,1.415165901184082,-0.15273134410381317,-0.07357373833656311,0.029110364615917206,-4.698002338409424,0.039862968027591705,0.08055165410041809,-0.2882578670978546,2.877074718475342,-8.028266906738281,-2.008232831954956,-1.842405915260315,13.98942756652832,2.6792404651641846,0.017342377454042435,2.8307511806488037,-0.07480420917272568,2.8882052898406982,-0.6695057153701782,2.521090269088745,-0.19081048667430878,1741504920.1455052,1741504920073,-1.4974539794921875,-0.16504930114746094,2.9361852817623335,-2.3985380859375,-0.5259597778320313
1741504920.1813452,-2.275965452194214,0.0587547402307817,-0.06497380914883531,-0.9961557531958063,0.4553798735141754,-0.34747371077537537,0.38232821226119995,2.743363380432129,-11.974289894104004,14.45138168334961,-0.3336000442504883,0.6139850616455078,0.1325627565383911,-1.2703371047973633,0.005149920005351305,-0.9275577664375305,0.2927824854850769,1.2333340644836426,0.0032425422687083483,0.8836880922317505,0.20885786414146423,-0.4335469603538513,-0.2473868876695633,0.03757534176111221,1.2167162895202637,-0.24846048653125763,0.11763247847557068,-0.7150759100914001,-0.15964750945568085,0.058175019919872284,0.7032501697540283,-0.2463867962360382,0.07820676267147064,-0.09080183506011963,1.2447679042816162,1.9460997581481934,-0.40931615233421326,0.01841362938284874,-0.09513279050588608,-5.872851371765137,0.005944003351032734,-0.17405401170253754,-0.03031432442367077,3.465726613998413,-7.985067367553711,-1.5015528202056885,-3.40836238861084,12.01669979095459,1.9243298768997192,-1.9352926015853882,4.19418478012085,-0.7738133668899536,1.4565130472183228,-1.4968864917755127,2.2811286449432373,-1.8027952909469604,1741504920.1455052,1741504920073,-1.4974539794921875,-0.16504930114746094,2.9361852817623335,-2.3985380859375,-0.5259597778320313
1741504920.2011266,-2.2555823922157288,0.040762858292623085,-0.0571917025624096,-0.9975307005510299,-0.5167266726493835,-0.9069769978523254,1.0254243612289429,3.717101573944092,9.807112693786621,11.26839542388916,-0.3759441375732422,0.6765470504760742,0.1657511293888092,-1.2688112258911133,0.004386968910694122,-0.924887478351593,0.20733195543289185,1.2379117012023926,0.004005493130534887,0.8775845170021057,0.272945761680603,-0.5899519324302673,-0.3057526648044586,0.007438773289322853,1.3841840028762817,-0.23630106449127197,0.041552044451236725,-0.6609063744544983,-0.16422522068023682,0.07648584991693497,0.7047760486602783,-0.1999215930700302,0.07655446231365204,-1.2492249011993408,1.9903314113616943,1.732586145401001,0.22565510869026184,-0.04853834956884384,0.15420721471309662,-5.606492519378662,0.4822703003883362,0.06159958988428116,-0.3865501284599304,3.1606130599975586,-7.502106666564941,-2.5115785598754883,-1.4044493436813354,7.3705525398254395,0.3083608150482178,-3.39385986328125,2.663336992263794,-0.30950871109962463,0.6473891735076904,0.10389188677072525,2.04182767868042,0.0300345029681921,1741504920.247882,1741504920173,-1.511690673828125,-0.23326087951660157,2.186376947349419,-2.3243508300781253,-0.5516244506835938
1741504920.2211392,-2.239634156227112,0.02123161860450073,-0.05050936862542125,-0.9984978828482785,-0.27437707781791687,-0.8521056175231934,0.7862883806228638,-1.4513440132141113,0.2680738568305969,10.593664169311523,-0.3786144256591797,0.7181272506713867,0.20618753135204315,-1.2630890607833862,0.00476844422519207,-0.916876494884491,0.1333257108926773,1.2524077892303467,0.004386968910694122,0.8703364729881287,0.31910428404808044,-0.7051575779914856,-0.31605249643325806,-0.009346150793135166,1.4425498247146606,-0.27027228474617004,0.033060040324926376,-0.6055924296379089,-0.1676585078239441,0.08258945494890213,0.7066834568977356,-0.18924853205680847,0.0692446231842041,-0.17117437720298767,1.24686861038208,2.128654718399048,0.2928456962108612,-0.027109023183584213,0.4682174623012543,-4.76578950881958,0.9276672005653381,0.013491658493876457,-0.45995137095451355,2.1175074577331543,-5.482115745544434,-0.3336154520511627,-0.7947550415992737,2.048275947570801,-1.9803948402404785,-0.13145236670970917,2.725024938583374,-0.07537172734737396,0.34082984924316406,0.08612363785505295,0.17993669211864471,-0.42448970675468445,1741504920.247882,1741504920173,-1.511690673828125,-0.23326087951660157,2.186376947349419,-2.3243508300781253,-0.5516244506835938
1741504920.2422502,-2.2291895151138306,0.010306173085899128,-0.043306976915328595,-0.9990086528888419,-0.43499112129211426,-0.5089930295944214,0.4383009076118469,-9.875068664550781,-2.9619927406311035,10.945801734924316,-0.3877696990966797,0.7440681457519531,0.25577935576438904,-1.2646150588989258,0.005149920005351305,-0.9000915288925171,0.071908138692379,1.2585114240646362,0.004005493130534887,0.8619440197944641,0.3385595381259918,-0.7810711860656738,-0.30155640840530396,-0.04177157208323479,1.4063096046447754,-0.3297007977962494,0.027609575539827347,-0.5884260535240173,-0.16422522068023682,0.09479667246341705,0.7223239541053772,-0.21924957633018494,0.07434999942779541,-0.3153762221336365,0.8068222403526306,2.4578192234039307,-0.12645843625068665,0.00827721692621708,0.9107885956764221,-4.006251335144043,0.3452719748020172,-0.006502850446850061,-0.6427539587020874,0.8757247924804688,-3.5501391887664795,0.8014968037605286,-1.8777425289154053,-2.367767333984375,-3.020031213760376,-0.34266817569732666,0.4799848198890686,0.27348044514656067,0.7143526673316956,1.1540958881378174,-1.7368966341018677,0.5077077746391296,1741504920.247882,1741504920173,-1.511690673828125,-0.23326087951660157,2.186376947349419,-2.3243508300781253,-0.5516244506835938
1741504920.261208,-2.2323780059814453,0.015784362473241345,-0.02764906704004588,-0.9994930630040052,-0.7225722670555115,0.2867809236049652,-0.21695607900619507,4.965332984924316,3.66805362701416,2.265993356704712,-0.4106588363647461,0.7421607971191406,0.30460822582244873,-1.2653779983520508,0.00476844422519207,-0.8783474564552307,0.010872052982449532,1.2749148607254028,0.00476844422519207,0.8543145060539246,0.34580758213996887,-0.8447775840759277,-0.26989394426345825,-0.10814831405878067,1.3113222122192383,-0.38165903091430664,-0.004401901736855507,-0.5971999764442444,-0.15621423721313477,0.11120012402534485,0.7738231420516968,-0.26741692423820496,0.08237283676862717,-0.7185543179512024,-0.030514920130372047,2.342588424682617,-0.018029168248176575,0.03116508573293686,1.1373158693313599,-4.355827808380127,1.2753243446350098,0.06104911491274834,-0.43835440278053284,0.33446064591407776,-3.2372820377349854,1.7630054950714111,-3.913355588912964,-5.213901996612549,-2.3462421894073486,-1.814802646636963,-0.6720839142799377,0.3784082531929016,0.7124696969985962,2.629481792449951,-2.432190179824829,0.1267583966255188,1741504920.247882,1741504920173,-1.511690673828125,-0.23326087951660157,2.186376947349419,-2.3243508300781253,-0.5516244506835938
1741504920.2811987,-2.241991639137268,0.03071472823724266,-0.014774514981466246,-0.9994189908023434,-0.6493326425552368,0.771435558795929,-0.5950972437858582,2.13037371635437,3.8471906185150146,1.382857084274292,-0.4118032455444336,0.7291908264160156,0.34504464268684387,-1.2653779983520508,0.00476844422519207,-0.8573662638664246,-0.05741206929087639,1.2855961322784424,0.00476844422519207,0.8600366115570068,0.34618905186653137,-0.881780743598938,-0.22182802855968475,-0.18787670135498047,1.1781872510910034,-0.4031534194946289,-0.01623915135860443,-0.6319142580032349,-0.15697719156742096,0.1180666834115982,0.8390554785728455,-0.3150295317173004,0.06734609603881836,-0.0819595456123352,-0.42775192856788635,1.8847023248672485,-0.010074971243739128,-0.017547497525811195,0.947639524936676,-4.413932800292969,0.47750553488731384,-0.01100044883787632,0.518147349357605,-0.006994521711021662,-1.5487210750579834,2.6437134742736816,-4.6590681076049805,-6.997074604034424,-0.8341345191001892,-0.15400581061840057,-1.911116361618042,-0.0724758505821228,0.3740752041339874,3.529982089996338,-2.396784543991089,-0.9784352779388428,1741504920.247882,1741504920173,-1.511690673828125,-0.23326087951660157,2.186376947349419,-2.3243508300781253,-0.5516244506835938
1741504920.3012257,-2.2618985772132874,0.04577225659630536,-0.004958215493953475,-0.9989395960843666,-0.42920202016830444,0.7159979939460754,-1.0302438735961914,0.4614282250404358,-1.3625448942184448,-0.0045799077488482,-0.4053173065185547,0.7242317199707031,0.38242924213409424,-1.2672853469848633,0.005149920005351305,-0.841725766658783,-0.11120012402534485,1.2821629047393799,0.004386968910694122,0.8707179427146912,0.32978561520576477,-0.8741512298583984,-0.1489662081003189,-0.23937590420246124,1.0030899047851562,-0.4047865569591522,0.00210845866240561,-0.6944762468338013,-0.14019227027893066,0.11043716967105865,0.9279392957687378,-0.35850733518600464,0.03750934451818466,0.20552213490009308,-0.1888202577829361,2.0376079082489014,-0.2154419720172882,-0.033275749534368515,0.8037531971931458,-3.356029987335205,-0.2664055824279785,0.005552018992602825,0.6645358800888062,-1.0410170555114746,0.7755432724952698,3.6921894550323486,-1.9195727109909058,-9.333568572998047,-0.03314359486103058,0.7702205777168274,-3.2457656860351562,1.155098557472229,-0.7347187995910645,4.660824298858643,-2.1457414627075195,-1.5332891941070557,1741504920.3502545,1741504920273,-1.532364990234375,-0.3390669860839844,-2.8990259921982635,-2.25244091796875,-0.574763427734375
1741504920.321249,-2.282209277153015,0.05234468152962729,0.0007519649215665496,-0.9986287943296641,-0.178320974111557,0.06479091942310333,-0.9799878001213074,-41.20488739013672,-13.183443069458008,26.16498565673828,-0.4007396697998047,0.7452125549316406,0.43125811219215393,-1.2730075120925903,0.005149920005351305,-0.8176928162574768,-0.13866636157035828,1.2775851488113403,0.00476844422519207,0.8775845170021057,0.28667888045310974,-0.8428702354431152,-0.045204851776361465,-0.19321736693382263,0.8985656499862671,-0.33091479539871216,-0.10113026946783066,-0.7593270540237427,-0.13904783129692078,0.09517814964056015,1.029411792755127,-0.3996470868587494,0.0019284419249743223,0.09356191009283066,0.40772414207458496,2.3891611099243164,-0.3115690052509308,0.00014931909390725195,1.3616186380386353,-1.5353816747665405,-0.30744826793670654,0.037764690816402435,0.32239729166030884,-2.0729899406433105,1.609942078590393,5.620848655700684,4.37638521194458,-1.4733142852783203,5.179572582244873,-6.469645023345947,-3.1076297760009766,-1.0161385536193848,-0.6619325876235962,5.073511600494385,-1.9993318319320679,-1.7991243600845337,1741504920.3502545,1741504920273,-1.532364990234375,-0.3390669860839844,-2.8990259921982635,-2.25244091796875,-0.574763427734375
1741504920.3412828,-2.2863610982894897,0.06223845125020842,-0.008994789411006282,-0.9980207758105175,0.6485928297042847,0.4231630265712738,-0.2630136013031006,15.622217178344727,-5.987466335296631,16.708803176879883,-0.3908214569091797,0.7726783752441406,0.44651713967323303,-1.2722445726394653,0.005149920005351305,-0.7944228053092957,-0.13027389347553253,1.2768222093582153,0.0009536888683214784,0.8745326995849609,0.2626459002494812,-0.8421072959899902,-0.024986648932099342,-0.12874799966812134,0.9382390975952148,-0.22984914481639862,-0.12858106195926666,-0.7944228053092957,-0.12760357558727264,0.05397878959774971,1.0740443468093872,-0.43112775683403015,-0.00445074588060379,0.2966100573539734,0.7346681952476501,0.30678805708885193,-0.03494055196642876,-0.05513656139373779,0.8930646777153015,0.9803596138954163,-0.05346919596195221,-0.1986679583787918,-0.2565978169441223,-1.3236582279205322,-0.29088571667671204,1.0442756414413452,2.022327423095703,0.8669887185096741,4.320101261138916,-0.08092303574085236,-2.0758273601531982,1.0565146207809448,-2.4852638244628906,1.7807376384735107,-1.4599133729934692,0.11489970237016678,1741504920.3502545,1741504920273,-1.532364990234375,-0.3390669860839844,-2.8990259921982635,-2.25244091796875,-0.574763427734375
1741504920.3613303,-2.2910317182540894,0.06734473018316875,-0.024031669540185385,-0.9974403070738959,0.5613101720809937,0.5635655522346497,-0.09588726609945297,7.920383453369141,6.875123500823975,14.704488754272461,-0.3927288055419922,0.784886360168457,0.41447317600250244,-1.2821629047393799,0.005149920005351305,-0.7867932915687561,-0.1035706102848053,1.2791110277175903,0.0024795911740511656,0.8634698987007141,0.2500572204589844,-0.7963302135467529,-0.006294346414506435,-0.11615930497646332,0.951972246170044,-0.2235577404499054,-0.051628898829221725,-0.8073930144309998,-0.14324407279491425,0.008964675478637218,1.0744259357452393,-0.44077304005622864,0.009619642049074173,-0.13366779685020447,0.35924842953681946,-1.8645234107971191,-0.5201273560523987,-0.005584241356700659,0.39113399386405945,1.6242252588272095,0.48060286045074463,0.07515626400709152,-0.7493405938148499,-0.12181022763252258,2.6663076877593994,0.10973663628101349,0.7871349453926086,0.7028787732124329,-0.397600919008255,4.156122207641602,-0.12243279814720154,-0.5493435859680176,-2.351011037826538,-0.08813895285129547,-0.22827351093292236,0.4436962604522705,1741504920.3502545,1741504920273,-1.532364990234375,-0.3390669860839844,-2.8990259921982635,-2.25244091796875,-0.574763427734375
1741504920.381291,-2.306845247745514,0.07348233880742902,-0.03711715272018743,-0.9966055703523518,0.7146544456481934,0.21246634423732758,-0.8746628761291504,-4.600258827209473,-1.2721375226974487,8.168472290039062,-0.3801403045654297,0.806248664855957,0.36488136649131775,-1.2813999652862549,0.005149920005351305,-0.7829785346984863,-0.06809338182210922,1.298184871673584,0.005531395319849253,0.8455405235290527,0.2790493667125702,-0.76276034116745,-0.019645990803837776,-0.10662241280078888,0.9260318875312805,-0.2773072421550751,-0.02042974904179573,-0.8081559538841248,-0.1337071806192398,-0.06694895774126053,1.0313191413879395,-0.42725658416748047,0.004633013159036636,0.49704739451408386,0.6162604689598083,-2.438504934310913,0.08636458963155746,-0.006834518164396286,0.22960004210472107,2.593153476715088,1.183213472366333,0.23223339021205902,-1.302755355834961,1.6265872716903687,1.955812931060791,-0.6040852665901184,0.3038673996925354,-1.4195339679718018,-2.805600166320801,1.0805500745773315,-0.07025027275085449,0.4644748866558075,-3.784360408782959,-2.893510341644287,0.7903876900672913,-0.12233587354421616,1741504920.3502545,1741504920273,-1.532364990234375,-0.3390669860839844,-2.8990259921982635,-2.25244091796875,-0.574763427734375
1741504920.4013314,-2.3281343579292297,0.08435501485338805,-0.04626132890068249,-0.9953613016977442,0.4688650369644165,0.6303920149803162,-1.0723518133163452,14.599695205688477,1.283442735671997,0.032680463045835495,-0.3923473358154297,0.805485725402832,0.33016708493232727,-1.2802555561065674,0.004386968910694122,-0.775730550289154,-0.02231631986796856,1.3130624294281006,0.006294346414506435,0.8257037997245789,0.31681543588638306,-0.6979095339775085,-0.023460745811462402,-0.12493324279785156,0.8859769701957703,-0.34015458822250366,-0.02806401625275612,-0.7825970649719238,-0.10738536715507507,-0.10814831405878067,0.9641794562339783,-0.3933130204677582,0.002647459041327238,-0.31432783603668213,0.06060789152979851,-1.744234561920166,0.09466642886400223,-0.011722761206328869,0.33914318680763245,3.1374332904815674,0.9416112303733826,-0.0018039869610220194,-1.2945531606674194,1.9003880023956299,3.304896354675293,-0.21976929903030396,-0.9058405160903931,-2.1095070838928223,-3.0338938236236572,-0.3982529044151306,1.5000879764556885,1.5051623582839966,-1.891845464706421,-3.2180395126342773,1.8685333728790283,-0.054298222064971924,1741504920.3502545,1741504920273,-1.532364990234375,-0.3390669860839844,-2.8990259921982635,-2.25244091796875,-0.574763427734375
1741504920.4213295,-2.3530668020248413,0.08376386948005772,-0.047555877469703765,-0.995350216098743,0.15070025622844696,-0.2291150689125061,-1.1763699054718018,-1.3618550300598145,0.8160977959632874,10.202874183654785,-0.3904399871826172,0.830662727355957,0.290875107049942,-1.2764407396316528,0.00476844422519207,-0.7696269154548645,0.03185320645570755,1.3214548826217651,0.00667582219466567,0.804341197013855,0.36449989676475525,-0.6460288166999817,-0.027656977996230125,-0.13981078565120697,0.8535515666007996,-0.38121166825294495,-0.03267408907413483,-0.7631418108940125,-0.0711451917886734,-0.12493324279785156,0.9302281141281128,-0.3424057364463806,-0.013250238262116909,0.046832628548145294,0.8212892413139343,-1.96375572681427,0.27434948086738586,0.0008437038050033152,0.3576670289039612,3.698154926300049,0.4311431646347046,0.010019209235906601,-1.4908331632614136,2.505282163619995,2.3390955924987793,-0.24342598021030426,-0.7978082299232483,-1.3040354251861572,-1.7752524614334106,0.0817098468542099,1.0326895713806152,1.6807829141616821,-0.6096280217170715,-1.2976257801055908,2.462636947631836,-0.7455629706382751,1741504920.452622,1741504920373,-1.5936217041015626,-0.4180477600097656,2.7352607054115614,-2.181320068359375,-0.5942919311523438
1741504920.4413588,-2.375409781932831,0.07958629918703373,-0.04621700390125137,-0.9957559989937814,0.013865027576684952,-0.17041277885437012,-1.11558198928833,0.6012076735496521,0.37201136350631714,5.31927490234375,-0.3976879119873047,0.8394365310668945,0.24357213079929352,-1.2733889818191528,0.00476844422519207,-0.7593270540237427,0.09708552807569504,1.3248881101608276,0.005912871100008488,0.7810711860656738,0.4076066315174103,-0.5949110984802246,-0.02689402550458908,-0.16956588625907898,0.840199887752533,-0.3903373181819916,-0.031017422676086426,-0.7429236173629761,-0.06694895774126053,-0.14362554252147675,0.9481574892997742,-0.29807838797569275,-0.026863019913434982,-0.19311504065990448,0.22294484078884125,-2.393394708633423,0.18743956089019775,0.0172664076089859,0.4790653884410858,4.343306541442871,0.18487313389778137,-0.017671287059783936,-1.5424222946166992,1.955593466758728,2.804936170578003,-0.024816889315843582,-1.5252532958984375,-0.8053632378578186,-0.20893141627311707,-0.015550440177321434,0.8874592185020447,-0.029413046315312386,-1.2910350561141968,1.4193257093429565,2.0593907833099365,-0.4679836630821228,1741504920.452622,1741504920373,-1.5936217041015626,-0.4180477600097656,2.7352607054115614,-2.181320068359375,-0.5942919311523438
1741504920.4614232,-2.39347380399704,0.07353108982392488,-0.043643717766446384,-0.9963374953944214,-0.08344477415084839,-0.4223603904247284,-0.8598724603652954,-3.5874171257019043,-5.2883501052856445,9.987604141235352,-0.3995952606201172,0.8493556976318359,0.19092851877212524,-1.2684297561645508,0.00476844422519207,-0.7467383742332458,0.164988175034523,1.3214548826217651,0.006294346414506435,0.7562752962112427,0.43087664246559143,-0.5422675013542175,-0.028038453310728073,-0.1813916265964508,0.8096818327903748,-0.38336849212646484,-0.042591821402311325,-0.7539864182472229,-0.09441519528627396,-0.1848248988389969,1.029411792755127,-0.27593663334846497,-0.01719430461525917,-0.06479021161794662,0.29352521896362305,-2.6598474979400635,0.3704970180988312,0.009568274021148682,0.6847321391105652,4.458255767822266,-0.26600193977355957,0.003779246471822262,-1.6204373836517334,1.0769466161727905,2.5759291648864746,-0.025023341178894043,-0.2729733884334564,-1.5810986757278442,0.3299048840999603,-0.5878934860229492,-0.8577830195426941,-1.7304813861846924,-2.0481231212615967,4.4598212242126465,0.8365734815597534,0.7597432136535645,1741504920.452622,1741504920373,-1.5936217041015626,-0.4180477600097656,2.7352607054115614,-2.181320068359375,-0.5942919311523438
1741504920.4813876,-2.4107779264450073,0.07474652388454422,-0.04366379415652066,-0.9962461695018126,0.20197562873363495,0.1843212991952896,-0.8615491390228271,-5.431833267211914,-0.6686850786209106,11.372212409973145,-0.3999767303466797,0.843632698059082,0.14209964871406555,-1.2592743635177612,0.00476844422519207,-0.7291905283927917,0.22526131570339203,1.3203104734420776,0.005912871100008488,0.7318608164787292,0.4331654906272888,-0.49382010102272034,-0.023460745811462402,-0.17414358258247375,0.7887006998062134,-0.3804314434528351,-0.05186786502599716,-0.7917525172233582,-0.14591439068317413,-0.212672621011734,1.1457618474960327,-0.2850440740585327,0.0011543931905180216,-0.02500724419951439,-0.13201451301574707,-2.3803536891937256,0.6093710660934448,-0.026721643283963203,0.9417589902877808,3.8958241939544678,-0.06356104463338852,-0.0032088356092572212,-1.5426206588745117,-0.07181667536497116,2.339155912399292,0.30358585715293884,0.3263095021247864,-0.9500627517700195,0.09450436383485794,-0.43423718214035034,-2.078803300857544,-2.6825127601623535,-1.3414864540100098,5.936995983123779,-0.6813212633132935,0.7192620635032654,1741504920.452622,1741504920373,-1.5936217041015626,-0.4180477600097656,2.7352607054115614,-2.181320068359375,-0.5942919311523438
1741504920.501428,-2.4202964305877686,0.0850942017393682,-0.0570531654656721,-0.994738112842112,0.7587995529174805,0.47990527749061584,-0.38200318813323975,-3.5059585571289062,3.066460609436035,12.250653266906738,-0.3862438201904297,0.835240364074707,0.09746700525283813,-1.2588928937911987,0.005149920005351305,-0.7101167440414429,0.2740901708602905,1.3161141872406006,0.00476844422519207,0.7124055624008179,0.41638055443763733,-0.4518577754497528,-0.019645990803837776,-0.14209964871406555,0.767719566822052,-0.37954264879226685,-0.05526033043861389,-0.8569847941398621,-0.19398032128810883,-0.22449836134910583,1.264019250869751,-0.32109060883522034,-0.005558799486607313,0.3589591979980469,-0.14274680614471436,-2.4268534183502197,-0.13780228793621063,0.012596829794347286,0.8911088109016418,3.097444772720337,-0.306030809879303,-0.09444961696863174,-1.309981107711792,-0.9574098587036133,2.1515116691589355,0.28916627168655396,2.0161490440368652,-1.1059106588363647,0.0731012374162674,-0.14246287941932678,-3.4276816844940186,-2.3491885662078857,-0.30747392773628235,5.809711933135986,-1.9243199825286865,-0.453494131565094,1741504920.452622,1741504920373,-1.5936217041015626,-0.4180477600097656,2.7352607054115614,-2.181320068359375,-0.5942919311523438
1741504920.5214224,-2.435936391353607,0.09887301563489632,-0.07409115087110953,-0.9923379606474076,0.948140025138855,0.6599887013435364,-0.6749043464660645,2.377058267593384,2.9785056114196777,9.642034530639648,-0.3824291229248047,0.829136848449707,0.04596780240535736,-1.2764407396316528,0.00476844422519207,-0.7024872303009033,0.3084229826927185,1.308484673500061,0.004005493130534887,0.6960021257400513,0.3881513774394989,-0.39578089118003845,-0.005531395319849253,-0.08525978773832321,0.7413977384567261,-0.37614670395851135,-0.05827787145972252,-0.9157320261001587,-0.2317463904619217,-0.21152819693088531,1.3403143882751465,-0.36656469106674194,-0.009560446254909039,0.07740660011768341,-0.10725720226764679,-2.405726194381714,-1.2061289548873901,-0.03218629211187363,0.24379676580429077,2.155085325241089,-0.5555416941642761,-0.0037937690503895283,-1.0227869749069214,-1.4851329326629639,3.0266125202178955,0.6086750626564026,2.6865241527557373,-1.3212155103683472,0.19054768979549408,-0.17706432938575745,-2.737114906311035,-1.768113613128662,0.6875513792037964,3.302563190460205,-2.2830636501312256,0.024196866899728775,1741504920.556495,1741504920473,-1.67175634765625,-0.4912476806640625,3.045974443697701,-2.1161184082031252,-0.6179665527343751
1741504920.5414617,-2.458342730998993,0.10799876416426893,-0.09163219845335481,-0.9899190912117998,0.9890550374984741,0.30967462062835693,-1.1116138696670532,1.1129506826400757,-0.7333816289901733,10.131880760192871,-0.3759441375732422,0.8394365310668945,0.01583123579621315,-1.2905553579330444,0.00476844422519207,-0.7021057605743408,0.33436331152915955,1.3023810386657715,0.004005493130534887,0.6795986890792847,0.36907759308815,-0.32940414547920227,0.0032425422687083483,-0.05893797054886818,0.7127870321273804,-0.3699135184288025,-0.06847847998142242,-0.9477760195732117,-0.2599755823612213,-0.2149614691734314,1.347943902015686,-0.40664142370224,0.007516080047935247,0.16607141494750977,0.3215346932411194,-1.2867201566696167,-0.8498456478118896,-0.009209522977471352,0.0005803817766718566,1.7473946809768677,-0.34367382526397705,0.006743224803358316,-1.1839395761489868,-0.7080489993095398,3.3674256801605225,0.3465449810028076,1.1031179428100586,-1.473351240158081,0.30821526050567627,-0.5546931028366089,-1.2571101188659668,-1.3537983894348145,-0.4233081042766571,-0.27291664481163025,-1.873369574546814,0.7893141508102417,1741504920.556495,1741504920473,-1.67175634765625,-0.4912476806640625,3.045974443697701,-2.1161184082031252,-0.6179665527343751
1741504920.5614805,-2.4936944246292114,0.11096562011361154,-0.10167188134950911,-0.9886098622286008,0.6252453327178955,-0.08739645034074783,-1.7678236961364746,1.0414369106292725,-2.418424367904663,5.845638751983643,-0.3759441375732422,0.8730068206787109,0.012397955171763897,-1.296658992767334,0.00476844422519207,-0.7024872303009033,0.3561074137687683,1.299710750579834,0.004005493130534887,0.6624323129653931,0.3770885765552521,-0.265697717666626,0.005912871100008488,-0.06580453366041183,0.6841763854026794,-0.3596215844154358,-0.07812652736902237,-0.9378576278686523,-0.28515297174453735,-0.23823148012161255,1.278515338897705,-0.42685291171073914,0.00821076799184084,-0.031403765082359314,0.9302640557289124,0.0028093443252146244,-0.38542789220809937,-0.00105736730620265,0.012635812163352966,1.2248262166976929,-0.1430208534002304,0.00251916260458529,-1.0691531896591187,0.5205392837524414,3.1710407733917236,0.07201729714870453,-0.5072567462921143,-1.2986464500427246,0.6367889046669006,-0.5948237180709839,0.9436390995979309,-1.1781973838806152,-1.2312661409378052,-4.167633533477783,-0.7541729807853699,-0.09401315450668335,1741504920.556495,1741504920473,-1.67175634765625,-0.4912476806640625,3.045974443697701,-2.1161184082031252,-0.6179665527343751
1741504920.5814967,-2.5365639328956604,0.10798832028498012,-0.10370884616937916,-0.9887279696196748,0.32397228479385376,-0.39359501004219055,-2.1431827545166016,-5.028850078582764,-1.4777984619140625,9.560933113098145,-0.3740367889404297,0.8821620941162109,0.02536812424659729,-1.296658992767334,0.00476844422519207,-0.7024872303009033,0.3580147922039032,1.3008551597595215,0.004005493130534887,0.654421329498291,0.3873884081840515,-0.21915769577026367,-0.004005493130534887,-0.09594109654426575,0.6872282028198242,-0.3403388261795044,-0.08569216728210449,-0.8672846555709839,-0.28782328963279724,-0.2603570520877838,1.1232547760009766,-0.4155251681804657,0.008007471449673176,0.04613647982478142,0.3314566910266876,0.7241953611373901,0.05053311213850975,0.0014454529155045748,0.002936991397291422,-0.014760524034500122,0.0584806352853775,0.002259272849187255,-0.4250847101211548,0.41151362657546997,1.9575772285461426,-0.6479292511940002,-1.735222578048706,0.541170597076416,1.0007981061935425,-0.19091078639030457,3.7707574367523193,0.20555907487869263,-0.9558106660842896,-8.536539077758789,0.8680670857429504,0.16110022366046906,1741504920.556495,1741504920473,-1.67175634765625,-0.4912476806640625,3.045974443697701,-2.1161184082031252,-0.6179665527343751
1741504920.6015165,-2.5764132142066956,0.10067082532630504,-0.10503000314742614,-0.9893604415818191,0.2976103723049164,-0.6408024430274963,-1.7653322219848633,-15.150796890258789,-7.984995365142822,-5.210244178771973,-0.3736553192138672,0.8806362152099609,0.04634927958250046,-1.294751524925232,0.005149920005351305,-0.7021057605743408,0.3545815348625183,1.302762508392334,0.004005493130534887,0.6540398001670837,0.4022659659385681,-0.22526131570339203,-0.04558632895350456,-0.14705882966518402,0.7429236173629761,-0.3127899169921875,-0.08025066554546356,-0.767719566822052,-0.2607385218143463,-0.24319066107273102,0.9050507545471191,-0.37337037920951843,0.016170071437954903,0.001411240198649466,-0.007312477100640535,0.9716476202011108,0.08937419205904007,0.005586172454059124,-0.0028617968782782555,-0.09857255965471268,0.22210276126861572,0.002864810638129711,0.020806459710001945,0.8366480469703674,-0.6013302803039551,-2.251338481903076,-2.53298020362854,3.30979323387146,1.4490430355072021,0.19003848731517792,4.870669364929199,1.4976320266723633,1.1537315845489502,-11.153177261352539,2.3004355430603027,0.4432693421840668,1741504920.556495,1741504920473,-1.67175634765625,-0.4912476806640625,3.045974443697701,-2.1161184082031252,-0.6179665527343751
1741504920.6215627,-2.598004639148712,0.09279672756553776,-0.11609813899075355,-0.9888933155179132,0.6921682357788086,-0.49822303652763367,-1.0169577598571777,-32.63976287841797,-18.066308975219727,28.555278778076172,-0.3709850311279297,0.8825435638427734,0.05130846053361893,-1.2978034019470215,0.004386968910694122,-0.7024872303009033,0.3587777614593506,1.306195855140686,0.004005493130534887,0.6506065726280212,0.3877699077129364,-0.24967575073242188,-0.06084534898400307,-0.2145799994468689,0.8688105344772339,-0.272542268037796,-0.06380671262741089,-0.6940947771072388,-0.21953918039798737,-0.23556114733219147,0.8501182794570923,-0.2697395980358124,-0.009864824824035168,0.07381336390972137,0.07047063857316971,0.05112914741039276,-0.4520423114299774,-0.1035773828625679,-0.021160725504159927,0.22582827508449554,0.15097056329250336,0.0023079009260982275,-0.4050573706626892,-1.522169589996338,-1.4221194982528687,-0.4978303909301758,-3.5300686359405518,6.745669364929199,2.0686442852020264,0.996023952960968,3.8165295124053955,2.8779098987579346,0.3151623606681824,-0.38311153650283813,4.985692024230957,-2.0342390537261963,1741504920.661559,1741504920573,-1.7551385498046876,-0.5512867431640626,2.4277227785581577,-2.05801611328125,-0.6374583740234375
1741504920.6415389,-2.597102403640747,0.08219151626935292,-0.11720191784068579,-0.9897010988716795,-0.025936534628272057,-0.883859395980835,0.15206152200698853,-26.605939865112305,9.112961769104004,21.815492630004883,-0.4003582000732422,0.9176397323608398,0.05245288833975792,-1.306958794593811,0.00476844422519207,-0.7024872303009033,0.3442816734313965,1.3065773248672485,0.004386968910694122,0.6475547552108765,0.3580147922039032,-0.3126192092895508,-0.11234454810619354,-0.24166475236415863,1.0118639469146729,-0.22805246710777283,-0.02912728488445282,-0.689517080783844,-0.19398032128810883,-0.1813916265964508,0.8554589152336121,-0.2166169285774231,-0.04452949017286301,-0.8325302600860596,1.2528831958770752,-0.018298247829079628,-0.5097401142120361,-0.08471591025590897,0.10620791465044022,-1.1827765703201294,0.037440329790115356,0.02428230457007885,-0.13340669870376587,-1.3075926303863525,-3.724604845046997,-2.401214122772217,-1.0692366361618042,7.224580764770508,2.154838800430298,1.8135669231414795,0.17456087470054626,0.6002995371818542,3.0011723041534424,-0.26473328471183777,2.01397442817688,-1.086470365524292,1741504920.661559,1741504920573,-1.7551385498046876,-0.5512867431640626,2.4277227785581577,-2.05801611328125,-0.6374583740234375
1741504920.661673,-2.601507008075714,0.07989908857215913,-0.11650625019886646,-0.9899709234669155,0.04511884227395058,0.04522412642836571,-0.3733738362789154,5.408698081970215,0.6574819087982178,8.712881088256836,-0.3950176239013672,0.9081029891967773,0.06160829961299896,-1.3107736110687256,0.00476844422519207,-0.6994354128837585,0.31376364827156067,1.3088661432266235,0.004386968910694122,0.649462103843689,0.33474478125572205,-0.39387351274490356,-0.15354390442371368,-0.273708701133728,1.1446174383163452,-0.20347744226455688,0.017376035451889038,-0.6464102864265442,-0.1512550562620163,-0.12989242374897003,0.8485923409461975,-0.21797387301921844,-0.016544722020626068,0.0038503222167491913,-0.034536462277173996,0.6612818837165833,-0.31855571269989014,0.032474443316459656,0.08599404990673065,-2.167093515396118,0.20250262320041656,-0.007909957319498062,0.19350409507751465,-1.366470456123352,-4.321556091308594,-2.0802905559539795,-1.4566478729248047,6.543857097625732,0.8811133503913879,1.9839524030685425,2.7218120098114014,2.2667977809906006,2.160529613494873,-0.41889044642448425,-0.12054959684610367,1.5526540279388428,1741504920.661559,1741504920573,-1.7551385498046876,-0.5512867431640626,2.4277227785581577,-2.05801611328125,-0.6374583740234375
1741504920.6816158,-2.6126349568367004,0.07641219582161583,-0.11396903199017938,-0.9905413853428542,-0.10613968968391418,-0.3231204152107239,-0.5137778520584106,-1.6115537881851196,1.0260794162750244,13.697443962097168,-0.3847179412841797,0.9195470809936523,0.0879301130771637,-1.3241251707077026,0.005149920005351305,-0.7017242908477783,0.27103838324546814,1.3107736110687256,0.004386968910694122,0.6521324515342712,0.325970858335495,-0.49305713176727295,-0.1989395022392273,-0.28744181990623474,1.2403677701950073,-0.22175386548042297,0.022419439628720284,-0.6105515956878662,-0.1367589831352234,-0.09403372555971146,0.8020523190498352,-0.23269368708133698,-0.0040649306029081345,0.27554118633270264,0.34871435165405273,1.2643171548843384,-0.8385416865348816,-0.03255530819296837,-0.1145181879401207,-2.9597928524017334,0.14110492169857025,0.013220053166151047,0.1236312985420227,0.008257956244051456,-4.963269233703613,-2.19985032081604,-0.3981408476829529,4.220947742462158,-1.3094326257705688,-0.027409443631768227,1.4897233247756958,0.31288331747055054,1.8592664003372192,-2.3878183364868164,-0.7386925220489502,0.25062096118927,1741504920.661559,1741504920573,-1.7551385498046876,-0.5512867431640626,2.4277227785581577,-2.05801611328125,-0.6374583740234375
1741504920.7016175,-2.6355462074279785,0.07776977444270763,-0.1110660314122118,-0.9907654610701121,-0.0259382463991642,0.1156364232301712,-1.3239854574203491,-1.6984423398971558,1.9619618654251099,4.508238792419434,-0.3828105926513672,0.9126806259155273,0.11730372905731201,-1.3309917449951172,0.00476844422519207,-0.7036316394805908,0.21801327168941498,1.3138253688812256,0.00476844422519207,0.6528953909873962,0.3133821487426758,-0.5876630544662476,-0.22755016386508942,-0.2626459002494812,1.275844931602478,-0.27500852942466736,0.012025936506688595,-0.5594338774681091,-0.12836651504039764,-0.07763027399778366,0.7738231420516968,-0.24362920224666595,-0.00036378856748342514,0.09119309484958649,-0.20698988437652588,1.5402940511703491,-0.46263357996940613,-0.026365989819169044,-0.09990120679140091,-3.66286039352417,0.24874776601791382,0.03837193176150322,0.036040592938661575,-1.2272427082061768,-4.565622806549072,-1.293584942817688,1.6268799304962158,1.430977702140808,-2.819077730178833,-0.4254319965839386,2.779430866241455,0.4326933026313782,0.6770099997520447,-1.3396755456924438,-0.5023289918899536,0.38020357489585876,1741504920.661559,1741504920573,-1.7551385498046876,-0.5512867431640626,2.4277227785581577,-2.05801611328125,-0.6374583740234375
1741504920.721634,-2.65405535697937,0.08373449110665845,-0.11752293545425212,-0.9895336753447679,0.4811497926712036,0.077659472823143,-0.8771368861198425,-3.526608467102051,-4.418550491333008,6.524900913238525,-0.3713665008544922,0.8966579437255859,0.1493476778268814,-1.3412915468215942,0.005531395319849253,-0.699816882610321,0.16002899408340454,1.3168771266937256,0.004005493130534887,0.655947208404541,0.2912565767765045,-0.6750209927558899,-0.23289081454277039,-0.21648737788200378,1.2579156160354614,-0.3378177583217621,0.0045419977977871895,-0.535400927066803,-0.12798504531383514,-0.0555046908557415,0.735675573348999,-0.25257056951522827,0.0039527504704892635,0.34359386563301086,-0.4081888198852539,1.4871100187301636,-0.8195188641548157,-0.018946170806884766,0.23077167570590973,-3.7041871547698975,0.14903202652931213,-0.03996223583817482,0.2512572109699249,-0.7509802579879761,-4.338301658630371,-0.003640254493802786,2.6952714920043945,-1.4613875150680542,-3.0817887783050537,-0.31262892484664917,0.7830674648284912,-0.1274305284023285,1.480603814125061,-2.046233654022217,-0.4744071066379547,0.213873490691185,1741504920.661559,1741504920573,-1.7551385498046876,-0.5512867431640626,2.4277227785581577,-2.05801611328125,-0.6374583740234375
1741504920.7416582,-2.6784727573394775,0.09021244461608209,-0.12929232319822767,-0.9874944101099487,0.7559779286384583,0.23925301432609558,-1.1819658279418945,0.8998640775680542,-4.222851276397705,3.461329698562622,-0.3633556365966797,0.8852138519287109,0.1810101419687271,-1.3477766513824463,0.00476844422519207,-0.693331778049469,0.10776684433221817,1.3145883083343506,0.004005493130534887,0.6624323129653931,0.25616082549095154,-0.7501716613769531,-0.22106507420539856,-0.14438849687576294,1.201838731765747,-0.3765117824077606,-0.00922467652708292,-0.5186160206794739,-0.12417028844356537,-0.02536812424659729,0.7139315009117126,-0.2651963531970978,0.005171323195099831,0.2716159224510193,-0.3499477207660675,1.641369342803955,-0.3551482856273651,0.0005456514190882444,0.3732077181339264,-3.5695531368255615,-0.18656064569950104,0.005372191779315472,0.5446420311927795,-2.482679843902588,-3.8226373195648193,0.5873678922653198,3.725745439529419,-2.880251407623291,-1.5504947900772095,-0.6562227606773376,1.4139001369476318,0.1907392293214798,1.32766854763031,-0.7749216556549072,-0.7123236656188965,-0.005212126765400171,1741504920.661559,1741504920573,-1.7551385498046876,-0.5512867431640626,2.4277227785581577,-2.05801611328125,-0.6374583740234375
1741504920.7617419,-2.6888303756713867,0.10435535023088494,-0.14327994604086774,-0.9841650359267572,0.7303465008735657,0.6318536400794983,-0.3050764501094818,1.306321620941162,2.9309961795806885,3.2996156215667725,-0.3633556365966797,0.8691921234130859,0.2145799994468689,-1.3493025302886963,0.005531395319849253,-0.6841763854026794,0.06427863240242004,1.3081032037734985,0.004005493130534887,0.6742580533027649,0.21992065012454987,-0.8127336502075195,-0.20199130475521088,-0.08449683338403702,1.1369879245758057,-0.3727048337459564,-0.01433537807315588,-0.5094605684280396,-0.12531471252441406,-0.0078202486038208,0.7101167440414429,-0.2883315682411194,0.002608279464766383,-0.007031803485006094,-0.450489342212677,1.5913119316101074,-0.0842621773481369,-0.012868835590779781,0.4215489625930786,-2.584120035171509,-0.3993963897228241,-0.021020740270614624,0.7723170518875122,-1.0492602586746216,-2.890329360961914,1.0635616779327393,2.610888957977295,-3.340670108795166,0.5493124723434448,-0.14382901787757874,-0.5134524703025818,-0.06716146320104599,0.818090558052063,-0.3167070746421814,-1.3118449449539185,-0.13992483913898468,1741504920.661559,1741504920573,-1.7551385498046876,-0.5512867431640626,2.4277227785581577,-2.05801611328125,-0.6374583740234375
1741504920.781718,-2.7071086168289185,0.1169685216209779,-0.15175311294291294,-0.9814730549851781,0.46953657269477844,0.4986787736415863,-0.9373526573181152,-4.392608165740967,-10.1820707321167,7.72632360458374,-0.3645000457763672,0.8653774261474609,0.23670557141304016,-1.3462507724761963,0.004386968910694122,-0.6769283413887024,0.03643091395497322,1.304669976234436,0.004386968910694122,0.6788357496261597,0.19436179101467133,-0.8859769701957703,-0.17910276353359222,-0.04139009863138199,1.0736628770828247,-0.3295653164386749,-0.01116194762289524,-0.5167086124420166,-0.12340734153985977,0.002861066721379757,0.7219424843788147,-0.3199302554130554,0.006586970761418343,0.007074665278196335,-0.10984877496957779,1.1419388055801392,0.19950826466083527,-0.007667127996683121,0.35577839612960815,-1.9308406114578247,-0.2139853686094284,0.036530956625938416,0.21536950767040253,-1.8406058549880981,-3.9298555850982666,1.0967425107955933,2.1038503646850586,-3.0050182342529297,2.383517026901245,0.2624081075191498,0.5131969451904297,0.08944770693778992,0.419624924659729,1.056681513786316,-1.5169717073440552,0.3569931983947754,1741504920.8622136,1741504920673,-1.8063226318359376,-0.6116340942382813,2.2292695472697726,-1.9845223388671875,-0.6748923950195312
1741504920.8017585,-2.7117373943328857,0.12436215229581565,-0.14932818173948217,-0.9809358537716584,-0.1746596395969391,0.28748297691345215,-0.27289649844169617,3.418766736984253,8.923606872558594,3.268436908721924,-0.3751811981201172,0.8802547454833984,0.2573052644729614,-1.3370953798294067,0.005149920005351305,-0.6750209927558899,0.020027466118335724,1.3042885065078735,0.0036240178160369396,0.6826505064964294,0.1810101419687271,-0.9374761581420898,-0.1527809500694275,-0.029182879254221916,1.0423818826675415,-0.2726507782936096,-3.88557191399741e-06,-0.5121309161186218,-0.12264438718557358,0.016212711110711098,0.7471198439598083,-0.34947291016578674,0.011289240792393684,-0.30800679326057434,0.43209579586982727,0.9791429042816162,0.6020573377609253,0.006782969925552607,0.01778232306241989,-0.8052292466163635,-0.03496386483311653,-0.056206732988357544,0.1558007448911667,0.3628009855747223,-1.8340511322021484,1.538578748703003,0.3548683822154999,-1.4205279350280762,2.782280206680298,0.5407714247703552,-0.5060745477676392,0.0476456880569458,0.8531569242477417,0.98752760887146,-1.5024681091308594,0.13123875856399536,1741504920.8622136,1741504920673,-1.8063226318359376,-0.6116340942382813,2.2292695472697726,-1.9845223388671875,-0.6748923950195312
1741504920.8217733,-2.7266675233840942,0.1266493629999949,-0.1382125603368346,-0.9822714629962699,-0.4780353009700775,-0.10594868659973145,-0.8906728029251099,-3.120802402496338,-1.7990875244140625,10.551868438720703,-0.3652629852294922,0.9008541107177734,0.2733272314071655,-1.3267955780029297,0.004005493130534887,-0.6738765835762024,0.01773861236870289,1.3042885065078735,0.004005493130534887,0.6807430982589722,0.182154580950737,-0.9733348488807678,-0.12645913660526276,-0.029182879254221916,1.0046159029006958,-0.21392934024333954,0.008734771981835365,-0.5056458115577698,-0.11577782779932022,0.023079270496964455,0.776493489742279,-0.3744853734970093,0.01701858453452587,0.24833199381828308,0.7196987271308899,0.7948919534683228,0.6851999759674072,-0.0359487384557724,0.16988877952098846,-0.24863547086715698,-0.009896458126604557,0.05206895247101784,-0.13518552482128143,-0.642275869846344,-2.0844523906707764,1.269644856452942,0.22450166940689087,-2.1945035457611084,2.9620277881622314,0.3141367733478546,1.1256775856018066,0.31321752071380615,-0.01897241547703743,1.8361232280731201,-1.1732876300811768,0.28832876682281494,1741504920.8622136,1741504920673,-1.8063226318359376,-0.6116340942382813,2.2292695472697726,-1.9845223388671875,-0.6748923950195312
1741504920.8417904,-2.7257543802261353,0.12279838946162698,-0.12622772710585908,-0.9843714321613155,-0.622900664806366,-0.20582649111747742,0.15185785293579102,7.574154376983643,9.448060035705566,8.360663414001465,-0.3652629852294922,0.9081029891967773,0.2935454249382019,-1.3199290037155151,0.00476844422519207,-0.6631952524185181,0.02384222112596035,1.3058143854141235,0.002861066721379757,0.6815060377120972,0.18635080754756927,-0.9580758213996887,-0.10433356463909149,-0.016975661739706993,0.9390020370483398,-0.16290849447250366,0.007902998477220535,-0.4892423748970032,-0.11120012402534485,0.018501564860343933,0.810826301574707,-0.3877626955509186,0.02012953907251358,-0.10435033589601517,0.2071322500705719,0.8496330976486206,0.4579199254512787,-0.033706553280353546,0.6292754411697388,0.6276143193244934,0.15178662538528442,-0.13236968219280243,-0.013639441691339016,1.041853904724121,1.1044089794158936,0.9530847668647766,0.5690511465072632,-3.7422432899475098,2.294443130493164,-0.0910848081111908,0.2812725603580475,0.27792707085609436,0.05352285876870155,1.6458584070205688,-0.5437294244766235,0.2251499891281128,1741504920.8622136,1741504920673,-1.8063226318359376,-0.6116340942382813,2.2292695472697726,-1.9845223388671875,-0.6748923950195312
1741504920.861803,-2.736583113670349,0.103182142378853,-0.11897126227184578,-0.9875217892520417,-0.2670385539531708,-0.9629859328269958,-0.6170509457588196,-1.2884095907211304,-1.2082663774490356,8.299609184265137,-0.3343629837036133,0.9157323837280273,0.30346378684043884,-1.3222178220748901,0.005149920005351305,-0.6464102864265442,0.045204851776361465,1.3088661432266235,0.004386968910694122,0.6712062358856201,0.17795833945274353,-0.8970397710800171,-0.09517814964056015,-0.012779430486261845,0.8096818327903748,-0.1438252478837967,0.008404997177422047,-0.47474631667137146,-0.09327077120542526,0.01125352829694748,0.8695735335350037,-0.3871002197265625,0.018263408914208412,0.8019707798957825,0.1655392348766327,0.5225046277046204,-0.3241250216960907,0.025701232254505157,0.8888753056526184,1.4885585308074951,0.23560188710689545,0.2315768599510193,-0.8141634464263916,-0.9045628905296326,3.896559000015259,0.46841299533843994,0.15753968060016632,-6.993963718414307,0.6625473499298096,0.1048600822687149,1.0446873903274536,0.9854398965835571,-0.797458291053772,3.5913302898406982,0.20230816304683685,-0.03961913660168648,1741504920.8622136,1741504920673,-1.8063226318359376,-0.6116340942382813,2.2292695472697726,-1.9845223388671875,-0.6748923950195312
1741504920.8818002,-2.7367933988571167,0.08163887777941464,-0.11159979098741167,-0.9903941540045983,-0.4494417607784271,-1.2554962635040283,0.050873834639787674,-2.6283886432647705,15.99148178100586,6.507772922515869,-0.3358888626098633,0.9176397323608398,0.30231937766075134,-1.3260325193405151,0.005149920005351305,-0.6261920928955078,0.071908138692379,1.3130624294281006,0.0032425422687083483,0.6570916175842285,0.1684214472770691,-0.7845044732093811,-0.07801175117492676,-0.014686808921396732,0.6326771974563599,-0.15935158729553223,0.011045876890420914,-0.4953460097312927,-0.086785688996315,-0.009727626107633114,0.9649423956871033,-0.3686855733394623,0.009987592697143555,0.051414765417575836,0.08882199972867966,-0.18347688019275665,-0.2233750969171524,-0.0010756748961284757,0.9675438404083252,1.8637371063232422,0.2386673092842102,-0.06453510373830795,-1.0020920038223267,0.25457096099853516,5.58320426940918,0.9548821449279785,-0.12514247000217438,-9.008722305297852,-0.997275173664093,0.08427887409925461,-1.654097318649292,0.2856389880180359,-1.0629386901855469,4.895591735839844,1.0706465244293213,-0.583903431892395,1741504920.8622136,1741504920673,-1.8063226318359376,-0.6116340942382813,2.2292695472697726,-1.9845223388671875,-0.6748923950195312
1741504920.9018219,-2.756551504135132,0.06369891560341136,-0.09109614670110558,-0.993802767256743,-1.0789505243301392,-0.8619811534881592,-1.0989465713500977,-38.335533142089844,14.193449020385742,33.72037124633789,-0.3404664993286133,0.9096288681030273,0.29812315106391907,-1.3321361541748047,0.00476844422519207,-0.6082627773284912,0.09365224838256836,1.314969778060913,0.005531395319849253,0.6357290148735046,0.1501106321811676,-0.7082093358039856,-0.06351567804813385,-0.04634927958250046,0.5472266674041748,-0.13324472308158875,-0.01110877189785242,-0.5228122472763062,-0.09899290651082993,-0.043678950518369675,1.0934996604919434,-0.333158940076828,-0.007234706077724695,-0.2730824947357178,-0.33251506090164185,-0.054643046110868454,-0.357183575630188,0.04356146231293678,0.8987728357315063,1.0189858675003052,0.17819350957870483,0.14452186226844788,-1.4737151861190796,-0.9777429103851318,2.806401252746582,0.5188663005828857,-1.824403166770935,-1.6175053119659424,2.6508944034576416,-1.4653401374816895,-1.4001003503799438,-1.4736549854278564,-1.5538573265075684,6.766922473907471,1.8705165386199951,-0.9434235095977783,1741504920.8622136,1741504920673,-1.8063226318359376,-0.6116340942382813,2.2292695472697726,-1.9845223388671875,-0.6748923950195312
1741504920.9219,-2.7612370252609253,0.051166325693917485,-0.0894915165924489,-0.9946724463726576,0.04626300930976868,-0.5867840647697449,-0.19074513018131256,4.781772613525391,6.324273586273193,10.789605140686035,-0.3007936477661133,0.9039058685302734,0.28667888045310974,-1.3302288055419922,0.005531395319849253,-0.5739299654960632,0.10013733059167862,1.3317546844482422,0.0036240178160369396,0.6185625791549683,0.16002899408340454,-0.7104982137680054,-0.0558861680328846,-0.07419699430465698,0.6181811094284058,-0.04865396395325661,-0.03367830440402031,-0.5643930435180664,-0.1035706102848053,-0.08182650804519653,1.1861982345581055,-0.29477477073669434,-0.012194527313113213,1.1340457201004028,-0.47592484951019287,-0.7572396993637085,0.12909117341041565,-0.007780963089317083,1.4753360748291016,0.6924080848693848,0.9966902136802673,-0.10165362060070038,-1.1323728561401367,0.7969465255737305,0.07627292722463608,1.0687017440795898,-1.062031865119934,2.9305825233459473,3.6930975914001465,-0.7364137768745422,-2.5678906440734863,0.3067139983177185,-2.149897813796997,4.592245101928711,1.823409914970398,-0.012271401472389698,1741504920.9647067,1741504920773,-1.862580810546875,-0.6766893920898438,2.5031195920724967,-2.110466796875,-0.6840967407226562
1741504920.9418745,-2.774312973022461,0.03968828217942891,-0.07753386313122089,-0.9961994480652933,-0.8712404370307922,-0.5344793200492859,-0.8193582892417908,-1.6141040325164795,-2.7694404125213623,8.107608795166016,-0.3114748001098633,0.9050502777099609,0.25234606862068176,-1.3359509706497192,0.004386968910694122,-0.5624856948852539,0.12073700875043869,1.3397656679153442,0.005149920005351305,0.5949110984802246,0.14553292095661163,-0.6834134459495544,-0.026512550190091133,-0.06809338182210922,0.6265735626220703,0.0015958822332322598,-0.022678129374980927,-0.5998703241348267,-0.0871671661734581,-0.10433356463909149,1.258297085762024,-0.28329408168792725,-0.0012693777680397034,-0.16716115176677704,-0.07649534195661545,-1.8428688049316406,-0.4445299804210663,0.021268310025334358,0.372142493724823,1.4156630039215088,0.5156484246253967,0.11036179959774017,-1.6350147724151611,-0.8489537835121155,1.7190879583358765,1.3607280254364014,0.5011261701583862,0.029271148145198822,2.267275333404541,0.8060411214828491,-1.6440105438232422,0.8021352887153625,-1.176244854927063,3.337266445159912,0.13537274301052094,0.40638601779937744,1741504920.9647067,1741504920773,-1.862580810546875,-0.6766893920898438,2.5031195920724967,-2.110466796875,-0.6840967407226562
1741504920.9618745,-2.7954635620117188,0.029264875687381058,-0.05173037592297814,-0.9982322050794943,-1.1547778844833374,-0.5733940005302429,-1.128721833229065,-13.970809936523438,3.8070499897003174,24.539634704589844,-0.3095674514770508,0.9229803085327148,0.2145799994468689,-1.3241251707077026,0.00476844422519207,-0.5560005903244019,0.14286258816719055,1.3500655889511108,0.004005493130534887,0.569733738899231,0.16269932687282562,-0.6841763854026794,-0.024605173617601395,-0.06694895774126053,0.655184268951416,0.0010263511212542653,0.009504064917564392,-0.6376363635063171,-0.08487831056118011,-0.12531471252441406,1.2869077920913696,-0.3176618218421936,-0.0052225543186068535,0.029634233564138412,0.6476244330406189,-1.8120074272155762,1.1702017784118652,-0.0033678109757602215,0.5317569375038147,1.379172682762146,0.8080444931983948,-0.0655054971575737,-1.6411067247390747,1.625734806060791,-0.4573456645011902,0.047648876905441284,-0.24857361614704132,2.0090534687042236,-0.5501223802566528,1.4798253774642944,-1.7034993171691895,-0.35875603556632996,-0.9587156176567078,0.8721100687980652,-1.9741283655166626,-0.2176511287689209,1741504920.9647067,1741504920773,-1.862580810546875,-0.6766893920898438,2.5031195920724967,-2.110466796875,-0.6840967407226562
1741504920.9819098,-2.8166017532348633,0.036803630565046125,-0.04511859201952523,-0.9983034635978216,-0.1903814971446991,0.3236953616142273,-1.0122075080871582,4.9208149909973145,-4.216283798217773,4.077583312988281,-0.2744712829589844,0.8974208831787109,0.17948424816131592,-1.3138253688812256,0.004386968910694122,-0.5457007884979248,0.1508735716342926,1.3702837228775024,0.004386968910694122,0.5518043637275696,0.19436179101467133,-0.6891355514526367,-0.023079270496964455,-0.08487831056118011,0.6849393248558044,-0.03292498737573624,0.008006987161934376,-0.6723506450653076,-0.059319447726011276,-0.1661325991153717,1.269741415977478,-0.37457746267318726,0.0018218078184872866,0.9621513485908508,-0.5708314776420593,-1.8144419193267822,0.47283023595809937,-0.04852116480469704,0.424625039100647,0.5316771864891052,1.1595556735992432,0.017349638044834137,-1.0684524774551392,0.8072067499160767,0.024294370785355568,0.04743010550737381,-0.5777337551116943,0.9272406697273254,-1.6705480813980103,-0.35963618755340576,-1.7683919668197632,1.7277805805206299,-2.1143741607666016,-0.839202344417572,-2.870349407196045,0.37189480662345886,1741504920.9647067,1741504920773,-1.862580810546875,-0.6766893920898438,2.5031195920724967,-2.110466796875,-0.6840967407226562
1741504921.0019352,-2.8331727981567383,0.03701364217606336,-0.036689780700278125,-0.9986410017043301,-0.4845890998840332,-0.04457603767514229,-0.8072218298912048,-4.3495306968688965,-3.3273086547851562,14.44355297088623,-0.2786674499511719,0.8970394134521484,0.13981078565120697,-1.3222178220748901,0.005149920005351305,-0.543411910533905,0.16117341816425323,1.374098539352417,0.004005493130534887,0.54112309217453,0.18749523162841797,-0.6673914790153503,-0.009346150793135166,-0.07267109304666519,0.6715877056121826,-0.07170414179563522,-0.007870322093367577,-0.7085908055305481,-0.04329747334122658,-0.1817730963230133,1.2499046325683594,-0.4298405647277832,0.0048255338333547115,-0.08166928589344025,-0.058716293424367905,-2.023857831954956,-0.5642508864402771,-0.013279573060572147,0.11282027512788773,0.720910906791687,0.1379597932100296,-0.01880701631307602,-0.7318540215492249,0.11743862181901932,1.1493520736694336,0.8726035356521606,0.9627754092216492,-0.5427804589271545,-2.00227689743042,-0.5467039942741394,-1.8341208696365356,0.3510373830795288,-0.2232452630996704,-0.958712637424469,-2.70902156829834,0.0829155370593071,1741504920.9647067,1741504920773,-1.862580810546875,-0.6766893920898438,2.5031195920724967,-2.110466796875,-0.6840967407226562
1741504921.0219724,-2.8490612506866455,0.03900495276748342,-0.025249710797249202,-0.9989199496277276,-0.40974161028862,0.10528155416250229,-0.8628326058387756,-3.2159409523010254,4.97571325302124,10.740396499633789,-0.2775230407714844,0.8970394134521484,0.10509651154279709,-1.3290843963623047,0.005149920005351305,-0.5430304408073425,0.17223620414733887,1.379439115524292,0.00476844422519207,0.5350194573402405,0.1840619444847107,-0.6582360863685608,-0.000572213320992887,-0.05664911866188049,0.6795986890792847,-0.10927493870258331,0.0031113384757190943,-0.7383459210395813,-0.05054550990462303,-0.1810101419687271,1.2243458032608032,-0.4676764905452728,0.0014841632219031453,0.012214637361466885,-0.039007436484098434,-1.676405668258667,-0.4675033986568451,-0.004086880944669247,0.004854706581681967,0.7611832022666931,0.469948947429657,0.07836993783712387,-0.3698205351829529,-0.49027225375175476,0.2401122748851776,0.39100387692451477,0.30563557147979736,0.5225270390510559,-1.773173451423645,0.6158735752105713,-1.3661099672317505,-0.161248579621315,-0.29138243198394775,-1.3957769870758057,-1.6807082891464233,-0.247052863240242,1741504921.0670607,1741504920973,-1.912484619140625,-0.8058807983398437,1.4472849996612944,-2.564526611328125,-0.6928395385742188
1741504921.042029,-2.8630003929138184,0.04628685117497281,-0.029174985273679156,-0.9985020518970337,0.21757002174854279,0.28536590933799744,-0.6355568170547485,3.160086154937744,-5.375053882598877,6.171914577484131,-0.2569236755371094,0.8798732757568359,0.08106355369091034,-1.3328990936279297,0.005149920005351305,-0.5453193187713623,0.18596932291984558,1.377913236618042,0.004005493130534887,0.5376898050308228,0.17185473442077637,-0.6464102864265442,0.000572213320992887,-0.039101243019104004,0.699816882610321,-0.13331715762615204,0.008278212510049343,-0.7738231420516968,-0.04558632895350456,-0.1970321238040924,1.2029831409454346,-0.47538334131240845,0.01534327119588852,0.5562752485275269,-0.5164978504180908,-1.150765061378479,-0.18570734560489655,-0.0014396318001672626,-0.16850155591964722,0.9310216903686523,-0.2343655526638031,-0.0849463939666748,0.23687946796417236,-0.3862943649291992,0.7780365347862244,0.006430270615965128,1.4467791318893433,0.9962503910064697,-1.158744215965271,0.05693120136857033,-1.996661901473999,-0.005368994083255529,-0.598762571811676,-1.1273959875106812,-0.06689907610416412,0.6531306505203247,1741504921.0670607,1741504920973,-1.912484619140625,-0.8058807983398437,1.4472849996612944,-2.564526611328125,-0.6928395385742188
1741504921.062042,-2.875181555747986,0.04574748331679281,-0.031158050228432543,-0.9984669967886481,0.1284601092338562,-0.0952920913696289,-0.619641900062561,-0.5662036538124084,-1.7852431535720825,9.293976783752441,-0.2573051452636719,0.8905544281005859,0.07000076025724411,-1.3313732147216797,0.005149920005351305,-0.5548561811447144,0.20199130475521088,1.3702837228775024,0.0036240178160369396,0.54264897108078,0.1504921019077301,-0.6303883194923401,0.010872052982449532,-0.015449759550392628,0.7078278660774231,-0.14934951066970825,0.0031912156846374273,-0.8054856061935425,-0.06046387553215027,-0.19207294285297394,1.180094599723816,-0.45688825845718384,0.006071119103580713,0.0325288251042366,0.21607187390327454,-0.4493548274040222,0.08197370171546936,-0.0008659858722239733,-0.5584738254547119,1.074892282485962,-0.46817588806152344,0.039627183228731155,0.3929509222507477,-1.2941195964813232,0.7758708000183105,0.4603366255760193,0.7807435393333435,0.43120163679122925,-0.7652262449264526,-0.2391292303800583,-1.3107476234436035,-0.6713879108428955,0.2637958228588104,-1.2334669828414917,1.118021845817566,-0.5421877503395081,1741504921.0670607,1741504920973,-1.912484619140625,-0.8058807983398437,1.4472849996612944,-2.564526611328125,-0.6928395385742188
1741504921.0820394,-2.87830126285553,0.04295083938979684,-0.03764076555263395,-0.9983678671533471,0.33397752046585083,-0.12650234997272491,-0.11247377842664719,2.6727750301361084,-3.825503349304199,9.141432762145996,-0.2595939636230469,0.8951320648193359,0.06504157930612564,-1.3348065614700317,0.005149920005351305,-0.572022557258606,0.21839475631713867,1.366087555885315,0.0036240178160369396,0.5544747114181519,0.1356145590543747,-0.613603413105011,0.00858320016413927,-0.0078202486038208,0.7265201807022095,-0.1679624319076538,0.012661383487284184,-0.8096818327903748,-0.06580453366041183,-0.19130998849868774,1.1461433172225952,-0.4191812574863434,0.006591904908418655,-0.074041947722435,0.132531076669693,-0.19540506601333618,-0.30127957463264465,-0.0019741770811378956,-0.9588961601257324,1.1259982585906982,-0.2618494927883148,-0.011812947690486908,0.8728028535842896,-0.5467433929443359,0.8115711808204651,0.00082676752936095,0.529373824596405,0.9698903560638428,-1.0122755765914917,0.5692782998085022,-0.15091736614704132,-0.37428492307662964,0.03108440712094307,-1.8642442226409912,1.9935039281845093,0.0983392670750618,1741504921.0670607,1741504920973,-1.912484619140625,-0.8058807983398437,1.4472849996612944,-2.564526611328125,-0.6928395385742188
1741504921.1020668,-2.8802597522735596,0.03405498750724668,-0.04099885269540898,-0.9985786658563968,0.12964093685150146,-0.47845277190208435,-0.05254369601607323,-0.02386154606938362,-5.303586959838867,8.849431991577148,-0.2615013122558594,0.9031429290771484,0.07381551712751389,-1.3340435028076172,0.005149920005351305,-0.5956740379333496,0.23479819297790527,1.3622727394104004,0.004005493130534887,0.5708781480789185,0.13179980218410492,-0.5968185067176819,0.010109102353453636,-0.0020981156267225742,0.7364385724067688,-0.19442622363567352,0.012846014462411404,-0.8016708493232727,-0.07419699430465698,-0.19054703414440155,1.0900664329528809,-0.3719581365585327,0.003520329250022769,-0.04980594292283058,0.22028982639312744,0.5263285636901855,0.1126231998205185,-0.009237511083483696,-1.2104390859603882,1.1204094886779785,-0.2874253988265991,0.03173975273966789,1.090893030166626,-0.24253101646900177,0.8981147408485413,-0.034405417740345,0.11615456640720367,0.3537277579307556,-1.3759862184524536,-0.11742523312568665,0.5928482413291931,-0.3575478494167328,0.06095833331346512,-2.996103286743164,2.3571741580963135,-0.1832791417837143,1741504921.0670607,1741504920973,-1.912484619140625,-0.8058807983398437,1.4472849996612944,-2.564526611328125,-0.6928395385742188
1741504921.1220536,-2.8749204874038696,0.02358981612987099,-0.03916517533531073,-0.9989542580198121,-0.13456833362579346,-0.4988856017589569,0.2577122151851654,-0.03870520368218422,-3.092067003250122,9.64509391784668,-0.2718009948730469,0.9016170501708984,0.08335240930318832,-1.3275585174560547,0.005149920005351305,-0.6212329268455505,0.2504386901855469,1.3615097999572754,0.004005493130534887,0.5891889929771423,0.1329442262649536,-0.5750743746757507,0.007438773289322853,-0.004005493130534887,0.7436865568161011,-0.23205140233039856,0.010863915085792542,-0.7738231420516968,-0.07648584991693497,-0.18863965570926666,1.0095750093460083,-0.3218982517719269,0.0015070935478433967,-0.2840897738933563,-0.01602676510810852,0.47560805082321167,0.4450586438179016,0.0004976515774615109,-1.2299588918685913,1.0235618352890015,-0.016266025602817535,0.013816035352647305,1.2374842166900635,0.16943855583667755,1.0451408624649048,-0.060687169432640076,-0.029478326439857483,0.4487780034542084,-1.9890170097351074,0.02162192016839981,1.545629858970642,-0.13213516771793365,0.017263060435652733,-4.122296333312988,2.4997098445892334,-0.09869755059480667,1741504921.1720104,1741504921073,-1.94139111328125,-0.8282154541015625,1.1813213563683684,-2.734165283203125,-0.693443115234375
1741504921.1420982,-2.8702038526535034,0.013250316164492997,-0.03362892062263488,-0.9993465489104856,-0.29387661814689636,-0.520966649055481,0.1823202669620514,1.8942594528198242,0.25093597173690796,7.9039130210876465,-0.2733268737792969,0.8985652923583984,0.09899290651082993,-1.3206919431686401,0.005149920005351305,-0.6437399983406067,0.2611200213432312,1.361128330230713,0.004005493130534887,0.6082627773284912,0.14667734503746033,-0.5605783462524414,0.005912871100008488,-0.008201723918318748,0.7558938264846802,-0.2763379216194153,0.01808132603764534,-0.734149694442749,-0.07763027399778366,-0.1977950781583786,0.9058136940002441,-0.2761259078979492,0.0010035131126642227,-0.054936982691287994,-0.06643638014793396,0.8294858932495117,0.44628530740737915,-0.01161852478981018,-1.1231794357299805,0.6522569060325623,-0.06223949417471886,0.00026384342345409095,1.3117860555648804,0.8100066781044006,0.6130898594856262,-0.12778349220752716,-0.2943190634250641,0.5754337906837463,-2.241245746612549,0.45032384991645813,2.0196428298950195,-0.05980629846453667,-0.649726390838623,-5.311342716217041,2.212407350540161,-0.07053173333406448,1741504921.1720104,1741504921073,-1.94139111328125,-0.8282154541015625,1.1813213563683684,-2.734165283203125,-0.693443115234375
1741504921.1621165,-2.8712035417556763,0.0022641808472366864,-0.030338201011202732,-0.9995371263962608,-0.10517222434282303,-0.5182268023490906,-0.07725472748279572,1.4511058330535889,0.9572471976280212,9.012553215026855,-0.2653160095214844,0.8958950042724609,0.1199740618467331,-1.3130624294281006,0.00476844422519207,-0.6620507836341858,0.265697717666626,1.3576951026916504,0.004005493130534887,0.6292439103126526,0.1672770231962204,-0.5510414242744446,-0.000572213320992887,-0.013160906732082367,0.7726787328720093,-0.31398382782936096,0.023013882339000702,-0.691805899143219,-0.07801175117492676,-0.21763180196285248,0.7925154566764832,-0.24130623042583466,-0.0014255433343350887,0.23832401633262634,-0.07480576634407043,1.067599892616272,0.5200111269950867,-0.019738322123885155,-0.8807507753372192,0.2773742377758026,-0.2767527103424072,-0.0007366223144344985,1.433081030845642,0.9701634645462036,0.6705899238586426,-0.31781578063964844,-0.27011242508888245,0.9222673177719116,-1.761618733406067,0.2294113039970398,2.1462619304656982,-0.015904122963547707,-1.0502963066101074,-5.463845252990723,1.5716493129730225,-0.1501552164554596,1741504921.1720104,1741504921073,-1.94139111328125,-0.8282154541015625,1.1813213563683684,-2.734165283203125,-0.693443115234375
1741504921.182127,-2.8797614574432373,-0.004209966535417543,-0.03324295762784644,-0.9994384332963806,0.18112677335739136,-0.2884145975112915,-0.4786028265953064,1.504621148109436,1.3702120780944824,8.424032211303711,-0.2573051452636719,0.8806362152099609,0.14667734503746033,-1.307721734046936,0.00476844422519207,-0.6792172193527222,0.2641718089580536,1.3458693027496338,0.004005493130534887,0.6509880423545837,0.1806286722421646,-0.5277714133262634,-0.007057297509163618,-0.013542382046580315,0.7902265787124634,-0.3401589095592499,0.01983725093305111,-0.6521324515342712,-0.0879301130771637,-0.24052032828330994,0.7043945789337158,-0.2237197607755661,-0.005845874547958374,0.22343841195106506,-0.4297596514225006,1.3684619665145874,0.34916844964027405,-0.009715731255710125,-0.8779672384262085,-0.18015018105506897,-0.8471755981445312,-0.0024735727347433567,1.4682903289794922,0.6610329151153564,1.1791929006576538,-0.4074540436267853,0.21142615377902985,0.7971199750900269,-1.2648528814315796,-0.0835747942328453,1.8533743619918823,-0.6519771218299866,-1.0001107454299927,-4.0561909675598145,0.7042376399040222,-0.24972203373908997,1741504921.1720104,1741504921073,-1.94139111328125,-0.8282154541015625,1.1813213563683684,-2.734165283203125,-0.693443115234375
1741504921.2021608,-2.8971976041793823,-0.008345895413889222,-0.04200082088236801,-0.999082717834188,0.497522234916687,-0.2737860679626465,-0.9007484316825867,-3.0898406505584717,-5.15955114364624,16.021574020385742,-0.2527275085449219,0.8741512298583984,0.17528800666332245,-1.3058143854141235,0.005149920005351305,-0.691805899143219,0.25539788603782654,1.3302288055419922,0.004005493130534887,0.6723506450653076,0.19016556441783905,-0.507553219795227,-0.018120087683200836,-0.008964675478637218,0.8016708493232727,-0.3574696183204651,0.025263281539082527,-0.6330586671829224,-0.10166323184967041,-0.2466239482164383,0.6746395230293274,-0.21423688530921936,-0.012305393815040588,0.14090020954608917,-0.24566125869750977,1.3933242559432983,0.06208711862564087,0.004192390479147434,-0.6360107660293579,-0.6152454614639282,-1.089219093322754,0.005469605792313814,1.3767367601394653,0.4650975167751312,0.9242350459098816,-0.4798484444618225,0.14125438034534454,0.5239737629890442,-0.8031555414199829,0.42263883352279663,0.9857863187789917,-0.6723223924636841,-0.21787893772125244,-0.5566176176071167,0.41756123304367065,-0.3986813426017761,1741504921.1720104,1741504921073,-1.94139111328125,-0.8282154541015625,1.1813213563683684,-2.734165283203125,-0.693443115234375
1741504921.2244575,-2.9160441160202026,-0.012972434328602714,-0.05296668903436266,-0.998512015851751,0.5415018796920776,-0.20419593155384064,-0.945936918258667,2.9744439125061035,0.24592359364032745,11.713275909423828,-0.2592124938964844,0.8791103363037109,0.20618753135204315,-1.3073402643203735,0.005149920005351305,-0.7017242908477783,0.23899443447589874,1.3176400661468506,0.004005493130534887,0.6914244294166565,0.18940261006355286,-0.481612890958786,-0.039101243019104004,-0.00476844422519207,0.8016708493232727,-0.3696041703224182,0.017471250146627426,-0.6109330654144287,-0.10738536715507507,-0.23212787508964539,0.693331778049469,-0.21802368760108948,-0.01813318394124508,-0.18743237853050232,0.048153601586818695,1.6546216011047363,-0.1024731993675232,-0.002203458221629262,-0.5017623901367188,-1.133196234703064,-0.7068740725517273,0.0055384025909006596,1.2813154458999634,-0.1895146667957306,1.3795453310012817,-1.4159879684448242,0.2074657678604126,-0.020004114136099815,-0.565945029258728,-0.6233222484588623,1.0051506757736206,-0.24260373413562775,0.99687260389328,0.7429998517036438,-0.2862839996814728,-0.16815386712551117,1741504921.274679,1741504921173,-1.9717097167968751,-0.8370515747070313,0.9957931309563938,-2.880432861328125,-0.6897338256835938
1741504921.2421825,-2.9303462505340576,-0.020040187459747075,-0.06376812704483181,-0.9977635074804914,0.5116579532623291,-0.3969656527042389,-0.5935477018356323,2.711650848388672,4.744305610656738,11.172709465026855,-0.2710380554199219,0.8901729583740234,0.23746852576732635,-1.3073402643203735,0.005149920005351305,-0.7097352743148804,0.21725031733512878,1.3096290826797485,0.004005493130534887,0.7078278660774231,0.1817730963230133,-0.465209424495697,-0.06275273114442825,-0.01926451548933983,0.80510413646698,-0.37856823205947876,0.00814581848680973,-0.5823224186897278,-0.1199740618467331,-0.19092851877212524,0.7017242908477783,-0.2311069518327713,-0.005161004606634378,-0.4016830623149872,0.2331019639968872,1.5197434425354004,0.02673352137207985,0.0019535620231181383,-0.33583176136016846,-1.4478435516357422,-0.5365304350852966,0.005239243619143963,1.0370454788208008,-0.27229931950569153,0.5990537405014038,-0.9517536759376526,-0.971941351890564,0.2956659197807312,-0.47633373737335205,-0.2750231921672821,1.54594087600708,-0.7290621399879456,2.1688668727874756,0.3481242060661316,-0.6472445130348206,0.6776372194290161,1741504921.274679,1741504921173,-1.9717097167968751,-0.8370515747070313,0.9957931309563938,-2.880432861328125,-0.6897338256835938
1741504921.2623246,-2.926981806755066,-0.023694798985199637,-0.07485837343008417,-0.9969126242697768,0.5418821573257446,-0.10378901660442352,0.2632754445075989,-3.2563588619232178,-2.5321755409240723,8.137495040893555,-0.2870607376098633,0.8859767913818359,0.2573052644729614,-1.307721734046936,0.00476844422519207,-0.7146944403648376,0.20160982012748718,1.3050514459609985,0.0036240178160369396,0.7192721366882324,0.17376211285591125,-0.47436484694480896,-0.08869306743144989,-0.05664911866188049,0.8531700372695923,-0.39221420884132385,0.011276587843894958,-0.572022557258606,-0.1192111074924469,-0.16346226632595062,0.7120240926742554,-0.23658037185668945,0.0025410389062017202,-0.47804638743400574,-0.1224423423409462,0.713880181312561,-0.011250538751482964,-0.029562434181571007,-0.32201847434043884,-0.9237667322158813,-0.33490654826164246,-0.013718955218791962,0.6940554976463318,-0.5196214318275452,-0.977047324180603,-1.412366271018982,-1.998023509979248,2.9322285652160645,-0.7278940677642822,0.08940861374139786,0.3399232029914856,-0.05176863819360733,1.1097168922424316,0.6603923439979553,-0.2254331111907959,0.35163286328315735,1741504921.274679,1741504921173,-1.9717097167968751,-0.8370515747070313,0.9957931309563938,-2.880432861328125,-0.6897338256835938
1741504921.2826083,-2.910310745239258,-0.021226639013841885,-0.08111463640856022,-0.9964787230826773,0.30756840109825134,0.2396131157875061,0.8627954125404358,-5.934573650360107,1.875512719154358,6.312056541442871,-0.3068971633911133,0.8688106536865234,0.25577935576438904,-1.305432915687561,0.00476844422519207,-0.726901650428772,0.18825818598270416,1.2978034019470215,0.0036240178160369396,0.726901650428772,0.17147326469421387,-0.5380712747573853,-0.11654078215360641,-0.08373387902975082,0.9718089699745178,-0.4124752879142761,0.0015667788684368134,-0.579270601272583,-0.12760357558727264,-0.1501106321811676,0.7330052852630615,-0.24212971329689026,0.0005537027027457952,-0.5645085573196411,-0.4791269302368164,-0.04206331819295883,0.19761647284030914,-0.04281124845147133,-0.6654620170593262,-0.9822794795036316,-0.5303890109062195,0.006126181222498417,0.5589772462844849,0.011145035736262798,-3.641514778137207,-1.3094401359558105,-1.0864816904067993,6.327211380004883,-1.0815972089767456,-0.4475787580013275,-0.43381205201148987,-0.35679101943969727,0.6196889281272888,1.0356999635696411,-0.3319539725780487,-0.06141572818160057,1741504921.274679,1741504921173,-1.9717097167968751,-0.8370515747070313,0.9957931309563938,-2.880432861328125,-0.6897338256835938
1741504921.3023477,-2.8931355476379395,-0.012294427877885192,-0.08300956372067919,-0.9964729095033432,0.057913366705179214,0.5191583037376404,0.8189414739608765,-0.9338141083717346,2.02767014503479,9.07285213470459,-0.3145265579223633,0.8585109710693359,0.2573052644729614,-1.300473690032959,0.00476844422519207,-0.7463569045066833,0.1672770231962204,1.290173888206482,0.0036240178160369396,0.7345311641693115,0.18558785319328308,-0.6410696506500244,-0.134470134973526,-0.08525978773832321,1.1175326108932495,-0.4378916621208191,-0.00025948058464564383,-0.5975814461708069,-0.12340734153985977,-0.14362554252147675,0.7593270540237427,-0.2572757303714752,0.005292146001011133,-0.2532363533973694,-0.308429479598999,0.07192344963550568,0.3339300751686096,-0.002697603777050972,-1.0290569067001343,-1.4711425304412842,-0.4938054382801056,0.0057492684572935104,0.453635036945343,0.7840819954872131,-5.272586345672607,-0.8117773532867432,-0.015057237818837166,7.32065486907959,-1.2407318353652954,0.048857785761356354,-0.946746826171875,0.2550206780433655,0.3691205382347107,1.352907419204712,-0.8085761070251465,0.2981707751750946,1741504921.274679,1741504921173,-1.9717097167968751,-0.8370515747070313,0.9957931309563938,-2.880432861328125,-0.6897338256835938
1741504921.3223526,-2.889808177947998,-0.0038566773144828284,-0.07777950607278351,-0.9969631259355413,-0.29790806770324707,0.37514010071754456,0.04587799683213234,-1.512647032737732,7.45088005065918,10.87074089050293,-0.3171968460083008,0.8623256683349609,0.2630273997783661,-1.294751524925232,0.00476844422519207,-0.76276034116745,0.14171816408634186,1.2859776020050049,0.004386968910694122,0.7391088604927063,0.20313572883605957,-0.734912633895874,-0.14209964871406555,-0.07877469807863235,1.2319753170013428,-0.4556659460067749,0.0010696372482925653,-0.6139848828315735,-0.12302586436271667,-0.1359960287809372,0.7898451089859009,-0.2777515947818756,0.012762585654854774,-0.12152402848005295,0.09693927317857742,0.3190501928329468,0.37707993388175964,-0.008976124227046967,-0.7551911473274231,-1.7545435428619385,-0.20261557400226593,0.05188426375389099,0.22960111498832703,1.013532280921936,-4.397867202758789,-0.30020132660865784,0.39421406388282776,5.234500408172607,-0.772826611995697,-0.01727384887635708,-0.7281431555747986,0.013571469113230705,0.3182084858417511,1.5004057884216309,-1.0658074617385864,0.3879292607307434,1741504921.274679,1741504921173,-1.9717097167968751,-0.8370515747070313,0.9957931309563938,-2.880432861328125,-0.6897338256835938
1741504921.3423731,-2.902309775352478,0.00036745244043063873,-0.07192935081034481,-0.9974096618093823,-0.2858715057373047,0.10686273127794266,-0.7344903349876404,3.4594404697418213,3.470421314239502,11.74417781829834,-0.3053712844848633,0.8733882904052734,0.2759975492954254,-1.294751524925232,0.005149920005351305,-0.770771324634552,0.11463340371847153,1.2863590717315674,0.004386968910694122,0.7379644513130188,0.2309834510087967,-0.7848859429359436,-0.14591439068317413,-0.07572289556264877,1.2636377811431885,-0.4586906433105469,-0.0063614146783947945,-0.6162737607955933,-0.12188144028186798,-0.12989242374897003,0.8150225281715393,-0.3024236261844635,0.0189227182418108,0.34367847442626953,0.2920302152633667,0.7295691967010498,-0.00997066032141447,0.013839409686625004,-0.26626890897750854,-1.7845532894134521,0.019670171663165092,-0.007191437762230635,-0.14329437911510468,1.3854806423187256,-2.0530776977539062,-0.24229884147644043,0.07294604182243347,0.811776340007782,-0.008539566770195961,-0.4003288447856903,-0.02387465350329876,0.011850646696984768,0.28651291131973267,1.2218613624572754,-1.2680977582931519,0.36991941928863525,1741504921.374148,1741504921273,-2.0016016845703124,-0.8519542846679687,1.2786820907394714,-3.02136767578125,-0.6878462524414063
