Freshhhhh-LC/Legged_odom/data/3/segments/booster_seg_9.84s.csv
time,yaw,projected_gravity_x,projected_gravity_y,projected_gravity_z,ang_vel_x,ang_vel_y,ang_vel_z,lin_acc_x,lin_acc_y,lin_acc_z,q_0,q_1,q_2,q_3,q_4,q_5,q_6,q_7,q_8,q_9,q_10,q_11,q_12,q_13,q_14,q_15,q_16,q_17,q_18,q_19,q_20,q_21,q_22,dq_0,dq_1,dq_2,dq_3,dq_4,dq_5,dq_6,dq_7,dq_8,dq_9,dq_10,dq_11,dq_12,dq_13,dq_14,dq_15,dq_16,dq_17,dq_18,dq_19,dq_20,dq_21,dq_22,mocap_time,mocap_timestamp,robot_x,robot_y,robot_yaw,ball_x,ball_y
1741504791.5412588,-4.648999214172363,0.04418984425301411,-0.005574480364510553,-0.9990075989868947,-0.5201296806335449,-0.6990537643432617,0.07218171656131744,-10.641952514648438,5.271108150482178,20.852657318115234,0.15545082092285156,0.6849393844604492,0.4491874575614929,-1.2535521984100342,0.005149920005351305,-0.8638513684272766,-0.023460745811462402,1.2371487617492676,0.014686808921396732,0.9260318875312805,0.2595941126346588,-0.8127336502075195,-0.0883115902543068,-0.09632257372140884,0.7860303521156311,-0.38421809673309326,-0.020447278395295143,-0.3583962619304657,0.02994582988321781,-0.23594263195991516,0.805867075920105,-0.5079371929168701,-0.03715076670050621,2.2470290660858154,0.5637173652648926,-0.9771862626075745,0.36054685711860657,0.02326800860464573,1.4253886938095093,1.9551334381103516,0.20739233493804932,-0.0062032947316765785,-1.2271702289581299,0.5762485861778259,1.7361135482788086,0.6624051928520203,-0.36678510904312134,1.6097750663757324,1.9465457201004028,-1.3100810050964355,1.541835904121399,0.18030281364917755,-0.8302829265594482,0.4810364246368408,1.2148828506469727,-1.0750287771224976,1741504791.530251,1741504791433,1.39243798828125,-0.43060940551757815,0.7723307511594137,0.8391892700195313,-0.7561732177734375
1741504791.5431018,-4.7254884243011475,0.038089487955803504,0.005485702715289338,-0.9992592746494696,0.32389217615127563,0.1521492898464203,-1.4327187538146973,1.4767698049545288,-1.3253695964813232,9.276932716369629,0.4606313705444336,0.6715879440307617,0.0879301130771637,-1.2691926956176758,0.005149920005351305,-0.7887006998062134,0.20504310727119446,1.2943700551986694,0.01506828423589468,0.8119707107543945,0.2790493667125702,-0.6719691753387451,-0.006294346414506435,-0.11615930497646332,0.777256429195404,-0.21598632633686066,-0.03460995852947235,-0.6467918157577515,-0.0558861680328846,-0.28362706303596497,1.3174258470535278,-0.5044816136360168,-0.0022581894882023335,1.1539262533187866,0.041977837681770325,-2.8934926986694336,-0.10016240924596786,-0.00478118471801281,0.07412192225456238,2.9244163036346436,0.25086724758148193,0.0095621757209301,-0.8707844018936157,-0.4686087667942047,1.5842469930648804,1.2214395999908447,0.9440999627113342,-0.07272405922412872,0.08154645562171936,-0.003339226357638836,-3.2458724975585938,-1.1646438837051392,0.1436465084552765,2.204937696456909,-2.240054130554199,0.44873419404029846,1741504791.530251,1741504791433,1.39243798828125,-0.43060940551757815,0.7723307511594137,0.8391892700195313,-0.7561732177734375
1741504791.5494244,-4.107282876968384,0.0486979398626938,-0.044119513064162286,-0.9978386539015768,-0.47038230299949646,-0.059775784611701965,0.487078458070755,2.9486052989959717,-2.473240375518799,3.133004903793335,0.054360389709472656,0.8997097015380859,0.10662241280078888,-1.3451063632965088,0.00476844422519207,-0.54112309217453,0.2149614691734314,1.381346583366394,0.01506828423589468,0.5334935784339905,-0.1665140837430954,-0.580033540725708,0.007057297509163618,0.15621423721313477,0.7204165458679199,-0.1664612889289856,0.009586703963577747,-0.8306630253791809,0.1039520874619484,0.14248111844062805,1.098840355873108,-0.3754819631576538,0.0031500544864684343,0.004981622565537691,-0.09176353365182877,0.06714732199907303,0.20320749282836914,-0.011124473065137863,0.18885448575019836,0.43079638481140137,0.19600868225097656,2.1051951989647932e-05,-0.01413555908948183,0.6553584337234497,-0.7154753804206848,0.011807373724877834,-0.5571098923683167,1.2519842386245728,-1.1069164276123047,-0.267900675535202,2.58721661567688,0.25580015778541565,0.30804207921028137,-7.7562971115112305,1.2856760025024414,-0.21748985350131989,1741504791.530251,1741504791433,1.39243798828125,-0.43060940551757815,0.7723307511594137,0.8391892700195313,-0.7561732177734375
1741504791.5695047,-4.093183994293213,0.04410555613821064,-0.033548957111992773,-0.9984634031322513,-0.5521186590194702,-0.21240776777267456,0.727251410484314,-0.4296942353248596,-0.047087233513593674,2.511108875274658,0.054741859436035156,0.8924617767333984,0.11348897218704224,-1.3420546054840088,0.00476844422519207,-0.5384527444839478,0.21877622604370117,1.381346583366394,0.014686808921396732,0.5342565178871155,-0.15812161564826965,-0.6067368388175964,-0.0024795911740511656,0.15468832850456238,0.7505531311035156,-0.19371403753757477,0.012797383591532707,-0.760471522808075,0.10433356463909149,0.14591439068317413,0.8997100591659546,-0.35338467359542847,-0.0006380905397236347,0.0030700918287038803,-0.22519518435001373,0.36379534006118774,0.17913679778575897,-0.005233820527791977,0.10865321010351181,0.18446041643619537,-0.024104183539748192,-0.004612105432897806,0.053657110780477524,0.35676756501197815,-1.409166932106018,-0.61557537317276,0.2608582079410553,1.5961904525756836,-1.4050167798995972,0.2900654375553131,3.544813871383667,-0.08319627493619919,0.19030357897281647,-10.004356384277344,0.9860838651657104,-0.13897807896137238,1741504791.530251,1741504791433,1.39243798828125,-0.43060940551757815,0.7723307511594137,0.8391892700195313,-0.7561732177734375
1741504791.5894983,-4.073015213012695,0.044165296227997856,-0.027777742697014517,-0.9986379842664466,-0.25343024730682373,0.1138230636715889,0.9890036582946777,66.52015686035156,20.873672485351562,58.129512786865234,0.060082435607910156,0.8798732757568359,0.12111848592758179,-1.3420546054840088,0.00476844422519207,-0.5407415628433228,0.21992065012454987,1.3790576457977295,0.014686808921396732,0.5357823967933655,-0.15888457000255585,-0.6273365616798401,-0.013542382046580315,0.15774014592170715,0.7932783961296082,-0.2254219651222229,0.03193632885813713,-0.7055390477180481,0.07953765243291855,0.15850308537483215,0.7394903302192688,-0.3176332116127014,0.020115487277507782,0.11500418931245804,-0.35820314288139343,0.3692503571510315,-0.02272498793900013,-0.005141414236277342,-0.11052577942609787,0.12025488913059235,-0.1839207261800766,-0.009227961301803589,0.07714743912220001,-0.07891301810741425,-1.0543320178985596,-0.04561445116996765,0.0727444663643837,2.1385998725891113,-1.6787723302841187,1.0706603527069092,2.053825855255127,-1.385817289352417,0.5716656446456909,-6.246062278747559,2.624318838119507,1.8126288652420044,1741504791.6349769,1741504791533,1.3940396728515625,-0.42159771728515627,-0.6645449454338992,0.7391416015625,-0.8679357299804688
1741504791.6095119,-4.052245140075684,0.04628490121499855,-0.02758104623676553,-0.9985474419415451,-0.1090402603149414,0.2938435673713684,0.9811411499977112,-2.222142219543457,-8.933146476745605,18.924144744873047,0.07114505767822266,0.8913173675537109,0.12340734153985977,-1.3481581211090088,0.00476844422519207,-0.5407415628433228,0.22297245264053345,1.372191071510315,0.014686808921396732,0.5281528830528259,-0.16956588625907898,-0.6349660754203796,0.01773861236870289,0.15430685877799988,0.8100633025169373,-0.26185330748558044,0.04837630316615105,-0.7139315009117126,0.08602273464202881,0.15774014592170715,0.7703898549079895,-0.24122042953968048,0.06541530042886734,0.23869866132736206,0.2846062481403351,0.15040944516658783,-0.4369182586669922,-0.0007758145802654326,0.02313147485256195,0.10039816796779633,-0.5307864546775818,0.01769370585680008,-0.5667930841445923,-0.9923446178436279,-0.07566680759191513,1.0895897150039673,0.3634587228298187,0.2216714471578598,-1.831324577331543,0.3162755072116852,-0.7324623465538025,-0.059661004692316055,0.3916935622692108,1.1928622722625732,3.400885581970215,1.6703410148620605,1741504791.6349769,1741504791533,1.3940396728515625,-0.42159771728515627,-0.6645449454338992,0.7391416015625,-0.8679357299804688
1741504791.6295059,-4.038680791854858,0.04954925722537568,-0.02824564274646444,-0.9983722025248163,0.16482168436050415,0.1489396095275879,0.698380708694458,1.8089897632598877,3.2978155612945557,6.576084136962891,0.07610416412353516,0.9016170501708984,0.1371404528617859,-1.3542617559432983,0.005149920005351305,-0.5388342142105103,0.21992065012454987,1.3637986183166504,0.014686808921396732,0.5235751867294312,-0.1970321238040924,-0.6265735626220703,-0.0013351644156500697,0.18863965570926666,0.8085374236106873,-0.2874438762664795,0.03595789149403572,-0.7169833183288574,0.05970092490315437,0.17986571788787842,0.7475013136863708,-0.2013901323080063,0.0414859876036644,0.19816024601459503,0.3845118284225464,0.7891335487365723,-0.4793742001056671,0.007900181226432323,0.12369522452354431,-0.21342216432094574,-0.5662624835968018,0.0018615834414958954,-0.304754376411438,-1.07854163646698,0.4361036717891693,-1.1756891012191772,1.7472492456436157,0.3117395341396332,-1.1731795072555542,-0.1560799926519394,0.4638025164604187,-1.0367014408111572,0.9325182437896729,-1.596359372138977,1.727065920829773,-1.6942205429077148,1741504791.6349769,1741504791533,1.3940396728515625,-0.42159771728515627,-0.6645449454338992,0.7391416015625,-0.8679357299804688
1741504791.6495867,-4.028183221817017,0.04413993685456451,-0.04980306850035762,-0.9977832030769127,1.2004212141036987,-0.33152347803115845,0.5628418326377869,-6.756389141082764,2.6921398639678955,15.08908748626709,0.10166358947753906,0.9142065048217773,0.16079194843769073,-1.372191071510315,0.005149920005351305,-0.535400927066803,0.2141985148191452,1.3531173467636108,0.01430533267557621,0.5224307775497437,-0.2134355753660202,-0.6254291534423828,-0.001716639962978661,0.21076524257659912,0.8272297382354736,-0.3136753737926483,0.04068484157323837,-0.689517080783844,0.03337911143898964,0.18596932291984558,0.7177462577819824,-0.17141498625278473,0.020906522870063782,0.6923778057098389,0.4656006693840027,1.1990313529968262,-1.2952994108200073,-0.010581894777715206,0.1545458883047104,-0.4007759094238281,-0.7749015092849731,-0.0005339265917427838,-0.02605932392179966,-1.1096932888031006,0.06355719268321991,0.32965537905693054,1.0686230659484863,0.7473267912864685,-1.4409997463226318,-0.016558075323700905,1.0970009565353394,-1.264086365699768,0.22726505994796753,-0.8230781555175781,1.7351669073104858,-0.2958601713180542,1741504791.6349769,1741504791533,1.3940396728515625,-0.42159771728515627,-0.6645449454338992,0.7391416015625,-0.8679357299804688
1741504791.6696026,-4.015016555786133,0.03337311080795178,-0.07529329357174862,-0.9966028072497682,1.1593778133392334,-0.5119549036026001,0.729735255241394,3.399543285369873,3.5284383296966553,4.472450256347656,0.08831119537353516,0.9161138534545898,0.18635080754756927,-1.385924220085144,0.005149920005351305,-0.533875048160553,0.21076524257659912,1.3386212587356567,0.01430533267557621,0.5228122472763062,-0.25158312916755676,-0.6185625791549683,0.0036240178160369396,0.24128328263759613,0.840962827205658,-0.3474843502044678,0.010616541840136051,-0.6879911422729492,0.005149920005351305,0.21114671230316162,0.7207980751991272,-0.1408797651529312,0.040661972016096115,-0.315618634223938,0.14813795685768127,1.2463265657424927,-0.6810188293457031,-0.018563151359558105,0.05386512354016304,-0.21829551458358765,-0.952870786190033,-0.005552681628614664,0.051127370446920395,-1.7869831323623657,0.357825368642807,0.05855466425418854,1.8178318738937378,0.8241027593612671,-1.7485393285751343,-1.7592085599899292,0.19220024347305298,-1.7032443284988403,1.5072942972183228,-0.008725118823349476,1.3897632360458374,0.8646507263183594,1741504791.6349769,1741504791533,1.3940396728515625,-0.42159771728515627,-0.6645449454338992,0.7391416015625,-0.8679357299804688
1741504791.68959,-3.997586250305176,0.02047211328234345,-0.0959405785431227,-0.9951765159842579,1.0267211198806763,-0.5831435918807983,0.9407612085342407,-3.4710726737976074,-1.9165050983428955,11.338176727294922,0.07038211822509766,0.9126806259155273,0.20695048570632935,-1.3870686292648315,0.005149920005351305,-0.5315861701965332,0.20618753135204315,1.3264141082763672,0.01430533267557621,0.5258640646934509,-0.26798656582832336,-0.6258106231689453,0.007057297509163618,0.2927824854850769,0.8848325610160828,-0.3763445019721985,-0.01209492888301611,-0.6773098111152649,-0.0013351644156500697,0.21152819693088531,0.7158388495445251,-0.11834750324487686,0.04531960189342499,-0.47864171862602234,-0.06396375596523285,0.9789247512817383,-0.18314261734485626,-0.0030381965916603804,0.1151333898305893,-0.32343199849128723,-0.8130598068237305,-0.0003194429737050086,0.1875956803560257,-0.6037235856056213,-0.5831276178359985,0.508996844291687,2.3769054412841797,2.436345338821411,-1.2605904340744019,-0.7535647749900818,0.45709314942359924,-0.1041879802942276,-0.5224606990814209,-0.2150758057832718,1.0213756561279297,0.06469902396202087,1741504791.6349769,1741504791533,1.3940396728515625,-0.42159771728515627,-0.6645449454338992,0.7391416015625,-0.8679357299804688
1741504791.7096026,-3.9775071144104004,0.01143415687726894,-0.10517105630440805,-0.9943884095122594,0.3131803572177887,-0.2661644220352173,1.0232617855072021,0.29896029829978943,-0.019233588129281998,11.859782218933105,0.050545692443847656,0.8985652923583984,0.22068360447883606,-1.3870686292648315,0.00476844422519207,-0.5308232307434082,0.2004653960466385,1.315732717514038,0.01430533267557621,0.5258640646934509,-0.26874953508377075,-0.654421329498291,0.026131074875593185,0.32063019275665283,0.9481574892997742,-0.3832125961780548,-0.0008830510778352618,-0.6757839322090149,-0.01773861236870289,0.1958876997232437,0.7169833183288574,-0.11035887151956558,0.03497423976659775,-0.6126212477684021,-0.42223599553108215,0.6037046909332275,0.14440087974071503,-0.01791512221097946,0.02414511889219284,-0.3963497579097748,-0.6049840450286865,0.009970628656446934,-0.018571531400084496,0.09372738748788834,-1.5795944929122925,1.0223199129104614,1.224837064743042,3.2207038402557373,-0.14906442165374756,0.5155326724052429,0.0481560118496418,-1.3445179462432861,-0.4174012243747711,0.12709376215934753,0.2714400887489319,-0.4519707262516022,1741504791.6349769,1741504791533,1.3940396728515625,-0.42159771728515627,-0.6645449454338992,0.7391416015625,-0.8679357299804688
1741504791.729663,-3.9564483165740967,0.008402014013196556,-0.09999452294720437,-0.9949525122040163,-0.32627761363983154,-0.021817542612552643,1.059550166130066,0.8226506114006042,3.8047354221343994,8.851065635681152,0.038720130920410156,0.8897914886474609,0.22640573978424072,-1.3767688274383545,0.00476844422519207,-0.5304417610168457,0.19512474536895752,1.314969778060913,0.01430533267557621,0.5258640646934509,-0.25196459889411926,-0.6929503083229065,0.03833829239010811,0.31986725330352783,1.0088120698928833,-0.36878031492233276,-0.004792441613972187,-0.6723506450653076,-0.04100862145423889,0.17490653693675995,0.7196536064147949,-0.11552862077951431,0.04173019900918007,-0.36631491780281067,-0.28854480385780334,0.20047004520893097,0.7402886152267456,0.0018581165932118893,0.013819894753396511,-0.3670228123664856,-0.017601443454623222,-0.003105218755081296,0.02877122163772583,1.0611602067947388,-1.8919843435287476,0.4878166615962982,-0.1901247650384903,2.859107494354248,0.8680797219276428,-0.2591467797756195,0.289951354265213,-0.763595700263977,-1.5129468441009521,0.06015299633145332,-0.3470976650714874,0.5409484505653381,1741504791.6349769,1741504791533,1.3940396728515625,-0.42159771728515627,-0.6645449454338992,0.7391416015625,-0.8679357299804688
1741504791.7496514,-3.9388561248779297,0.00817682143326295,-0.08695848031223456,-0.9961783787520361,-0.722297191619873,0.09538818150758743,0.7973749041557312,-0.9524359703063965,2.7040624618530273,11.802979469299316,0.037957191467285156,0.8878841400146484,0.22678720951080322,-1.364943027496338,0.00476844422519207,-0.5304417610168457,0.18673227727413177,1.317258596420288,0.01430533267557621,0.5258640646934509,-0.2298390120267868,-0.7135500311851501,0.048638131469488144,0.3057526648044586,1.042763352394104,-0.3429983854293823,-0.006817663554102182,-0.6647211313247681,-0.054741740226745605,0.14438849687576294,0.7127870321273804,-0.1312851905822754,0.057444434612989426,-0.05088438093662262,-0.070297472178936,-0.006056513637304306,0.7149141430854797,-0.012030419893562794,-0.019601767882704735,-0.6572811007499695,0.17045734822750092,-0.008300220593810081,-0.011707165278494358,1.1169482469558716,-0.6800278425216675,0.5064781308174133,-0.695712685585022,1.4146313667297363,1.291812539100647,0.08717946708202362,0.2674963176250458,-1.0764520168304443,-1.105484127998352,-0.30117201805114746,-0.7779920697212219,0.6376767158508301,1741504791.8367774,1741504791633,1.403810546875,-0.4160159912109375,-0.2607728137739815,0.6396510009765625,-0.9748372192382813
1741504791.7697248,-3.922367811203003,0.006867067932655314,-0.06995945185167596,-0.9975261993925881,-0.8319851160049438,-0.0725274384021759,0.7216967940330505,1.091316819190979,3.9541561603546143,4.43911600112915,0.039101600646972656,0.8966579437255859,0.2290760725736618,-1.358839511871338,0.00476844422519207,-0.5289158225059509,0.17109178006649017,1.3248881101608276,0.01430533267557621,0.5270084738731384,-0.22068360447883606,-0.7127870321273804,0.05703059583902359,0.2962157726287842,1.0408560037612915,-0.31927433609962463,0.0031537883915007114,-0.6563286781311035,-0.07457847148180008,0.13218127191066742,0.7143129706382751,-0.14151690900325775,0.07087904214859009,0.01787532866001129,0.29731228947639465,0.1518966555595398,0.3239583671092987,-0.006634741090238094,0.08820958435535431,-1.1018668413162231,0.6374334692955017,-0.00012734401389025152,0.033149030059576035,0.23217935860157013,0.10636067390441895,0.45707541704177856,-0.39823850989341736,-0.4749894440174103,1.1181092262268066,0.4419333040714264,0.6110013723373413,-0.7780704498291016,-0.5951122045516968,0.026137882843613625,-0.5254102945327759,0.6577755808830261,1741504791.8367774,1741504791633,1.403810546875,-0.4160159912109375,-0.2607728137739815,0.6396510009765625,-0.9748372192382813
1741504791.7896826,-3.909331798553467,0.0026495877385339004,-0.06150377742848803,-0.9981033338521832,-0.3573765456676483,-0.18719972670078278,0.6270962953567505,0.6424503326416016,5.209146499633789,6.422459602355957,0.061608314514160156,0.8997097015380859,0.23441672325134277,-1.3599839210510254,0.005149920005351305,-0.5289158225059509,0.15850308537483215,1.3332805633544922,0.01430533267557621,0.5277714133262634,-0.21992065012454987,-0.691042959690094,0.08106355369091034,0.2924010157585144,1.0072861909866333,-0.3080384135246277,0.005624144803732634,-0.6422140598297119,-0.08449683338403702,0.13103684782981873,0.7120240926742554,-0.15267471969127655,0.07542817294597626,0.6464936137199402,0.11967817693948746,0.2626325786113739,-0.10831739753484726,-0.004857633728533983,-0.02616092562675476,-0.7266378998756409,0.46830418705940247,0.002802633447572589,0.052681755274534225,0.05842478200793266,1.2275012731552124,1.4102200269699097,-0.26594701409339905,-1.8765531778335571,0.4449422061443329,0.018729323521256447,0.6765679121017456,-0.6061040163040161,0.08503704518079758,-0.008990487083792686,-0.5159825086593628,0.22121606767177582,1741504791.8367774,1741504791633,1.403810546875,-0.4160159912109375,-0.2607728137739815,0.6396510009765625,-0.9748372192382813
1741504791.809715,-3.9015655517578125,-0.004995627504553121,-0.060487146331374544,-0.9981564751252794,-0.0370604544878006,-0.4024489223957062,0.36794477701187134,1.9712272882461548,1.1511167287826538,6.896240711212158,0.07038211822509766,0.8978023529052734,0.23670557141304016,-1.3653244972229004,0.005149920005351305,-0.5300602912902832,0.1508735716342926,1.3370953798294067,0.01430533267557621,0.5289158225059509,-0.2302204966545105,-0.6586175560951233,0.08182650804519653,0.28667888045310974,0.954261064529419,-0.3120085299015045,0.0015882336301729083,-0.6353475451469421,-0.0871671661734581,0.1333257108926773,0.7158388495445251,-0.16394782066345215,0.08118396252393723,0.2837100625038147,-0.01992899551987648,0.08280608057975769,-0.36009249091148376,-0.0027085787151008844,-0.022339340299367905,-0.5258983373641968,0.22905322909355164,-0.0016002609627321362,0.05127781629562378,-0.6686339378356934,1.690558910369873,-0.03691347688436508,-0.2679949104785919,-2.7276530265808105,-0.29870355129241943,-0.10436591506004333,0.16885800659656525,-0.21327447891235352,0.12025389075279236,0.20862609148025513,-0.6020793914794922,0.28747642040252686,1741504791.8367774,1741504791633,1.403810546875,-0.4160159912109375,-0.2607728137739815,0.6396510009765625,-0.9748372192382813
1741504791.8297372,-3.8913450241088867,-0.013128708122560891,-0.06265993842710244,-0.9979485804085021,0.1345374584197998,-0.33286523818969727,0.5193475484848022,2.4781484603881836,1.2798612117767334,5.539628028869629,0.06961917877197266,0.8905544281005859,0.23517967760562897,-1.3679949045181274,0.005149920005351305,-0.5300602912902832,0.14667734503746033,1.3359509706497192,0.01430533267557621,0.5331120491027832,-0.25501641631126404,-0.6177996397018433,0.07724879682064056,0.28400853276252747,0.8859769701957703,-0.3252526819705963,0.0010418927995488048,-0.6357290148735046,-0.08907453715801239,0.13981078565120697,0.7295719981193542,-0.17334745824337006,0.09036596864461899,-0.0029487861320376396,-0.1969980001449585,-0.08400626480579376,-0.21380242705345154,-0.00030605721985921264,-0.018646111711859703,-0.20878736674785614,-0.12591971457004547,-0.0033827193547040224,0.27974310517311096,-1.2419300079345703,2.0313351154327393,-0.27109241485595703,-0.0277250986546278,-3.6532607078552246,-0.6873854398727417,0.09657897800207138,0.008022993803024292,-0.01151711493730545,0.2707313001155853,0.7675080895423889,-0.5032989978790283,0.5159114599227905,1741504791.8367774,1741504791633,1.403810546875,-0.4160159912109375,-0.2607728137739815,0.6396510009765625,-0.9748372192382813
1741504791.8497784,-3.88000226020813,-0.01820471896349958,-0.06364165761891251,-0.9978067586576956,0.00895420927554369,-0.13881394267082214,0.5686268210411072,15.966171264648438,4.155832767486572,23.055557250976562,0.061989784240722656,0.8848323822021484,0.2309834510087967,-1.3687578439712524,0.00476844422519207,-0.5308232307434082,0.14705882966518402,1.3321361541748047,0.01430533267557621,0.5395971536636353,-0.2821011543273926,-0.5796520709991455,0.0707637146115303,0.30079346895217896,0.8100633025169373,-0.3310122787952423,0.01062216330319643,-0.6425955891609192,-0.0875486359000206,0.14095520973205566,0.7505531311035156,-0.18497925996780396,0.09833385795354843,-0.2308443784713745,-0.13779081404209137,-0.21683402359485626,0.003315735375508666,-0.005852078087627888,-0.03806912526488304,0.025644440203905106,-0.27320414781570435,0.007507293485105038,0.44116079807281494,-1.3752306699752808,1.835031509399414,-0.43176475167274475,1.2092549800872803,-3.482835292816162,-0.030157191678881645,0.8258256316184998,-0.4457305073738098,0.06271705031394958,-0.006585435010492802,1.1753185987472534,-0.5504608750343323,0.4700157642364502,1741504791.8367774,1741504791633,1.403810546875,-0.4160159912109375,-0.2607728137739815,0.6396510009765625,-0.9748372192382813
1741504791.8697853,-3.860799551010132,-0.023868884704445995,-0.0635753775024154,-0.9976915594102174,0.09746266901493073,-0.2789687216281891,1.071228265762329,2.3983850479125977,5.009006977081299,9.610405921936035,0.057412147521972656,0.8947505950927734,0.22602425515651703,-1.3679949045181274,0.005149920005351305,-0.5277714133262634,0.14858472347259521,1.3290843963623047,0.01430533267557621,0.54264897108078,-0.2962157726287842,-0.5651560425758362,0.04253452271223068,0.32940414547920227,0.7955672740936279,-0.31010109186172485,0.056082602590322495,-0.6517509818077087,-0.10051880776882172,0.14057374000549316,0.7753490209579468,-0.20018601417541504,0.10161619633436203,-0.11926017701625824,0.31730374693870544,-0.2522270083427429,-0.012201462872326374,0.024459242820739746,0.17263846099376678,0.16825580596923828,-0.13416072726249695,0.0014639837900176644,0.17592908442020416,-0.5903013944625854,0.4826131761074066,-1.54386568069458,0.9154285788536072,-0.7980285882949829,1.0404170751571655,1.909537434577942,-0.4044836163520813,-0.5871016383171082,0.14849990606307983,1.1075271368026733,-0.900255024433136,-0.08030442893505096,1741504791.8367774,1741504791633,1.403810546875,-0.4160159912109375,-0.2607728137739815,0.6396510009765625,-0.9748372192382813
1741504791.8898163,-3.8373894691467285,-0.03282659742996489,-0.06932414908021071,-0.9970539488189571,0.28900274634361267,-0.34704020619392395,1.2403115034103394,-5.403850078582764,4.853475570678711,12.628386497497559,0.06733036041259766,0.9012355804443359,0.2149614691734314,-1.369139313697815,0.00476844422519207,-0.5312047004699707,0.15621423721313477,1.3298473358154297,0.01430533267557621,0.54417484998703,-0.3130006790161133,-0.5506599545478821,0.023079270496964455,0.30346378684043884,0.7616159319877625,-0.2861950695514679,0.038806598633527756,-0.6540398001670837,-0.1024261862039566,0.16079194843769073,0.7967116832733154,-0.22983723878860474,0.0709601491689682,0.2634772062301636,0.23884397745132446,-0.6199417114257812,-0.006551371421664953,-0.007868403568863869,-0.21153607964515686,0.5668307542800903,0.047863978892564774,0.008513262495398521,0.08823102712631226,-0.9324344992637634,1.2088960409164429,-0.9286198616027832,-1.6356897354125977,-1.7483501434326172,1.311822772026062,-0.9559568166732788,-0.19640876352787018,0.007594096474349499,1.2488754987716675,1.1834379434585571,-1.527268409729004,-1.6439076662063599,1741504791.8367774,1741504791633,1.403810546875,-0.4160159912109375,-0.2607728137739815,0.6396510009765625,-0.9748372192382813
1741504791.9098248,-3.815434455871582,-0.03541317189248952,-0.07163449383219328,-0.9968020899606493,0.06813373416662216,-0.060541633516550064,1.080304503440857,-3.7096996307373047,-2.4782016277313232,11.381939888000488,0.07038211822509766,0.8958950042724609,0.1993209719657898,-1.3653244972229004,0.00476844422519207,-0.5350194573402405,0.1676585078239441,1.3313732147216797,0.01430533267557621,0.5437933802604675,-0.3233005404472351,-0.5258640646934509,0.00019073777366429567,0.2950713336467743,0.7352941036224365,-0.258531779050827,0.04794647544622421,-0.6681544184684753,-0.0871671661734581,0.1958876997232437,0.8291370868682861,-0.2705730199813843,0.035539619624614716,0.1074419841170311,-0.09694018959999084,-0.8016244769096375,0.28231945633888245,-0.003033050335943699,-0.1604023575782776,0.7833269834518433,0.09978287667036057,-0.0032384467776864767,-0.06002349033951759,-0.341508686542511,1.0504226684570312,-1.0956177711486816,-0.22584852576255798,-1.3508011102676392,1.2579715251922607,0.746013343334198,-0.8508169054985046,0.8273671269416809,1.8967410326004028,1.762622594833374,-2.1348111629486084,-1.640807032585144,1741504791.8367774,1741504791633,1.403810546875,-0.4160159912109375,-0.2607728137739815,0.6396510009765625,-0.9748372192382813
1741504791.9298801,-3.8034005165100098,-0.03345863666137973,-0.0669037153891675,-0.9971982814364889,-0.2564094364643097,0.216691255569458,0.510096549987793,-5.125767230987549,4.396070957183838,9.971426010131836,0.07038211822509766,0.8901729583740234,0.18673227727413177,-1.359602451324463,0.00476844422519207,-0.5399786233901978,0.17490653693675995,1.3367139101028442,0.014686808921396732,0.5445563197135925,-0.3229190409183502,-0.5128938555717468,-0.009727626107633114,0.28591591119766235,0.7066834568977356,-0.23901627957820892,0.05893973633646965,-0.6879911422729492,-0.057793546468019485,0.2302204966545105,0.8844510316848755,-0.3220507502555847,0.005960309412330389,0.00063298549503088,-0.14199422299861908,-0.5685308575630188,0.3684602677822113,0.0008904535206966102,-0.3138580918312073,0.3325912058353424,0.5292908549308777,0.03577977418899536,0.06596696376800537,0.10787658393383026,0.7826343774795532,-0.5546787977218628,-0.6030558943748474,-1.2210893630981445,0.9530082941055298,0.24182653427124023,-0.9760630130767822,1.5355162620544434,1.6192013025283813,3.064650774002075,-2.6117606163024902,-1.453328251838684,1741504791.8367774,1741504791633,1.403810546875,-0.4160159912109375,-0.2607728137739815,0.6396510009765625,-0.9748372192382813
1741504791.94987,-3.796320915222168,-0.029080252542882313,-0.060888675509271524,-0.9977208568065362,-0.3132260739803314,0.14700323343276978,0.3471716046333313,0.5258583426475525,2.289365291595459,10.152763366699219,0.07763004302978516,0.8932247161865234,0.17986571788787842,-1.3512099981307983,0.005149920005351305,-0.5464637279510498,0.17185473442077637,1.3584580421447754,0.01506828423589468,0.5498970150947571,-0.3065156042575836,-0.5098420977592468,-0.021171892061829567,0.26951247453689575,0.6849393248558044,-0.22737255692481995,0.05578643083572388,-0.7227054238319397,-0.021171892061829567,0.24128328263759613,0.9714275002479553,-0.36890262365341187,-0.0013495978200808167,0.2290130853652954,0.14638423919677734,-0.2843514680862427,0.5683857202529907,0.019171016290783882,-0.236497700214386,-0.19110943377017975,1.4508750438690186,0.008770085871219635,0.440534770488739,0.9442753195762634,-0.006832912564277649,-0.49020081758499146,-0.8924998641014099,-1.1434988975524902,0.46933218836784363,-0.020026713609695435,-1.9782795906066895,1.7781016826629639,0.3720853626728058,4.506834506988525,-2.151590347290039,-0.0788796991109848,1741504792.0495346,1741504791833,1.381906494140625,-0.4582501220703125,-0.1907471218911438,0.4499257202148438,-1.1726003417968751
1741504791.9698932,-3.7961738109588623,-0.026394428955035586,-0.055326260166612545,-0.9981194012021378,-0.25963905453681946,0.19238951802253723,0.0654158890247345,-0.6002865433692932,0.42841610312461853,8.637938499450684,0.08106327056884766,0.8951320648193359,0.17948424816131592,-1.3439619541168213,0.00476844422519207,-0.5472266674041748,0.16994735598564148,1.37295401096344,0.01506828423589468,0.5544747114181519,-0.28591591119766235,-0.5064088106155396,-0.03452353551983833,0.24929426610469818,0.6708247661590576,-0.22068394720554352,0.05613317713141441,-0.7738231420516968,0.009346150793135166,0.23594263195991516,1.0801479816436768,-0.3895423114299774,0.013690629042685032,0.10259184241294861,0.0818205326795578,-0.0031408010981976986,0.49720340967178345,-0.014659502543509007,-0.03865135833621025,-0.09112932533025742,0.8401316404342651,-0.0052281999960541725,0.24843312799930573,0.9275450110435486,0.1716907024383545,-0.679652750492096,-1.1766537427902222,-0.5991566181182861,0.3274649977684021,-0.03199164196848869,-2.547971248626709,1.4798325300216675,-0.3697880804538727,5.604858875274658,-0.8321227431297302,0.6027124524116516,1741504792.0495346,1741504791833,1.381906494140625,-0.4582501220703125,-0.1907471218911438,0.4499257202148438,-1.1726003417968751
1741504791.9899209,-3.791970729827881,-0.023074616532135123,-0.0522655841598473,-0.9983666013966638,-0.15853233635425568,0.11514261364936829,0.2015244960784912,-0.3812086582183838,-2.0527877807617188,10.908196449279785,0.08297061920166016,0.8939876556396484,0.17910276353359222,-1.3382397890090942,0.00476844422519207,-0.5476081371307373,0.17185473442077637,1.3782947063446045,0.01506828423589468,0.5575265288352966,-0.2801937758922577,-0.5136567950248718,-0.04253452271223068,0.2294575423002243,0.6582360863685608,-0.22140690684318542,0.05622541904449463,-0.8287556171417236,0.03452353551983833,0.22068360447883606,1.185053825378418,-0.3885229527950287,0.004143794998526573,0.0567830353975296,0.021113788709044456,-0.01583981141448021,0.33643338084220886,-0.002566620707511902,-0.009015073999762535,0.12306377291679382,0.24206584692001343,0.01101669017225504,0.16013848781585693,0.2941264808177948,-0.4995064437389374,-0.399884968996048,-0.8019912838935852,-0.6256815791130066,-0.12164126336574554,0.20144660770893097,-2.8191614151000977,1.2421050071716309,-0.8106977939605713,4.905659198760986,0.20895615220069885,-0.5600892305374146,1741504792.0495346,1741504791833,1.381906494140625,-0.4582501220703125,-0.1907471218911438,0.4499257202148438,-1.1726003417968751
1741504792.0099444,-3.7836391925811768,-0.020293358843867324,-0.04955524640513259,-0.9985651992436752,-0.09699643403291702,0.19982632994651794,0.4774351418018341,0.45704391598701477,-2.5358455181121826,10.206809043884277,0.07839298248291016,0.8913173675537109,0.17528800666332245,-1.3370953798294067,0.00476844422519207,-0.5479896068572998,0.17452506721019745,1.380202054977417,0.01506828423589468,0.5598153471946716,-0.2744716703891754,-0.5247195959091187,-0.04901960864663124,0.21725031733512878,0.6532768607139587,-0.22558023035526276,0.061165694147348404,-0.8745326995849609,0.061226826161146164,0.20160982012748718,1.2472343444824219,-0.3718864619731903,0.0011621280573308468,-0.11289651691913605,-0.0626339316368103,-0.2733752429485321,0.06326619535684586,-0.001362213515676558,-0.059472374618053436,0.24356330931186676,0.09971790015697479,0.00966948177665472,0.16058456897735596,0.21415740251541138,-0.46338868141174316,-0.204159215092659,-0.6678063273429871,-0.1541137397289276,-0.17188751697540283,0.132009819149971,-2.0017213821411133,1.3299347162246704,-0.9361581206321716,2.791971445083618,0.9297272562980652,0.09198635816574097,1741504792.0495346,1741504791833,1.381906494140625,-0.4582501220703125,-0.1907471218911438,0.4499257202148438,-1.1726003417968751
1741504792.030007,-3.768867015838623,-0.017735385836003384,-0.04785647696820755,-0.9986967576303828,-0.08982669562101364,0.1800421178340912,0.7830701470375061,1.9324976205825806,-2.6162452697753906,9.35964584350586,0.07381534576416016,0.8909358978271484,0.1668955534696579,-1.3363324403762817,0.00476844422519207,-0.5525673031806946,0.1832990050315857,1.379439115524292,0.014686808921396732,0.5609598159790039,-0.2733272314071655,-0.5334935784339905,-0.05092698708176613,0.20160982012748718,0.6513695120811462,-0.23301836848258972,0.06419685482978821,-0.8829251527786255,0.08106355369091034,0.18902114033699036,1.256771206855774,-0.3505062162876129,0.006581418681889772,-0.1462107002735138,-0.013624032028019428,-0.39648473262786865,0.0419984832406044,-0.0056340196169912815,-0.27270302176475525,0.6263790726661682,-0.07933013141155243,-0.0021304467227309942,0.021399149671196938,0.10778233408927917,-0.6561273336410522,-0.14327304065227509,-0.5840736031532288,-0.1524810791015625,-0.4519256055355072,0.314125120639801,-0.14307916164398193,0.939801037311554,-0.5713890194892883,0.054037727415561676,1.0413919687271118,0.21490876376628876,1741504792.0495346,1741504791833,1.381906494140625,-0.4582501220703125,-0.1907471218911438,0.4499257202148438,-1.1726003417968751
1741504792.0499759,-3.7500088214874268,-0.011876910144508876,-0.04145601906929112,-0.9990697360486633,-0.33007922768592834,0.4121573865413666,0.9396095871925354,3.109949827194214,0.08546292036771774,8.295110702514648,0.06923770904541016,0.8840694427490234,0.16079194843769073,-1.3351880311965942,0.00476844422519207,-0.5579079985618591,0.19474326074123383,1.378676176071167,0.01506828423589468,0.5605783462524414,-0.26684215664863586,-0.5407415628433228,-0.05283436179161072,0.19169145822525024,0.6532768607139587,-0.24501821398735046,0.07411220669746399,-0.8676661252975464,0.09136339277029037,0.18711376190185547,1.2129014730453491,-0.3332061171531677,-7.393709644532009e-09,-0.13970288634300232,-0.21246010065078735,-0.3079903721809387,0.06487830728292465,-0.006149741820991039,-0.26230931282043457,0.7826897501945496,-0.0621894896030426,0.0013059739721938968,-0.025164710357785225,0.37351250648498535,-0.26133203506469727,-0.0271897092461586,-0.5176008343696594,0.15866659581661224,-0.6236271262168884,0.5088298916816711,0.8785809874534607,0.5283344388008118,-0.0727417916059494,-2.6012375354766846,0.7651270627975464,-0.30544397234916687,1741504792.0495346,1741504791833,1.381906494140625,-0.4582501220703125,-0.1907471218911438,0.4499257202148438,-1.1726003417968751
1741504792.0713298,-3.7301523685455322,-0.006039650713306222,-0.03343748958548135,-0.9994225617372674,-0.39776718616485596,0.30002665519714355,1.0123685598373413,1.1261379718780518,-1.90656316280365,7.406607627868652,0.06694889068603516,0.8833065032958984,0.15697719156742096,-1.3348065614700317,0.00476844422519207,-0.5575265288352966,0.20771344006061554,1.376387357711792,0.01506828423589468,0.5598153471946716,-0.25158312916755676,-0.5533303022384644,-0.05283436179161072,0.182154580950737,0.6582360863685608,-0.2546248435974121,0.08517535030841827,-0.8333333134651184,0.09441519528627396,0.18978407979011536,1.120965838432312,-0.3290744423866272,-0.00546069024130702,-0.07434114068746567,-0.047209907323122025,-0.1733873039484024,0.011215566657483578,-0.008730479516088963,0.07998747378587723,0.8515976071357727,-0.1781698763370514,0.004081022925674915,-0.03883377090096474,0.9201695322990417,-0.6796217560768127,-0.003322240198031068,-0.40982362627983093,0.28857648372650146,-0.43664148449897766,0.5841212868690491,1.892676591873169,0.07565855979919434,0.16744357347488403,-4.878452777862549,0.051921725273132324,-0.15349359810352325,1741504792.0495346,1741504791833,1.381906494140625,-0.4582501220703125,-0.1907471218911438,0.4499257202148438,-1.1726003417968751
1741504792.0900247,-3.7102198600769043,-0.0011259512925045174,-0.02482389361888091,-0.9996912055926497,-0.4200964570045471,0.28810298442840576,0.9806418418884277,1.4788602590560913,0.7576159834861755,6.316619873046875,0.07076358795166016,0.8859767913818359,0.15659570693969727,-1.3351880311965942,0.00476844422519207,-0.5544747114181519,0.21915769577026367,1.3725725412368774,0.01506828423589468,0.5598153471946716,-0.23556114733219147,-0.5636301040649414,-0.0555046908557415,0.17795833945274353,0.6654840707778931,-0.26173293590545654,0.09017359465360641,-0.7837415337562561,0.09021896868944168,0.18711376190185547,1.0034713745117188,-0.34081175923347473,-0.0030259876511991024,0.07766831666231155,0.053159356117248535,0.008958348073065281,-0.021076597273349762,-0.001667573000304401,0.11897291243076324,0.7308607697486877,-0.24759072065353394,0.005266229156404734,0.009584282524883747,0.7881486415863037,-0.44554799795150757,-0.1704445481300354,-0.08538558334112167,0.36717548966407776,-0.30017539858818054,0.0994359478354454,2.5735836029052734,-0.2233736515045166,-0.304979145526886,-6.004774570465088,-0.6692274212837219,0.13654725253582,1741504792.0495346,1741504791833,1.381906494140625,-0.4582501220703125,-0.1907471218911438,0.4499257202148438,-1.1726003417968751
1741504792.110039,-3.689519166946411,0.0019294414339425749,-0.02100556626921031,-0.9997774969669315,-0.1429157555103302,0.1398671567440033,1.0476529598236084,1.7810258865356445,2.0223114490509033,7.373846530914307,0.08030033111572266,0.8886470794677734,0.15812161564826965,-1.3363324403762817,0.00476844422519207,-0.5533303022384644,0.22640573978424072,1.3687578439712524,0.014686808921396732,0.5601968169212341,-0.22373540699481964,-0.5727855563163757,-0.06275273114442825,0.1802472025156021,0.6681544184684753,-0.2625991106033325,0.09326884895563126,-0.7337682247161865,0.07763027399778366,0.1813916265964508,0.8760585784912109,-0.3643128573894501,-0.0027303004171699286,0.269744873046875,0.09411664307117462,0.10118190944194794,-0.10787638276815414,-0.005383611191064119,0.03495725244283676,0.42499876022338867,-0.30285874009132385,0.0021421373821794987,0.024218754842877388,0.579509437084198,-0.5147668719291687,-0.4312058091163635,0.18468260765075684,0.06903547048568726,-0.0065107946284115314,0.28678208589553833,2.5142998695373535,-0.8599947094917297,-0.2540709972381592,-6.387240886688232,-1.2433607578277588,-0.09926272928714752,1741504792.1442473,1741504792033,1.3563822021484375,-0.48829443359375,-0.0971957315422223,0.2690039978027344,-1.3573984375
1741504792.130157,-3.670180320739746,0.004881260624435913,-0.027789997218099514,-0.9996018654190949,0.4266373813152313,0.1833345741033554,0.9314317107200623,-1.3244112730026245,4.30704402923584,7.889467716217041,0.09632301330566406,0.8878841400146484,0.16269932687282562,-1.3428175449371338,0.005149920005351305,-0.5537117719650269,0.2294575423002243,1.3599839210510254,0.014686808921396732,0.5605783462524414,-0.22220951318740845,-0.5811780095100403,-0.07877469807863235,0.18825818598270416,0.6700618267059326,-0.2628595232963562,0.1055058017373085,-0.691805899143219,0.04253452271223068,0.1810101419687271,0.7616159319877625,-0.3866554796695709,0.002421213546767831,0.4563300609588623,-0.009463426657021046,0.21660935878753662,-0.49766990542411804,-0.002189353108406067,-0.02634166181087494,0.14936800301074982,-0.6456480026245117,0.001872484921477735,0.01531392801553011,-0.07512369751930237,-0.4102233052253723,-0.8794369697570801,0.4043428301811218,0.10262603312730789,-0.01968172937631607,0.6257210969924927,2.0469696521759033,-1.867139458656311,0.15280570089817047,-5.398359775543213,-0.8255442380905151,0.6301795840263367,1741504792.1442473,1741504792033,1.3563822021484375,-0.48829443359375,-0.0971957315422223,0.2690039978027344,-1.3573984375
1741504792.1500857,-3.6546592712402344,0.006053854054224543,-0.04513036683295417,-0.99896276248948,0.8588135242462158,0.05312320217490196,0.7948688268661499,-1.429265022277832,0.11580774188041687,14.728199005126953,0.09975624084472656,0.8970394134521484,0.16918440163135529,-1.3542617559432983,0.005149920005351305,-0.5525673031806946,0.2290760725736618,1.3493025302886963,0.014686808921396732,0.5582894682884216,-0.22411687672138214,-0.5853742361068726,-0.09517814964056015,0.20313572883605957,0.6670100092887878,-0.26082637906074524,0.1055261567234993,-0.6727321147918701,0.021553369238972664,0.19436179101467133,0.7475013136863708,-0.3646204471588135,0.0568663589656353,0.1301405280828476,0.24798676371574402,0.3431050479412079,-0.847213864326477,0.0031340941786766052,0.039427805691957474,-0.010508490726351738,-0.7024410367012024,0.006356494501233101,-0.26424452662467957,0.008732151240110397,-0.11722157150506973,-0.682072103023529,0.8710163235664368,-0.41676393151283264,0.06459349393844604,-0.05898509919643402,0.7387082576751709,-1.3403592109680176,0.5569599270820618,-0.05351438373327255,1.1616705656051636,2.427962064743042,1741504792.1442473,1741504792033,1.3563822021484375,-0.48829443359375,-0.0971957315422223,0.2690039978027344,-1.3573984375
1741504792.1700938,-3.64504337310791,0.006957522804953906,-0.05740370285254704,-0.9983268040953499,0.5904881358146667,0.015595568343997002,0.42750975489616394,1.525952935218811,0.5640333294868469,9.340185165405273,0.08220767974853516,0.9050502777099609,0.17986571788787842,-1.3599839210510254,0.005149920005351305,-0.5548561811447144,0.22678720951080322,1.3397656679153442,0.014686808921396732,0.5560005903244019,-0.23365376889705658,-0.578507661819458,-0.11005569249391556,0.23899443447589874,0.6540398001670837,-0.2705489695072174,0.08203797787427902,-0.6715877056121826,-0.03223468363285065,0.20160982012748718,0.7372015118598938,-0.3463793098926544,0.032242726534605026,-0.5005239844322205,0.2539790868759155,0.5216129422187805,-0.2742367684841156,0.00011764009832404554,-0.10047394037246704,-0.1738913357257843,-0.6070324778556824,0.00726766511797905,-0.09361939132213593,-0.5470643043518066,0.1618274748325348,-0.5716121792793274,1.9121127128601074,-0.4588462710380554,-0.5885965824127197,-1.4253085851669312,0.42897289991378784,-2.6031384468078613,0.3029126822948456,-0.8875957131385803,0.9607179164886475,-1.5040072202682495,1741504792.1442473,1741504792033,1.3563822021484375,-0.48829443359375,-0.0971957315422223,0.2690039978027344,-1.3573984375
1741504792.1901484,-3.636500120162964,0.0036363728762509955,-0.07238450373011561,-0.9973701722089195,0.8239129185676575,-0.13378393650054932,0.4042687714099884,2.991107225418091,-3.278667688369751,6.98756742477417,0.08258914947509766,0.9039058685302734,0.19169145822525024,-1.3645615577697754,0.005149920005351305,-0.5537117719650269,0.22449836134910583,1.3328990936279297,0.014686808921396732,0.5567635893821716,-0.23937590420246124,-0.5819409489631653,-0.1028076633810997,0.2786678969860077,0.6879911422729492,-0.29413995146751404,0.034198224544525146,-0.6509880423545837,-0.06389715522527695,0.19474326074123383,0.7040131092071533,-0.30988574028015137,0.051062580198049545,-0.029560960829257965,0.013123204931616783,0.60076504945755,-0.48262307047843933,-0.00387521437369287,0.06585915386676788,-0.1512383371591568,-0.4180191159248352,-0.020484725013375282,0.037173300981521606,-0.0904238298535347,-0.2553682029247284,0.6408785581588745,1.891775369644165,2.455061435699463,-1.2227551937103271,-2.625321388244629,1.0360716581344604,-1.2660084962844849,-0.21180525422096252,-1.6760629415512085,2.0308096408843994,1.605088710784912,1741504792.1442473,1741504792033,1.3563822021484375,-0.48829443359375,-0.0971957315422223,0.2690039978027344,-1.3573984375
1741504792.2102,-3.6250027418136597,0.00018376830745431858,-0.08296056579463638,-0.9965528138298757,0.4135840833187103,-0.12216223776340485,0.5983407497406006,-0.16282615065574646,-3.5717835426330566,7.167281150817871,0.06694889068603516,0.8966579437255859,0.20237277448177338,-1.3687578439712524,0.00476844422519207,-0.5540932416915894,0.21953918039798737,1.3275585174560547,0.014686808921396732,0.5575265288352966,-0.2450980395078659,-0.6177996397018433,-0.071908138692379,0.3114747703075409,0.7822155952453613,-0.3258538842201233,-0.012810318730771542,-0.6334401369094849,-0.09250781685113907,0.19359883666038513,0.6685358881950378,-0.26602235436439514,0.06845226138830185,-0.4324672520160675,-0.2165660560131073,0.52925705909729,-0.11401902884244919,-0.01369090098887682,-0.03614819794893265,-0.3611653745174408,-0.331773966550827,-0.0032909149304032326,0.04421938955783844,-0.41737100481987,-2.334717273712158,1.5535938739776611,1.7325717210769653,5.024357795715332,-1.5492041110992432,-2.077589988708496,0.9122631549835205,-1.4963284730911255,-0.228230819106102,-1.6505539417266846,2.1961209774017334,0.24669983983039856,1741504792.2468164,1741504792133,1.3553647460937501,-0.492941650390625,0.08627792861811262,0.18251229858398438,-1.4441529541015625
1741504792.2301948,-3.599657654762268,-0.004317428076491828,-0.08563097550798256,-0.9963175677706159,0.09286478906869888,-0.06723390519618988,1.2040632963180542,0.9968683123588562,-1.957135796546936,8.909050941467285,0.052071571350097656,0.8897914886474609,0.20771344006061554,-1.3630356788635254,0.00476844422519207,-0.5540932416915894,0.212672621011734,1.3233622312545776,0.01430533267557621,0.5594338774681091,-0.25501641631126404,-0.6689173579216003,-0.03795681521296501,0.33016708493232727,0.9065766334533691,-0.35316789150238037,0.00015270846779458225,-0.6219958662986755,-0.1024261862039566,0.1672770231962204,0.647173285484314,-0.22423477470874786,0.05442867800593376,-0.46838653087615967,-0.19122779369354248,0.19482555985450745,0.40894824266433716,-0.028927870094776154,-0.018619630485773087,-0.44771623611450195,-0.25082913041114807,-0.000811806065030396,0.06997813284397125,-0.4805319309234619,-2.4157955646514893,1.8555879592895508,0.6047624945640564,6.143819332122803,-1.265553593635559,1.036487102508545,0.5845018029212952,-0.2936623692512512,-1.407736897468567,-0.9653782844543457,1.9799340963363647,-0.7180167436599731,1741504792.2468164,1741504792133,1.3553647460937501,-0.492941650390625,0.08627792861811262,0.18251229858398438,-1.4441529541015625
1741504792.2501936,-3.5767929553985596,-0.008439422983316585,-0.08057423403009469,-0.9967128819023923,-0.3158542513847351,-0.12073463201522827,1.1063330173492432,1.211946964263916,2.549473285675049,9.541829109191895,0.049782752990722656,0.8871212005615234,0.20809490978717804,-1.3554061651229858,0.00476844422519207,-0.5548561811447144,0.20847637951374054,1.3233622312545776,0.014686808921396732,0.5582894682884216,-0.2580682039260864,-0.7063019871711731,0.007057297509163618,0.32673379778862,1.0095750093460083,-0.3649216592311859,0.0074902805499732494,-0.6177996397018433,-0.11158160120248795,0.14476996660232544,0.6292439103126526,-0.19684241712093353,0.045391995459795,-0.1269964724779129,-0.041309330612421036,0.029531016945838928,0.5254400968551636,-0.0073579284362494946,-0.023224366828799248,-0.28090015053749084,0.04159405082464218,0.00489058205857873,-0.06154826655983925,-0.16228359937667847,-1.6094468832015991,2.1665685176849365,-0.24232982099056244,4.759878158569336,-0.44810357689857483,-0.12470017373561859,0.09484561532735825,-0.6415293216705322,-1.0097267627716064,-0.9105448722839355,1.2504615783691406,-0.1261076182126999,1741504792.2468164,1741504792133,1.3553647460937501,-0.492941650390625,0.08627792861811262,0.18251229858398438,-1.4441529541015625
1741504792.270237,-3.5573172569274902,-0.013074474413720397,-0.06882214534991588,-0.9975432674467007,-0.573178231716156,-0.15339341759681702,0.9905295372009277,-0.8168860077857971,6.208132743835449,9.948378562927246,0.049019813537597656,0.8871212005615234,0.20962081849575043,-1.3496840000152588,0.00476844422519207,-0.5548561811447144,0.20160982012748718,1.3248881101608276,0.014686808921396732,0.5586709380149841,-0.2595941126346588,-0.7051575779914856,0.03452353551983833,0.3107118308544159,1.0599298477172852,-0.3649515211582184,-0.010812838561832905,-0.6132219433784485,-0.12722209095954895,0.12836651504039764,0.6181811094284058,-0.18252743780612946,0.06331899017095566,-0.05088703706860542,0.03384270891547203,0.07289626449346542,0.2552345395088196,0.008187489584088326,0.0011929001193493605,-0.5030978918075562,0.07010024785995483,-0.003238446544855833,0.05669993534684181,0.009736555628478527,0.23743890225887299,1.2694810628890991,-0.824126124382019,1.9342931509017944,0.006777821108698845,-0.6847115755081177,0.5139378905296326,-0.8660026788711548,-0.8505462408065796,-0.42541226744651794,0.5690792202949524,0.9468134641647339,1741504792.2468164,1741504792133,1.3553647460937501,-0.492941650390625,0.08627792861811262,0.18251229858398438,-1.4441529541015625
1741504792.2902434,-3.5447616577148438,-0.016999042424036798,-0.0573249018261055,-0.9982108435532511,-0.5642668604850769,-0.19245830178260803,0.5427019596099854,-0.059605468064546585,1.8380857706069946,8.263473510742188,0.058556556701660156,0.8909358978271484,0.21000228822231293,-1.3504470586776733,0.00476844422519207,-0.5548561811447144,0.19398032128810883,1.3245066404342651,0.014686808921396732,0.5586709380149841,-0.2580682039260864,-0.6837949156761169,0.058175019919872284,0.28706035017967224,1.0488669872283936,-0.3678233325481415,0.003115949686616659,-0.5998703241348267,-0.15430685877799988,0.10852979123592377,0.615129292011261,-0.18271061778068542,0.07900667935609818,0.23674386739730835,0.12029984593391418,0.030424412339925766,-0.07287051528692245,-0.010522446595132351,-0.003923249430954456,-0.5248348116874695,-0.01259706262499094,0.005693322513252497,-0.010967796668410301,0.11962645500898361,1.2205079793930054,1.3231456279754639,-1.31009042263031,-0.8588762283325195,-0.21270468831062317,0.8436828255653381,0.5353018045425415,-1.4882746934890747,-1.0228099822998047,-0.11470221728086472,-0.08568175882101059,0.7417697906494141,1741504792.2468164,1741504792133,1.3553647460937501,-0.492941650390625,0.08627792861811262,0.18251229858398438,-1.4441529541015625
1741504792.3134556,-3.5417298078536987,-0.021083321923626042,-0.04802881714004784,-0.9986234156381437,-0.4336806535720825,-0.1709589660167694,0.0862983986735344,-0.8210988640785217,-0.7119695544242859,6.037413597106934,0.06885623931884766,0.8882656097412109,0.2134355753660202,-1.3542617559432983,0.005149920005351305,-0.5525673031806946,0.18520638346672058,1.3245066404342651,0.014686808921396732,0.5598153471946716,-0.25425344705581665,-0.647173285484314,0.08220797777175903,0.25310903787612915,1.0030899047851562,-0.37957078218460083,0.00874278787523508,-0.5964370369911194,-0.17757686972618103,0.09098191559314728,0.6300068497657776,-0.1887982189655304,0.10050826519727707,0.2914372384548187,-0.07011043280363083,0.19042755663394928,-0.26907211542129517,-0.009235240519046783,0.09176024049520493,-0.5699854493141174,-0.001409530290402472,-0.007802740205079317,0.048784904181957245,0.16546374559402466,1.8782376050949097,0.961344301700592,-1.6723096370697021,-2.5255351066589355,-0.6792535781860352,-0.03543383628129959,0.16219381988048553,-0.9179216623306274,-0.8041154742240906,0.9453607797622681,-0.3209457993507385,1.045322299003601,1741504792.35675,1741504792233,1.3530838623046875,-0.5162255249023437,0.0013892687439929102,0.09791533660888672,-1.5275611572265626
1741504792.3302813,-3.543772578239441,-0.023551102495704027,-0.04039902902014619,-0.9989060336315255,-0.3772888481616974,-0.14114588499069214,-0.08581313490867615,0.28023475408554077,1.0124647617340088,4.330378532409668,0.07038211822509766,0.8802547454833984,0.22068360447883606,-1.3569320440292358,0.005149920005351305,-0.5533303022384644,0.17452506721019745,1.3245066404342651,0.014686808921396732,0.5609598159790039,-0.2603570520877838,-0.6029220819473267,0.08945601433515549,0.22449836134910583,0.924887478351593,-0.40299373865127563,-0.002031675074249506,-0.6082627773284912,-0.182154580950737,0.08373387902975082,0.6612878441810608,-0.19889283180236816,0.11134159564971924,0.05113423615694046,-0.23232170939445496,0.3925570845603943,-0.12460321187973022,-0.006304076872766018,-0.01998952403664589,-0.7510855793952942,-0.007463414687663317,0.016170499846339226,0.1090594157576561,-0.5414755940437317,2.2056643962860107,0.37605714797973633,-1.3366177082061768,-4.255739212036133,-1.2955150604248047,-0.48562487959861755,-0.7728909850120544,-0.1278708130121231,-0.32642635703086853,1.6690653562545776,-0.4908905327320099,0.4928060472011566,1741504792.35675,1741504792233,1.3530838623046875,-0.5162255249023437,0.0013892687439929102,0.09791533660888672,-1.5275611572265626
1741504792.350354,-3.540643095970154,-0.028706521745082394,-0.0336788282657868,-0.9990203562170006,-0.34422770142555237,-0.30200421810150146,0.25915420055389404,-12.161177635192871,-24.391666412353516,33.09612274169922,0.06504154205322266,0.8859767913818359,0.2313649207353592,-1.3569320440292358,0.00476844422519207,-0.5521858334541321,0.15926603972911835,1.3245066404342651,0.014686808921396732,0.5643930435180664,-0.28744181990623474,-0.5693522691726685,0.08907453715801239,0.25654229521751404,0.8630884289741516,-0.40693557262420654,0.019615361467003822,-0.6280995011329651,-0.17872129380702972,0.08907453715801239,0.7112611532211304,-0.21026313304901123,0.10699336230754852,-0.11702330410480499,0.15532024204730988,0.47537294030189514,0.021709386259317398,-0.01303670834749937,0.08614768832921982,-1.070558786392212,0.0029033455066382885,0.012253246270120144,0.19166620075702667,-1.1673747301101685,1.5003600120544434,-0.18960589170455933,2.6513757705688477,-1.7140815258026123,0.5004517436027527,1.8223673105239868,-0.911399781703949,-0.05888852849602699,0.20083151757717133,2.7187390327453613,-0.578283429145813,-0.28317081928253174,1741504792.35675,1741504792233,1.3530838623046875,-0.5162255249023437,0.0013892687439929102,0.09791533660888672,-1.5275611572265626
1741504792.3703325,-3.5108929872512817,-0.04160642310620211,-0.040906743910924345,-0.9982963206678235,0.5247153043746948,-0.7433068156242371,1.389739990234375,-17.7440185546875,18.429119110107422,20.473907470703125,0.07801151275634766,0.9180212020874023,0.2317463904619217,-1.363417148590088,0.00476844422519207,-0.5468451976776123,0.1508735716342926,1.3248881101608276,0.013923857361078262,0.5632486343383789,-0.32940414547920227,-0.5670633912086487,0.06733043491840363,0.27180132269859314,0.8569847941398621,-0.3799194395542145,0.09492219239473343,-0.6368734240531921,-0.1668955534696579,0.12188144028186798,0.7726787328720093,-0.23351669311523438,0.0722387358546257,0.45602110028266907,0.90668785572052,-0.1461239457130432,-0.5466960668563843,-0.06352642178535461,0.12414120882749557,-0.4258117079734802,-0.018738601356744766,0.017972685396671295,-0.10871821641921997,-2.756972551345825,0.2318064570426941,-0.7850017547607422,-0.2379511296749115,-1.0643762350082397,1.6429771184921265,3.2804477214813232,-0.6023589968681335,1.0829455852508545,1.9291177988052368,2.9405598640441895,-1.3600585460662842,-2.1546168327331543,1741504792.35675,1741504792233,1.3530838623046875,-0.5162255249023437,0.0013892687439929102,0.09791533660888672,-1.5275611572265626
1741504792.3904183,-3.47450590133667,-0.04769439669673445,-0.050437364019284385,-0.9975877489396713,0.43532758951187134,-0.08646342158317566,1.8002115488052368,-2.7582366466522217,-7.773347854614258,16.498918533325195,0.07610416412353516,0.9008541107177734,0.22526131570339203,-1.3672319650650024,0.00476844422519207,-0.5525673031806946,0.15583276748657227,1.3245066404342651,0.01430533267557621,0.5613412857055664,-0.36526283621788025,-0.5334935784339905,0.04139009863138199,0.25234606862068176,0.8184558153152466,-0.3296140730381012,0.08495734632015228,-0.6792172193527222,-0.12378881871700287,0.17681391537189484,0.8363851308822632,-0.2734244763851166,0.010502530261874199,-0.01456297468394041,-0.43364065885543823,-0.33134323358535767,-0.12119395285844803,-0.020949186757206917,-0.35835322737693787,0.40362539887428284,0.016824286431074142,-0.01957511529326439,-0.15468712151050568,-0.9036514759063721,1.6633880138397217,-1.5603467226028442,-0.616719663143158,-2.046445369720459,2.408207654953003,-1.1066137552261353,-2.4651944637298584,2.2479515075683594,2.808014392852783,3.612518787384033,-2.0581066608428955,-3.2180073261260986,1741504792.35675,1741504792233,1.3530838623046875,-0.5162255249023437,0.0013892687439929102,0.09791533660888672,-1.5275611572265626
1741504792.4127376,-3.458146810531616,-0.04471896007578687,-0.04251659104956523,-0.9980944615091621,-0.37660038471221924,0.21461109817028046,0.5933171510696411,-1.979092001914978,0.013053469359874725,8.712241172790527,0.07381534576416016,0.8939876556396484,0.2134355753660202,-1.361891269683838,0.00476844422519207,-0.5598153471946716,0.16193637251853943,1.3328990936279297,0.01583123579621315,0.5537117719650269,-0.36602577567100525,-0.5205233693122864,0.016212711110711098,0.24013885855674744,0.7871748208999634,-0.2950553894042969,0.05902821943163872,-0.7093538045883179,-0.09060044586658478,0.21686884760856628,0.9100099205970764,-0.3240037262439728,-0.021967222914099693,-0.09257595986127853,-0.22831442952156067,-0.5885666608810425,0.4165003299713135,0.009035784751176834,-0.3223363161087036,0.335694283246994,0.8062778115272522,0.17145974934101105,-0.5547841191291809,0.114480160176754,0.34817346930503845,-1.0589313507080078,-0.9311429262161255,-1.4459582567214966,1.5419328212738037,-0.7759809494018555,-0.8699103593826294,1.5679820775985718,1.4894925355911255,3.6967241764068604,-2.5171141624450684,-1.1104745864868164,1741504792.4511867,1741504792333,1.3427418212890625,-0.5539430541992187,-0.12190691099293775,0.01874421501159668,-1.6137115478515625
1741504792.4304307,-3.4477040767669678,-0.044606922124307356,-0.039447775820070544,-0.9982254732681617,-0.1271725744009018,-0.01114263478666544,0.5491710901260376,-3.2222824096679688,-1.2927442789077759,11.789653778076172,0.09212589263916016,0.9039058685302734,0.20389868319034576,-1.3523544073104858,0.00476844422519207,-0.5579079985618591,0.16041046380996704,1.358076572418213,0.015449759550392628,0.5495155453681946,-0.3084229826927185,-0.5113679766654968,0.0013351644156500697,0.21190966665744781,0.7558938264846802,-0.28254234790802,0.06528544425964355,-0.7169833183288574,-0.05207141116261482,0.20160982012748718,0.9683756828308105,-0.36755767464637756,0.005858172662556171,0.4753817021846771,0.23177284002304077,-0.4774875342845917,0.6489410400390625,-0.026483088731765747,0.20111334323883057,-0.07250282168388367,1.6101667881011963,-0.03637833148241043,-0.22314554452896118,3.724318027496338,0.6999910473823547,-0.9356203675270081,-1.1273387670516968,-1.7702460289001465,0.5260630249977112,0.18462030589580536,-0.6007471680641174,2.046794891357422,-1.0141581296920776,2.8523688316345215,-2.0953567028045654,1.8194079399108887,1741504792.4511867,1741504792333,1.3427418212890625,-0.5539430541992187,-0.12190691099293775,0.01874421501159668,-1.6137115478515625
1741504792.4504383,-3.452825903892517,-0.03658607494446121,-0.03316525933549518,-0.9987800181688496,-0.3456428050994873,0.41463032364845276,-0.32530221343040466,4.852167129516602,1.8678754568099976,11.219403266906738,0.09174442291259766,0.9004726409912109,0.1962691694498062,-1.3428175449371338,0.004386968910694122,-0.5540932416915894,0.152399480342865,1.3744800090789795,0.01583123579621315,0.5502784848213196,-0.2611200213432312,-0.4987792670726776,-0.01735713705420494,0.17872129380702972,0.7146944403648376,-0.27751293778419495,0.06748288124799728,-0.732623815536499,-0.031090257689356804,0.17643244564533234,1.02216374874115,-0.39218592643737793,0.015367299318313599,0.015684053301811218,-0.04731948301196098,-0.36896729469299316,0.6242271065711975,0.008843251504004002,0.11791549623012543,-0.6412224769592285,1.0425524711608887,-0.003459070110693574,0.12330838292837143,2.0108041763305664,0.5838640332221985,-0.854070246219635,-1.848222255706787,-1.9511833190917969,0.22128826379776,0.3022706210613251,-0.8678866624832153,0.7604585289955139,-1.1409680843353271,2.7639801502227783,-1.0782248973846436,-0.03920350223779678,1741504792.4511867,1741504792333,1.3427418212890625,-0.5539430541992187,-0.12190691099293775,0.01874421501159668,-1.6137115478515625
1741504792.4705267,-3.449144959449768,-0.032440527817968134,-0.028881614389542048,-0.9990562869554175,-0.23052117228507996,0.20581182837486267,0.32445186376571655,1.6641865968704224,-0.0962834507226944,8.4133939743042,0.08754825592041016,0.9008541107177734,0.19207294285297394,-1.3359509706497192,0.005149920005351305,-0.5529488325119019,0.14667734503746033,1.3832539319992065,0.014686808921396732,0.5537117719650269,-0.21953918039798737,-0.49305713176727295,-0.03032730519771576,0.15697719156742096,0.6864652633666992,-0.27769699692726135,0.06879030913114548,-0.7543678879737854,-0.007057297509163618,0.16041046380996704,1.0786221027374268,-0.3957146406173706,-0.001999989617615938,-0.15356627106666565,0.002179945819079876,-0.16200928390026093,0.4113059937953949,-0.02008965238928795,0.15488295257091522,-0.15579959750175476,0.451584130525589,-0.03150129318237305,0.187412291765213,2.4562792778015137,0.3854425549507141,-0.7059621214866638,-0.6733967661857605,-1.4005863666534424,-0.08171209692955017,-0.12527190148830414,-1.1563376188278198,1.5353124141693115,-0.8125693202018738,2.7405338287353516,0.015858978033065796,-0.5755144357681274,1741504792.4511867,1741504792333,1.3427418212890625,-0.5539430541992187,-0.12190691099293775,0.01874421501159668,-1.6137115478515625
1741504792.4904947,-3.4487054347991943,-0.026236015572259182,-0.025495981213944717,-0.9993305891589782,-0.17673222720623016,0.30237671732902527,-0.09508556872606277,0.03777681291103363,-3.499390125274658,8.82319450378418,0.08640384674072266,0.8920803070068359,0.19207294285297394,-1.3317546844482422,0.00476844422519207,-0.5525673031806946,0.1520180106163025,1.3840168714523315,0.015449759550392628,0.5540932416915894,-0.20160982012748718,-0.4858091175556183,-0.03452353551983833,0.14248111844062805,0.6586175560951233,-0.2816045582294464,0.062143951654434204,-0.7852674126625061,0.02994582988321781,0.14667734503746033,1.118677020072937,-0.38144591450691223,0.008251736871898174,-0.010134696029126644,-0.2405076026916504,0.024661563336849213,0.28023287653923035,-0.007418754044920206,-0.11181052029132843,0.3521133363246918,0.03513719141483307,0.0703444853425026,0.009686628356575966,0.12138533592224121,0.2608121633529663,-0.11593791097402573,-0.9142115712165833,-1.3351683616638184,-0.1654578596353531,-0.34147071838378906,-1.5237456560134888,1.7191998958587646,-0.6618530750274658,1.8943569660186768,0.7661129832267761,0.582522451877594,1741504792.4511867,1741504792333,1.3427418212890625,-0.5539430541992187,-0.12190691099293775,0.01874421501159668,-1.6137115478515625
1741504792.5105054,-3.4317508935928345,-0.021510350068812915,-0.024899411363267124,-0.999458515474094,0.011375202797353268,0.26854783296585083,1.0397725105285645,-0.2902076244354248,-2.4677205085754395,8.685640335083008,0.08106327056884766,0.8897914886474609,0.19207294285297394,-1.3290843963623047,0.005149920005351305,-0.5563820600509644,0.16079194843769073,1.3847798109054565,0.01430533267557621,0.5571450591087341,-0.18596932291984558,-0.4854276478290558,-0.03681239113211632,0.13942931592464447,0.6441214680671692,-0.2845771610736847,0.05916956067085266,-0.8196002244949341,0.05283436179161072,0.13866636157035828,1.1472877264022827,-0.3607124090194702,0.007001176476478577,-0.1369350254535675,-0.0698743686079979,-0.03883524611592293,0.13954855501651764,0.014494718052446842,-0.15002936124801636,0.6917135119438171,-0.013885468244552612,-0.08795483410358429,0.23536193370819092,1.1971490383148193,-0.050774361938238144,-0.11362707614898682,0.014736429788172245,-0.586809515953064,-0.19695402681827545,-0.05213778465986252,-1.7816568613052368,1.0514352321624756,-0.38456785678863525,1.359453558921814,1.0690813064575195,-0.2538709044456482,1741504792.553183,1741504792433,1.3353448486328126,-0.5758134765625,-0.18737553005746935,-0.06168404006958008,-1.6917523193359376
1741504792.530535,-3.4232730865478516,-0.013530708524128014,-0.023154157460951067,-0.9996403377810984,-0.08614195138216019,0.41968655586242676,0.22326193749904633,1.2890024185180664,-0.5781742930412292,7.070141792297363,0.08297061920166016,0.8817806243896484,0.18520638346672058,-1.3298473358154297,0.004386968910694122,-0.5575265288352966,0.17643244564533234,1.380964994430542,0.01583123579621315,0.5582894682884216,-0.17414358258247375,-0.4987792670726776,-0.037193864583969116,0.1356145590543747,0.6406881809234619,-0.28993934392929077,0.05178317800164223,-0.84897381067276,0.06694895774126053,0.12378881871700287,1.1644541025161743,-0.33913975954055786,-0.00012250703002791852,0.08610787987709045,-0.2200995236635208,-0.35740023851394653,-0.07328080385923386,-0.007173254154622555,-0.16324912011623383,1.0800024271011353,-0.3116385042667389,0.11206791549921036,0.039862800389528275,0.2686397135257721,-0.8434547185897827,0.014023122377693653,-0.38267087936401367,-0.12052478641271591,-0.2688366174697876,-0.5560898780822754,-1.280727505683899,0.5911287069320679,-0.7660237550735474,0.7804772257804871,1.0843759775161743,-0.22569893300533295,1741504792.553183,1741504792433,1.3353448486328126,-0.5758134765625,-0.18737553005746935,-0.06168404006958008,-1.6917523193359376
1741504792.5505672,-3.410680055618286,-0.005815740486384423,-0.02140145071287153,-0.9997540472886217,-0.08773265033960342,0.359839528799057,0.6913349628448486,-0.08726416528224945,1.4335105419158936,11.2801513671875,0.11921119689941406,0.8749141693115234,0.17795833945274353,-1.3298473358154297,0.005149920005351305,-0.5598153471946716,0.19283588230609894,1.3752429485321045,0.013923857361078262,0.5601968169212341,-0.14057374000549316,-0.5262455344200134,-0.03490501269698143,0.13866636157035828,0.6441214680671692,-0.2962702810764313,0.048353005200624466,-0.8661402463912964,0.0707637146115303,0.11463340371847153,1.1686503887176514,-0.3185915946960449,0.0031401237938553095,1.131878137588501,-0.24745655059814453,-0.3496401309967041,-0.0007880912744440138,0.007527300156652927,-0.08101910352706909,1.0805952548980713,-0.3676900863647461,-0.08914107829332352,0.13679127395153046,2.3889381885528564,-1.3078161478042603,0.08773056417703629,0.4852510690689087,0.2161865234375,-0.32202473282814026,0.10446565598249435,-0.8134089112281799,0.1457851231098175,-0.3181082010269165,0.049909792840480804,0.9896352291107178,0.17702524363994598,1741504792.553183,1741504792433,1.3353448486328126,-0.5758134765625,-0.18737553005746935,-0.06168404006958008,-1.6917523193359376
1741504792.5705757,-3.4137332439422607,0.005128339736679272,-0.017805719892076122,-0.9998283134972075,-0.21092146635055542,0.5670509934425354,-0.30102744698524475,2.5686569213867188,-0.18491895496845245,8.627701759338379,0.20046520233154297,0.8379106521606445,0.17185473442077637,-1.3309917449951172,0.004386968910694122,-0.5567635893821716,0.20428015291690826,1.3702837228775024,0.01583123579621315,0.5586709380149841,-0.10967422276735306,-0.5479896068572998,-0.03185320645570755,0.14095520973205566,0.6532768607139587,-0.30636510252952576,0.06430589407682419,-0.8680475950241089,0.06733043491840363,0.10738536715507507,1.1530098915100098,-0.30270883440971375,0.00361210061237216,2.356464147567749,-1.1385886669158936,-0.2690376043319702,-0.10529796779155731,-0.0016286491882055998,0.174015611410141,0.6326280236244202,-0.2743603587150574,0.1196260079741478,-0.1414380669593811,1.05925452709198,-1.163291573524475,0.19681809842586517,-0.0424889400601387,0.4431656301021576,-0.4942258596420288,0.7140676975250244,0.23830372095108032,-0.20748421549797058,-0.33736369013786316,-0.9169974327087402,0.7003599405288696,-0.0819339007139206,1741504792.553183,1741504792433,1.3353448486328126,-0.5758134765625,-0.18737553005746935,-0.06168404006958008,-1.6917523193359376
1741504792.5906107,-3.4062305688858032,0.014577736661272059,-0.015012151820008679,-0.9997810384737088,-0.16666921973228455,0.45094653964042664,0.5703743100166321,0.041252125054597855,-1.6450817584991455,10.009322166442871,0.2840089797973633,0.8173112869262695,0.17032882571220398,-1.3325176239013672,0.005531395319849253,-0.5498970150947571,0.20618753135204315,1.370665192604065,0.013923857361078262,0.5582894682884216,-0.07686731964349747,-0.5613412857055664,-0.02841992862522602,0.14476996660232544,0.6647211313247681,-0.30938953161239624,0.0683312863111496,-0.8508812189102173,0.06351567804813385,0.1035706102848053,1.1102845668792725,-0.29521435499191284,-0.0005440083332359791,2.4458417892456055,-0.7578215003013611,0.0069061946123838425,-0.15946108102798462,0.03394504636526108,0.39871644973754883,0.1174011304974556,0.008863087743520737,-0.13274596631526947,-0.03004401922225952,1.9459717273712158,-0.5999439358711243,0.0862545445561409,0.3832206726074219,0.5678141713142395,-0.0926867127418518,0.17504774034023285,0.9316610097885132,-0.21529655158519745,-0.22647836804389954,-2.550443172454834,0.34095707535743713,-0.14892257750034332,1741504792.553183,1741504792433,1.3353448486328126,-0.5758134765625,-0.18737553005746935,-0.06168404006958008,-1.6917523193359376
1741504792.610645,-3.3976491689682007,0.018649338807577263,-0.011105857294700174,-0.9997644032949912,-0.2592397928237915,0.2008720487356186,0.40839487314224243,3.308526039123535,1.5389593839645386,7.76051139831543,0.3664073944091797,0.7997636795043945,0.17261768877506256,-1.3351880311965942,0.004386968910694122,-0.5384527444839478,0.20656901597976685,1.36837637424469,0.014686808921396732,0.5506599545478821,-0.06466010212898254,-0.569733738899231,-0.029182879254221916,0.14095520973205566,0.6727321147918701,-0.3073059916496277,0.06313773989677429,-0.8134965896606445,0.0555046908557415,0.08869306743144989,1.031700611114502,-0.29563114047050476,-0.0014463841216638684,2.4294590950012207,-0.585702657699585,0.06020168587565422,-0.1518552452325821,-0.00850792694836855,0.6551824808120728,0.015188422985374928,-0.15146374702453613,0.04377598315477371,-0.6638718247413635,-0.05576283112168312,-0.2658246159553528,-0.06701824069023132,-0.4803936779499054,0.42355889081954956,0.17777296900749207,-0.3929624855518341,2.135660409927368,-0.3292584717273712,-0.9496310353279114,-4.280538082122803,-0.0791122242808342,-0.012966922484338284,1741504792.656216,1741504792533,1.3133182373046874,-0.5850814819335938,-0.24103279448531767,-0.13852597045898438,-1.7663411865234375
1741504792.630749,-3.374709725379944,0.017848987342175434,-0.00895272649945479,-0.9998006112916139,-0.1079661175608635,-0.09421224147081375,1.1058018207550049,2.6643285751342773,0.7889101505279541,8.453717231750488,0.4434652328491211,0.782597541809082,0.17071031033992767,-1.3374768495559692,0.005149920005351305,-0.5239566564559937,0.20847637951374054,1.36685049533844,0.013542382046580315,0.5376898050308228,-0.05359731614589691,-0.5556191205978394,-0.03376058489084244,0.14095520973205566,0.6841763854026794,-0.30177485942840576,0.05306867137551308,-0.7589455842971802,0.04711223021149635,0.07381551712751389,0.9225986003875732,-0.29931601881980896,-2.6067245926242322e-05,2.3574371337890625,-0.5553853511810303,-0.1784893423318863,-0.20716486871242523,0.007767351809889078,0.7291606068611145,0.21569092571735382,-0.06328318268060684,-0.0832175612449646,-0.8669194579124451,0.9366878271102905,0.8166030049324036,-0.21947452425956726,0.2926109731197357,0.5434114336967468,0.30800577998161316,-0.4872977137565613,2.621229410171509,-0.4757985472679138,-0.6521530747413635,-5.698361396789551,-0.15397971868515015,0.14953011274337769,1741504792.656216,1741504792533,1.3133182373046874,-0.5850814819335938,-0.24103279448531767,-0.13852597045898438,-1.7663411865234375
1741504792.650754,-3.3681167364120483,0.00981049055077945,-0.008305759393893167,-0.9999173809050645,0.011206673458218575,-0.46840813755989075,0.15396630764007568,-4.051961898803711,5.56058931350708,8.931224822998047,0.52777099609375,0.7650489807128906,0.17071031033992767,-1.3431990146636963,0.00476844422519207,-0.5136567950248718,0.21686884760856628,1.3645615577697754,0.014686808921396732,0.5189974904060364,-0.06046387553215027,-0.5506599545478821,-0.04139009863138199,0.14362554252147675,0.6860837936401367,-0.291944682598114,0.04731673747301102,-0.700579822063446,0.03185320645570755,0.06275273114442825,0.7948042750358582,-0.2983531355857849,0.0004902229411527514,2.532888174057007,-0.47717979550361633,0.12846511602401733,-0.40369194746017456,-0.012860882095992565,0.4544965624809265,0.5566601753234863,-0.18239696323871613,0.0855075865983963,-1.2102463245391846,-0.8501003980636597,0.16627943515777588,-0.47256508469581604,-0.14165332913398743,0.03115914575755596,0.5641754269599915,-0.2208106368780136,3.307936668395996,-0.7994341254234314,-0.6192848086357117,-6.421727657318115,0.0892857238650322,-0.006174233742058277,1741504792.656216,1741504792533,1.3133182373046874,-0.5850814819335938,-0.24103279448531767,-0.13852597045898438,-1.7663411865234375
1741504792.6707778,-3.359067440032959,0.0032677026519351937,-0.017305405061982377,-0.9998449105111349,0.4938819706439972,-0.34495359659194946,0.46230074763298035,-3.0478572845458984,5.347228050231934,6.924014091491699,0.6258106231689453,0.7330055236816406,0.17833982408046722,-1.3493025302886963,0.005149920005351305,-0.5136567950248718,0.22030213475227356,1.3599839210510254,0.013923857361078262,0.5102235674858093,-0.06389715522527695,-0.5373083353042603,-0.06275273114442825,0.14858472347259521,0.6853207945823669,-0.2727556526660919,0.047709375619888306,-0.6418325901031494,0.018501564860343933,0.05359731614589691,0.6811245679855347,-0.2925008237361908,0.001411128556355834,2.891218662261963,-0.905857503414154,0.39715948700904846,-0.4232896864414215,0.01806914247572422,-0.012597659602761269,0.2287883162498474,-0.3321640193462372,-0.058177657425403595,-0.43919503688812256,0.3170957565307617,0.7663849592208862,-1.1793227195739746,0.5438928604125977,-0.11289690434932709,0.9811211228370667,0.16108280420303345,2.5568225383758545,-0.6311522126197815,-0.4252060055732727,-5.40618371963501,0.37630200386047363,0.04302837699651718,1741504792.656216,1741504792533,1.3133182373046874,-0.5850814819335938,-0.24103279448531767,-0.13852597045898438,-1.7663411865234375
1741504792.6908438,-3.3581933975219727,-0.001011521615819802,-0.03394255375580526,-0.9994232736276232,0.8514233231544495,-0.22371140122413635,0.14604954421520233,0.733169436454773,1.6007561683654785,9.386810302734375,0.6990537643432617,0.7005796432495117,0.18863965570926666,-1.361891269683838,0.005149920005351305,-0.5189974904060364,0.21992065012454987,1.3554061651229858,0.014686808921396732,0.508316159248352,-0.08411535620689392,-0.5384527444839478,-0.086785688996315,0.1512550562620163,0.6734950542449951,-0.25587278604507446,0.06544088572263718,-0.6090257167816162,0.005912871100008488,0.06809338182210922,0.6605249047279358,-0.25248411297798157,0.025400806218385696,2.232814311981201,-0.9138410091400146,0.6075516939163208,-0.91356360912323,0.02214493416249752,-0.261775404214859,-0.06516586989164352,-0.27875420451164246,0.07061395049095154,-0.14001864194869995,-1.6067652702331543,-0.345113068819046,-1.10431706905365,-0.229636549949646,-0.7092412114143372,0.7832174301147461,0.9698671698570251,1.5186923742294312,-0.8545436263084412,0.9732040166854858,-0.0893716812133789,2.153181552886963,1.2690637111663818,1741504792.656216,1741504792533,1.3133182373046874,-0.5850814819335938,-0.24103279448531767,-0.13852597045898438,-1.7663411865234375
1741504792.7110345,-3.349087715148926,-0.0036637025879772546,-0.04767231975201361,-0.9988563095925302,0.6834260821342468,-0.033389050513505936,0.6288199424743652,6.155730724334717,6.612163066864014,10.350236892700195,0.7391090393066406,0.6578550338745117,0.1989395022392273,-1.369139313697815,0.00476844422519207,-0.5197604298591614,0.21686884760856628,1.3538802862167358,0.01430533267557621,0.5102235674858093,-0.10700388997793198,-0.5281528830528259,-0.11425192654132843,0.1489662081003189,0.6673914790153503,-0.2532816529273987,0.057611677795648575,-0.6124590039253235,-0.04482337832450867,0.09784847497940063,0.6704432964324951,-0.21767164766788483,0.0250615943223238,1.2156610488891602,-1.3579071760177612,0.4493243992328644,-0.34127724170684814,-0.015228078700602055,-0.03040469065308571,-0.22034168243408203,-0.027295883744955063,-0.026107214391231537,0.2502559721469879,-0.619215726852417,0.5772837996482849,-1.5309617519378662,0.18056386709213257,-0.018480660393834114,-0.033907629549503326,-0.8682494759559631,-0.23913972079753876,-2.4346396923065186,1.4546130895614624,-0.07963024079799652,1.6404210329055786,-0.393225759267807,1741504792.656216,1741504792533,1.3133182373046874,-0.5850814819335938,-0.24103279448531767,-0.13852597045898438,-1.7663411865234375
1741504792.7308798,-3.335196375846863,-0.006319611177173907,-0.06643623065050719,-0.9977706599071361,1.0440078973770142,-0.04550150781869888,0.7193028330802917,-8.514059066772461,0.7433352470397949,10.73547649383545,0.781834602355957,0.6208515167236328,0.1977950781583786,-1.373335599899292,0.005149920005351305,-0.5205233693122864,0.2149614691734314,1.3523544073104858,0.014686808921396732,0.5186160206794739,-0.1180666834115982,-0.54264897108078,-0.1337071806192398,0.15888457000255585,0.6948577165603638,-0.2691303491592407,0.018636533990502357,-0.6040665507316589,-0.06618601083755493,0.08525978773832321,0.648699164390564,-0.19043272733688354,0.030021946877241135,1.2839787006378174,-1.1814279556274414,-0.13864579796791077,-0.4476565718650818,0.004766534548252821,-0.033678021281957626,-0.07620534300804138,-0.12970060110092163,0.024525878950953484,0.4982214868068695,-1.0376406908035278,-1.012363076210022,-0.5340847969055176,0.37722986936569214,1.8346054553985596,-0.8581352233886719,-1.9244927167892456,0.519476056098938,-1.0836259126663208,-0.9915292859077454,-1.0557506084442139,1.3162798881530762,0.5552698969841003,1741504792.7663808,1741504792633,1.3030845947265626,-0.58530419921875,0.2820361254874829,-0.21418115234375001,-1.8321528320312501
1741504792.7509208,-3.3157299757003784,-0.0007142153310605391,-0.07905691959181595,-0.9968698477540154,0.49859097599983215,0.3351619243621826,1.1005033254623413,-3.5846080780029297,-13.319514274597168,12.287684440612793,0.826085090637207,0.5613412857055664,0.19092851877212524,-1.3790576457977295,0.005149920005351305,-0.5201418995857239,0.2153429538011551,1.3477766513824463,0.01430533267557621,0.5224307775497437,-0.12188144028186798,-0.580033540725708,-0.13218127191066742,0.1665140837430954,0.7875562906265259,-0.29734838008880615,-0.0018777578370645642,-0.6132219433784485,-0.09555962681770325,0.07343403995037079,0.6395437717437744,-0.16665765643119812,0.04642949625849724,1.2965025901794434,-1.7656856775283813,-0.33903926610946655,-0.2291155904531479,0.010189293883740902,0.02722749672830105,0.021837640553712845,-0.3518471419811249,-0.01348412036895752,0.21849142014980316,0.4981192946434021,-2.04069185256958,0.23247699439525604,0.614905059337616,5.067859649658203,-1.5279096364974976,-0.6697670817375183,-0.7546301484107971,-1.645350456237793,-0.3196175694465637,-0.2686365842819214,1.1732598543167114,0.8405061960220337,1741504792.7663808,1741504792633,1.3030845947265626,-0.58530419921875,0.2820361254874829,-0.21418115234375001,-1.8321528320312501
1741504792.7709582,-3.303919792175293,0.010410286569956753,-0.07607922568166035,-0.9970474298413342,-0.16906504333019257,0.5586197376251221,0.368041068315506,-0.5087230801582336,-1.5936397314071655,9.580727577209473,0.842869758605957,0.494964599609375,0.1810101419687271,-1.375624418258667,0.004386968910694122,-0.5201418995857239,0.2149614691734314,1.3458693027496338,0.01506828423589468,0.5243381261825562,-0.10967422276735306,-0.6490806341171265,-0.11692225188016891,0.17643244564533234,0.9096284508705139,-0.33180248737335205,0.0025759218260645866,-0.6242847442626953,-0.10051880776882172,0.0394827201962471,0.6433585286140442,-0.15138445794582367,0.05325223505496979,0.5973185300827026,-1.9810938835144043,-0.5051897764205933,0.27809834480285645,-0.05634747073054314,-0.00810330267995596,-0.020233960822224617,-0.022131986916065216,0.08370243012905121,0.022125892341136932,0.22651438415050507,-3.6381418704986572,0.9608427286148071,0.31874874234199524,6.138969898223877,-1.693960189819336,0.2829144299030304,-0.11215955018997192,0.2030039131641388,-2.0272390842437744,0.1558498740196228,0.6633383631706238,0.07592535018920898,1741504792.7663808,1741504792633,1.3030845947265626,-0.58530419921875,0.2820361254874829,-0.21418115234375001,-1.8321528320312501
1741504792.791163,-3.2922178506851196,0.01661298179430089,-0.06721148903996065,-0.9976004333283609,-0.5466228723526001,0.28802263736724854,0.5351327061653137,-0.6302595734596252,-4.5121684074401855,13.97594165802002,0.8485927581787109,0.4388875961303711,0.17719538509845734,-1.3679949045181274,0.00476844422519207,-0.5205233693122864,0.21229113638401031,1.3527358770370483,0.014686808921396732,0.5254825949668884,-0.08869306743144989,-0.7131685614585876,-0.08220797777175903,0.1665140837430954,1.0210193395614624,-0.3635786473751068,0.0035875067114830017,-0.612840473651886,-0.11196307092905045,0.02536812424659729,0.6429770588874817,-0.14491143822669983,0.03960505500435829,0.21413923799991608,-1.7169183492660522,-0.14422056078910828,0.5488876700401306,0.02603132650256157,-0.003570006461814046,-0.2450016587972641,0.5052395462989807,-0.028828581795096397,0.08898106962442398,1.6485955715179443,-2.5006263256073,1.6906658411026,-0.5112552046775818,5.190501689910889,-1.6290160417556763,0.003204366657882929,0.26914191246032715,-0.9346879720687866,0.02350110560655594,0.0136405099183321,0.37055703997612,-0.4983287453651428,1741504792.7663808,1741504792633,1.3030845947265626,-0.58530419921875,0.2820361254874829,-0.21418115234375001,-1.8321528320312501
1741504792.8143926,-3.2890307903289795,0.0185251870207157,-0.04973798429502181,-0.9985904818112956,-0.8876422643661499,0.07635989785194397,0.04551020637154579,5.746059894561768,7.476675033569336,7.222849369049072,0.8493556976318359,0.4053173065185547,0.17910276353359222,-1.3584580421447754,0.004386968910694122,-0.5193789601325989,0.1981765478849411,1.3622727394104004,0.015449759550392628,0.5258640646934509,-0.07763027399778366,-0.7230868935585022,-0.059319447726011276,0.15697719156742096,1.0797665119171143,-0.3921394646167755,-0.006168987136334181,-0.6044480204582214,-0.1180666834115982,0.013542382046580315,0.6528953909873962,-0.1398359090089798,0.05080993473529816,0.0622115395963192,-1.0136131048202515,0.08872433006763458,0.5908461213111877,-0.06360338628292084,0.09996061772108078,-1.1123672723770142,0.5998034477233887,0.037794891744852066,-0.0007468650001101196,-0.15546275675296783,-0.5010020732879639,1.1541322469711304,-0.3885193169116974,2.3075528144836426,-1.3826839923858643,-0.5833929777145386,0.7175238132476807,-0.2776126265525818,-1.0934275388717651,0.568077027797699,0.2046739012002945,0.6126025915145874,1741504792.8608987,1741504792733,1.3058824462890626,-0.5839261474609375,0.43488006334833806,-0.2940694885253906,-1.9033468017578126
1741504792.8318093,-3.2799309492111206,0.006955003638342515,-0.03989640847299441,-0.9991796157425084,-0.448702335357666,-0.6110963225364685,0.5043315887451172,-4.675346374511719,1.265804409980774,8.403491020202637,0.8493556976318359,0.3931102752685547,0.1817730963230133,-1.3538802862167358,0.005531395319849253,-0.5144197940826416,0.1848248988389969,1.3615097999572754,0.01430533267557621,0.5266270041465759,-0.07686731964349747,-0.7097352743148804,-0.02689402550458908,0.13141833245754242,1.0744259357452393,-0.4107903242111206,-0.004083570558577776,-0.5907148718833923,-0.13141833245754242,0.00476844422519207,0.6609063744544983,-0.1424911916255951,0.049774784594774246,-0.037157390266656876,-0.27447667717933655,0.13041910529136658,0.12255913019180298,0.029054073616862297,0.2244659960269928,-0.7306603789329529,-0.1807948350906372,-0.06571030616760254,0.042731884866952896,0.597652792930603,1.0673394203186035,1.7536253929138184,-1.3823316097259521,-0.6052056550979614,-0.8553539514541626,0.3045143485069275,0.5465083122253418,-0.6927045583724976,0.044718749821186066,0.5423192381858826,-0.15199539065361023,-0.09269930422306061,1741504792.8608987,1741504792733,1.3058824462890626,-0.5839261474609375,0.43488006334833806,-0.2940694885253906,-1.9033468017578126
1741504792.851214,-3.2784966230392456,-0.006748810867125077,-0.03339567618871859,-0.9994194226468575,-0.34157413244247437,-0.6673563718795776,-0.07944421470165253,-2.1364874839782715,-0.8754505515098572,5.83920955657959,0.8596553802490234,0.3686962127685547,0.18520638346672058,-1.361128330230713,0.00476844422519207,-0.5182345509529114,0.182917520403862,1.3550246953964233,0.014686808921396732,0.5247195959091187,-0.09403372555971146,-0.6620507836341858,-0.004005493130534887,0.1031891331076622,1.0156786441802979,-0.417285293340683,-0.0013258401304483414,-0.5952925682067871,-0.1325627565383911,0.00019073777366429567,0.6879911422729492,-0.15426093339920044,0.0518353097140789,0.32408851385116577,-0.6736607551574707,0.135900616645813,-0.3656490445137024,0.0015970878303050995,-0.24179193377494812,-0.03041357547044754,-0.4011497497558594,0.05195915326476097,-0.19126281142234802,-1.7200748920440674,2.4438841342926025,1.1914244890213013,-1.48526132106781,-3.3883795738220215,-0.15445280075073242,-0.01589982770383358,-0.4141283333301544,-0.16363221406936646,-0.28962960839271545,1.6036608219146729,-0.7326525449752808,0.06044958159327507,1741504792.8608987,1741504792733,1.3058824462890626,-0.5839261474609375,0.43488006334833806,-0.2940694885253906,-1.9033468017578126
1741504792.8712652,-3.2656317949295044,-0.01632408373883069,-0.03194371883813249,-0.9993563544186218,-0.016133056953549385,-0.3986670970916748,0.7440361976623535,-1.3203188180923462,0.9059545397758484,4.770359039306641,0.8615627288818359,0.3385591506958008,0.18520638346672058,-1.3622727394104004,0.005149920005351305,-0.5231937170028687,0.1840619444847107,1.3493025302886963,0.013923857361078262,0.5258640646934509,-0.11539635062217712,-0.5960555672645569,0.011635004542768002,0.08487831056118011,0.9039062857627869,-0.4105636775493622,-0.00460459478199482,-0.6300068497657776,-0.12417028844356537,0.00858320016413927,0.7379644513130188,-0.18050643801689148,0.04880312457680702,0.09381117671728134,-0.9472038149833679,-0.0341547355055809,-0.09627187252044678,-0.029778864234685898,-0.21299462020397186,0.0929097980260849,-0.3950558304786682,-0.09927316009998322,0.21364061534404755,-0.6592580080032349,3.5679843425750732,0.55621737241745,-0.5240532159805298,-5.918196678161621,0.40466564893722534,-0.09823272377252579,-2.1113908290863037,0.613998532295227,0.5490202903747559,2.5431125164031982,-1.3707631826400757,-0.14787283539772034,1741504792.8608987,1741504792733,1.3058824462890626,-0.5839261474609375,0.43488006334833806,-0.2940694885253906,-1.9033468017578126
1741504792.8915377,-3.2566182613372803,-0.015716319174158635,-0.03884663602319238,-0.999121582281805,0.5718324780464172,0.14389683306217194,0.5002980828285217,23.052488327026367,10.763203620910645,4.091694355010986,0.8649959564208984,0.3271150588989258,0.1832990050315857,-1.364180088043213,0.005531395319849253,-0.5243381261825562,0.18520638346672058,1.3435804843902588,0.01430533267557621,0.5266270041465759,-0.1497291475534439,-0.5682078003883362,-0.012397955171763897,0.14286258816719055,0.8806362748146057,-0.37361031770706177,0.033163607120513916,-0.6521324515342712,-0.13179980218410492,0.023460745811462402,0.8005264401435852,-0.21591734886169434,0.05719238892197609,0.018578391522169113,-0.347282350063324,-0.043208129703998566,-0.20745323598384857,0.1358010470867157,-0.013465582393109798,0.025341486558318138,-0.30089008808135986,0.03028624691069126,-0.04874129220843315,-1.9625203609466553,0.42606961727142334,-1.6045246124267578,2.910968542098999,-0.19329310953617096,1.7413737773895264,2.6780784130096436,-0.7415127754211426,-0.5929718613624573,0.7090097665786743,3.2259480953216553,-1.8376761674880981,0.6293438673019409,1741504792.8608987,1741504792733,1.3058824462890626,-0.5839261474609375,0.43488006334833806,-0.2940694885253906,-1.9033468017578126
1741504792.9113026,-3.2363682985305786,-0.021673360562707817,-0.06682089365664064,-0.9975295652825769,1.3436609506607056,-0.1408633440732956,1.0737624168395996,-6.552812099456787,-7.293581008911133,19.07619285583496,0.8600368499755859,0.3381776809692383,0.1813916265964508,-1.379439115524292,0.004005493130534887,-0.5239566564559937,0.18558785319328308,1.3409100770950317,0.01430533267557621,0.5262455344200134,-0.18749523162841797,-0.5670633912086487,-0.027656977996230125,0.1348516047000885,0.8485923409461975,-0.3480934202671051,0.04384506121277809,-0.691805899143219,-0.12073700875043869,0.04940108209848404,0.8504997491836548,-0.2628420293331146,0.03789515793323517,-0.19393813610076904,0.20230324566364288,-0.11165470629930496,-0.8748917579650879,-0.14609789848327637,-0.08985232561826706,0.049642231315374374,-0.300075888633728,0.03467761352658272,0.007513474207371473,-1.724238634109497,1.0053143501281738,-0.1519809514284134,-0.6250960230827332,-1.7075791358947754,1.3141536712646484,-0.7386404275894165,-2.4465246200561523,0.3308923542499542,1.5015511512756348,2.424539089202881,-2.398784875869751,-1.3883718252182007,1741504792.8608987,1741504792733,1.3058824462890626,-0.5839261474609375,0.43488006334833806,-0.2940694885253906,-1.9033468017578126
1741504792.9315162,-3.217654585838318,-0.011415443171564984,-0.08444003331456253,-0.9963631709527567,0.7483353614807129,0.6559829711914062,0.8601244688034058,3.9179847240448,-2.854800224304199,12.321096420288086,0.8531703948974609,0.3206300735473633,0.17986571788787842,-1.378676176071167,0.004386968910694122,-0.534637987613678,0.18596932291984558,1.3313732147216797,0.013923857361078262,0.5243381261825562,-0.20389868319034576,-0.5613412857055664,-0.054741740226745605,0.14324407279491425,0.8127336502075195,-0.3327394127845764,0.027092669159173965,-0.7146944403648376,-0.11234454810619354,0.0875486359000206,0.8882657885551453,-0.31192079186439514,-0.003787717781960964,-0.20225860178470612,-0.41051241755485535,-0.1390107274055481,0.19291150569915771,0.006975064519792795,-0.5195052623748779,0.00204673339612782,-0.5052759051322937,0.035252541303634644,-0.2052774727344513,-0.9047960042953491,-0.27261582016944885,-1.3607698678970337,0.3827795386314392,-1.916852593421936,0.6935570240020752,-0.2149297595024109,-0.5667083859443665,0.30824100971221924,1.8033612966537476,1.6545442342758179,-2.5476298332214355,-2.067016124725342,1741504792.8608987,1741504792733,1.3058824462890626,-0.5839261474609375,0.43488006334833806,-0.2940694885253906,-1.9033468017578126
1741504792.9515016,-3.1969653367996216,0.000828209296647053,-0.09349190600512268,-0.9956196952556182,0.43184134364128113,0.8518674969673157,1.1691612005233765,13.33114242553711,-4.014787197113037,2.5391674041748047,0.8440151214599609,0.2916383743286133,0.17338064312934875,-1.3702837228775024,0.00476844422519207,-0.54264897108078,0.1844434291124344,1.3332805633544922,0.01430533267557621,0.5231937170028687,-0.17986571788787842,-0.5586709380149841,-0.07763027399778366,0.1325627565383911,0.7848859429359436,-0.3130240738391876,0.03661327064037323,-0.6994354128837585,-0.1024261862039566,0.1028076633810997,0.8768215179443359,-0.3645979166030884,-0.013552658259868622,-0.34212726354599,-0.7178818583488464,-0.46932724118232727,0.5745074152946472,-0.013187957927584648,-0.4149843454360962,-0.1211559921503067,0.26830917596817017,0.005048331804573536,0.025463957339525223,1.9532629251480103,0.47102606296539307,-1.124527096748352,-0.8007736206054688,-1.1549774408340454,1.081298828125,0.2553533911705017,0.8592736124992371,0.5234728455543518,0.6381027102470398,-1.0985740423202515,-2.6782586574554443,-0.04436987265944481,1741504792.8608987,1741504792733,1.3058824462890626,-0.5839261474609375,0.43488006334833806,-0.2940694885253906,-1.9033468017578126
1741504792.9715364,-3.179025173187256,0.011585527746157127,-0.09425920091338998,-0.9954802753395028,-0.06068410724401474,0.6043151617050171,0.8253505229949951,2.1005172729492188,-1.7891387939453125,10.780158042907715,0.837529182434082,0.2653160095214844,0.1665140837430954,-1.359602451324463,0.00476844422519207,-0.5460822582244873,0.1802472025156021,1.3508285284042358,0.015449759550392628,0.5262455344200134,-0.1333257108926773,-0.5502784848213196,-0.09441519528627396,0.09708552807569504,0.7558938264846802,-0.28270936012268066,0.01957724057137966,-0.6643396615982056,-0.10547798871994019,0.1039520874619484,0.8436331748962402,-0.40243467688560486,0.0212127435952425,-0.23390787839889526,-0.8587068915367126,-0.18262268602848053,0.715628445148468,-0.0008356916368938982,-0.09429445117712021,-0.30443692207336426,1.3035494089126587,0.12014838308095932,0.12801167368888855,1.8401920795440674,0.3970581591129303,-0.8172482252120972,-1.8362207412719727,-1.5253196954727173,1.6396632194519043,-0.7670559287071228,2.023557186126709,-0.2226676046848297,0.0029877428896725178,-1.3554266691207886,-1.6766725778579712,2.1429667472839355,1741504793.0655336,1741504792933,1.2882274169921875,-0.6199601440429687,0.8389090067941435,-0.4353842468261719,-2.0258814697265626
1741504792.9915504,-3.1571767330169678,0.01667275138570588,-0.08519862465092154,-0.9962244795821983,-0.5193231105804443,0.28790321946144104,1.1546663045883179,3.0058505535125732,-0.14713208377361298,8.571268081665039,0.8180742263793945,0.2592124938964844,0.17032882571220398,-1.3473951816558838,0.00476844422519207,-0.543411910533905,0.17757686972618103,1.37142813205719,0.01506828423589468,0.5258640646934509,-0.09441519528627396,-0.5285343527793884,-0.1028076633810997,0.06771191209554672,0.7234683632850647,-0.24480769038200378,0.022508902475237846,-0.6509880423545837,-0.1024261862039566,0.09746700525283813,0.8443961143493652,-0.42374977469444275,0.028164450079202652,-0.574885904788971,-0.27360525727272034,0.20133399963378906,0.8359701037406921,0.006819426082074642,0.1609998494386673,-0.09704355150461197,1.3021299839019775,-0.015077200718224049,-0.015504462644457817,2.537522077560425,1.364527940750122,-0.2758788764476776,-1.2073204517364502,-1.5999211072921753,1.889338731765747,0.4195023477077484,0.052603017538785934,0.31421712040901184,-0.21188539266586304,0.3159521818161011,-1.0015721321105957,-0.3872815668582916,1741504793.0655336,1741504792933,1.2882274169921875,-0.6199601440429687,0.8389090067941435,-0.4353842468261719,-2.0258814697265626
1741504793.0116186,-3.153550148010254,0.01583124684323573,-0.07076323904287816,-0.9973675027909968,-0.7445387244224548,0.01501578651368618,-0.13488557934761047,2.8785817623138428,-0.5363904237747192,10.180816650390625,0.817692756652832,0.2584495544433594,0.17528800666332245,-1.3363324403762817,0.004005493130534887,-0.5395971536636353,0.17605096101760864,1.3863056898117065,0.016212711110711098,0.5224307775497437,-0.07915617525577545,-0.5106050372123718,-0.10776684433221817,0.046730753034353256,0.6891355514526367,-0.2121916562318802,0.051524851471185684,-0.6719691753387451,-0.08220797777175903,0.09937438368797302,0.8958953022956848,-0.4350346028804779,-0.015660854056477547,-0.059680283069610596,0.001668953220359981,0.23964528739452362,0.7011885046958923,-0.07324063032865524,0.16087427735328674,-0.24918995797634125,0.9440574049949646,0.10540807992219925,-0.2604420781135559,0.01926005817949772,0.8973677754402161,-0.22326946258544922,-1.14827561378479,-1.6304136514663696,1.5410126447677612,1.3901361227035522,-1.1755151748657227,1.1226940155029297,0.12134507298469543,3.4191737174987793,-0.42697808146476746,-1.8183279037475586,1741504793.0655336,1741504792933,1.2882274169921875,-0.6199601440429687,0.8389090067941435,-0.4353842468261719,-2.0258814697265626
1741504793.0315707,-3.1502044200897217,0.014396699103459094,-0.06028112224269313,-0.9980776128919464,-0.48361462354660034,-0.07611247152090073,0.11712855845689774,-3.3754544258117676,0.13711988925933838,11.29104232788086,0.8165483474731445,0.2748527526855469,0.1840619444847107,-1.3271770477294922,0.005149920005351305,-0.5380712747573853,0.16994735598564148,1.3958425521850586,0.014686808921396732,0.5262455344200134,-0.08945601433515549,-0.499542236328125,-0.10433356463909149,0.04901960864663124,0.6624323129653931,-0.1955932378768921,0.06315132975578308,-0.7391088604927063,-0.05245288833975792,0.10090028494596481,1.0046159029006958,-0.42794331908226013,0.0030356515198946,-0.020981134846806526,0.4338490664958954,0.4644671082496643,0.619046151638031,0.05786596238613129,0.11973308771848679,-0.4186706840991974,0.4979653060436249,-0.10155728459358215,0.321343332529068,-0.09848222136497498,0.3830442428588867,0.3242795765399933,0.6947233080863953,-1.2900832891464233,0.6336148977279663,0.18139830231666565,-3.791757345199585,1.495497226715088,-0.03624647483229637,5.662939071655273,0.553270161151886,1.3108084201812744,1741504793.0655336,1741504792933,1.2882274169921875,-0.6199601440429687,0.8389090067941435,-0.4353842468261719,-2.0258814697265626
1741504793.0516608,-3.153831124305725,0.01989673465008201,-0.058279680279662745,-0.9981019982029715,0.006392499897629023,0.3701475262641907,-0.190572589635849,0.36213570833206177,0.8920982480049133,7.849985122680664,0.811589241027832,0.2805747985839844,0.19436179101467133,-1.3252695798873901,0.004386968910694122,-0.5395971536636353,0.16079194843769073,1.3950796127319336,0.014686808921396732,0.5285343527793884,-0.11348897218704224,-0.5052643418312073,-0.08983749151229858,0.06237125024199486,0.650225043296814,-0.19534508883953094,0.047266215085983276,-0.8241779208183289,-0.026512550190091133,0.09288929402828217,1.1312657594680786,-0.40384232997894287,0.014697553589940071,-0.13556452095508575,0.18548905849456787,0.4806366264820099,0.004328508861362934,-0.04589809104800224,-0.10282690078020096,-0.644615650177002,-0.11395776271820068,-0.001960198627784848,0.09957592934370041,-2.026651382446289,-0.3841633200645447,0.5615794658660889,0.10812868177890778,-0.5557595491409302,-0.05974593386054039,-0.8023485541343689,-4.246942043304443,1.1321653127670288,-0.5393449068069458,6.300349235534668,1.302120327949524,0.038020625710487366,1741504793.0655336,1741504792933,1.2882274169921875,-0.6199601440429687,0.8389090067941435,-0.4353842468261719,-2.0258814697265626
