Freshhhhh-LC/Legged_odom/data/3/segments/booster_seg_9.8s.csv
time,yaw,projected_gravity_x,projected_gravity_y,projected_gravity_z,ang_vel_x,ang_vel_y,ang_vel_z,lin_acc_x,lin_acc_y,lin_acc_z,q_0,q_1,q_2,q_3,q_4,q_5,q_6,q_7,q_8,q_9,q_10,q_11,q_12,q_13,q_14,q_15,q_16,q_17,q_18,q_19,q_20,q_21,q_22,dq_0,dq_1,dq_2,dq_3,dq_4,dq_5,dq_6,dq_7,dq_8,dq_9,dq_10,dq_11,dq_12,dq_13,dq_14,dq_15,dq_16,dq_17,dq_18,dq_19,dq_20,dq_21,dq_22,mocap_time,mocap_timestamp,robot_x,robot_y,robot_yaw,ball_x,ball_y
1741504872.4855924,0.5723934173583984,0.03987818485565464,-0.06463558522343442,-0.9971118149412544,-0.5592600107192993,-0.22567370533943176,0.43363264203071594,0.9874832630157471,2.4802756309509277,12.991750717163086,-0.5670633316040039,0.5430307388305664,0.1993209719657898,-1.3298473358154297,0.00476844422519207,-0.7051575779914856,0.1989395022392273,1.2985663414001465,0.0036240178160369396,0.6906614899635315,-0.018501564860343933,-0.4957274794578552,-0.054741740226745605,0.08411535620689392,0.7471198439598083,-0.42287084460258484,0.002871535485610366,-0.6361104846000671,-0.06084534898400307,0.007057297509163618,0.955024003982544,-0.46464359760284424,-0.01548423245549202,-0.15243354439735413,-1.0945086479187012,-1.1861056089401245,0.780055820941925,-0.006255208048969507,-1.3921737670898438,1.1908607482910156,-0.4525740146636963,0.10241439938545227,0.9851991534233093,2.098155975341797,0.26473110914230347,0.07366815954446793,-1.1976234912872314,0.2558474540710449,-0.11328443139791489,-0.5239751935005188,0.7396120429039001,0.03617158904671669,-1.317480206489563,-0.061838097870349884,-0.696570098400116,-0.145875483751297,1741504872.530324,1741504872373,-1.3906202392578124,1.2125909423828125,-1.516724029741525,-6.36745068359375,1.5092701416015626
1741504872.4876006,0.5690884590148926,0.028860202637687547,-0.04182018716348277,-0.9987082460104768,-0.7311591506004333,-0.41123610734939575,-0.21567784249782562,0.24128204584121704,9.214241981506348,12.816754341125488,-0.5506601333618164,0.5140380859375,0.18558785319328308,-1.305432915687561,0.005149920005351305,-0.7379644513130188,0.20771344006061554,1.311155080795288,0.004386968910694122,0.7185091972351074,0.054741740226745605,-0.4800869822502136,-0.032616160809993744,0.028038453310728073,0.7558938264846802,-0.4413924515247345,-0.012622212059795856,-0.6113145351409912,-0.04787518084049225,-0.024605173617601395,0.9531166553497314,-0.4816204905509949,-0.017673606052994728,0.4326562285423279,-0.6694694757461548,-0.09860926121473312,1.0244457721710205,0.0059014903381466866,-0.7675290703773499,0.10002531856298447,0.6463987827301025,0.02271169424057007,1.4035084247589111,1.8504337072372437,0.8528553247451782,0.8698921799659729,-2.22843861579895,0.04244023188948631,-0.6181198358535767,-0.49385905265808105,0.13707509636878967,0.5666394829750061,-0.47059282660484314,0.3710373044013977,-0.6470878720283508,-0.05592362955212593,1741504872.530324,1741504872373,-1.3906202392578124,1.2125909423828125,-1.516724029741525,-6.36745068359375,1.5092701416015626
1741504872.495789,0.5530469417572021,0.03112054235014942,0.045924493126804175,-0.9984600406500396,-0.3023471236228943,-0.07687047868967056,-0.3326863944530487,4.3569416999816895,-1.083003282546997,5.3705339431762695,0.3545818328857422,0.3629741668701172,0.2630273997783661,-1.2363858222961426,0.005149920005351305,-0.917639434337616,0.06389715522527695,1.2531707286834717,0.004005493130534887,0.9573128819465637,-0.02689402550458908,-0.7730602025985718,0.12378881871700287,0.04329747334122658,0.7440680265426636,-0.33703699707984924,-0.08614878356456757,-0.34618905186653137,0.1825360506772995,0.00019073777366429567,1.1655985116958618,-0.34183380007743835,-0.11866933852434158,1.6650220155715942,0.44213050603866577,-4.6924662590026855,-0.12307320535182953,-0.04229176044464111,0.15645845234394073,3.3034706115722656,0.02189827524125576,-0.026713654398918152,-0.00010571206075837836,-0.8309271335601807,1.4336735010147095,0.7142556309700012,-2.036705493927002,0.20212304592132568,2.073932409286499,-0.24771152436733246,-7.059847354888916,1.6319957971572876,0.5037586092948914,11.001161575317383,2.2049968242645264,0.5597931742668152,1741504872.530324,1741504872373,-1.3906202392578124,1.2125909423828125,-1.516724029741525,-6.36745068359375,1.5092701416015626
1741504872.5158339,0.5401809215545654,0.022543643800728774,0.05377386335270646,-0.9982986305431408,-0.340774804353714,-0.48769664764404297,-0.8380310535430908,-4.940507411956787,4.07173490524292,14.921043395996094,0.3702220916748047,0.3862438201904297,0.15812161564826965,-1.2424894571304321,0.004386968910694122,-0.9164950251579285,0.11654078215360641,1.2516448497772217,0.004005493130534887,0.9576943516731262,-0.048256658017635345,-0.7417792081832886,0.1359960287809372,0.04558632895350456,0.7436865568161011,-0.2943752110004425,-0.05235803872346878,-0.499542236328125,0.20199130475521088,0.0078202486038208,1.342984676361084,-0.32484886050224304,-0.05122235789895058,0.5410212874412537,0.6336707472801208,-5.171533584594727,-0.28732308745384216,-0.05472506955265999,0.08335644751787186,3.4292211532592773,0.05749545618891716,0.1131720095872879,-0.01819198578596115,-1.0849586725234985,1.4310245513916016,0.9208530187606812,-0.1926245540380478,0.20910969376564026,2.0560109615325928,1.5029606819152832,-7.403756141662598,0.5601565837860107,0.18142662942409515,8.244102478027344,0.6835840344429016,3.3698110580444336,1741504872.530324,1741504872373,-1.3906202392578124,1.2125909423828125,-1.516724029741525,-6.36745068359375,1.5092701416015626
1741504872.5358136,0.5235331058502197,0.011849958634670208,0.0482448689223927,-0.9987652432393799,0.3361481726169586,-0.5061284303665161,-0.7767506837844849,3.4758358001708984,-2.0597119331359863,8.607535362243652,0.4243917465209961,0.3892955780029297,0.07000076025724411,-1.2459226846694946,0.005531395319849253,-0.9142061471939087,0.17490653693675995,1.2524077892303467,0.005149920005351305,0.9580758213996887,-0.07572289556264877,-0.7036316394805908,0.1493476778268814,0.040627144277095795,0.7482643127441406,-0.2678864300251007,-0.05582088977098465,-0.6307697892189026,0.20084688067436218,-0.009346150793135166,1.438735008239746,-0.3498508930206299,-0.03580131381750107,1.5803653001785278,0.11987229436635971,-4.167107582092285,-0.3280484974384308,0.04985629767179489,0.07749653607606888,4.012429237365723,-0.05235867202281952,0.006325975060462952,0.024013036862015724,-1.3661186695098877,1.9367107152938843,0.37618526816368103,0.1883103847503662,0.05953444540500641,1.0921354293823242,-0.645958423614502,-6.282599925994873,-0.11616520583629608,-1.129097819328308,4.050044059753418,-1.6081511974334717,0.28758084774017334,1741504872.530324,1741504872373,-1.3906202392578124,1.2125909423828125,-1.516724029741525,-6.36745068359375,1.5092701416015626
1741504872.5558438,0.5077297687530518,-0.0033291633210844377,0.042860707789748126,-0.9990755108595863,0.22737586498260498,-0.7321733236312866,-0.8011987805366516,4.480405807495117,-5.014328479766846,11.304566383361816,0.4339284896850586,0.3850994110107422,0.00476844422519207,-1.2489745616912842,0.005149920005351305,-0.9172579646110535,0.24357213079929352,1.2474485635757446,0.0036240178160369396,0.9561684727668762,-0.09174486994743347,-0.6750209927558899,0.15735866129398346,0.051689937710762024,0.7475013136863708,-0.26229339838027954,-0.0747232660651207,-0.7211795449256897,0.17299915850162506,-0.024605173617601395,1.440260887145996,-0.4002963900566101,-0.034334152936935425,0.3660553991794586,-0.1123117059469223,-2.952152967453003,-0.08117744326591492,-0.009671179577708244,-0.1469155251979828,4.579995632171631,-0.3095448613166809,-0.07166125625371933,-0.13522742688655853,-0.6119729280471802,1.2613017559051514,0.44283556938171387,0.4171055257320404,0.12760071456432343,0.22014066576957703,-0.8002976775169373,-3.9727025032043457,-1.6730512380599976,-0.5021401643753052,-0.5371021628379822,-2.573127031326294,0.290372759103775,1741504872.530324,1741504872373,-1.3906202392578124,1.2125909423828125,-1.516724029741525,-6.36745068359375,1.5092701416015626
1741504872.575891,0.4971342086791992,-0.010522597920238063,0.03849446301229032,-0.9992034083460706,0.25488007068634033,-0.1963580697774887,-0.4778922498226166,9.926563262939453,-4.975668907165527,7.637376308441162,0.4499502182006836,0.3656444549560547,-0.04749370738863945,-1.2478300333023071,0.00476844422519207,-0.9229800701141357,0.3107118308544159,1.2478300333023071,0.0036240178160369396,0.9557870030403137,-0.09174486994743347,-0.6467918157577515,0.16994735598564148,0.05359731614589691,0.7669565677642822,-0.2721308767795563,-0.08670320361852646,-0.7715343236923218,0.14057374000549316,-0.021171892061829567,1.3754100799560547,-0.44476333260536194,-0.0006394443335011601,0.4982888996601105,-0.6255174875259399,-2.749232292175293,0.008017630316317081,-0.002538499888032675,-0.3184773027896881,4.463088512420654,-0.02110009267926216,0.004961100406944752,0.011510985903441906,0.0196148082613945,1.13028085231781,0.6791917681694031,0.08270513266324997,1.0202091932296753,-0.6132252812385559,-0.7406390309333801,-2.528738260269165,-1.3475260734558105,0.37498587369918823,-3.534963369369507,-2.105834722518921,2.1544973850250244,1741504872.530324,1741504872373,-1.3906202392578124,1.2125909423828125,-1.516724029741525,-6.36745068359375,1.5092701416015626
1741504872.595944,0.4944171905517578,-0.011028634319231503,0.03641828808606542,-0.9992757765091341,0.0520302951335907,0.14134527742862701,-0.029873035848140717,0.10533636063337326,-3.1621806621551514,6.413639545440674,0.46978759765625,0.3358888626098633,-0.10471503436565399,-1.2470670938491821,0.00476844422519207,-0.9386205673217773,0.368314653635025,1.2474485635757446,0.0036240178160369396,0.9557870030403137,-0.08869306743144989,-0.6395437717437744,0.182917520403862,0.05359731614589691,0.7967116832733154,-0.29125821590423584,-0.10315300524234772,-0.810826301574707,0.11539635062217712,0.01506828423589468,1.258297085762024,-0.4651113748550415,0.013956381939351559,0.600458025932312,-1.0660241842269897,-2.818977117538452,0.10003839433193207,-0.05986432358622551,-0.9340870380401611,3.711974620819092,0.04397110268473625,-0.024376438930630684,-0.0034398396965116262,0.11651325225830078,0.33069971203804016,0.6569916009902954,-0.020502086728811264,1.7801437377929688,-0.9331933259963989,-0.7520567178726196,-1.837550401687622,-1.292505145072937,1.9042326211929321,-6.065985202789307,-0.8221474885940552,0.05667177587747574,1741504872.6347964,1741504872473,-1.317635986328125,1.259775634765625,-1.8519115596347093,-6.3684106445312505,1.508916259765625
1741504872.6158974,0.5016705989837646,-0.0018275102206815443,0.039170934385382515,-0.9992308532595305,-0.14517442882061005,0.43234238028526306,0.3736022114753723,-0.42086565494537354,-0.5101080536842346,5.94883394241333,0.4823760986328125,0.3198671340942383,-0.1504921019077301,-1.2409635782241821,0.00476844422519207,-0.9596017599105835,0.4175249934196472,1.2524077892303467,0.005149920005351305,0.9515907764434814,-0.07763027399778366,-0.650225043296814,0.19550621509552002,0.04940108209848404,0.8424887657165527,-0.31512346863746643,-0.10614142566919327,-0.8222705721855164,0.09098191559314728,0.05283436179161072,1.1118104457855225,-0.4603765308856964,-0.0022422149777412415,0.3890397846698761,-0.6065580248832703,-2.0760340690612793,0.45199087262153625,-0.020218240097165108,-0.9665781259536743,3.3208417892456055,0.3565540313720703,0.1554727554321289,-0.3617897927761078,0.7273962497711182,-0.6891072392463684,0.45165500044822693,-0.24198520183563232,2.298816680908203,-1.1965681314468384,-0.09476819634437561,-0.37153175473213196,-1.3169231414794922,1.6633834838867188,-7.733057022094727,0.3346749544143677,-0.5706737041473389,1741504872.6347964,1741504872473,-1.317635986328125,1.259775634765625,-1.8519115596347093,-6.3684106445312505,1.508916259765625
1741504872.635974,0.5041654109954834,0.008959772323512756,0.04291871647048536,-0.9990383907820745,-0.1785706877708435,0.5651091933250427,0.05539882183074951,-7.750009059906006,2.4662914276123047,4.952991962432861,0.488861083984375,0.3175783157348633,-0.1665140837430954,-1.23295259475708,0.005149920005351305,-0.9744792580604553,0.4678797721862793,1.2569855451583862,0.005531395319849253,0.9390020370483398,-0.035667963325977325,-0.6776912808418274,0.182154580950737,0.034142062067985535,0.8974212408065796,-0.3385549783706665,-0.10265162587165833,-0.8047226667404175,0.04711223021149635,0.05207141116261482,0.9267948269844055,-0.44017985463142395,0.01276251021772623,0.20592045783996582,-0.09569869935512543,-0.6258932948112488,0.5285096168518066,0.006756849121302366,-0.6952612996101379,2.984697103500366,0.2151927649974823,-0.0011934497160837054,-0.7711215615272522,2.3568315505981445,-1.3331937789916992,-1.067700982093811,-0.7881918549537659,2.7705183029174805,-1.2147605419158936,0.342101514339447,1.048331379890442,-2.437157154083252,-0.3193414807319641,-9.343070983886719,1.477644443511963,1.3037621974945068,1741504872.6347964,1741504872473,-1.317635986328125,1.259775634765625,-1.8519115596347093,-6.3684106445312505,1.508916259765625
1741504872.6559484,0.4964873790740967,0.012986843468884906,0.05376840123301557,-0.9984689784492858,-0.7075753211975098,0.1306653469800949,-0.6129727363586426,-8.370820999145508,15.82473087310791,24.001333236694336,0.490386962890625,0.3255891799926758,-0.15583276748657227,-1.223797082901001,0.004386968910694122,-0.9802014231681824,0.4858091175556183,1.2562226057052612,0.00667582219466567,0.9180209040641785,0.021171892061829567,-0.6837949156761169,0.17261768877506256,-0.0032425422687083483,0.9466315507888794,-0.36102068424224854,-0.0865556001663208,-0.7726787328720093,0.01201647985726595,-0.045204851776361465,0.927176296710968,-0.3557256758213043,0.05256075784564018,0.05575858801603317,0.3262421786785126,0.8216916918754578,0.5466707944869995,-0.0435781255364418,-0.18756362795829773,0.8402877449989319,0.05037721246480942,0.13224992156028748,-1.49483323097229,2.5788190364837646,-0.20413623750209808,-0.4440595209598541,-1.8569415807724,1.9075663089752197,-1.2638787031173706,1.1652640104293823,2.2307238578796387,-0.7132422924041748,-4.403903961181641,0.5167744755744934,4.039785385131836,0.9591036438941956,1741504872.6347964,1741504872473,-1.317635986328125,1.259775634765625,-1.8519115596347093,-6.3684106445312505,1.508916259765625
1741504872.675968,0.47870445251464844,0.02279357075428027,0.06966481012021734,-0.9973100156737542,-0.7872426509857178,0.4144221246242523,-0.9129540920257568,17.132387161254883,-7.64698600769043,5.634240627288818,0.504119873046875,0.3332185745239258,-0.10776684433221817,-1.2161675691604614,0.004386968910694122,-0.9767681360244751,0.4671168029308319,1.2569855451583862,0.00667582219466567,0.9107728600502014,0.05397878959774971,-0.6830319762229919,0.15926603972911835,-0.031090257689356804,0.960746169090271,-0.3928825855255127,-0.03372681140899658,-0.7307164072990417,0.000572213320992887,-0.059319447726011276,0.8813992738723755,-0.3026934862136841,0.03201901540160179,0.4001822769641876,0.4215138256549835,2.8754451274871826,0.565700888633728,0.04484873265028,0.24454763531684875,-1.499167799949646,-0.008435645140707493,-0.017747649922966957,-0.32705891132354736,1.5318753719329834,0.3882308602333069,-0.43768131732940674,-1.4994829893112183,0.530064582824707,-1.5029665231704712,2.706331491470337,1.9098244905471802,-0.9225326180458069,-0.28929847478866577,-2.6998798847198486,2.4385082721710205,-0.9115044474601746,1741504872.6347964,1741504872473,-1.317635986328125,1.259775634765625,-1.8519115596347093,-6.3684106445312505,1.508916259765625
1741504872.6989188,0.46424388885498047,0.02719556660861836,0.08081206824265125,-0.9963582743085849,-0.42245128750801086,0.41439488530158997,-0.8738958835601807,11.359841346740723,8.677361488342285,11.642698287963867,0.5144195556640625,0.3446636199951172,-0.04253452271223068,-1.211208462715149,0.005149920005351305,-0.967231273651123,0.439269095659256,1.2562226057052612,0.006294346414506435,0.9061951637268066,0.053215838968753815,-0.6498435735702515,0.14782176911830902,-0.05245288833975792,0.9760051965713501,-0.42487573623657227,0.0031289984472095966,-0.6723506450653076,0.02841992862522602,-0.04787518084049225,0.8585107326507568,-0.2754600942134857,-0.0006383535219356418,0.3427354395389557,0.4037451148033142,2.9972610473632812,0.19360758364200592,-0.002063378691673279,0.5054091215133667,-1.7488919496536255,-0.06881243735551834,-0.012132814154028893,-0.2113306224346161,-0.3479723334312439,1.8788305521011353,-0.39754053950309753,-1.0016601085662842,0.8705459237098694,-1.5197967290878296,1.6594072580337524,2.7043039798736572,1.8149714469909668,0.6499966979026794,-0.7137733101844788,1.0780150890350342,-1.6533056497573853,1741504872.6347964,1741504872473,-1.317635986328125,1.259775634765625,-1.8519115596347093,-6.3684106445312505,1.508916259765625
1741504872.7160082,0.4523048400878906,0.026454800410161287,0.07985654367009623,-0.9964552553769408,0.07696913927793503,-0.06225905194878578,-0.4985992908477783,-4.473010540008545,4.247031211853027,9.174653053283691,0.523193359375,0.3580150604248047,0.02994582988321781,-1.2371487617492676,0.005149920005351305,-0.954261064529419,0.404936283826828,1.2493560314178467,0.006294346414506435,0.9073395729064941,0.010490577667951584,-0.612077534198761,0.14400701224803925,-0.045204851776361465,1.0008010864257812,-0.4334598183631897,-0.00793966744095087,-0.6387808322906494,0.05741206929087639,-0.010109102353453636,0.8440146446228027,-0.29201868176460266,-0.0188294630497694,0.2383347600698471,0.35132747888565063,3.666785955429077,-1.9565500020980835,-0.06256619840860367,0.5980234146118164,-2.3149027824401855,-0.5275423526763916,0.0015345842111855745,0.10447219014167786,-2.23543119430542,1.856918454170227,-0.33813464641571045,0.720389723777771,1.3866190910339355,-0.11046868562698364,-0.946933388710022,1.8931665420532227,1.2033202648162842,2.156459093093872,-0.8862990736961365,-1.0286531448364258,-0.693776547908783,1741504872.6347964,1741504872473,-1.317635986328125,1.259775634765625,-1.8519115596347093,-6.3684106445312505,1.508916259765625
1741504872.736075,0.44930434226989746,0.02624690829400195,0.0746823075884658,-0.9968619025413039,0.28385984897613525,-0.01996624283492565,-0.18867628276348114,5.283398151397705,-0.07766963541507721,9.531067848205566,0.5159454345703125,0.3606853485107422,0.10738536715507507,-1.2577484846115112,0.005149920005351305,-0.9451056718826294,0.36449989676475525,1.2379117012023926,0.005531395319849253,0.9092469811439514,-0.02994582988321781,-0.6006332635879517,0.12951095402240753,-0.01125352829694748,1.0622186660766602,-0.40712863206863403,-0.01583998091518879,-0.5933852195739746,0.08182650804519653,0.029564354568719864,0.8314259648323059,-0.32015952467918396,-0.020622707903385162,-0.15907631814479828,0.05856367200613022,3.9313862323760986,-1.211668848991394,0.039087943732738495,0.38578274846076965,-2.859292507171631,-0.763709306716919,-0.025285644456744194,0.09435267001390457,-1.9372143745422363,-0.040764037519693375,-0.8078731894493103,1.7506327629089355,3.3619067668914795,1.480249047279358,0.11466521769762039,2.074469566345215,1.2058765888214111,1.7666670083999634,-0.5412958264350891,-1.3462824821472168,-0.21907784044742584,1741504872.6347964,1741504872473,-1.317635986328125,1.259775634765625,-1.8519115596347093,-6.3684106445312505,1.508916259765625
1741504872.7560737,0.4543187618255615,0.021528486169180745,0.07065914297292601,-0.9972681734606769,0.1317722201347351,-0.15005812048912048,0.3705741763114929,-1.39573073387146,0.6086360812187195,9.670404434204102,0.5151824951171875,0.3561077117919922,0.18596932291984558,-1.2772036790847778,0.00476844422519207,-0.9378576278686523,0.3110933005809784,1.2276118993759155,0.005149920005351305,0.9115357995033264,-0.051689937710762024,-0.6437399983406067,0.10509651154279709,0.020027466118335724,1.1625467538833618,-0.37451547384262085,0.009086783044040203,-0.5518043637275696,0.08983749151229858,0.05054550990462303,0.8196002244949341,-0.34674540162086487,-0.021565254777669907,-0.03377336636185646,-0.15448887646198273,3.942321300506592,-1.20960533618927,-0.048894189298152924,0.3043038547039032,-3.6111807823181152,-0.658833384513855,-0.06230630725622177,0.17275185883045197,-0.8677629828453064,-2.501030921936035,-1.354633092880249,1.4686768054962158,5.201488971710205,1.5577102899551392,1.0303798913955688,2.3872766494750977,0.3005610704421997,0.9250277876853943,-0.559907078742981,-1.319449782371521,0.21872712671756744,1741504872.6347964,1741504872473,-1.317635986328125,1.259775634765625,-1.8519115596347093,-6.3684106445312505,1.508916259765625
1741504872.776191,0.46873903274536133,0.021797379698941043,0.07304470781969262,-0.9970904396782652,-0.1393551528453827,-0.090927854180336,0.7556701302528381,4.01736307144165,-2.483057737350464,7.332921981811523,0.5167083740234375,0.3458080291748047,0.25539788603782654,-1.2825443744659424,0.005149920005351305,-0.9390020370483398,0.25272753834724426,1.2218897342681885,0.004005493130534887,0.9122987985610962,-0.05245288833975792,-0.7154573798179626,0.08220797777175903,0.030708782374858856,1.2857633829116821,-0.3588673770427704,0.006337493192404509,-0.5029755234718323,0.08907453715801239,0.05207141116261482,0.7997635006904602,-0.37275969982147217,-0.013613798655569553,0.016975509002804756,-0.28109389543533325,3.5562775135040283,-0.3125974237918854,0.021821020171046257,-0.024216419085860252,-3.9174609184265137,-0.30980974435806274,-0.049855079501867294,0.031040195375680923,0.022632114589214325,-3.5957162380218506,-1.1053109169006348,0.32993897795677185,6.001514434814453,0.5539923906326294,-0.27662160992622375,2.332610607147217,-0.005830767098814249,0.03392210975289345,-1.1047087907791138,-1.306267261505127,0.16311873495578766,1741504872.6347964,1741504872473,-1.317635986328125,1.259775634765625,-1.8519115596347093,-6.3684106445312505,1.508916259765625
1741504872.796089,0.48333096504211426,0.019538645560028746,0.08049160031594801,-0.9965637679588081,-0.42121005058288574,-0.08372487127780914,0.7226688861846924,0.7642719149589539,-0.6098396182060242,8.961884498596191,0.517852783203125,0.3393220901489258,0.31986725330352783,-1.2829258441925049,0.00476844422519207,-0.9405279755592346,0.18978407979011536,1.224941611289978,0.004386968910694122,0.9126802682876587,-0.048638131469488144,-0.7948042750358582,0.053215838968753815,0.049782559275627136,1.3807507753372192,-0.36768409609794617,0.00027553708059713244,-0.4533836841583252,0.09021896868944168,0.046730753034353256,0.7745860815048218,-0.40021052956581116,-0.014269471168518066,0.02788824588060379,-0.20827968418598175,3.0653321743011475,0.06530077010393143,-0.02729995921254158,-0.10340003669261932,-4.1944499015808105,0.28304001688957214,0.006873840931802988,0.08014176785945892,0.28342920541763306,-4.017882347106934,-1.470177173614502,1.1872859001159668,4.37276029586792,-0.6131870746612549,-0.1722344011068344,2.5712244510650635,0.054734379053115845,-0.3466891944408417,-1.226393461227417,-1.349982500076294,0.04971448332071304,1741504872.8413432,1741504872673,-1.1426575927734375,1.3152791748046875,-1.9407496116523326,-6.367060546875,1.5093758544921876
1741504872.8161168,0.49460601806640625,0.021712241579278074,0.09081603873082408,-0.9956309686198218,-0.5100021958351135,0.04996103048324585,0.38831791281700134,3.732975482940674,-0.4172544777393341,9.078390121459961,0.528533935546875,0.3351259231567383,0.3751811981201172,-1.2764407396316528,0.00476844422519207,-0.9397650361061096,0.12188144028186798,1.228756308555603,0.004386968910694122,0.9138246774673462,-0.04100862145423889,-0.8669031858444214,0.03833829239010811,0.06237125024199486,1.4265278577804565,-0.3886999189853668,0.0031115207821130753,-0.4030289053916931,0.09212634712457657,0.04482337832450867,0.7452124953269958,-0.4242318570613861,-0.010585847310721874,0.30173054337501526,-0.10310400277376175,2.7016499042510986,0.4005836844444275,-0.014744976535439491,0.053936537355184555,-4.483765602111816,0.17911918461322784,0.030901426449418068,-0.003043226897716522,0.22453710436820984,-3.5827701091766357,-0.636717677116394,0.5172200798988342,1.8932547569274902,-1.087356686592102,0.1671612411737442,2.437032461166382,0.1895648092031479,-0.09287948161363602,-1.5355030298233032,-1.1901646852493286,0.15759065747261047,1741504872.8413432,1741504872673,-1.1426575927734375,1.3152791748046875,-1.9407496116523326,-6.367060546875,1.5093758544921876
1741504872.8361301,0.4936494827270508,0.022944267753699437,0.10067260278292342,-0.9946550093505578,-0.46357932686805725,0.11131167411804199,-0.116177998483181,-1.2264271974563599,0.9084107279777527,6.305685520172119,0.5373086929321289,0.3328371047973633,0.42935073375701904,-1.2749148607254028,0.00476844422519207,-0.9363317489624023,0.058175019919872284,1.230282187461853,0.005149920005351305,0.9149690866470337,-0.040245670825242996,-0.9287022352218628,0.04406042397022247,0.07038223743438721,1.423475980758667,-0.40407928824424744,-0.0038698213174939156,-0.3603036403656006,0.10128175467252731,0.04596780240535736,0.7185091972351074,-0.447603315114975,-0.0092804916203022,0.2903183400630951,-0.06802050769329071,2.791314125061035,0.025769708678126335,-0.05421242490410805,0.20069913566112518,-4.203718662261963,0.14306442439556122,0.0178461205214262,0.10737882554531097,-0.026518026366829872,-2.9488136768341064,0.45206403732299805,0.2659064829349518,-0.5039060711860657,-0.6695805788040161,-0.4031240940093994,2.1247875690460205,0.3843223750591278,0.06549695879220963,-1.2442597150802612,-1.1856573820114136,0.04300151765346527,1741504872.8413432,1741504872673,-1.1426575927734375,1.3152791748046875,-1.9407496116523326,-6.367060546875,1.5093758544921876
1741504872.8561463,0.4873690605163574,0.026875960439458862,0.10845231199053258,-0.9937382848488655,-0.3665432929992676,0.24057383835315704,-0.3549051284790039,2.8953697681427,0.1735590398311615,6.088261127471924,0.5357828140258789,0.3313112258911133,0.4835202693939209,-1.2711000442504883,0.005149920005351305,-0.9317540526390076,0.001716639962978661,1.2386746406555176,0.00476844422519207,0.918402373790741,-0.046730753034353256,-0.9756237268447876,0.06504157930612564,0.06580453366041183,1.3815137147903442,-0.4027799069881439,-0.0094112828373909,-0.3217746317386627,0.11005569249391556,0.05130846053361893,0.6971465349197388,-0.47044265270233154,-0.008973706513643265,-0.04018394649028778,-0.021648861467838287,2.5060908794403076,0.3291550874710083,-0.0038005101960152388,0.19412682950496674,-3.7790772914886475,0.6319434642791748,0.008891896344721317,0.253728985786438,-0.3784697651863098,-2.201507806777954,1.2082343101501465,-0.32523491978645325,-2.3688290119171143,0.18046927452087402,-0.17040637135505676,1.8155484199523926,0.4046963155269623,0.27373865246772766,-1.0775225162506104,-1.1503978967666626,0.06670920550823212,1741504872.8413432,1741504872673,-1.1426575927734375,1.3152791748046875,-1.9407496116523326,-6.367060546875,1.5093758544921876
1741504872.8761628,0.4830026626586914,0.029489073023290097,0.11560682984534638,-0.9928572180657883,-0.37235137820243835,0.1424628496170044,-0.1332322359085083,-0.7897413372993469,-0.1226625144481659,9.88893985748291,0.5350198745727539,0.3343629837036133,0.5144197940826416,-1.2649965286254883,0.005149920005351305,-0.925650417804718,-0.05245288833975792,1.2428709268569946,0.00476844422519207,0.927176296710968,-0.06542305648326874,-1.0011825561523438,0.09784847497940063,0.05436026677489281,1.3048371076583862,-0.3858162462711334,-0.003475154982879758,-0.2958342730998993,0.11348897218704224,0.0558861680328846,0.6780728101730347,-0.4912281036376953,-0.01275708805769682,-0.038569748401641846,0.09956925362348557,1.3530938625335693,0.36076465249061584,-0.012694410979747772,0.34208860993385315,-3.496387481689453,0.13936255872249603,-0.005177292041480541,0.6871534585952759,-1.03807532787323,-1.0506339073181152,1.6877057552337646,-0.5359775424003601,-4.1619672775268555,0.9817695617675781,0.2940532863140106,1.4504692554473877,0.09583888202905655,0.26241204142570496,-0.8748893141746521,-0.9681093692779541,-0.15409702062606812,1741504872.8413432,1741504872673,-1.1426575927734375,1.3152791748046875,-1.9407496116523326,-6.367060546875,1.5093758544921876
1741504872.8961985,0.4841156005859375,0.033796843191374354,0.1223280682873751,-0.9919141178042465,-0.3144177794456482,0.17839877307415009,0.05887383967638016,1.2568178176879883,-0.4646228849887848,10.378746032714844,0.5346384048461914,0.3355073928833008,0.5220493078231812,-1.2596558332443237,0.005149920005351305,-0.9218356609344482,-0.08525978773832321,1.239819049835205,0.004005493130534887,0.9428167939186096,-0.086785688996315,-0.9889753460884094,0.134470134973526,0.05359731614589691,1.19459068775177,-0.36178940534591675,-0.0012848001206293702,-0.2584496736526489,0.11272602528333664,0.06008239835500717,0.6658655405044556,-0.5055202841758728,-0.010704892687499523,-0.010263858363032341,0.03603936359286308,0.2243346869945526,0.37647733092308044,-0.009014178067445755,0.17301005125045776,-1.9411486387252808,-0.2051902413368225,-0.05862028896808624,1.0336644649505615,-1.0142464637756348,0.9748775362968445,1.8628034591674805,0.0358174592256546,-5.780381679534912,1.149025797843933,0.13343222439289093,1.7621644735336304,0.004201902542263269,0.18496954441070557,-0.7239984273910522,-0.6910803914070129,0.13076002895832062,1741504872.9411879,1741504872773,-1.0763592529296875,1.3631502685546875,-2.1282115760861022,-6.36714697265625,1.5095526123046876
1741504872.916199,0.48958563804626465,0.035308236526282795,0.125131767688493,-0.9915116586044549,-0.12403486669063568,-0.02745813876390457,0.30417224764823914,2.7382874488830566,0.5823822617530823,5.003107070922852,0.5350198745727539,0.3423738479614258,0.5102235674858093,-1.2546966075897217,0.005149920005351305,-0.9180209040641785,-0.09403372555971146,1.23447847366333,0.004005493130534887,0.9554055333137512,-0.10471503436565399,-0.9496833682060242,0.16346226632595062,0.06923781335353851,1.043144941329956,-0.35364848375320435,0.006224670447409153,-0.2149614691734314,0.1184481605887413,0.06237125024199486,0.6528953909873962,-0.5138159394264221,-0.003161084372550249,0.0005394897307269275,0.24893133342266083,-0.7561571598052979,0.25124308466911316,0.0006361854029819369,0.18893209099769592,-0.3446556329727173,-0.3187011182308197,0.004843562375754118,0.8494486808776855,-0.7093423008918762,2.149505376815796,1.3174227476119995,0.9556722044944763,-8.160143852233887,0.16460192203521729,0.4048829674720764,2.2494845390319824,0.4443245232105255,0.10722416639328003,-0.5117897987365723,-0.19832341372966766,0.5161611437797546,1741504872.9411879,1741504872773,-1.0763592529296875,1.3631502685546875,-2.1282115760861022,-6.36714697265625,1.5095526123046876
1741504872.9362135,0.492459774017334,0.03473204562979757,0.12630409079347696,-0.991383357564168,-0.07463822513818741,-0.04092307761311531,0.09900284558534622,3.9043779373168945,-3.2741124629974365,3.7650346755981445,0.5380716323852539,0.3400850296020508,0.4819943606853485,-1.2546966075897217,0.005149920005351305,-0.916113555431366,-0.086785688996315,1.232571005821228,0.004005493130534887,0.9637979865074158,-0.10433356463909149,-0.881780743598938,0.17109178006649017,0.09250781685113907,0.8653773069381714,-0.3802229166030884,0.010254915803670883,-0.17109178006649017,0.14209964871406555,0.05283436179161072,0.654421329498291,-0.5035188794136047,-0.007621381431818008,0.08829253911972046,0.0011218544095754623,-1.5317981243133545,-0.00648876279592514,-0.009313148446381092,0.09664305299520493,0.5497605204582214,-0.1627102792263031,0.00724271172657609,0.5531595945358276,0.21315817534923553,3.3909077644348145,0.27318739891052246,1.0232454538345337,-8.736313819885254,-1.6128638982772827,0.14773796498775482,2.0716912746429443,1.0997800827026367,-0.5967791080474854,0.36604997515678406,0.6502717733383179,-0.6739937663078308,1741504872.9411879,1741504872773,-1.0763592529296875,1.3631502685546875,-2.1282115760861022,-6.36714697265625,1.5095526123046876
1741504872.9562616,0.4907248020172119,0.027105805313803712,0.13720213267996043,-0.9901721315540852,-0.568766713142395,-0.4865565001964569,-0.09646183997392654,-12.202414512634277,5.547298431396484,24.967559814453125,0.527008056640625,0.3439006805419922,0.4488059878349304,-1.2527892589569092,0.00476844422519207,-0.9111543297767639,-0.06885633617639542,1.2333340644836426,0.004005493130534887,0.9649423956871033,-0.07724879682064056,-0.8443961143493652,0.17338064312934875,0.08869306743144989,0.8398184180259705,-0.35549700260162354,0.008749709464609623,-0.14782176911830902,0.12569619715213776,0.029182879254221916,0.7032501697540283,-0.4898097813129425,-0.03585990518331528,-0.36538228392601013,0.103471539914608,-1.6034144163131714,0.2127070128917694,8.958221587818116e-05,0.43564295768737793,1.2888315916061401,0.21917501091957092,-0.012250974774360657,-0.07958349585533142,1.678706407546997,1.632569670677185,-0.22737345099449158,-0.3966922461986542,1.6198910474777222,1.8677639961242676,0.23762671649456024,0.9563977718353271,-1.3015803098678589,-1.2207772731781006,2.8867990970611572,0.576907753944397,-1.352203130722046,1741504872.9411879,1741504872773,-1.0763592529296875,1.3631502685546875,-2.1282115760861022,-6.36714697265625,1.5095526123046876
1741504872.9762862,0.4829719066619873,0.025546000975122357,0.13172684117403105,-0.9909568311225725,0.315107524394989,-0.21997714042663574,-0.7199689149856567,-2.7262630462646484,-17.939491271972656,7.6821489334106445,0.5601968765258789,0.3641185760498047,0.3934920132160187,-1.2485930919647217,0.00476844422519207,-0.9069581031799316,-0.034142062067985535,1.2424894571304321,0.00476844422519207,0.9618905782699585,-0.029564354568719864,-0.840962827205658,0.16041046380996704,0.05245288833975792,0.8985656499862671,-0.3082001805305481,0.025424238294363022,-0.17986571788787842,0.134470134973526,-0.001716639962978661,0.8047226667404175,-0.4584152102470398,-0.04225204885005951,1.0787655115127563,0.6456536054611206,-3.1841278076171875,0.16674143075942993,-0.08333771675825119,0.10823943465948105,2.4283788204193115,0.42916563153266907,0.15536290407180786,-0.2887423038482666,1.9822341203689575,0.23384955525398254,-0.41305011510849,-1.9061579704284668,1.6972894668579102,1.8384143114089966,0.7783368825912476,-2.017590045928955,0.5664554834365845,-1.3413978815078735,5.683849334716797,1.8021643161773682,-0.14969532191753387,1741504872.9411879,1741504872773,-1.0763592529296875,1.3631502685546875,-2.1282115760861022,-6.36714697265625,1.5095526123046876
1741504872.996274,0.46869754791259766,0.023529794153754408,0.13740712695722976,-0.9902351388677548,-0.3384128212928772,0.13501985371112823,-0.751876175403595,-11.407904624938965,-4.894906520843506,13.990612983703613,0.5361642837524414,0.3496227264404297,0.3099488914012909,-1.2485930919647217,0.00476844422519207,-0.9119172692298889,-0.000572213320992887,1.2466856241226196,0.005912871100008488,0.9588387608528137,-0.008964675478637218,-0.7967116832733154,0.1493476778268814,0.042153049260377884,0.8607995510101318,-0.29615455865859985,0.019267890602350235,-0.2615014910697937,0.1363775134086609,0.013160906732082367,0.9691386222839355,-0.41168150305747986,-0.049050990492105484,-0.6378651261329651,-0.3578171133995056,-4.253139495849609,0.12146405875682831,0.013921651989221573,-0.3093138039112091,2.4707303047180176,0.32256099581718445,0.0210555586963892,-0.061814989894628525,1.0817347764968872,2.2929983139038086,-0.4342249035835266,-0.20260600745677948,-1.8620479106903076,0.519328236579895,-0.4600597023963928,-4.307548522949219,0.15623286366462708,0.8951146006584167,8.641335487365723,2.3059866428375244,-0.26922905445098877,1741504873.043907,1741504872873,-1.0005405883789062,1.424880859375,-2.3539061051437318,-6.36754052734375,1.50935546875
1741504873.016287,0.4379453659057617,0.02221959866275201,0.1396144183489184,-0.9899566170415547,0.0923980101943016,0.17623955011367798,-1.5613305568695068,4.057685375213623,1.6125620603561401,7.341319561004639,0.5479898452758789,0.3595409393310547,0.2317463904619217,-1.2417265176773071,0.005149920005351305,-0.9145876169204712,0.03833829239010811,1.2592743635177612,0.007057297509163618,0.9576943516731262,0.008964675478637218,-0.7841230034828186,0.15468832850456238,0.04558632895350456,0.88979172706604,-0.28282445669174194,0.01745430752635002,-0.3774700462818146,0.15392538905143738,0.02079041674733162,1.1362248659133911,-0.3704838156700134,-0.03270554170012474,0.27451127767562866,0.32752493023872375,-3.695553779602051,0.46522343158721924,0.03111540898680687,-0.032625388354063034,2.5683789253234863,0.767386257648468,0.13902398943901062,-0.06459163129329681,0.9618551731109619,0.5306519269943237,0.5842226147651672,0.1395261436700821,1.6827452182769775,0.3685614764690399,0.11352371424436569,-5.822596549987793,1.2001255750656128,0.09737251698970795,8.10195541381836,1.8862098455429077,1.2994202375411987,1741504873.043907,1741504872873,-1.0005405883789062,1.424880859375,-2.3539061051437318,-6.36754052734375,1.50935546875
1741504873.036365,0.4035911560058594,0.014945599723322316,0.13788781697775504,-0.9903350841902044,0.036131106317043304,-0.15579642355442047,-1.6913703680038452,0.5860052704811096,-5.5848798751831055,10.709117889404297,0.5571451187133789,0.3679332733154297,0.16002899408340454,-1.2394375801086426,0.00476844422519207,-0.917639434337616,0.08907453715801239,1.2615631818771362,0.005912871100008488,0.9576943516731262,0.02040894143283367,-0.7558938264846802,0.16956588625907898,0.06427863240242004,0.8974212408065796,-0.2968173325061798,0.01673523522913456,-0.4865720570087433,0.1676585078239441,0.0024795911740511656,1.257534146308899,-0.3615707457065582,0.0017750191036611795,0.14793269336223602,0.27112147212028503,-3.6900124549865723,0.11328710615634918,-0.0032089934684336185,-0.14373962581157684,3.441415786743164,0.06627729535102844,-0.08463117480278015,-0.017176596447825432,0.5588456392288208,1.6556745767593384,0.7540649771690369,1.0003083944320679,0.17314064502716064,-0.6813311576843262,-0.12680551409721375,-5.394870281219482,0.39978477358818054,-0.906261146068573,5.561126232147217,0.07942336052656174,1.2780126333236694,1741504873.043907,1741504872873,-1.0005405883789062,1.424880859375,-2.3539061051437318,-6.36754052734375,1.50935546875
1741504873.0563765,0.37099289894104004,0.005714110667994111,0.13819669394046347,-0.9903883191572889,0.09142803400754929,-0.20937731862068176,-1.6285216808319092,2.6218454837799072,-4.535042762756348,11.974224090576172,0.5422677993774414,0.3713665008544922,0.09021896868944168,-1.238293170928955,0.00476844422519207,-0.917639434337616,0.15316243469715118,1.2627075910568237,0.005531395319849253,0.9573128819465637,0.02079041674733162,-0.7207980751991272,0.1810101419687271,0.08144503086805344,0.9039062857627869,-0.30870869755744934,0.012725628912448883,-0.579270601272583,0.15735866129398346,-0.02689402550458908,1.3132295608520508,-0.3945431709289551,-0.010604161769151688,-0.4128328263759613,0.09244531393051147,-3.304333448410034,0.09088446944952011,-0.025688225403428078,0.028545748442411423,4.35236930847168,0.04759996011853218,0.008539511822164059,-0.02267240360379219,-0.027164114639163017,1.6828389167785645,0.7193203568458557,0.6821563243865967,0.38045546412467957,-0.6304951310157776,-0.14278766512870789,-4.677924156188965,-0.4614737629890442,-1.5997192859649658,2.1536920070648193,-1.8218072652816772,-0.6750379204750061,1741504873.043907,1741504872873,-1.0005405883789062,1.424880859375,-2.3539061051437318,-6.36754052734375,1.50935546875
1741504873.0764449,0.3491920232772827,-0.0005474000080919683,0.13322466288635043,-0.9910857125153452,0.20855936408042908,-0.16034294664859772,-1.044847011566162,1.2858692407608032,-7.370179176330566,9.736553192138672,0.5506601333618164,0.3683147430419922,0.029564354568719864,-1.23447847366333,0.005149920005351305,-0.9172579646110535,0.2283131182193756,1.2596558332443237,0.00476844422519207,0.9569314122200012,0.016212711110711098,-0.6845578551292419,0.1985580176115036,0.09975585341453552,0.9065766334533691,-0.32758957147598267,0.0021639016922563314,-0.654421329498291,0.14858472347259521,-0.06466010212898254,1.3082703351974487,-0.4422928988933563,-0.007499278523027897,0.1969614177942276,-0.09059569239616394,-2.92284893989563,0.2426956593990326,-0.005140503402799368,-0.01863853819668293,5.038558483123779,-0.20746494829654694,-0.08430276811122894,-0.06169386953115463,-0.4013635814189911,1.7553989887237549,0.6839191317558289,1.057253122329712,0.05435420945286751,-1.0205944776535034,-0.496576189994812,-3.6275851726531982,-0.5360894203186035,-1.904853343963623,-0.5968077778816223,-2.4126131534576416,0.5304479598999023,1741504873.043907,1741504872873,-1.0005405883789062,1.424880859375,-2.3539061051437318,-6.36754052734375,1.50935546875
1741504873.096414,0.3371164798736572,-0.003208387028129287,0.13205072874748533,-0.9912377672838822,0.07163695991039276,0.0021763108670711517,-0.5541588664054871,-0.8797979950904846,0.09980884194374084,10.988868713378906,0.5487527847290039,0.3614482879638672,-0.03452353551983833,-1.2283748388290405,0.005149920005351305,-0.9199283123016357,0.30422675609588623,1.2588928937911987,0.004005493130534887,0.9554055333137512,-0.000572213320992887,-0.6506065726280212,0.20695048570632935,0.12417028844356537,0.9019989371299744,-0.35399261116981506,-0.006251116748899221,-0.7162203192710876,0.13752193748950958,-0.08907453715801239,1.272793173789978,-0.47487184405326843,0.013807469047605991,-0.05902950093150139,-0.14439184963703156,-3.267767906188965,0.401007741689682,0.003169699339196086,-0.1938537210226059,4.9453444480896,-0.023908179253339767,-0.025311186909675598,-0.09737087041139603,-0.6954265832901001,2.021726608276367,0.5494155883789062,1.0207669734954834,-0.11775091290473938,-1.3122823238372803,-0.16558879613876343,-3.0672807693481445,-0.5741150975227356,-1.1484788656234741,-1.9375935792922974,-1.3803659677505493,0.8305285573005676,1741504873.1429663,1741504873073,-0.8378651123046875,1.5166746826171875,-2.5381989449126894,-6.3679345703125,1.5092293701171875
1741504873.1164367,0.3257647752761841,0.00339354714957148,0.12854663198954194,-0.9916976591894774,0.17573848366737366,0.3924536108970642,-0.555933952331543,-2.5759894847869873,-1.8411321640014648,12.034070014953613,0.5601968765258789,0.3461894989013672,-0.09174486994743347,-1.224560022354126,0.00476844422519207,-0.9332799315452576,0.3706035017967224,1.2588928937911987,0.004005493130534887,0.9554055333137512,-0.01201647985726595,-0.6155108213424683,0.2153429538011551,0.14782176911830902,0.8989471197128296,-0.38363251090049744,-0.01426318846642971,-0.768482506275177,0.12989242374897003,-0.1031891331076622,1.2102311849594116,-0.4761338531970978,0.00991209875792265,0.3289668560028076,-0.43295514583587646,-2.640446901321411,0.18811407685279846,-0.02509170211851597,-0.7290535569190979,4.300196647644043,-0.015347647480666637,0.01861954666674137,-0.0048394761979579926,-0.49629834294319153,1.5892329216003418,0.2891678810119629,1.3076066970825195,-0.18762175738811493,-1.4976085424423218,-0.5240164995193481,-2.3913402557373047,-0.4684414267539978,-0.6852914690971375,-3.373474359512329,0.2152073234319687,-0.22484327852725983,1741504873.1429663,1741504873073,-0.8378651123046875,1.5166746826171875,-2.5381989449126894,-6.3679345703125,1.5092293701171875
1741504873.1364224,0.3139955997467041,0.01352692770052261,0.12401904078631723,-0.9921876333382847,0.24096842110157013,0.5997627377510071,-0.5765756368637085,1.4393715858459473,2.4788119792938232,9.470548629760742,0.5590524673461914,0.3358888626098633,-0.12531471252441406,-1.2226526737213135,0.005149920005351305,-0.9473945498466492,0.422102689743042,1.2585114240646362,0.004005493130534887,0.9496833682060242,-0.005149920005351305,-0.5853742361068726,0.21648737788200378,0.16422522068023682,0.8962767720222473,-0.4143112599849701,-0.021064918488264084,-0.8104447722434998,0.1180666834115982,-0.11196307092905045,1.1346989870071411,-0.4446932077407837,0.011207399889826775,0.004588238429278135,-0.35793498158454895,-1.533438801765442,0.14903253316879272,-0.00809431355446577,-0.7118484377861023,3.335193395614624,0.04896342754364014,0.02175048366189003,-0.4758542478084564,0.46265894174575806,1.5865229368209839,0.009154671803116798,0.6783105731010437,-0.1635615974664688,-1.5627726316452026,-0.3607000708580017,-2.105804204940796,-0.8103722333908081,-0.3541761338710785,-4.025196075439453,1.7373042106628418,0.22417347133159637,1741504873.1429663,1741504873073,-0.8378651123046875,1.5166746826171875,-2.5381989449126894,-6.3679345703125,1.5092293701171875
1741504873.156465,0.29681313037872314,0.02060356967021414,0.11865976964570298,-0.9927211854214018,0.2820267081260681,0.42665785551071167,-0.8716307878494263,2.5702550411224365,-0.9461535811424255,8.394680976867676,0.5582895278930664,0.3347444534301758,-0.13179980218410492,-1.2188379764556885,0.00476844422519207,-0.9596017599105835,0.4709315598011017,1.2611817121505737,0.004386968910694122,0.9351872801780701,0.01926451548933983,-0.5548561811447144,0.21190966665744781,0.1680399775505066,0.892080545425415,-0.4454485774040222,-0.029664820060133934,-0.8314259648323059,0.09212634712457657,-0.11959258466959,1.0458152294158936,-0.4003421366214752,0.007226779591292143,-0.03812505304813385,-0.07657396048307419,-0.13073380291461945,0.2594417333602905,0.004043317399919033,-0.5553625822067261,3.0851552486419678,0.12241081148386002,-0.01762331649661064,-0.9592764377593994,1.3408634662628174,1.6061289310455322,-0.31856411695480347,0.17145498096942902,-0.1661178171634674,-1.5786442756652832,-0.4058365821838379,-0.831681489944458,-1.3048750162124634,-0.4281179904937744,-4.600119590759277,2.238670825958252,-0.1186978667974472,1741504873.1429663,1741504873073,-0.8378651123046875,1.5166746826171875,-2.5381989449126894,-6.3679345703125,1.5092293701171875
1741504873.1764903,0.2761908769607544,0.0209427083678314,0.11466374652716117,-0.9931835823243228,0.20877839624881744,0.0899588093161583,-1.029948353767395,2.163330554962158,-1.153027057647705,8.268086433410645,0.5571451187133789,0.3515300750732422,-0.11577782779932022,-1.216549038887024,0.00476844422519207,-0.967231273651123,0.4953460097312927,1.2600373029708862,0.004386968910694122,0.9214541912078857,0.04940108209848404,-0.5140383243560791,0.20275425910949707,0.16918440163135529,0.884069561958313,-0.47757968306541443,-0.03806591033935547,-0.8268482685089111,0.06046387553215027,-0.14057374000549316,0.9481574892997742,-0.35285684466362,0.002193471184000373,-0.038556430488824844,0.4618043601512909,1.0149986743927002,0.12223506718873978,-0.0022056750021874905,-0.33143043518066406,1.4146767854690552,-0.054837416857481,0.0008060536347329617,-0.9030848741531372,1.5401611328125,2.1572628021240234,-0.535126805305481,0.039688318967819214,-0.4731500744819641,-1.5670592784881592,-0.3025248050689697,0.3713013827800751,-1.6407088041305542,-1.0888423919677734,-4.9278082847595215,2.3273322582244873,-0.33631187677383423,1741504873.1429663,1741504873073,-0.8378651123046875,1.5166746826171875,-2.5381989449126894,-6.3679345703125,1.5092293701171875
1741504873.1964908,0.25254786014556885,0.014899253891090035,0.1111527872129271,-0.9936916373444463,0.2227044254541397,-0.21386942267417908,-1.1711432933807373,0.676863431930542,0.7622668743133545,8.816987037658691,0.5518045425415039,0.3622112274169922,-0.07686731964349747,-1.2161675691604614,0.00476844422519207,-0.9668498039245605,0.501068115234375,1.2592743635177612,0.004386968910694122,0.9107728600502014,0.07839322835206985,-0.46177613735198975,0.1844434291124344,0.17032882571220398,0.8691920638084412,-0.5042799711227417,-0.03472992032766342,-0.8001449704170227,0.027656977996230125,-0.17643244564533234,0.841725766658783,-0.32037606835365295,-0.00236752862110734,-0.1418583244085312,0.3091515302658081,2.0856893062591553,0.006418211851269007,0.0037798818666487932,0.06489478796720505,0.19183561205863953,-0.06175178661942482,9.973716805689037e-05,-0.6845065355300903,1.383832573890686,2.7276644706726074,-1.0638251304626465,0.06347900629043579,-0.7786329388618469,-1.2448676824569702,0.40572884678840637,1.5046790838241577,-1.5071048736572266,-1.9374581575393677,-5.304891586303711,1.3829234838485718,-0.13940779864788055,1741504873.1429663,1741504873073,-0.8378651123046875,1.5166746826171875,-2.5381989449126894,-6.3679345703125,1.5092293701171875
1741504873.2165105,0.22856974601745605,0.0035748852640993985,0.10144446549069923,-0.9948347805624083,0.5547842979431152,-0.5162503719329834,-1.2022582292556763,1.8844292163848877,0.8325295448303223,6.951979160308838,0.5598154067993164,0.4224843978881836,-0.021171892061829567,-1.2173120975494385,0.00476844422519207,-0.961509108543396,0.49191272258758545,1.2566040754318237,0.004386968910694122,0.9061951637268066,0.09746700525283813,-0.39501792192459106,0.152399480342865,0.16994735598564148,0.8508812189102173,-0.5180798768997192,-0.01241499837487936,-0.7578011751174927,0.008201723918318748,-0.22220951318740845,0.7337682247161865,-0.3187866508960724,-0.009337508119642735,0.2297564446926117,1.5125120878219604,3.028139114379883,-0.09472604095935822,0.004278190433979034,0.24291157722473145,-0.7615172266960144,-0.22101929783821106,0.003648534882813692,-0.23075470328330994,0.8065580725669861,3.503856897354126,-1.8030104637145996,0.006180612836033106,-0.8952404260635376,-0.42770740389823914,0.9478505253791809,2.2373850345611572,-0.8934656977653503,-2.057269811630249,-5.333147048950195,-0.13832329213619232,-0.3995992839336395,1741504873.2481189,1741504873173,-0.7392537841796876,1.5399659423828125,-2.414445994904471,-6.366326171875,1.5096175537109375
1741504873.236584,0.20715034008026123,-0.01586128939952011,0.08864226481047074,-0.9959372311485575,0.5952665209770203,-0.9775405526161194,-1.011483073234558,-3.0078964233398438,-9.247525215148926,14.683473587036133,0.5563821792602539,0.501068115234375,0.043678950518369675,-1.2188379764556885,0.005149920005351305,-0.960746169090271,0.4671168029308319,1.2493560314178467,0.004386968910694122,0.9050507545471191,0.10585946589708328,-0.32063019275665283,0.12722209095954895,0.1672770231962204,0.838674008846283,-0.500147819519043,-0.029694119468331337,-0.7143129706382751,-0.0020981156267225742,-0.2443350851535797,0.7024872303009033,-0.3161843419075012,-0.04325133562088013,-0.11091839522123337,2.282118082046509,3.4413888454437256,-0.1802058070898056,0.010936546139419079,0.016200635582208633,-1.7245835065841675,-0.5287808775901794,0.0013738410780206323,-0.1682833731174469,0.42934784293174744,3.5713613033294678,-0.8233245611190796,-0.3621617257595062,-0.4968607425689697,0.9725122451782227,-0.7394338846206665,2.247616767883301,-0.267133504152298,-0.7021646499633789,-0.13229896128177643,0.32469701766967773,-1.8775943517684937,1741504873.2481189,1741504873173,-0.7392537841796876,1.5399659423828125,-2.414445994904471,-6.366326171875,1.5096175537109375
1741504873.2565591,0.18506073951721191,-0.03138665505863622,0.08572949406458824,-0.9958239461529632,0.07166644185781479,-0.5386344194412231,-1.085638165473938,-1.3579072952270508,-2.3713154792785645,9.51326847076416,0.5418863296508789,0.5594339370727539,0.11348897218704224,-1.2291377782821655,0.00476844422519207,-0.9596017599105835,0.4182879328727722,1.2516448497772217,0.005531395319849253,0.9061951637268066,0.1028076633810997,-0.2771419882774353,0.11654078215360641,0.1340886503458023,0.8585107326507568,-0.4754492938518524,-0.023336218670010567,-0.656710147857666,0.0078202486038208,-0.20504310727119446,0.727664589881897,-0.3217127323150635,-0.0690971091389656,-0.49380287528038025,1.7323932647705078,3.5244264602661133,-0.6692451238632202,-0.022642305120825768,0.0630364939570427,-3.619659423828125,0.3636700510978699,0.10980550944805145,0.1321314126253128,-0.13860271871089935,1.7121762037277222,-0.6264287829399109,-1.9330284595489502,1.5954108238220215,1.327455759048462,0.20359811186790466,2.65381121635437,0.3126712143421173,2.4024081230163574,0.8199388384819031,-0.3883800208568573,-0.8910761475563049,1741504873.2481189,1741504873173,-0.7392537841796876,1.5399659423828125,-2.414445994904471,-6.366326171875,1.5096175537109375
1741504873.2765503,0.16989457607269287,-0.03971362768306893,0.0839192371388459,-0.9956808672533005,0.06340567767620087,-0.2941093146800995,-0.75583416223526,-3.319438934326172,1.252851963043213,10.981409072875977,0.5453195571899414,0.6166553497314453,0.182917520403862,-1.2394375801086426,0.005149920005351305,-0.9557870030403137,0.34885939955711365,1.2619446516036987,0.005912871100008488,0.9096284508705139,0.09899290651082993,-0.2977416515350342,0.09822995215654373,0.05741206929087639,0.9565499424934387,-0.4392017722129822,-0.012363787740468979,-0.6261920928955078,0.03185320645570755,-0.15850308537483215,0.7207980751991272,-0.3243763744831085,-0.0695585310459137,0.044605083763599396,1.662619948387146,3.251776933670044,-0.7027089595794678,-0.014792807400226593,0.19822722673416138,-4.719990253448486,0.6163595914840698,0.03053828328847885,0.21930354833602905,-0.12823328375816345,-1.7182581424713135,-1.0779050588607788,-3.6590051651000977,5.304585933685303,1.934564471244812,0.5988308191299438,1.7716666460037231,1.7586296796798706,2.1042165756225586,-0.2439696043729782,-0.014032051898539066,-0.13269075751304626,1741504873.2481189,1741504873173,-0.7392537841796876,1.5399659423828125,-2.414445994904471,-6.366326171875,1.5096175537109375
1741504873.296577,0.16818439960479736,-0.03406536014415379,0.08656746238607188,-0.9956634098400348,-0.19677726924419403,0.25756943225860596,0.015956681221723557,0.9034221172332764,-1.6461896896362305,10.683978080749512,0.5418863296508789,0.6490802764892578,0.23441672325134277,-1.2493560314178467,0.005149920005351305,-0.9508277773857117,0.273708701133728,1.2649965286254883,0.005149920005351305,0.9130617380142212,0.09441519528627396,-0.38052186369895935,0.06504157930612564,-0.024605173617601395,1.110666036605835,-0.39415523409843445,-0.0015819669933989644,-0.5952925682067871,0.06198977679014206,-0.12111848592758179,0.7188906669616699,-0.32399430871009827,-0.07039044052362442,-0.08647529035806656,1.0082809925079346,2.406749725341797,-0.5844224691390991,-0.02176029421389103,0.25252431631088257,-5.00075626373291,0.09851045906543732,-0.043572187423706055,0.13265851140022278,-0.2700903117656708,-4.472163677215576,-1.7983969449996948,-3.6759519577026367,7.675063133239746,2.178635358810425,0.5754787921905518,1.1432015895843506,1.242537260055542,1.8655617237091064,-0.23086115717887878,-0.017034759745001793,-0.02473423071205616,1741504873.2481189,1741504873173,-0.7392537841796876,1.5399659423828125,-2.414445994904471,-6.366326171875,1.5096175537109375
1741504873.3165994,0.17843341827392578,-0.026294771062591434,0.0931843119724338,-0.9953015970131817,-0.2913780212402344,0.4328385591506958,0.5737835168838501,-0.15363700687885284,2.603717803955078,8.77470874786377,0.5281524658203125,0.6849393844604492,0.2763790488243103,-1.2543151378631592,0.005149920005351305,-0.9485389590263367,0.1993209719657898,1.2646150588989258,0.005149920005351305,0.9134432077407837,0.0883115902543068,-0.49343863129615784,0.023079270496964455,-0.06885633617639542,1.28080415725708,-0.37942180037498474,0.0144524360075593,-0.5781261920928955,0.06961929053068161,-0.09975585341453552,0.7162203192710876,-0.3247582018375397,-0.06782695651054382,-0.3860277235507965,1.0289227962493896,2.0901405811309814,-0.4194904565811157,0.012975096702575684,0.06626543402671814,-5.059872150421143,-0.034118007868528366,-6.615065649384633e-05,0.005479487590491772,-0.28654447197914124,-5.707159996032715,-2.010939598083496,-1.7582298517227173,8.217233657836914,0.3490634560585022,0.7727747559547424,1.0322494506835938,0.26639270782470703,0.8761310577392578,-0.004672366660088301,-0.045441560447216034,0.18682540953159332,1741504873.34955,1741504873273,-0.6535606079101562,1.56658642578125,-2.368290058237978,-6.3678642578125,1.5092457275390625
1741504873.3366134,0.19170498847961426,-0.015420955289070965,0.09690559506028028,-0.9951741052619815,-0.1488267332315445,0.4611586034297943,0.6770944595336914,2.6648240089416504,2.2610979080200195,7.965790748596191,0.5342569351196289,0.7177457809448242,0.31795987486839294,-1.2596558332443237,0.005149920005351305,-0.9489204287528992,0.12417028844356537,1.2596558332443237,0.005149920005351305,0.9130617380142212,0.08907453715801239,-0.6052109599113464,-0.0036240178160369396,-0.06961929053068161,1.4093613624572754,-0.4081132411956787,0.014355328865349293,-0.5540932416915894,0.06847485899925232,-0.08144503086805344,0.7162203192710876,-0.32719889283180237,-0.057886455208063126,0.1256035566329956,1.059853196144104,2.0773849487304688,-0.2720585763454437,0.007176987826824188,-0.009918568655848503,-4.996155261993408,-0.4117788076400757,0.00013823449262417853,-0.007684375625103712,0.15530064702033997,-5.4780426025390625,-1.0886255502700806,0.2998869717121124,5.843461036682129,-1.7324411869049072,-0.15980622172355652,1.1479668617248535,-0.058551304042339325,1.006332278251648,-0.06635189801454544,-0.10795500129461288,0.593440055847168,1741504873.34955,1741504873273,-0.6535606079101562,1.56658642578125,-2.368290058237978,-6.3678642578125,1.5092457275390625
1741504873.356644,0.19979381561279297,-0.011152152691952232,0.09516565767539183,-0.9953989788469474,0.1310097575187683,0.1710210144519806,0.20928236842155457,0.047927409410476685,-0.527973473072052,9.338898658752441,0.5453195571899414,0.7593269348144531,0.3572518527507782,-1.2638521194458008,0.005149920005351305,-0.9496833682060242,0.056267641484737396,1.2505004405975342,0.005149920005351305,0.9126802682876587,0.0864042118191719,-0.7013428211212158,-0.016212711110711098,-0.04787518084049225,1.4662013053894043,-0.45656701922416687,0.006932910066097975,-0.5315861701965332,0.071908138692379,-0.049782559275627136,0.7154573798179626,-0.33250874280929565,-0.041089046746492386,0.33055374026298523,1.242459774017334,1.8974614143371582,-0.3506675660610199,-0.015889674425125122,-0.04685619845986366,-4.450613498687744,-0.6459888219833374,0.01612616330385208,-0.06631314754486084,-0.19680249691009521,-4.4987688064575195,-0.8114767670631409,1.1052217483520508,2.216498374938965,-2.457099437713623,-0.42197221517562866,1.325249195098877,0.2977747619152069,1.6152491569519043,0.049504417926073074,-0.3198279142379761,0.8472983241081238,1741504873.34955,1741504873273,-0.6535606079101562,1.56658642578125,-2.368290058237978,-6.3678642578125,1.5092457275390625
1741504873.3766532,0.19504237174987793,-0.008332286470317099,0.08793668527872647,-0.99609121689952,0.3996395170688629,0.13717594742774963,-0.2979055643081665,3.135267972946167,-0.16126354038715363,8.702315330505371,0.5579080581665039,0.7837419509887695,0.3931105434894562,-1.2665224075317383,0.005149920005351305,-0.9493018984794617,0.001716639962978661,1.2432523965835571,0.005149920005351305,0.9138246774673462,0.09632257372140884,-0.7753490209579468,-0.02193484455347061,-0.01735713705420494,1.4528496265411377,-0.5019235014915466,-0.0030849059112370014,-0.4987792670726776,0.07495994865894318,-0.01888304017484188,0.7139315009117126,-0.34413519501686096,-0.02398976869881153,0.3639524579048157,0.7757798433303833,1.7615077495574951,-0.1738664209842682,0.0006019909051246941,0.048564378172159195,-3.551022529602051,-0.3365844190120697,-0.00607064925134182,0.05079638957977295,0.6229323148727417,-3.6287970542907715,-0.334288626909256,1.5565471649169922,-1.1642603874206543,-2.118431329727173,-0.657279372215271,1.5713014602661133,0.19257928431034088,1.4308295249938965,-0.11878905445337296,-0.6263968348503113,0.6994504332542419,1741504873.34955,1741504873273,-0.6535606079101562,1.56658642578125,-2.368290058237978,-6.3678642578125,1.5092457275390625
1741504873.3967142,0.19009065628051758,-0.007837251620974416,0.07826584020249275,-0.9969017181971488,0.4750196933746338,0.09698042273521423,-0.16580726206302643,3.170708656311035,-1.485059380531311,8.477794647216797,0.5529489517211914,0.797093391418457,0.4232471287250519,-1.2676668167114258,0.005149920005351305,-0.9485389590263367,-0.053215838968753815,1.2443968057632446,0.005149920005351305,0.919165313243866,0.10624094307422638,-0.8299000263214111,-0.02384222112596035,0.00476844422519207,1.3792248964309692,-0.5186412334442139,-0.010091973468661308,-0.47932401299476624,0.07457847148180008,0.0032425422687083483,0.7146944403648376,-0.3667777180671692,-0.025580503046512604,-0.1275571584701538,0.4426504373550415,1.5298569202423096,-0.031260233372449875,-7.713388185948133e-05,0.021388743072748184,-3.7204043865203857,-0.005521036218851805,0.006261939648538828,0.48035451769828796,0.49242544174194336,-2.405822277069092,-0.0650075301527977,1.027884602546692,-3.9573721885681152,-0.541225790977478,-0.2023473083972931,0.8744964003562927,-0.06243545934557915,1.0663379430770874,0.10271761566400528,-1.1971399784088135,-0.12881046533584595,1741504873.34955,1741504873273,-0.6535606079101562,1.56658642578125,-2.368290058237978,-6.3678642578125,1.5092457275390625
1741504873.4166994,0.19013237953186035,-0.004385693840506915,0.07229324912384223,-0.9973737773877231,0.2967444658279419,0.19082029163837433,-0.0017050602473318577,0.5229466557502747,2.6735124588012695,7.001715183258057,0.5468454360961914,0.7990007400512695,0.44651713967323303,-1.2665224075317383,0.005149920005351305,-0.9477760195732117,-0.09288929402828217,1.2413450479507446,0.00476844422519207,0.9328984618186951,0.10624094307422638,-0.8600366115570068,-0.021171892061829567,0.01583123579621315,1.2602044343948364,-0.4961004853248596,-0.01431255042552948,-0.46101319789886475,0.07419699430465698,0.02536812424659729,0.7223239541053772,-0.39370352029800415,-0.03088139370083809,-0.1965053230524063,0.13017426431179047,1.0695011615753174,0.12056092172861099,-0.006213406100869179,0.04544069617986679,-2.4010777473449707,-0.24114233255386353,-0.015439650043845177,0.8724526762962341,-0.04940171539783478,-1.2430603504180908,0.1852499097585678,0.4280029237270355,-6.254659175872803,1.397375226020813,-0.20234520733356476,0.8911098837852478,0.041583482176065445,1.0803242921829224,0.41498538851737976,-1.3537485599517822,-0.26155439019203186,1741504873.4519556,1741504873353,-0.5890744018554688,1.5936787109375001,-2.2328348552949233,-6.36797998046875,1.509109619140625
1741504873.4367554,0.18616831302642822,0.00439633875491081,0.06615743711170562,-0.9977995117859915,0.29087546467781067,0.5201630592346191,-0.2270500659942627,5.430436134338379,1.58705735206604,7.983707904815674,0.5502786636352539,0.8005266189575195,0.45757991075515747,-1.2638521194458008,0.005149920005351305,-0.9451056718826294,-0.11387044936418533,1.2340970039367676,0.00476844422519207,0.9489204287528992,0.10090028494596481,-0.8558403849601746,-0.007057297509163618,0.01735713705420494,1.1110475063323975,-0.4522057771682739,-0.013417592272162437,-0.4495689272880554,0.08373387902975082,0.04558632895350456,0.7337682247161865,-0.4215219020843506,-0.03527752310037613,0.07125712186098099,0.03717593848705292,0.41722217202186584,0.16015520691871643,0.00789195578545332,0.1502116471529007,-1.2801588773727417,-0.510873556137085,-0.002351151779294014,1.0362688302993774,-0.3343103528022766,0.27517399191856384,0.7908214330673218,0.10138250887393951,-7.717652320861816,2.163177490234375,0.02623390033841133,0.5847221612930298,0.5148332715034485,0.9867843389511108,0.6940845847129822,-1.3891139030456543,-0.20493054389953613,1741504873.4519556,1741504873353,-0.5890744018554688,1.5936787109375001,-2.2328348552949233,-6.36797998046875,1.509109619140625
1741504873.4567409,0.17495858669281006,0.015204334570308153,0.0629567672978225,-0.9979004327395002,0.11403033137321472,0.553973376750946,-0.6050482392311096,0.5347339510917664,1.3396379947662354,4.564690113067627,0.5552377700805664,0.800908088684082,0.45643550157546997,-1.2630890607833862,0.005149920005351305,-0.9382390975952148,-0.11730372905731201,1.2276118993759155,0.004386968910694122,0.962272047996521,0.09327077120542526,-0.8367666006088257,0.021553369238972664,0.024223696440458298,0.9294651746749878,-0.4101010262966156,-0.0021855023223906755,-0.439269095659256,0.10051880776882172,0.06961929053068161,0.7524605393409729,-0.4485267400741577,-0.034236542880535126,0.12369952350854874,0.06120755523443222,-0.11804196238517761,0.019631827250123024,-0.0022653888445347548,0.3691745400428772,-0.033472940325737,-0.40541842579841614,0.0008789073908701539,0.847559928894043,-0.3514460623264313,1.2237004041671753,1.4436620473861694,0.43396836519241333,-9.091854095458984,1.9247010946273804,0.763588011264801,0.5582073330879211,0.935600757598877,1.189404010772705,0.9363977313041687,-1.2923755645751953,0.1557035744190216,1741504873.4519556,1741504873353,-0.5890744018554688,1.5936787109375001,-2.2328348552949233,-6.36797998046875,1.509109619140625
1741504873.476767,0.15572762489318848,0.022759684993461673,0.06802947164822426,-0.9974236751382343,-0.305122047662735,0.3745216727256775,-1.013356328010559,0.2146032601594925,-9.07864761352539,8.772212028503418,0.5529489517211914,0.800145149230957,0.4491874575614929,-1.2611817121505737,0.005149920005351305,-0.9325169920921326,-0.1035706102848053,1.224941611289978,0.00476844422519207,0.9691386222839355,0.09441519528627396,-0.8031967878341675,0.04406042397022247,0.05703059583902359,0.7715343236923218,-0.387788861989975,0.008787793107330799,-0.4201953113079071,0.12417028844356537,0.07953765243291855,0.7681010365486145,-0.46601274609565735,-0.024668795987963676,-0.050194572657346725,0.0047619459219276905,-0.42424511909484863,0.17236968874931335,-0.005882437340915203,0.26096007227897644,1.1188780069351196,-0.0918104276061058,0.02482346072793007,0.3368573784828186,0.13547396659851074,1.577101230621338,1.1979930400848389,1.6624284982681274,-7.492045879364014,1.0507205724716187,0.14825063943862915,1.0178450345993042,1.142999529838562,0.30619895458221436,0.7946697473526001,-0.7322444915771484,0.45764535665512085,1741504873.4519556,1741504873353,-0.5890744018554688,1.5936787109375001,-2.2328348552949233,-6.36797998046875,1.509109619140625
1741504873.4968011,0.13419771194458008,0.02068451228817048,0.08025352213244448,-0.9965598442325165,-0.5329088568687439,-0.10097452253103256,-1.068033218383789,-6.181150436401367,7.3339691162109375,19.296112060546875,0.5331125259399414,0.823033332824707,0.4327840209007263,-1.2531707286834717,0.005149920005351305,-0.9229800701141357,-0.06847485899925232,1.2299007177352905,0.00476844422519207,0.9699015617370605,0.1031891331076622,-0.7734416723251343,0.07801175117492676,0.07724879682064056,0.7814526557922363,-0.3474864065647125,-0.0018032306106761098,-0.39654383063316345,0.1184481605887413,0.07534141838550568,0.7906080484390259,-0.4608196020126343,-0.021184822544455528,-0.5296147465705872,0.7522813677787781,-0.9911158680915833,0.586536705493927,0.025180809199810028,0.5923014879226685,2.4748589992523193,0.45988327264785767,0.0056803240440785885,0.020908445119857788,0.5345401763916016,1.891469120979309,1.4136996269226074,0.7227721810340881,2.2387897968292236,1.84792959690094,-0.0055310665629804134,1.0927739143371582,-0.44392600655555725,-0.2078706920146942,1.1449021100997925,0.3832780420780182,-0.022809237241744995,1741504873.4519556,1741504873353,-0.5890744018554688,1.5936787109375001,-2.2328348552949233,-6.36797998046875,1.509109619140625
1741504873.5168357,0.11866593360900879,0.026756568721094023,0.08163666921927498,-0.9963029359933936,-0.03667866438627243,0.2218942493200302,-0.744228720664978,2.916726589202881,-2.9536540508270264,5.692124366760254,0.5563821792602539,0.8485927581787109,0.3839551508426666,-1.2455412149429321,0.005912871100008488,-0.9145876169204712,-0.011635004542768002,1.236767292022705,0.004005493130534887,0.9699015617370605,0.12188144028186798,-0.7673380374908447,0.11348897218704224,0.06694895774126053,0.8226520419120789,-0.3272407054901123,-0.02708602510392666,-0.3931105434894562,0.1199740618467331,0.04940108209848404,0.8314259648323059,-0.43620094656944275,-0.014812836423516273,0.6884975433349609,0.9528803825378418,-2.6271636486053467,0.29770737886428833,0.06187690794467926,0.35219913721084595,3.98488712310791,0.34761500358581543,-0.03979639336466789,-0.08013267815113068,0.764706552028656,0.3147129714488983,1.6261858940124512,-0.3762972354888916,1.1476945877075195,0.8780198097229004,-1.6499937772750854,-0.30332252383232117,0.07334240525960922,-1.3633763790130615,2.2694249153137207,1.3460338115692139,0.44969138503074646,1741504873.553406,1741504873473,-0.47116128540039065,1.6499366455078126,-2.2659450750037347,-6.3674072265625,1.5093873291015625
1741504873.536838,0.10066688060760498,0.023616654955155227,0.09192753471368616,-0.9954856010863207,-0.600127637386322,-0.04059535264968872,-0.8690926432609558,1.9102925062179565,6.67958402633667,14.448780059814453,0.5376901626586914,0.8558406829833984,0.308804452419281,-1.2447782754898071,0.004005493130534887,-0.9142061471939087,0.05283436179161072,1.2363858222961426,0.004005493130534887,0.9664682745933533,0.10624094307422638,-0.7295719981193542,0.13103684782981873,0.08449683338403702,0.8176928162574768,-0.31746238470077515,-0.031242720782756805,-0.43163958191871643,0.10814831405878067,0.024605173617601395,0.9351872801780701,-0.40793830156326294,-0.005945652257651091,-0.4552653431892395,0.27010577917099,-3.7196848392486572,0.12076620012521744,-0.08417968451976776,0.021297946572303772,4.243915557861328,0.042883776128292084,0.005758770275861025,-0.22188718616962433,-0.7599553465843201,2.2843728065490723,0.7949748039245605,1.2430880069732666,0.223585307598114,0.6003073453903198,0.33661505579948425,-2.352980136871338,-0.7716665863990784,-1.1292253732681274,5.701952934265137,1.3383002281188965,0.3855504095554352,1741504873.553406,1741504873473,-0.47116128540039065,1.6499366455078126,-2.2659450750037347,-6.3674072265625,1.5093873291015625
1741504873.5570161,0.07257616519927979,0.02120759961672992,0.09715403964819123,-0.9950433811138759,-0.07746398448944092,-0.002403075573965907,-1.589355230331421,5.750442981719971,-1.7976349592208862,8.291309356689453,0.5624856948852539,0.8741512298583984,0.24319066107273102,-1.2394375801086426,0.004386968910694122,-0.9122987985610962,0.11615930497646332,1.2463041543960571,0.00476844422519207,0.9611276388168335,0.09403372555971146,-0.7055390477180481,0.1516365259885788,0.09784847497940063,0.8375295400619507,-0.3095747232437134,-0.009201363660395145,-0.509079098701477,0.10128175467252731,-0.007057297509163618,1.0778591632843018,-0.39713728427886963,-0.007040037307888269,0.6818422675132751,0.560394287109375,-3.476618766784668,0.3843141496181488,0.017756672576069832,0.03393610194325447,4.144261360168457,0.6361919641494751,0.07263035327196121,-0.4071900546550751,-0.5423965454101562,1.0550998449325562,1.1617450714111328,0.5471285581588745,0.8535776734352112,0.265043169260025,0.7509725689888,-3.954698324203491,-0.1701287180185318,-1.7424331903457642,7.292829513549805,0.30873334407806396,-0.07548382878303528,1741504873.553406,1741504873473,-0.47116128540039065,1.6499366455078126,-2.2659450750037347,-6.3674072265625,1.5093873291015625
1741504873.577073,0.03346121311187744,0.018295025447001647,0.09744434242462653,-0.9950728074735666,-0.01713176630437374,0.09650728106498718,-1.9267244338989258,2.497238874435425,0.38367506861686707,10.969974517822266,0.5693521499633789,0.8756771087646484,0.17032882571220398,-1.233715534210205,0.00476844422519207,-0.916876494884491,0.17643244564533234,1.2501189708709717,0.00476844422519207,0.9554055333137512,0.07572289556264877,-0.6620507836341858,0.15888457000255585,0.12989242374897003,0.8405813574790955,-0.3176882863044739,-0.016110267490148544,-0.6010147333145142,0.09555962681770325,-0.0394827201962471,1.2182421684265137,-0.4109949469566345,-0.00782015547156334,0.2218833565711975,0.07712294906377792,-3.5409586429595947,0.3815855085849762,0.009662751108407974,-0.21010683476924896,3.9279394149780273,0.16742445528507233,-0.03154400363564491,-0.31239813566207886,-0.9011702537536621,2.279019355773926,0.35513269901275635,1.557521939277649,0.047104984521865845,-0.5050672292709351,-0.1489766538143158,-4.410696983337402,-0.46420156955718994,-1.3846856355667114,6.6067399978637695,-0.8313472270965576,0.07742452621459961,1741504873.553406,1741504873473,-0.47116128540039065,1.6499366455078126,-2.2659450750037347,-6.3674072265625,1.5093873291015625
1741504873.597064,-0.003565073013305664,0.015058837665791304,0.09444418921645716,-0.9954162579199726,0.2374154031276703,-0.020961260423064232,-1.8758978843688965,-1.9502768516540527,-2.2274887561798096,13.207558631896973,0.5693521499633789,0.8825435638427734,0.09746700525283813,-1.2268489599227905,0.00476844422519207,-0.917639434337616,0.24013885855674744,1.2478300333023071,0.0036240178160369396,0.9508277773857117,0.0558861680328846,-0.6162737607955933,0.17223620414733887,0.15545128285884857,0.8424887657165527,-0.33257919549942017,-0.011816916055977345,-0.6795986890792847,0.08411535620689392,-0.06198977679014206,1.3036926984786987,-0.43840253353118896,-0.0018503091996535659,0.02491113170981407,0.22074377536773682,-3.5821080207824707,0.44913703203201294,-0.007263787090778351,-0.04342295601963997,4.348813056945801,-0.1779337376356125,-0.04363935440778732,-0.341716468334198,-1.0979448556900024,2.265423536300659,0.6316511034965515,1.296432614326477,0.0882904976606369,-0.8235428929328918,0.23367422819137573,-3.7798354625701904,-0.49984025955200195,-1.1323603391647339,3.7568280696868896,-1.3487653732299805,0.24823813140392303,1741504873.553406,1741504873473,-0.47116128540039065,1.6499366455078126,-2.2659450750037347,-6.3674072265625,1.5093873291015625
1741504873.6171026,-0.03428757190704346,0.010803710968643224,0.08903507603999997,-0.9959698966654853,0.2869303822517395,-0.06914903223514557,-1.3006194829940796,1.617253065109253,-0.4772648513317108,9.623674392700195,0.5586709976196289,0.8863582611083984,0.031090257689356804,-1.223797082901001,0.005531395319849253,-0.9172579646110535,0.30498969554901123,1.2466856241226196,0.0032425422687083483,0.9439612627029419,0.03147173300385475,-0.5624856948852539,0.17605096101760864,0.17833982408046722,0.8371480703353882,-0.36049482226371765,-0.017296526581048965,-0.7364385724067688,0.07801175117492676,-0.08258945494890213,1.3235293626785278,-0.4606751799583435,0.0034834411926567554,-0.29531627893447876,0.1573733687400818,-3.215549945831299,0.16653630137443542,0.06400737166404724,0.04521825164556503,4.387944221496582,-0.007386296987533569,-0.05810936912894249,-0.38883188366889954,-1.0882543325424194,2.8103344440460205,0.1009397804737091,1.1126627922058105,-0.3591376543045044,-1.4950525760650635,-0.2909434139728546,-2.687700033187866,-0.26665961742401123,-0.9334322214126587,0.5109812021255493,-0.9866540431976318,0.17068952322006226,1741504873.658634,1741504873573,-0.3748977355957031,1.6788494873046875,-2.3697497216059604,-6.36739306640625,1.5092736816406251
1741504873.6396394,-0.052455782890319824,0.008068407886330089,0.08563050056833796,-0.9962942929509311,0.16110660135746002,-0.031709324568510056,-0.8409745097160339,1.8902294635772705,-3.9073922634124756,9.27603530883789,0.5487527847290039,0.8833065032958984,-0.024605173617601395,-1.2226526737213135,0.004386968910694122,-0.9187838435173035,0.36297398805618286,1.2466856241226196,0.0032425422687083483,0.9390020370483398,0.010109102353453636,-0.5094605684280396,0.17528800666332245,0.200083926320076,0.8230335116386414,-0.3960111141204834,-0.028618721291422844,-0.7742046117782593,0.07267109304666519,-0.09746700525283813,1.2899595499038696,-0.46294158697128296,0.006336313206702471,-0.3207274377346039,-0.0680747926235199,-2.7970094680786133,0.06861911714076996,-0.07136670500040054,-0.12623852491378784,3.81341814994812,0.020033931359648705,0.00032353392452932894,-0.3930496871471405,-0.9999790787696838,2.6010630130767822,-0.022171884775161743,1.031472086906433,-0.6831958293914795,-1.8013436794281006,-0.5222369432449341,-1.752157211303711,-0.2363026738166809,-0.7927159070968628,-2.005464792251587,0.05375261604785919,0.1459609568119049,1741504873.658634,1741504873573,-0.3748977355957031,1.6788494873046875,-2.3697497216059604,-6.36739306640625,1.5092736816406251
1741504873.6571374,-0.06923913955688477,0.008925636059595695,0.08389556900567832,-0.9964345771409907,0.08504011482000351,0.1487848460674286,-0.8823760151863098,0.804720938205719,-3.7511017322540283,7.974809646606445,0.5529489517211914,0.8768215179443359,-0.08220797777175903,-1.2218897342681885,0.00476844422519207,-0.9275577664375305,0.4236285984516144,1.2520263195037842,0.004386968910694122,0.9290837049484253,0.007438773289322853,-0.46292057633399963,0.17376211285591125,0.2141985148191452,0.8089188933372498,-0.4318103492259979,-0.035014864057302475,-0.7944228053092957,0.06733043491840363,-0.11081864684820175,1.2209124565124512,-0.44533228874206543,0.010616379790008068,0.0823463499546051,-0.18488766252994537,-2.728285789489746,0.08156276494264603,-0.031323984265327454,-0.6020803451538086,4.335825443267822,0.41490980982780457,0.07722125947475433,-0.715650200843811,0.02330818586051464,2.22330379486084,-0.12910740077495575,0.6279430985450745,-0.6989126205444336,-1.7833195924758911,-0.21205958724021912,-0.969737708568573,-0.2794058918952942,-0.7069078087806702,-3.488676071166992,0.9994853138923645,0.11357565969228745,1741504873.658634,1741504873573,-0.3748977355957031,1.6788494873046875,-2.3697497216059604,-6.36739306640625,1.5092736816406251
1741504873.677192,-0.08664309978485107,0.009096807129773843,0.08567119414094379,-0.9962819352946777,-0.12473992258310318,0.08517680317163467,-0.8624849319458008,0.6300240755081177,-3.0755248069763184,7.501922130584717,0.5533304214477539,0.8737697601318359,-0.1192111074924469,-1.2180750370025635,0.005149920005351305,-0.9431982636451721,0.4736018776893616,1.2558410167694092,0.004386968910694122,0.9187838435173035,0.024605173617601395,-0.42591744661331177,0.1676585078239441,0.22068360447883606,0.7940413355827332,-0.4638356566429138,-0.03463831543922424,-0.804341197013855,0.053215838968753815,-0.12874799966812134,1.1312657594680786,-0.4117622375488281,0.007934069260954857,0.029127337038517,-0.08116711676120758,-1.7646088600158691,0.20676247775554657,0.023595530539751053,-0.7581513524055481,3.0091946125030518,0.21448203921318054,0.036784686148166656,-0.5788866877555847,1.03214430809021,1.8148488998413086,-0.3610938787460327,0.21182706952095032,-0.7544357180595398,-1.6340863704681396,0.01751444675028324,-0.3595291078090668,-0.8491188287734985,-0.9037609100341797,-4.631006240844727,1.7336174249649048,-0.25313201546669006,1741504873.658634,1741504873573,-0.3748977355957031,1.6788494873046875,-2.3697497216059604,-6.36739306640625,1.5092736816406251
1741504873.697191,-0.1036604642868042,0.010269343089880983,0.09062940666976356,-0.9958317384172835,-0.24230702221393585,0.12642931938171387,-0.8859761953353882,1.9957633018493652,-0.41105613112449646,7.530934810638428,0.5544748306274414,0.8688106536865234,-0.1325627565383911,-1.216549038887024,0.00476844422519207,-0.9588387608528137,0.50030517578125,1.2600373029708862,0.004386968910694122,0.9122987985610962,0.058175019919872284,-0.3843366205692291,0.15964750945568085,0.22106507420539856,0.7795453071594238,-0.49169912934303284,-0.030109060928225517,-0.7982375621795654,0.027656977996230125,-0.15545128285884857,1.033989429473877,-0.3691709637641907,0.004752595443278551,0.029900208115577698,-0.13458579778671265,-0.44866830110549927,0.08211813867092133,0.002841102657839656,-0.7350850105285645,1.6406760215759277,0.2768598794937134,-0.0007486263057217002,-0.4470936954021454,1.7360925674438477,1.9981553554534912,-0.4019383192062378,0.04878925904631615,-0.8287501931190491,-1.363424301147461,0.24213281273841858,0.43141236901283264,-1.288411021232605,-1.3109478950500488,-4.863460540771484,2.1102545261383057,-0.06915248930454254,1741504873.658634,1741504873573,-0.3748977355957031,1.6788494873046875,-2.3697497216059604,-6.36739306640625,1.5092736816406251
1741504873.717377,-0.1224515438079834,0.009683167108123907,0.09311901989553473,-0.9956078969194906,-0.05495893582701683,0.07023593038320541,-0.9245943427085876,-0.47207778692245483,2.17362117767334,8.832256317138672,0.5582895278930664,0.8710994720458984,-0.12073700875043869,-1.214260220527649,0.00476844422519207,-0.969520092010498,0.506027340888977,1.2596558332443237,0.004386968910694122,0.9088655114173889,0.09021896868944168,-0.3393225073814392,0.14095520973205566,0.22144655883312225,0.7593270540237427,-0.5139460563659668,-0.01857391744852066,-0.776493489742279,-0.0024795911740511656,-0.19054703414440155,0.9260318875312805,-0.32911455631256104,0.0017409815918654203,0.10510845482349396,0.0847807377576828,0.773935854434967,0.1689842939376831,-0.005136959254741669,-0.4743741452693939,0.22599822282791138,-0.09763292223215103,-0.0010486420942470431,-0.16140945255756378,1.5463916063308716,2.4200944900512695,-0.9402825236320496,0.009920112788677216,-1.0283706188201904,-0.985814094543457,0.7018582820892334,1.1435006856918335,-1.4348386526107788,-1.9030689001083374,-5.35651159286499,1.895772099494934,-0.2493983805179596,1741504873.7576241,1741504873673,-0.2720545959472656,1.696173583984375,-2.2182256117545216,-6.36692578125,1.5094451904296875
1741504873.7373888,-0.14203333854675293,0.00832929609730447,0.08729809750428413,-0.9961474112794029,0.36028730869293213,-0.018142379820346832,-0.961413562297821,3.492239236831665,0.8563041090965271,5.458570957183838,0.5666818618774414,0.8733882904052734,-0.086785688996315,-1.2146416902542114,0.00476844422519207,-0.9706645011901855,0.4968718886375427,1.2543151378631592,0.004386968910694122,0.9100099205970764,0.10624094307422638,-0.2779049277305603,0.11654078215360641,0.22526131570339203,0.7303349375724792,-0.5112736821174622,-0.01837119460105896,-0.7475013136863708,-0.022697795182466507,-0.23556114733219147,0.8211261034011841,-0.3039676249027252,-0.003054162487387657,0.20982509851455688,0.0896722599864006,1.8239326477050781,-0.09543342888355255,0.00879496056586504,0.009240599349141121,-0.7944849133491516,-0.4265846014022827,0.0025339822750538588,0.10711009800434113,0.7179002165794373,3.1674606800079346,-1.291451096534729,0.3305202126502991,-1.498504877090454,0.4888923764228821,-0.5275838971138,1.4786840677261353,-1.065800666809082,-2.1038591861724854,-5.224625110626221,1.1001381874084473,-0.2549940347671509,1741504873.7576241,1741504873673,-0.2720545959472656,1.696173583984375,-2.2182256117545216,-6.36692578125,1.5094451904296875
1741504873.7574482,-0.1596306562423706,0.002999655594868728,0.07655839844682631,-0.9970605867717213,0.5376830101013184,-0.2311142235994339,-0.8681166768074036,-0.6079932451248169,5.113945007324219,8.658878326416016,0.5643930435180664,0.8756771087646484,-0.034142062067985535,-1.217693567276001,0.005149920005351305,-0.9668498039245605,0.4724574685096741,1.2466856241226196,0.004386968910694122,0.9115357995033264,0.1035706102848053,-0.21038375794887543,0.07305257022380829,0.23594263195991516,0.7139315009117126,-0.4947579801082611,-0.024852823466062546,-0.7169833183288574,-0.04329747334122658,-0.2607385218143463,0.7238498330116272,-0.3018917441368103,-0.01683296635746956,-0.06419254094362259,0.0674830749630928,2.8803412914276123,-0.19903184473514557,0.009582052938640118,0.21839867532253265,-1.7751271724700928,-0.4564216136932373,0.010850779712200165,0.0955808237195015,-0.20007437467575073,3.2256011962890625,-2.244847536087036,0.39814293384552,-0.5587255954742432,0.6535678505897522,0.00026301806792616844,1.5332473516464233,-0.882028341293335,-0.9205677509307861,-4.756076335906982,0.0038586766459047794,-0.8854686617851257,1741504873.7576241,1741504873673,-0.2720545959472656,1.696173583984375,-2.2182256117545216,-6.36692578125,1.5094451904296875
1741504873.7774642,-0.17550432682037354,-0.010658456294402693,0.06043845543484556,-0.9981150186296519,0.7837210893630981,-0.7544598579406738,-0.7735035419464111,-6.493577480316162,-7.687596797943115,16.623668670654297,0.5601968765258789,0.8958950042724609,0.02994582988321781,-1.2291377782821655,0.005912871100008488,-0.959983229637146,0.4335469603538513,1.2424894571304321,0.004005493130534887,0.9092469811439514,0.10204470902681351,-0.16994735598564148,0.05893797054886818,0.212672621011734,0.7551308274269104,-0.48504191637039185,-0.017360320314764977,-0.6811245679855347,-0.04711223021149635,-0.2313649207353592,0.7177462577819824,-0.2957765460014343,-0.05479543283581734,-0.11604867875576019,0.6401668787002563,3.4446825981140137,-1.0467257499694824,0.05357616767287254,0.2748655676841736,-2.699247360229492,-0.31654176115989685,-0.00926843099296093,-0.27273380756378174,-0.18709157407283783,1.588533639907837,-0.6438453793525696,-1.55512535572052,2.6456472873687744,0.5347293615341187,0.46594932675361633,2.292710781097412,0.339160680770874,1.8905080556869507,0.6627983450889587,0.3721248507499695,-1.7784875631332397,1741504873.7576241,1741504873673,-0.2720545959472656,1.696173583984375,-2.2182256117545216,-6.36692578125,1.5094451904296875
1741504873.7974904,-0.19134962558746338,-0.013709103578257343,0.05797547698182635,-0.998223874963833,0.06902702897787094,-0.1108546182513237,-0.7081920504570007,2.773282527923584,4.338085651397705,8.318936347961426,0.5418863296508789,0.8756771087646484,0.10471503436565399,-1.2428709268569946,0.00476844422519207,-0.9557870030403137,0.36793315410614014,1.2474485635757446,0.00476844422519207,0.9092469811439514,0.09174486994743347,-0.19283588230609894,0.04596780240535736,0.15430685877799988,0.8680475950241089,-0.4517587721347809,-0.010875964537262917,-0.6437399983406067,-0.016212711110711098,-0.16918440163135529,0.7345311641693115,-0.2975042462348938,-0.060709793120622635,-0.45884621143341064,-0.5502969622612,3.732342481613159,-0.7153870463371277,0.01953168213367462,0.21942797303199768,-4.603326320648193,0.5540977120399475,0.07336105406284332,0.03965506702661514,-0.4451855719089508,-1.7554417848587036,-0.7591089606285095,-3.198030948638916,6.344552516937256,1.8549476861953735,0.28147414326667786,1.1339783668518066,1.8025449514389038,3.093895196914673,0.39554357528686523,-0.10271955281496048,-0.05228284001350403,1741504873.7576241,1741504873673,-0.2720545959472656,1.696173583984375,-2.2182256117545216,-6.36692578125,1.5094451904296875
1741504873.8223448,-0.20393919944763184,-0.014536717180154285,0.061817490036893026,-0.9979816039282302,-0.30974847078323364,0.1660878211259842,-0.6740630269050598,-1.229303002357483,-2.6970467567443848,11.60617446899414,0.5331125259399414,0.8646144866943359,0.17643244564533234,-1.2451597452163696,0.00476844422519207,-0.9500648379325867,0.28591591119766235,1.2588928937911987,0.005531395319849253,0.9122987985610962,0.09098191559314728,-0.2786678969860077,0.01888304017484188,0.06351567804813385,1.0400930643081665,-0.4057753384113312,-0.0017075992655009031,-0.6155108213424683,0.04558632895350456,-0.10814831405878067,0.7303349375724792,-0.29977139830589294,-0.06455519795417786,-0.24388359487056732,-0.42550843954086304,3.5724310874938965,-0.1145486980676651,-0.032792575657367706,0.275439590215683,-5.648599624633789,0.6295450329780579,0.016967184841632843,0.1690180003643036,-0.08546499907970428,-4.6490864753723145,-1.3397935628890991,-4.7240824699401855,8.968134880065918,2.3152709007263184,0.480694055557251,1.928736925125122,2.755199670791626,3.0660760402679443,-0.04522277042269707,-0.03766539692878723,-0.18526482582092285,1741504873.8648427,1741504873773,-0.16690957641601561,1.700626708984375,-2.264071883881393,-6.36807177734375,1.508980712890625
1741504873.837519,-0.2083752155303955,-0.008362446301093694,0.07831205507645862,-0.9968938215886198,-0.8772339224815369,0.2894013226032257,-0.11071523278951645,5.490139484405518,3.222222328186035,6.551437854766846,0.5159454345703125,0.8623256683349609,0.24357213079929352,-1.2485930919647217,0.005531395319849253,-0.951209306716919,0.1989395022392273,1.2691926956176758,0.005531395319849253,0.9126802682876587,0.08983749151229858,-0.3900587558746338,-0.012397955171763897,-0.012397955171763897,1.2380788326263428,-0.3588673770427704,0.006337493658065796,-0.5796520709991455,0.07038223743438721,-0.051689937710762024,0.726901650428772,-0.301077276468277,-0.060831114649772644,-0.5443174242973328,-0.012447647750377655,3.033595561981201,-0.2544933557510376,0.013029774650931358,-0.10377424955368042,-5.6806559562683105,0.7270603179931641,0.03273530304431915,0.002966210013255477,-0.05060995742678642,-5.666021823883057,-1.6634849309921265,-3.3893966674804688,9.71044921875,2.187204360961914,0.3788868486881256,1.577052116394043,1.1644953489303589,2.534780263900757,-0.29505813121795654,-0.10870369523763657,0.260982871055603,1741504873.8648427,1741504873773,-0.16690957641601561,1.700626708984375,-2.264071883881393,-6.36807177734375,1.508980712890625
1741504873.8575351,-0.20370829105377197,-0.00901441826258718,0.09441692139522877,-0.9954919312669663,-0.7401816844940186,0.0058503723703324795,0.2838643789291382,-7.892944812774658,0.4709169864654541,13.275702476501465,0.5167083740234375,0.8676662445068359,0.30308231711387634,-1.2524077892303467,0.005149920005351305,-0.951209306716919,0.12455176562070847,1.2745333909988403,0.005531395319849253,0.9130617380142212,0.08487831056118011,-0.5121309161186218,-0.031090257689356804,-0.056267641484737396,1.3956283330917358,-0.35724467039108276,0.013600662350654602,-0.5540932416915894,0.07877469807863235,-0.02880140393972397,0.7223239541053772,-0.30478447675704956,-0.03992211073637009,-0.025717198848724365,0.23499558866024017,3.188537359237671,-0.3559883236885071,-0.022733967751264572,-0.007679963484406471,-4.930582523345947,0.23089854419231415,-0.03319142386317253,0.0702311098575592,-0.24430707097053528,-6.048868179321289,-0.858192503452301,-1.851651668548584,7.601015090942383,-0.3556232154369354,0.29937902092933655,1.6564407348632812,0.3385867178440094,0.9411299228668213,-0.07464410364627838,-0.15806080400943756,1.218210220336914,1741504873.8648427,1741504873773,-0.16690957641601561,1.700626708984375,-2.264071883881393,-6.36807177734375,1.508980712890625
1741504873.8778183,-0.19330108165740967,-0.0012811443290601395,0.10536575719271332,-0.9944327105844891,-0.5486463308334351,0.2905653119087219,0.5169801115989685,5.2438249588012695,2.579651117324829,9.074337005615234,0.5357828140258789,0.8707180023193359,0.3572518527507782,-1.2566040754318237,0.005149920005351305,-0.951209306716919,0.058175019919872284,1.2680482864379883,0.0036240178160369396,0.9153505563735962,0.08373387902975082,-0.6307697892189026,-0.04406042397022247,-0.059319447726011276,1.4948118925094604,-0.39919939637184143,0.013645987026393414,-0.5155642032623291,0.08602273464202881,-0.004386968910694122,0.7177462577819824,-0.3122219443321228,-0.015741106122732162,0.562342643737793,0.07575555145740509,2.69918155670166,-0.13045692443847656,-0.008154031820595264,0.04347623139619827,-4.287543773651123,-0.4822762608528137,-0.10204125940799713,0.0627184733748436,0.019362248480319977,-5.894252300262451,-0.26860612630844116,-0.047981347888708115,4.3125834465026855,-2.2395429611206055,0.028528636321425438,1.6383028030395508,0.26239559054374695,1.330177664756775,-0.33201006054878235,-0.43710702657699585,1.0418792963027954,1741504873.8648427,1741504873773,-0.16690957641601561,1.700626708984375,-2.264071883881393,-6.36807177734375,1.508980712890625
1741504873.8978384,-0.18790650367736816,0.0010368706896056552,0.11084317699475074,-0.9938373684928956,-0.2502455413341522,0.1828930824995041,0.16492286324501038,-1.9010019302368164,0.02490033395588398,7.080013275146484,0.5441751480102539,0.8752956390380859,0.39845120906829834,-1.2600373029708862,0.005149920005351305,-0.9515907764434814,0.007057297509163618,1.2581299543380737,0.004386968910694122,0.9157320261001587,0.07724879682064056,-0.7429236173629761,-0.03299763426184654,-0.0558861680328846,1.5180819034576416,-0.450368732213974,0.003979866858571768,-0.49496451020240784,0.09861142933368683,0.01583123579621315,0.7143129706382751,-0.32975977659225464,-0.017699185758829117,0.24545399844646454,0.11837925761938095,1.8887488842010498,-0.35504329204559326,-0.009788770228624344,-0.06005702540278435,-3.2523953914642334,-0.6752707362174988,0.08971159905195236,0.05587583780288696,-0.20850016176700592,-5.38144063949585,0.5767151713371277,0.1380586475133896,0.5535364151000977,-2.5425870418548584,-0.5121825933456421,1.3664454221725464,0.6098425388336182,0.9895983338356018,0.08306795358657837,-0.9376145005226135,-0.048018597066402435,1741504873.8648427,1741504873773,-0.16690957641601561,1.700626708984375,-2.264071883881393,-6.36807177734375,1.508980712890625
1741504873.9295123,-0.18885493278503418,0.009593132886393614,0.11725980084737872,-0.993054938513805,-0.3170890808105469,0.40454718470573425,-0.0954308733344078,4.528837203979492,-0.8053716421127319,8.587602615356445,0.5498971939086914,0.8623256683349609,0.42591744661331177,-1.2596558332443237,0.005531395319849253,-0.9515907764434814,-0.04100862145423889,1.2577484846115112,0.004386968910694122,0.9214541912078857,0.07915617525577545,-0.8371480703353882,-0.014686808921396732,-0.06275273114442825,1.4776455163955688,-0.49350860714912415,-0.006482541095465422,-0.4678797721862793,0.10128175467252731,0.03185320645570755,0.7185091972351074,-0.35718217492103577,-0.007545675151050091,0.12999992072582245,-0.3350937068462372,1.3199540376663208,0.05989306420087814,0.04435141384601593,0.0546119287610054,-3.3952207565307617,0.07725537568330765,0.00020824938837904483,0.43308138847351074,0.06464278697967529,-4.575179100036621,0.9395269751548767,-0.5234866142272949,-2.501441240310669,-1.932708740234375,-0.35648390650749207,1.0070475339889526,0.11474888771772385,0.7067562937736511,0.11722154915332794,-1.496434211730957,0.6107919216156006,1741504873.9648252,1741504873873,-0.07058110046386719,1.735340087890625,-2.4964831622006525,-6.36706103515625,1.5094061279296875
1741504873.9378538,-0.1866767406463623,0.014488110055117454,0.1230778310961552,-0.9922912587338948,-0.30313751101493835,0.21370373666286469,0.14185534417629242,-9.065814971923828,-1.138115644454956,9.694384574890137,0.5476083755493164,0.8634700775146484,0.45834288001060486,-1.2596558332443237,0.005149920005351305,-0.9439612627029419,-0.08335240930318832,1.2535521984100342,0.004386968910694122,0.9363317489624023,0.0711451917886734,-0.9050507545471191,0.014686808921396732,-0.08220797777175903,1.3750286102294922,-0.4983832538127899,-0.010723385959863663,-0.4709315598011017,0.09746700525283813,0.026512550190091133,0.7318608164787292,-0.4019830822944641,-0.009608364664018154,-0.04949101805686951,-0.020805994048714638,1.5754872560501099,0.001513019553385675,-0.004928551148623228,0.33579838275909424,-2.5470902919769287,-0.3943531811237335,-0.038446925580501556,1.0028862953186035,-0.4735172688961029,-2.974390745162964,1.5353350639343262,-1.0436204671859741,-5.670337200164795,0.0334961824119091,0.068013496696949,0.059964749962091446,-0.3050536513328552,-0.24969545006752014,0.9802225232124329,-2.3059494495391846,-0.10712588578462601,1741504873.9648252,1741504873873,-0.07058110046386719,1.735340087890625,-2.4964831622006525,-6.36706103515625,1.5094061279296875
1741504873.9578588,-0.18806695938110352,0.028730074487755684,0.12947100700645023,-0.9911669088325455,-0.2915564179420471,0.7192777395248413,-0.11589857935905457,2.968427896499634,0.5502259731292725,4.24978494644165,0.5502786636352539,0.8531703948974609,0.4701686203479767,-1.2550780773162842,0.005149920005351305,-0.9359502792358398,-0.10776684433221817,1.2432523965835571,0.002861066721379757,0.951972246170044,0.054741740226745605,-0.9172579646110535,0.051689937710762024,-0.09822995215654373,1.1980239152908325,-0.47110477089881897,-0.008970193564891815,-0.4659723937511444,0.09060044586658478,0.026512550190091133,0.7734416723251343,-0.4502080976963043,-0.000849788193590939,0.06321685761213303,-0.30136093497276306,0.44208863377571106,0.3472677767276764,0.000503478804603219,0.41244423389434814,-1.4203319549560547,-0.7242456078529358,-0.03140588477253914,0.9739513993263245,-0.8525851964950562,-0.3412823975086212,1.920578122138977,-0.8110597133636475,-9.713789939880371,1.4601689577102661,0.08942269533872604,-0.05873994529247284,-0.03193063288927078,-0.0035014671739190817,2.0458261966705322,-2.4731857776641846,0.6020841598510742,1741504873.9648252,1741504873873,-0.07058110046386719,1.735340087890625,-2.4964831622006525,-6.36706103515625,1.5094061279296875
1741504873.9778986,-0.19395482540130615,0.03558833259326059,0.1287490572270441,-0.9910384204693473,0.09911433607339859,0.4021519720554352,-0.29796120524406433,-4.43754768371582,-0.649052619934082,3.222532033920288,0.5605783462524414,0.8630886077880859,0.4701686203479767,-1.2554595470428467,0.005149920005351305,-0.9267948269844055,-0.11387044936418533,1.2314265966415405,0.0032425422687083483,0.9660868048667908,0.024986648932099342,-0.8794918656349182,0.10929274559020996,-0.11158160120248795,0.9317540526390076,-0.44222527742385864,-0.0017480674432590604,-0.4819943606853485,0.11081864684820175,0.018120087683200836,0.8211261034011841,-0.49696722626686096,0.010369849391281605,0.26482102274894714,0.21274428069591522,-0.14227433502674103,-0.08189170807600021,-0.011712044477462769,0.4607119858264923,-0.23512554168701172,-0.7473645806312561,-0.019765648990869522,0.9602459073066711,-1.5899298191070557,2.5352871417999268,3.048377513885498,-0.7396448850631714,-13.607216835021973,1.429135799407959,0.5456483960151672,-0.5316805243492126,0.9683157205581665,-0.5838813185691833,2.699324131011963,-2.284050941467285,0.49381905794143677,1741504873.9648252,1741504873873,-0.07058110046386719,1.735340087890625,-2.4964831622006525,-6.36706103515625,1.5094061279296875
1741504873.9979022,-0.2005598545074463,0.038896539746565165,0.130324346774783,-0.9907081426098556,-0.06868571788072586,-0.14503388106822968,-0.21346327662467957,-50.90840530395508,18.24603843688965,37.208831787109375,0.5548563003540039,0.8955135345458984,0.4560540020465851,-1.2527892589569092,0.005912871100008488,-0.9157320261001587,-0.10738536715507507,1.2253230810165405,0.004005493130534887,0.9737163186073303,-0.012397955171763897,-0.8169298768043518,0.14057374000549316,-0.06427863240242004,0.9019989371299744,-0.31542763113975525,-0.12138102948665619,-0.4804684519767761,0.0879301130771637,0.01506828423589468,0.890554666519165,-0.5329267978668213,-0.011986622586846352,-0.18276500701904297,1.2643611431121826,-0.7567124366760254,0.22211004793643951,0.09183122217655182,0.7422229051589966,0.6291749477386475,-0.2186433970928192,0.053487785160541534,0.366788387298584,-1.5380754470825195,3.180671215057373,0.5056777596473694,3.515075922012329,1.7134950160980225,6.154301166534424,-4.346934795379639,0.041727352887392044,-1.5605405569076538,-0.19262228906154633,2.97209095954895,-1.7111732959747314,-1.4273676872253418,1741504873.9648252,1741504873873,-0.07058110046386719,1.735340087890625,-2.4964831622006525,-6.36706103515625,1.5094061279296875
1741504874.0179513,-0.1978626251220703,0.04031919853911549,0.12059522379855746,-0.9918826312755653,0.5661816596984863,-0.26297736167907715,0.22896958887577057,-10.701656341552734,1.6032211780548096,-1.193038821220398,0.5136566162109375,0.9172582626342773,0.41523614525794983,-1.2455412149429321,0.005531395319849253,-0.9100099205970764,-0.06961929053068161,1.2260860204696655,0.002861066721379757,0.9718089699745178,-0.016975661739706993,-0.7959487438201904,0.14362554252147675,-0.06466010212898254,0.9008545279502869,-0.2353222370147705,-0.12821224331855774,-0.49305713176727295,0.09784847497940063,-0.01773861236870289,0.9260318875312805,-0.5487003922462463,0.0020341158378869295,-1.267919659614563,1.1109418869018555,-2.348529100418091,0.5248005390167236,0.030957916751503944,0.08676168322563171,2.955853223800659,-0.07788138836622238,0.0799618735909462,-0.28618288040161133,-0.6538266539573669,1.4152350425720215,0.38093894720077515,-0.9852185845375061,-1.1296563148498535,3.3449020385742188,0.6220207810401917,-0.3416752219200134,0.4672527313232422,-1.7129267454147339,2.0062384605407715,-0.5794073939323425,1.3193498849868774,1741504874.0645752,1741504873973,0.0381401252746582,1.754920654296875,-2.1895693658487567,-6.36803466796875,1.5091273193359376
