Freshhhhh-LC/Legged_odom/data/3/segments/booster_seg_9.89s.csv
time,yaw,projected_gravity_x,projected_gravity_y,projected_gravity_z,ang_vel_x,ang_vel_y,ang_vel_z,lin_acc_x,lin_acc_y,lin_acc_z,q_0,q_1,q_2,q_3,q_4,q_5,q_6,q_7,q_8,q_9,q_10,q_11,q_12,q_13,q_14,q_15,q_16,q_17,q_18,q_19,q_20,q_21,q_22,dq_0,dq_1,dq_2,dq_3,dq_4,dq_5,dq_6,dq_7,dq_8,dq_9,dq_10,dq_11,dq_12,dq_13,dq_14,dq_15,dq_16,dq_17,dq_18,dq_19,dq_20,dq_21,dq_22,mocap_time,mocap_timestamp,robot_x,robot_y,robot_yaw,ball_x,ball_y
1741504530.9563963,-3.020626187324524,-0.022665317937322713,0.009020116976158657,-0.9997024161481939,0.30522724986076355,-0.11124467104673386,-0.7445667386054993,2.2078206539154053,-2.656229019165039,8.714720726013184,-0.3385591506958008,0.16842174530029297,-0.00667582219466567,-1.23295259475708,0.005149920005351305,-0.9370946884155273,0.4030289053916931,1.2562226057052612,0.01583123579621315,0.9149690866470337,0.3278782367706299,-0.3583962619304657,0.05245288833975792,-0.09250781685113907,0.7608529925346375,-0.5179615020751953,-0.03148766607046127,-0.7494087219238281,-0.24128328263759613,-0.3694590628147125,1.0957884788513184,-0.37687915563583374,0.002525885123759508,0.28716954588890076,-0.29406365752220154,-0.8105652928352356,-0.2735472619533539,-0.017769191414117813,-0.9757614135742188,2.75748348236084,-0.0230206660926342,0.08447731286287308,0.31317368149757385,-0.13898713886737823,2.654693603515625,0.2458001673221588,0.1556977927684784,-1.7627437114715576,-0.8488317131996155,0.06315605342388153,0.41636496782302856,-1.222651720046997,-0.6851450204849243,-3.2608749866485596,0.6254129409790039,-0.17323127388954163,1741504530.9155674,1741504530773,0.07713707733154297,-2.0137320556640623,1.4915939845955226,-4.14084375,-1.8843997802734376
1741504530.9586666,-3.1601996421813965,-0.03545187569192081,-0.011168345039279942,-0.9993089775334795,-0.6527301669120789,0.2243458777666092,-0.14091366529464722,-5.269476413726807,-1.8586641550064087,11.251921653747559,-0.2573051452636719,0.15774059295654297,0.14400701224803925,-1.2333340644836426,0.005149920005351305,-0.9538795948028564,0.290112167596817,1.2592743635177612,0.015449759550392628,0.9111543297767639,0.3412298858165741,-0.24242770671844482,-0.01583123579621315,-0.3118562698364258,1.0027084350585938,-0.40249061584472656,-0.004050539340823889,-0.5548561811447144,-0.14515145123004913,-0.36449989676475525,0.7745860815048218,-0.40195560455322266,-0.03753713518381119,0.13037176430225372,0.22253549098968506,1.764431118965149,-0.16962140798568726,-0.0024879316333681345,0.13265259563922882,-4.191322326660156,0.5299642086029053,0.03796060010790825,-0.07235652953386307,-0.5901812314987183,-5.16747522354126,-2.0549161434173584,-4.18427038192749,9.84747314453125,2.2827892303466797,0.42732909321784973,0.6386634111404419,2.486037492752075,1.2216105461120605,-0.7904890775680542,-0.08067715167999268,-0.14840994775295258,1741504530.9155674,1741504530773,0.07713707733154297,-2.0137320556640623,1.4915939845955226,-4.14084375,-1.8843997802734376
1741504530.960653,-3.14442777633667,-0.03283133344506104,0.022132514043935365,-0.9992158202141889,-0.953500509262085,0.05661369115114212,0.627790093421936,1.6254937648773193,2.7979366779327393,9.848536491394043,-0.22488021850585938,0.18253612518310547,0.20771344006061554,-1.23600435256958,0.005149920005351305,-0.951972246170044,0.17681391537189484,1.2684297561645508,0.01506828423589468,0.9130617380142212,0.3126192092895508,-0.45834288001060486,-0.09632257372140884,-0.368314653635025,1.352521538734436,-0.36342912912368774,0.013410745188593864,-0.5174715518951416,-0.08907453715801239,-0.34733349084854126,0.7394903302192688,-0.4014584422111511,-0.03353666886687279,0.5975192785263062,0.34903624653816223,2.0093166828155518,-0.1866394579410553,-0.0053074597381055355,-0.02664320357143879,-4.352337837219238,-0.035322703421115875,-0.031841933727264404,0.05565327778458595,-0.9287884831428528,-6.447754383087158,-2.4195444583892822,-0.46373575925827026,9.429805755615234,0.023540029302239418,0.4695075452327728,1.2818081378936768,1.2334957122802734,0.2348295897245407,-1.0233237743377686,0.003318456234410405,0.15280820429325104,1741504530.9155674,1741504530773,0.07713707733154297,-2.0137320556640623,1.4915939845955226,-4.14084375,-1.8843997802734376
1741504530.9704652,-3.097252130508423,0.002711058067271222,-0.00678034821531348,-0.9999733381656908,-0.1296297013759613,0.01356504112482071,-0.3213064670562744,0.7993042469024658,-1.6679158210754395,8.951902389526367,-0.15583229064941406,0.046349525451660156,-0.05283436179161072,-1.2314265966415405,0.006294346414506435,-0.9245060086250305,0.36259251832962036,1.2653779983520508,0.01506828423589468,0.9405279755592346,0.16346226632595062,-0.4854276478290558,0.031090257689356804,0.02231631986796856,0.8150225281715393,-0.42269569635391235,0.00335090234875679,-0.805867075920105,-0.04482337832450867,-0.16956588625907898,1.3433661460876465,-0.48301661014556885,0.007388473488390446,-0.19785960018634796,-0.12526275217533112,-2.7735981941223145,-0.17700251936912537,0.18705420196056366,-0.3049127161502838,3.326551914215088,-0.2174989879131317,-0.004027470946311951,-0.2357998639345169,-0.049213845282793045,2.312932014465332,0.3039690852165222,-0.23542223870754242,-0.5014967322349548,-2.2056760787963867,-0.48023512959480286,-1.846647024154663,-0.8154440522193909,-1.2171061038970947,-3.395172357559204,0.5987642407417297,0.4384554326534271,1741504531.0214608,1741504530873,-0.01956667709350586,-2.047114501953125,1.0326772874278434,-4.24436865234375,-1.8968796386718751
1741504530.9905033,-3.0998650789260864,0.003412172096245369,-0.004589058942432747,-0.9999836486761213,-0.11988731473684311,0.018437018617987633,-0.12343081086874008,-2.3561458587646484,0.0638846755027771,8.652164459228516,-0.15926647186279297,0.034905433654785156,-0.09441519528627396,-1.231045126914978,0.004005493130534887,-0.9401465058326721,0.4201953113079071,1.2646150588989258,0.015449759550392628,0.9328984618186951,0.1661325991153717,-0.438506156206131,0.031090257689356804,0.021553369238972664,0.7986190319061279,-0.4644646942615509,-0.0008699833997525275,-0.8291370868682861,-0.07495994865894318,-0.19016556441783905,1.2499046325683594,-0.44835078716278076,0.016972683370113373,-0.11880738288164139,-0.22608818113803864,-1.9011543989181519,0.03732087090611458,-0.0657324269413948,-0.8114811778068542,4.0380539894104,-0.03224249184131622,0.006595184560865164,-0.6550101637840271,0.2503085434436798,2.374732255935669,0.019564995542168617,-0.045054059475660324,-0.8166403770446777,-2.0517120361328125,-0.09715484827756882,-0.9207747578620911,-1.5643969774246216,-1.071770429611206,-4.69784688949585,1.8696041107177734,0.28140944242477417,1741504531.0214608,1741504530873,-0.01956667709350586,-2.047114501953125,1.0326772874278434,-4.24436865234375,-1.8968796386718751
1741504531.012619,-3.1030462980270386,0.008208246927564257,-0.0036398318627282565,-0.9999596873406383,-0.013754199258983135,0.24064569175243378,-0.15253475308418274,2.464170217514038,0.46259504556655884,7.704104423522949,-0.15926647186279297,0.02307891845703125,-0.11425192654132843,-1.2299007177352905,0.00476844422519207,-0.955024003982544,0.46215763688087463,1.2600373029708862,0.01506828423589468,0.9252689480781555,0.17833982408046722,-0.386243999004364,0.032616160809993744,0.016212711110711098,0.7799267768859863,-0.496542364358902,-4.20487231167499e-05,-0.8257037997245789,-0.11005569249391556,-0.21229113638401031,1.1366063356399536,-0.40316954255104065,0.012803427875041962,-0.017501225695014,-0.2862321138381958,-0.8347756266593933,0.043630748987197876,0.013424897566437721,-0.7431930899620056,2.4634361267089844,-0.353398859500885,0.022181184962391853,-0.4919975697994232,0.6860440969467163,2.5232796669006348,0.025712961331009865,-0.23980554938316345,-1.0722951889038086,-1.5236834287643433,-0.007630915381014347,0.2957969009876251,-1.7739797830581665,-1.1345901489257812,-5.7703423500061035,2.248973846435547,-0.22529105842113495,1741504531.0214608,1741504530873,-0.01956667709350586,-2.047114501953125,1.0326772874278434,-4.24436865234375,-1.8968796386718751
1741504531.0305424,-3.1081643104553223,0.00797297181280681,-0.006162851370239549,-0.9999492242026395,0.15176159143447876,-0.06480313837528229,-0.29678067564964294,2.2993602752685547,0.5025310516357422,6.100266456604004,-0.15888500213623047,0.02384185791015625,-0.10852979123592377,-1.2299007177352905,0.00476844422519207,-0.9653238654136658,0.4858091175556183,1.2566040754318237,0.01506828423589468,0.917639434337616,0.1958876997232437,-0.3255893886089325,0.024223696440458298,0.008964675478637218,0.7532234787940979,-0.508072555065155,-0.007157786749303341,-0.813115119934082,-0.14362554252147675,-0.2439536154270172,1.0118639469146729,-0.35476818680763245,0.006176937837153673,0.006544187664985657,0.021850982680916786,0.4902093708515167,-0.011153372004628181,-0.005547600332647562,-0.49067091941833496,1.4236522912979126,-0.2328498661518097,-0.019773470237851143,-0.45433932542800903,0.8771649599075317,3.029691219329834,-0.45139381289482117,-0.5058763027191162,-1.4453562498092651,-0.37943461537361145,-0.38401153683662415,0.7349717020988464,-1.6409571170806885,-1.6499754190444946,-6.240814685821533,2.452111005783081,-0.40026959776878357,1741504531.0214608,1741504530873,-0.01956667709350586,-2.047114501953125,1.0326772874278434,-4.24436865234375,-1.8968796386718751
1741504531.0505433,-3.116397261619568,0.004645877568495447,-0.013974534924783628,-0.9998915582178173,0.4244847595691681,-0.16075393557548523,-0.4297606945037842,2.2965712547302246,-0.6164562702178955,9.194896697998047,-0.15850353240966797,0.02422332763671875,-0.08068207651376724,-1.2299007177352905,0.00476844422519207,-0.967994213104248,0.49000534415245056,1.2501189708709717,0.01506828423589468,0.9126802682876587,0.20847637951374054,-0.25120165944099426,0.01201647985726595,-0.002861066721379757,0.725375771522522,-0.4907523989677429,-0.0008947579772211611,-0.7875562906265259,-0.16918440163135529,-0.28324559330940247,0.8939879536628723,-0.31546854972839355,-0.0027935663238167763,0.0028088826220482588,0.03246938809752464,1.612605333328247,-0.02975466288626194,0.00030280102510005236,-0.0936581939458847,0.09905112534761429,-0.5197136998176575,0.0017198764253407717,-0.33068159222602844,0.6076028943061829,3.6337509155273438,-0.6679761409759521,-0.6676490306854248,-1.2762079238891602,0.8520830273628235,0.6908624768257141,1.3267511129379272,-1.2613379955291748,-1.8035324811935425,-5.761882781982422,1.7856485843658447,-0.47319868206977844,1741504531.0214608,1741504530873,-0.01956667709350586,-2.047114501953125,1.0326772874278434,-4.24436865234375,-1.8968796386718751
1741504531.0705495,-3.1270976066589355,-0.0023640635288937934,-0.02565738880782722,-0.9996679996894946,0.6128785610198975,-0.3925935626029968,-0.5578687191009521,2.1236824989318848,1.0111836194992065,5.576242923736572,-0.15735912322998047,0.02994537353515625,-0.03337911143898964,-1.2299007177352905,0.00476844422519207,-0.9641794562339783,0.47665369510650635,1.2405821084976196,0.01506828423589468,0.9100099205970764,0.2145799994468689,-0.1985580176115036,-0.02079041674733162,-0.012397955171763897,0.7227054238319397,-0.48149222135543823,0.005832618102431297,-0.7547493577003479,-0.19169145822525024,-0.3084229826927185,0.7825970649719238,-0.3048189878463745,-0.009700978174805641,0.026509886607527733,0.1673484593629837,2.5808238983154297,-0.013291451148688793,-0.0017277677543461323,0.24431352317333221,-1.0853207111358643,-0.5616922974586487,0.002967298263683915,-0.10984925180673599,0.20111225545406342,2.286151885986328,-1.8072057962417603,-0.326368510723114,0.07369335740804672,0.363791286945343,0.2469438761472702,1.695504903793335,-0.874916672706604,-1.1844033002853394,-5.528237342834473,0.2525394856929779,-0.2869248390197754,1741504531.1142073,1741504530973,-0.12335441589355468,-2.06294970703125,-0.03813426265019302,-4.34375732421875,-1.9088968505859376
1741504531.0905583,-3.1383020877838135,-0.0064432906249396625,-0.04392618974437071,-0.9990140008330535,0.9367188215255737,-0.13611972332000732,-0.5473969578742981,20.131851196289062,-3.5361199378967285,22.682485580444336,-0.15163612365722656,0.02765655517578125,0.02689402550458908,-1.2314265966415405,0.005149920005351305,-0.960746169090271,0.44575417041778564,1.235241413116455,0.01506828423589468,0.9115357995033264,0.21915769577026367,-0.17376211285591125,-0.03795681521296501,-0.03376058489084244,0.7825970649719238,-0.4697287082672119,0.015755318105220795,-0.7295719981193542,-0.19016556441783905,-0.30003052949905396,0.7097352743148804,-0.3061981499195099,-0.021679574623703957,0.14113621413707733,-0.10494549572467804,2.8456296920776367,-0.1394846886396408,0.007280264049768448,0.11036884784698486,-2.250430107116699,-0.390378475189209,-0.011475847102701664,0.07049180567264557,0.2909078299999237,0.9684612154960632,-0.5116614103317261,-1.3386824131011963,3.672747850418091,0.7234345078468323,0.5901795029640198,0.9450719356536865,0.35418975353240967,0.8620650768280029,-2.378246307373047,0.2653976380825043,-0.6277047395706177,1741504531.1142073,1741504530973,-0.12335441589355468,-2.06294970703125,-0.03813426265019302,-4.34375732421875,-1.9088968505859376
1741504531.1106422,-3.1453697681427,-0.008342219611654633,-0.052738048458162184,-0.9985735354077714,0.2038010060787201,0.1326221227645874,-0.3044121265411377,3.235034465789795,-0.35058003664016724,9.563346862792969,-0.15278053283691406,0.02613067626953125,0.09136339277029037,-1.236767292022705,0.004386968910694122,-0.9603646993637085,0.39692530035972595,1.233715534210205,0.01506828423589468,0.9084840416908264,0.20771344006061554,-0.20466163754463196,-0.043678950518369675,-0.08030059933662415,0.9000915288925171,-0.4387179911136627,0.02285107411444187,-0.7009612917900085,-0.15697719156742096,-0.2481498420238495,0.7681010365486145,-0.2977980077266693,-0.038565974682569504,-0.05604527145624161,-0.11976128816604614,3.3110275268554688,-0.24717667698860168,-0.022196965292096138,-0.0005093113868497312,-3.5449490547180176,0.07774154841899872,0.024129388853907585,-0.142277792096138,-0.7252882122993469,-1.9791679382324219,-0.7450180053710938,-2.275430202484131,6.076110363006592,1.784952998161316,0.27253156900405884,1.0319743156433105,1.6312354803085327,2.6384897232055664,2.680979013442993,0.16271761059761047,-0.5994284152984619,1741504531.1142073,1741504530973,-0.12335441589355468,-2.06294970703125,-0.03813426265019302,-4.34375732421875,-1.9088968505859376
1741504531.1306238,-3.1416975259780884,-0.007571754337118789,-0.05038095288355393,-0.9987013708425575,-0.11970886588096619,0.023560475558042526,0.24996531009674072,-10.127375602722168,2.864042043685913,16.730281829833984,-0.14400672912597656,0.042153358459472656,0.1497291475534439,-1.233715534210205,0.004386968910694122,-0.960746169090271,0.3255893886089325,1.2482116222381592,0.016212711110711098,0.9119172692298889,0.20351719856262207,-0.2786678969860077,-0.07724879682064056,-0.1340886503458023,1.0587854385375977,-0.3911239802837372,0.030009381473064423,-0.691805899143219,-0.11730372905731201,-0.20771344006061554,0.7810711860656738,-0.3068200945854187,-0.03799934312701225,0.29724159836769104,0.49102869629859924,2.762634038925171,0.18400681018829346,-0.04081139340996742,-0.01102436799556017,-4.810352325439453,0.8525182008743286,0.036391403526067734,0.19693580269813538,-0.08650819212198257,-3.8030192852020264,-1.6082350015640259,-3.134244680404663,8.048286437988281,2.433837413787842,0.4555385112762451,0.8937016725540161,2.120072364807129,1.782841682434082,0.40217873454093933,-0.40888604521751404,-0.09501680731773376,1741504531.1142073,1741504530973,-0.12335441589355468,-2.06294970703125,-0.03813426265019302,-4.34375732421875,-1.9088968505859376
1741504531.1505983,-3.1337921619415283,-0.006232388016661924,-0.03836998267167948,-0.9992441652416013,-0.6902434229850769,-0.02467133104801178,0.492360919713974,0.3009032607078552,-1.2630805969238281,9.826519012451172,-0.13942909240722656,0.06389713287353516,0.21000228822231293,-1.231808066368103,0.005149920005351305,-0.960746169090271,0.247768372297287,1.2562226057052612,0.01506828423589468,0.9115357995033264,0.20084688067436218,-0.3751811981201172,-0.10776684433221817,-0.1848248988389969,1.2216753959655762,-0.35396549105644226,0.013675021007657051,-0.6536583304405212,-0.09441519528627396,-0.18596932291984558,0.7875562906265259,-0.3081531226634979,-0.03861395642161369,0.09368515014648438,0.8724538087844849,3.1664743423461914,0.050951484590768814,0.0445215180516243,-0.005939568392932415,-5.148313045501709,0.514542281627655,-0.024427562952041626,-0.014498353935778141,-0.04547372832894325,-4.8253631591796875,-1.690954566001892,-2.256037950515747,7.78670072555542,1.5826853513717651,-1.0482536554336548,1.740386724472046,0.914178729057312,0.8990683555603027,0.27902334928512573,-0.07381708920001984,0.08537230640649796,1741504531.1142073,1741504530973,-0.12335441589355468,-2.06294970703125,-0.03813426265019302,-4.34375732421875,-1.9088968505859376
1741504531.17063,-3.1214802265167236,-0.013415114876998294,-0.022241874312760382,-0.9996626099439212,-0.7321720123291016,-0.34935492277145386,0.5701942443847656,-0.2836766839027405,1.9411635398864746,11.056131362915039,-0.14057350158691406,0.07763004302978516,0.266460657119751,-1.233715534210205,0.005149920005351305,-0.9565499424934387,0.17299915850162506,1.2627075910568237,0.015449759550392628,0.9122987985610962,0.20504310727119446,-0.47741663455963135,-0.14171816408634186,-0.1981765478849411,1.3456549644470215,-0.3621477782726288,0.0020272720139473677,-0.6181811094284058,-0.08335240930318832,-0.17872129380702972,0.7864118218421936,-0.31234386563301086,-0.025032302364706993,0.03836485370993614,0.522490918636322,2.9195523262023926,-0.19239497184753418,-0.0048937550745904446,0.23474662005901337,-4.994915962219238,0.2936416566371918,-0.017978940159082413,0.07212893664836884,0.21492864191532135,-5.1062116622924805,-1.6160552501678467,-0.2596263289451599,5.8059186935424805,-0.7973286509513855,-0.2579013407230377,1.9355462789535522,0.4698193371295929,0.24731291830539703,-0.013920092023909092,-0.24220138788223267,0.7281712889671326,1741504531.2202182,1741504531073,-0.23725497436523438,-2.06034521484375,0.6036558047113512,-4.44495068359375,-1.920943359375
1741504531.1906972,-3.1071817874908447,-0.018439251804147322,-0.01229377894380554,-0.9997543983360034,-0.43053925037384033,-0.1988738626241684,0.7719839215278625,0.8401468992233276,7.125958442687988,10.470148086547852,-0.12417030334472656,0.07686710357666016,0.3248264193534851,-1.2394375801086426,0.005149920005351305,-0.9477760195732117,0.10051880776882172,1.2592743635177612,0.01430533267557621,0.9145876169204712,0.20428015291690826,-0.5788891315460205,-0.1512550562620163,-0.17147326469421387,1.413939118385315,-0.40697094798088074,0.010750473476946354,-0.5766003131866455,-0.07953765243291855,-0.17299915850162506,0.7879377603530884,-0.31837695837020874,-0.013298948295414448,0.43329840898513794,-0.05127931386232376,2.8278121948242188,-0.3721502721309662,-0.0021790724713355303,0.46901214122772217,-4.727011680603027,-0.25906622409820557,-0.045941442251205444,0.167325958609581,-0.1339816004037857,-4.944498538970947,-0.2637607157230377,1.482883095741272,2.9023499488830566,-2.3842644691467285,0.25071579217910767,1.9872924089431763,0.2601093053817749,0.22499912977218628,0.06696878373622894,-0.3109111487865448,0.6155980229377747,1741504531.2202182,1741504531073,-0.23725497436523438,-2.06034521484375,0.6036558047113512,-4.44495068359375,-1.920943359375
1741504531.2106655,-3.0938518047332764,-0.020178777480841507,-0.01383388769559969,-0.9997006754477082,0.13657276332378387,-0.051898349076509476,0.5718817114830017,-2.0585579872131348,-3.6849143505096436,10.135416984558105,-0.11959266662597656,0.07686710357666016,0.3755626678466797,-1.2508819103240967,0.005149920005351305,-0.9386205673217773,0.03833829239010811,1.2505004405975342,0.01430533267557621,0.9164950251579285,0.19130998849868774,-0.6773098111152649,-0.14667734503746033,-0.12836651504039764,1.421187162399292,-0.45821666717529297,0.003510707523673773,-0.5487525463104248,-0.06885633617639542,-0.15850308537483215,0.7898451089859009,-0.3322699964046478,-0.004430040717124939,0.16219644248485565,-0.010711072944104671,2.454118490219116,-0.7743557095527649,-0.019200006499886513,0.43075621128082275,-3.989902973175049,-0.6425819396972656,0.009678937494754791,0.1377968043088913,-0.7258639931678772,-4.787806987762451,0.20986561477184296,2.2884647846221924,-0.06836938858032227,-2.511625289916992,-0.5619646310806274,1.3738254308700562,0.5750439167022705,0.8209834098815918,0.13031987845897675,-0.7901425957679749,0.32237061858177185,1741504531.2202182,1741504531073,-0.23725497436523438,-2.06034521484375,0.6036558047113512,-4.44495068359375,-1.920943359375
1741504531.2306902,-3.0892144441604614,-0.015720027242506377,-0.01813727521218118,-0.999711918500211,0.2099473476409912,0.2568585276603699,0.08604684472084045,3.228022336959839,2.951617479324341,8.090292930603027,-0.11348915100097656,0.06313419342041016,0.41142138838768005,-1.2569855451583862,0.00476844422519207,-0.9355688095092773,-0.01201647985726595,1.239819049835205,0.014686808921396732,0.919165313243866,0.18673227727413177,-0.7623788714408875,-0.14362554252147675,-0.08258945494890213,1.3746471405029297,-0.4900374710559845,-0.01293367613106966,-0.5312047004699707,-0.057793546468019485,-0.1367589831352234,0.8020523190498352,-0.3599848449230194,-0.0013289095368236303,0.20136304199695587,-0.373004287481308,1.719083547592163,-0.3323381841182709,-0.013739816844463348,0.08894563466310501,-3.298646926879883,-0.627800703048706,-0.015403187833726406,0.16776591539382935,-0.1682819128036499,-4.325379371643066,0.23289062082767487,2.034086227416992,-2.5987465381622314,-1.312535285949707,-0.6831242442131042,0.695008397102356,0.37136974930763245,1.0648797750473022,0.7130401134490967,-1.458791971206665,0.25424352288246155,1741504531.220304,1741504531173,-0.3345351257324219,-2.08083642578125,-0.11399996264556556,-4.5317885742187505,-1.93342041015625
1741504531.2508357,-3.0878961086273193,-0.008873566013981449,-0.023612717932487582,-0.9996817990631,0.2620861530303955,0.3974143862724304,0.08290955424308777,-2.761500120162964,-1.0207653045654297,9.23706340789795,-0.11158180236816406,0.058175086975097656,0.4373617172241211,-1.2608002424240112,0.005149920005351305,-0.9340428709983826,-0.0707637146115303,1.233715534210205,0.014686808921396732,0.9309910535812378,0.1802472025156021,-0.8291370868682861,-0.13904783129692078,-0.054741740226745605,1.2884336709976196,-0.4810362160205841,-0.013024643063545227,-0.5277714133262634,-0.056267641484737396,-0.12874799966812134,0.8211261034011841,-0.3928973972797394,-0.000699260039255023,0.07847920805215836,-0.19615620374679565,1.307664155960083,-0.3098162114620209,-0.01316686999052763,0.12120258808135986,-3.7415120601654053,-0.4131569564342499,0.010957565158605576,0.9109798669815063,-0.3419671654701233,-3.1450207233428955,0.25375229120254517,1.1926831007003784,-4.609843730926514,0.7646048069000244,0.009819968603551388,0.3895864486694336,-0.08181879669427872,0.3279612064361572,1.1224679946899414,-1.650813341140747,-0.0054430533200502396,1741504531.220304,1741504531173,-0.3345351257324219,-2.08083642578125,-0.11399996264556556,-4.5317885742187505,-1.93342041015625
1741504531.2707484,-3.0853354930877686,0.006981979673037704,-0.027229574360506405,-0.9996048230375797,0.1686401218175888,0.8206676840782166,0.07962530106306076,7.332940101623535,5.5989885330200195,6.914341449737549,-0.10662269592285156,0.053215980529785156,0.46139466762542725,-1.2642335891723633,0.00476844422519207,-0.9294651746749878,-0.10624094307422638,1.2283748388290405,0.013923857361078262,0.9485389590263367,0.1684214472770691,-0.8627069592475891,-0.12684062123298645,-0.04634927958250046,1.1629282236099243,-0.43966907262802124,-0.01128628570586443,-0.5167086124420166,-0.05741206929087639,-0.12340734153985977,0.8421072959899902,-0.4300626814365387,0.0007503414526581764,0.15475095808506012,-0.16372932493686676,1.0628353357315063,-0.0849124863743782,-0.0066294255666434765,0.20859207212924957,-2.1503872871398926,-0.3598175346851349,-0.04776544123888016,1.1373019218444824,-0.6361361145973206,-1.6305445432662964,0.6452606916427612,0.2960797846317291,-6.791858673095703,2.1076691150665283,0.23604753613471985,0.6143456101417542,0.04016472399234772,0.3495500385761261,1.0060694217681885,-1.9218534231185913,0.17790542542934418,1741504531.220304,1741504531173,-0.3345351257324219,-2.08083642578125,-0.11399996264556556,-4.5317885742187505,-1.93342041015625
1741504531.2908037,-3.0854246616363525,0.019473383442590166,-0.028960406294620735,-0.9993908555738082,0.04951291158795357,0.5803652405738831,-0.005362262483686209,-0.6201491355895996,3.1776833534240723,7.245670318603516,-0.10051918029785156,0.053597450256347656,0.4701686203479767,-1.2627075910568237,0.00476844422519207,-0.9237430095672607,-0.12111848592758179,1.2226526737213135,0.014686808921396732,0.962272047996521,0.14629587531089783,-0.8718623518943787,-0.1024261862039566,-0.03757534176111221,0.9962233901023865,-0.3936561346054077,-0.003579310839995742,-0.5045014023780823,-0.04596780240535736,-0.10624094307422638,0.8615625500679016,-0.4699532687664032,0.004349714145064354,0.17272253334522247,-0.024276115000247955,0.34286683797836304,0.042780790477991104,-0.0012520768214017153,0.24584271013736725,-0.7015342712402344,-0.4197828471660614,0.014769332483410835,0.8627304434776306,-1.126224398612976,-0.07686900347471237,1.3248810768127441,0.44915562868118286,-8.573928833007812,2.313441514968872,0.3964994549751282,0.6615827679634094,0.6578208804130554,0.9781237840652466,0.868379533290863,-2.0431442260742188,0.07755409181118011,1741504531.220304,1741504531173,-0.3345351257324219,-2.08083642578125,-0.11399996264556556,-4.5317885742187505,-1.93342041015625
1741504531.3108408,-3.0868431329727173,0.029220237867686346,-0.0265741153654487,-0.9992196926059352,-0.15099169313907623,0.4398277997970581,-0.08333383500576019,4.647259712219238,-3.7480554580688477,4.841580867767334,-0.09746742248535156,0.06542301177978516,0.4659723937511444,-1.2615631818771362,0.00476844422519207,-0.9233615398406982,-0.11463340371847153,1.2196009159088135,0.014686808921396732,0.9699015617370605,0.12531471252441406,-0.848210871219635,-0.07495994865894318,-0.01201647985726595,0.8249408602714539,-0.35382118821144104,0.005780264735221863,-0.47932401299476624,-0.01926451548933983,-0.09632257372140884,0.8791103959083557,-0.5111844539642334,0.0033701530192047358,0.08922325074672699,0.33179032802581787,-0.2759370505809784,0.1046065241098404,0.003981584683060646,-0.008947850205004215,0.6229410767555237,-0.17130360007286072,0.0017921500839293003,0.4167737066745758,-1.0381964445114136,1.34750497341156,1.2344483137130737,1.2380053997039795,-8.171321868896484,1.8982880115509033,0.460630863904953,1.2733608484268188,1.4039528369903564,0.3834376931190491,0.8143436908721924,-2.105191469192505,-0.0731084942817688,1741504531.220304,1741504531173,-0.3345351257324219,-2.08083642578125,-0.11399996264556556,-4.5317885742187505,-1.93342041015625
1741504531.3307874,-3.090443730354309,0.02511411581795778,-0.019640357250297075,-0.9994916395617138,-0.32249879837036133,-0.3638840615749359,-0.1223616823554039,-11.21418571472168,7.467939853668213,17.72459602355957,-0.09746742248535156,0.09365177154541016,0.4537651538848877,-1.2554595470428467,0.005149920005351305,-0.9206912517547607,-0.0864042118191719,1.2211267948150635,0.01430533267557621,0.9706645011901855,0.11463340371847153,-0.8142595291137695,-0.04634927958250046,0.023079270496964455,0.7951858043670654,-0.2964848279953003,0.012796981260180473,-0.44155794382095337,-0.01430533267557621,-0.09822995215654373,0.8993285894393921,-0.5334261655807495,-0.0012282225070521235,-0.01095168013125658,0.9355651140213013,-0.6972647309303284,0.4765787422657013,0.01746828481554985,0.22535020112991333,2.169236660003662,0.17642508447170258,0.0004902190994471312,-0.01472583506256342,-0.2423701137304306,2.2151763439178467,1.1897549629211426,1.7239863872528076,0.5668482184410095,2.931431293487549,0.5577224493026733,1.8980424404144287,-0.2402915060520172,0.019859369844198227,0.9299951791763306,-0.8533589243888855,-0.07808223366737366,1741504531.4312818,1741504531373,-0.551617919921875,-2.12558935546875,0.2723928559411466,-4.73785693359375,-1.95466845703125
1741504531.3508906,-3.0882662534713745,0.028697789538412323,-0.022632992701351273,-0.9993318690590175,0.1759873926639557,0.12804624438285828,0.0707889199256897,7.664079666137695,-4.90565824508667,9.476215362548828,-0.08640384674072266,0.08144474029541016,0.40951400995254517,-1.2558410167694092,0.005531395319849253,-0.918402373790741,-0.03643091395497322,1.2276118993759155,0.013923857361078262,0.9714275002479553,0.12645913660526276,-0.7837415337562561,-0.03528648987412453,0.000572213320992887,0.8211261034011841,-0.27535197138786316,0.028566909953951836,-0.4083695709705353,-0.010872052982449532,-0.1184481605887413,0.9317540526390076,-0.5148879289627075,-0.0038894307799637318,0.3402043282985687,-0.18368977308273315,-2.431440591812134,-0.1961786448955536,0.029341019690036774,0.08944783359766006,3.515298366546631,0.2950616478919983,-0.015461903065443039,0.02298795059323311,0.5209041237831116,0.9382534623146057,0.5872966051101685,-1.4595844745635986,0.5742212533950806,0.7280688881874084,0.5760639309883118,1.3650189638137817,0.13900741934776306,-1.1647037267684937,1.9254361391067505,1.2003355026245117,-0.34242573380470276,1741504531.4312818,1741504531373,-0.551617919921875,-2.12558935546875,0.2723928559411466,-4.73785693359375,-1.95466845703125
1741504531.3708832,-3.089449405670166,0.025474830121883157,-0.023008479973964317,-0.9994106477717499,-0.05118826404213905,-0.06693954765796661,-0.1126345694065094,2.8320152759552,-1.8551887273788452,12.055221557617188,-0.09517860412597656,0.08258914947509766,0.3408484160900116,-1.2562226057052612,0.004386968910694122,-0.9172579646110535,0.01926451548933983,1.229519248008728,0.01506828423589468,0.9683756828308105,0.13065537810325623,-0.7372015118598938,-0.049782559275627136,-0.012397955171763897,0.8295185565948486,-0.2675321698188782,0.015125764533877373,-0.4182879328727722,-0.024223696440458298,-0.13027389347553253,1.0248340368270874,-0.4765096604824066,-0.017374252900481224,-0.19759657979011536,-0.0315520241856575,-3.569542169570923,0.04144928231835365,-0.09175427258014679,0.05797495320439339,3.5742032527923584,0.2768520414829254,0.08726537972688675,-0.20789174735546112,-0.001083849580027163,2.4582552909851074,-0.9842157363891602,-0.4002714455127716,0.4593272805213928,0.37455642223358154,-0.6055784225463867,-0.7914444804191589,-0.7568709254264832,-0.45352303981781006,5.2556538581848145,1.9902937412261963,-0.6466957926750183,1741504531.4312818,1741504531373,-0.551617919921875,-2.12558935546875,0.2723928559411466,-4.73785693359375,-1.95466845703125
1741504531.39086,-3.098292589187622,0.01982764042286356,-0.026607999681363643,-0.9994492878721852,0.2646668553352356,-0.30191442370414734,-0.5760388970375061,-5.721657752990723,-2.934943675994873,12.994111061096191,-0.08335208892822266,0.09594154357910156,0.2744716703891754,-1.2535521984100342,0.00476844422519207,-0.9126802682876587,0.07648584991693497,1.2436338663101196,0.01583123579621315,0.9637979865074158,0.1329442262649536,-0.7017242908477783,-0.0558861680328846,-0.03032730519771576,0.839436948299408,-0.26816076040267944,0.01728244498372078,-0.4812313914299011,-0.034142062067985535,-0.1359960287809372,1.1686503887176514,-0.43427085876464844,-0.016566120088100433,0.35476768016815186,0.5107423663139343,-3.491652727127075,0.10727079212665558,-0.005922903306782246,0.15938033163547516,3.872796058654785,0.9133419990539551,0.015896299853920937,-0.38836294412612915,0.2100667953491211,1.8777647018432617,-0.3144959807395935,-0.6992179155349731,0.6259956955909729,-0.044083867222070694,0.05084764584898949,-3.2528207302093506,-0.2684527337551117,-0.2948068678379059,7.290766716003418,2.0587098598480225,0.16644629836082458,1741504531.4312818,1741504531373,-0.551617919921875,-2.12558935546875,0.2723928559411466,-4.73785693359375,-1.95466845703125
1741504531.4108713,-3.120229721069336,0.018885983439034262,-0.02818666204734308,-0.9994242501121179,0.07008372992277145,-0.11986479163169861,-1.1233010292053223,1.2836581468582153,-3.3663928508758545,11.240984916687012,-0.08564090728759766,0.08487796783447266,0.20389868319034576,-1.2505004405975342,0.00476844422519207,-0.9157320261001587,0.13141833245754242,1.2562226057052612,0.01583123579621315,0.9561684727668762,0.13981078565120697,-0.6601434350013733,-0.05397878959774971,-0.037193864583969116,0.8497368097305298,-0.27175500988960266,0.014257018454372883,-0.5640115737915039,-0.030708782374858856,-0.14019227027893066,1.3216220140457153,-0.4124242961406708,-0.0005688962410204113,-0.08639911562204361,-0.19080859422683716,-3.5647130012512207,0.22953619062900543,0.014916609041392803,-0.1265709400177002,3.6335859298706055,0.8285192251205444,0.019230881705880165,-0.46180328726768494,0.43265289068222046,2.0358500480651855,0.20354458689689636,-0.4503462314605713,0.3203102946281433,-0.27503499388694763,-0.15790711343288422,-3.8703417778015137,0.21925441920757294,-0.1424294412136078,7.396721363067627,0.7774138450622559,0.7550613284111023,1741504531.4312818,1741504531373,-0.551617919921875,-2.12558935546875,0.2723928559411466,-4.73785693359375,-1.95466845703125
1741504531.4309704,-3.1463348865509033,0.012602665243623811,-0.027550900208121266,-0.9995409550020846,-0.005086515098810196,-0.385981947183609,-1.3117951154708862,-7.512953758239746,1.2184643745422363,16.917844772338867,-0.09250736236572266,0.08831119537353516,0.1325627565383911,-1.2436338663101196,0.00476844422519207,-0.916876494884491,0.19054703414440155,1.2653779983520508,0.015449759550392628,0.9515907764434814,0.15316243469715118,-0.6204699873924255,-0.048256658017635345,-0.03833829239010811,0.84897381067276,-0.2912898361682892,0.009267832152545452,-0.6475547552108765,-0.02994582988321781,-0.1497291475534439,1.4280537366867065,-0.4273342788219452,-0.004456223454326391,-0.20027503371238708,0.029657280072569847,-3.4858086109161377,0.5094481706619263,-0.0010849321261048317,-0.03548171743750572,3.9833078384399414,0.5785084962844849,-9.233628952642903e-05,-0.31523841619491577,0.6608728766441345,2.0085651874542236,0.2997409701347351,-0.013410963118076324,0.0028632611501961946,-1.1874303817749023,-0.3387821614742279,-4.011484622955322,0.05829072743654251,-0.6329807639122009,4.79741096496582,-0.9335016012191772,-0.35214120149612427,1741504531.4312818,1741504531373,-0.551617919921875,-2.12558935546875,0.2723928559411466,-4.73785693359375,-1.95466845703125
1741504531.4509327,-3.1722397804260254,0.011282741045715507,-0.0290446425944889,-0.9995144363595024,0.1091688722372055,-0.0850478783249855,-1.2425856590270996,1.1188650131225586,-4.9449310302734375,10.10123062133789,-0.09327030181884766,0.08182621002197266,0.06466010212898254,-1.2348599433898926,0.00476844422519207,-0.9164950251579285,0.2508201599121094,1.2684297561645508,0.015449759550392628,0.9443427324295044,0.16269932687282562,-0.5731670260429382,-0.04253452271223068,-0.040245670825242996,0.8436331748962402,-0.33311891555786133,0.006325665395706892,-0.7143129706382751,-0.03223468363285065,-0.164988175034523,1.4631494283676147,-0.457736998796463,-0.006056203506886959,-0.04381150007247925,-0.15890057384967804,-3.327705144882202,0.5304465293884277,0.005883251782506704,0.017978396266698837,3.9852771759033203,0.12454255670309067,0.005472676828503609,-0.48097556829452515,0.5227122902870178,2.3273873329162598,0.29702985286712646,-0.10421519726514816,-0.41116857528686523,-2.2655227184295654,-0.1439158022403717,-3.2983286380767822,-0.15840773284435272,-0.6329030990600586,1.201469898223877,-1.5778089761734009,0.241764098405838,1741504531.4312818,1741504531373,-0.551617919921875,-2.12558935546875,0.2723928559411466,-4.73785693359375,-1.95466845703125
1741504531.4709628,-3.18195903301239,0.010063837827670069,-0.029802534454312284,-0.9995051416117268,0.008994500152766705,-0.071381114423275,-0.44734320044517517,-0.6944582462310791,-2.4435434341430664,8.330693244934082,-0.09556007385253906,0.07305240631103516,0.006294346414506435,-1.2333340644836426,0.00476844422519207,-0.916876494884491,0.3103303611278534,1.2680482864379883,0.01506828423589468,0.9405279755592346,0.16346226632595062,-0.5289158225059509,-0.03643091395497322,-0.04177157208323479,0.8276112079620361,-0.38423970341682434,0.004032793454825878,-0.7730602025985718,-0.04100862145423889,-0.1684214472770691,1.436446189880371,-0.4801357686519623,0.007777275517582893,-0.05195634812116623,-0.22852984070777893,-2.6825666427612305,0.009146521799266338,-0.07364792376756668,-0.06754027307033539,3.9533541202545166,-0.0691731795668602,-0.029896389693021774,-0.2848818898200989,-0.13109302520751953,2.1299397945404053,0.3009647727012634,0.007052338682115078,-0.8944570422172546,-2.52374529838562,-0.2360927164554596,-2.8049888610839844,-0.5390183329582214,-0.10649819672107697,-1.7053061723709106,-0.9546324610710144,0.6640573740005493,1741504531.4312818,1741504531373,-0.551617919921875,-2.12558935546875,0.2723928559411466,-4.73785693359375,-1.95466845703125
1741504531.4909637,-3.1831260919570923,0.012184405945437068,-0.029693230100892587,-0.9994847934500716,0.021616743877530098,0.11506916582584381,-0.11047045141458511,0.1814626157283783,-0.8992645740509033,7.767565727233887,-0.09899330139160156,0.059319496154785156,-0.05703059583902359,-1.2348599433898926,0.005531395319849253,-0.9218356609344482,0.36678874492645264,1.2676668167114258,0.015449759550392628,0.9355688095092773,0.15774014592170715,-0.4835202693939209,-0.027656977996230125,-0.040245670825242996,0.8085374236106873,-0.4273683726787567,-0.0026017038617283106,-0.8188372850418091,-0.059319447726011276,-0.16880293190479279,1.3685435056686401,-0.47926655411720276,0.005215159617364407,-0.10299845784902573,-0.44362422823905945,-3.1332051753997803,-0.07613380998373032,0.07400942593812943,-0.3034992814064026,3.7512643337249756,-0.043953727930784225,0.06828374415636063,-0.35698366165161133,-0.20365005731582642,2.329454183578491,0.4590202569961548,0.08410292118787766,-0.9592196345329285,-2.125352144241333,-0.2888430655002594,-2.159830093383789,-1.012187123298645,-0.06615015864372253,-3.5065505504608154,0.2113836705684662,-0.2967701256275177,1741504531.5256197,1741504531473,-0.6567539672851562,-2.124405517578125,0.2597338669423262,-4.82184033203125,-1.965537841796875
1741504531.511015,-3.186761498451233,0.015489146033119927,-0.031505380247218245,-0.9993835586853743,0.07487856596708298,0.14297525584697723,-0.20346510410308838,1.1135838031768799,-0.5133309364318848,7.164161205291748,-0.09784889221191406,0.050164222717285156,-0.10547798871994019,-1.2333340644836426,0.004386968910694122,-0.9370946884155273,0.42782482504844666,1.2672853469848633,0.01506828423589468,0.9275577664375305,0.15926603972911835,-0.4339284300804138,-0.01926451548933983,-0.03490501269698143,0.7883192300796509,-0.46440187096595764,-0.005617775488644838,-0.8504997491836548,-0.08907453715801239,-0.17566949129104614,1.2762264013290405,-0.4510727822780609,0.008885165676474571,0.01381178293377161,-0.29078409075737,-2.1918654441833496,0.1362360715866089,0.00234077381901443,-0.746598482131958,4.103267192840576,-0.06679243594408035,-0.04725459963083267,-0.5935032963752747,0.21726366877555847,2.4630963802337646,0.46021178364753723,0.27715063095092773,-1.042497158050537,-1.8137980699539185,-0.1526334434747696,-1.470412254333496,-1.6179559230804443,-0.35400813817977905,-4.5910491943359375,1.6130621433258057,0.45612695813179016,1741504531.5256197,1741504531473,-0.6567539672851562,-2.124405517578125,0.2597338669423262,-4.82184033203125,-1.965537841796875
1741504531.5310252,-3.1917372941970825,0.018936239792021643,-0.03089379628178983,-0.9993432804466332,-0.04005654528737068,0.15032505989074707,-0.2668917179107666,3.0643153190612793,-0.9794785380363464,6.253904819488525,-0.09708595275878906,0.045968055725097656,-0.12912946939468384,-1.229519248008728,0.00476844422519207,-0.9523537158966064,0.4690241813659668,1.2638521194458008,0.01506828423589468,0.9199283123016357,0.16994735598564148,-0.38204777240753174,-0.012779430486261845,-0.035667963325977325,0.7646677494049072,-0.4932859241962433,-0.0032465001568198204,-0.8615625500679016,-0.12912946939468384,-0.19474326074123383,1.1717021465301514,-0.4069822430610657,0.008463731035590172,0.014364013448357582,-0.11927161365747452,-1.0293446779251099,0.281554639339447,0.0011158348061144352,-0.8286340236663818,2.5375161170959473,-0.22491078078746796,0.02089233696460724,-0.5109350681304932,0.6037225723266602,2.5591890811920166,0.2553354501724243,-0.12624603509902954,-1.2316240072250366,-1.408111333847046,0.1344120055437088,-0.2724393606185913,-1.9899742603302002,-1.0558176040649414,-5.352946758270264,2.2120201587677,-0.12309610098600388,1741504531.5256197,1741504531473,-0.6567539672851562,-2.124405517578125,0.2597338669423262,-4.82184033203125,-1.965537841796875
1741504531.551052,-3.2014591693878174,0.020508617186968066,-0.030202230939974314,-0.999333388748383,0.0025294332299381495,0.04905667155981064,-0.5371018648147583,3.623631000518799,0.538999080657959,8.578612327575684,-0.09403419494628906,0.041008949279785156,-0.12569619715213776,-1.226467490196228,0.00476844422519207,-0.9653238654136658,0.49076828360557556,1.2596558332443237,0.01506828423589468,0.9149690866470337,0.18863965570926666,-0.3217746317386627,-0.01430533267557621,-0.04444190114736557,0.7364385724067688,-0.5081387758255005,-0.006041421554982662,-0.8447775840759277,-0.17299915850162506,-0.22564278542995453,1.050011396408081,-0.35841116309165955,0.003029997693374753,0.06960155069828033,-0.143313929438591,0.3963601291179657,0.14274756610393524,0.0001014412846416235,-0.6180242896080017,1.2352550029754639,-0.3712405264377594,0.007240737322717905,-0.3241737186908722,0.9613955616950989,3.065297842025757,-0.03245081380009651,-0.5845082998275757,-1.4482355117797852,-0.635778546333313,-0.1076885312795639,0.9333885908126831,-2.152129888534546,-1.6353222131729126,-6.116009712219238,2.396284818649292,-0.22538962960243225,1741504531.5256197,1741504531473,-0.6567539672851562,-2.124405517578125,0.2597338669423262,-4.82184033203125,-1.965537841796875
1741504531.5711002,-3.2148118019104004,0.016904962562510346,-0.03252864173307725,-0.9993278289469182,0.1605544537305832,-0.24600982666015625,-0.6499844789505005,2.828822612762451,-1.7933531999588013,5.0805840492248535,-0.08945560455322266,0.045586585998535156,-0.09784847497940063,-1.2268489599227905,0.00476844422519207,-0.969520092010498,0.49267566204071045,1.2535521984100342,0.01506828423589468,0.9107728600502014,0.20542457699775696,-0.25120165944099426,-0.018120087683200836,-0.0558861680328846,0.7085908055305481,-0.4961717128753662,-0.013210399076342583,-0.8192187547683716,-0.1989395022392273,-0.2771419882774353,0.9225986003875732,-0.31995293498039246,-0.0014362053479999304,0.12406454980373383,0.16452570259571075,1.5003536939620972,-0.03658728301525116,-0.006819955073297024,-0.14773030579090118,0.05105242878198624,-0.42116042971611023,-0.0010959424544125795,-0.27650776505470276,0.7610438466072083,3.408090353012085,-0.19944052398204803,-0.621574342250824,-1.4113013744354248,0.7090007662773132,-0.17564809322357178,1.369773268699646,-1.1468535661697388,-2.6434805393218994,-6.306107521057129,1.7309064865112305,-0.3048655390739441,1741504531.5256197,1741504531473,-0.6567539672851562,-2.124405517578125,0.2597338669423262,-4.82184033203125,-1.965537841796875
1741504531.5911386,-3.227011799812317,0.008824793629176812,-0.03802944697894078,-0.9992376515023234,0.27828481793403625,-0.4548405110836029,-0.5612756013870239,2.0232036113739014,-2.000741958618164,9.12784481048584,-0.08335208892822266,0.049019813537597656,-0.05436026677489281,-1.227230429649353,0.00476844422519207,-0.9664682745933533,0.4812313914299011,1.2463041543960571,0.01506828423589468,0.9096284508705139,0.20580606162548065,-0.19016556441783905,-0.04291599988937378,-0.06656748056411743,0.7047760486602783,-0.4870279133319855,-0.0052182539366185665,-0.7837415337562561,-0.2134355753660202,-0.3076600432395935,0.8016708493232727,-0.3095923960208893,-0.006652603857219219,0.16211852431297302,0.13046467304229736,2.2903811931610107,-0.008134592324495316,-0.0024027812760323286,0.18218150734901428,-0.9567338228225708,-0.47198766469955444,-0.006937759928405285,-0.03140038251876831,-0.0798817053437233,2.977857828140259,-1.291259527206421,-0.4233875870704651,0.12541605532169342,0.3255741000175476,0.28372031450271606,1.6985257863998413,-0.6861957907676697,-1.3130632638931274,-5.820583343505859,0.2510775625705719,-0.25199270248413086,1741504531.6292887,1741504531573,-0.76819677734375,-2.114074951171875,0.43688107064858417,-4.90058544921875,-1.9777054443359376
1741504531.6111243,-3.235303282737732,0.0015127647253393444,-0.05037022909354812,-0.9987294686570279,0.7154741287231445,-0.33260104060173035,-0.35639384388923645,11.412875175476074,-5.815452575683594,8.86839485168457,-0.07991886138916016,0.050927162170410156,0.001716639962978661,-1.2276118993759155,0.00476844422519207,-0.960746169090271,0.4549095928668976,1.2443968057632446,0.01506828423589468,0.9122987985610962,0.1974135935306549,-0.16193637251853943,-0.049782559275627136,-0.08869306743144989,0.7589455842971802,-0.47668516635894775,0.003513358999043703,-0.7589455842971802,-0.20656901597976685,-0.3057526648044586,0.735675573348999,-0.30872833728790283,-0.024166438728570938,0.08933515101671219,0.07945416122674942,2.8328776359558105,-0.07240772992372513,0.013147479854524136,0.23918230831623077,-1.7965104579925537,-0.15239058434963226,-0.02481061778962612,0.09863921999931335,-0.31335365772247314,1.035521149635315,0.1471361219882965,-1.298728346824646,3.476958751678467,0.586456298828125,0.6018603444099426,1.0006544589996338,0.6572409272193909,0.3175181448459625,-1.8438479900360107,0.29678329825401306,-1.1230809688568115,1741504531.6292887,1741504531573,-0.76819677734375,-2.114074951171875,0.43688107064858417,-4.90058544921875,-1.9777054443359376
1741504531.6311626,-3.240004301071167,0.0005950011776791899,-0.05554270624567574,-0.9984561351188669,0.0520576536655426,0.1941966563463211,-0.2038378119468689,-2.117774724960327,7.620071887969971,9.24356746673584,-0.07724857330322266,0.039101600646972656,0.06313420087099075,-1.2363858222961426,0.00476844422519207,-0.959220290184021,0.40989547967910767,1.2428709268569946,0.01506828423589468,0.9092469811439514,0.17719538509845734,-0.18940261006355286,-0.057793546468019485,-0.11577782779932022,0.8749141693115234,-0.4467081129550934,0.011731958948075771,-0.7242313027381897,-0.17490653693675995,-0.27103838324546814,0.7932783961296082,-0.3060234785079956,-0.0462343655526638,0.08322986960411072,-0.3752250671386719,2.8363938331604004,-0.5221332311630249,0.013681565411388874,0.07429102808237076,-3.3115410804748535,0.0017117946408689022,0.034530285745859146,-0.13410982489585876,-1.0194597244262695,-1.6462376117706299,-0.7566736936569214,-1.202449083328247,6.16641902923584,1.7960481643676758,0.297535240650177,1.1232634782791138,1.4504286050796509,1.8899940252304077,2.5948853492736816,-0.08373314887285233,-0.9066398739814758,1741504531.6292887,1741504531573,-0.76819677734375,-2.114074951171875,0.43688107064858417,-4.90058544921875,-1.9777054443359376
1741504531.6511483,-3.236711859703064,0.0016864482468389465,-0.05298102213772471,-0.9985940953087759,-0.1314311921596527,-0.015083301812410355,0.1722065955400467,-4.937535762786865,2.6099860668182373,15.822312355041504,-0.07076358795166016,0.048638343811035156,0.12340734153985977,-1.2409635782241821,0.00476844422519207,-0.9573128819465637,0.3389410376548767,1.2512633800506592,0.016212711110711098,0.9126802682876587,0.16918440163135529,-0.26684215664863586,-0.08258945494890213,-0.1665140837430954,1.0362783670425415,-0.3998991549015045,0.021559588611125946,-0.7124055624008179,-0.14476996660232544,-0.24242770671844482,0.7986190319061279,-0.3168651759624481,-0.050906963646411896,0.24072420597076416,0.24789534509181976,3.1726579666137695,-0.35435229539871216,-0.009586844593286514,0.10035142302513123,-4.885417938232422,0.5023940801620483,0.038946472108364105,0.1738286167383194,-0.20896318554878235,-4.293365955352783,-1.263957142829895,-2.7027411460876465,8.49832534790039,2.3720622062683105,0.6302004456520081,1.1104786396026611,1.5868020057678223,1.067638635635376,0.126045823097229,-0.49479275941848755,-0.19621585309505463,1741504531.6292887,1741504531573,-0.76819677734375,-2.114074951171875,0.43688107064858417,-4.90058544921875,-1.9777054443359376
1741504531.6712744,-3.22695791721344,0.005508109548808585,-0.03913928651076044,-0.9992185831841935,-0.8049479126930237,0.17373152077198029,0.5558410286903381,6.89962911605835,-0.006820296868681908,8.440584182739258,-0.06275272369384766,0.052834510803222656,0.1848248988389969,-1.2440153360366821,0.005149920005351305,-0.952735185623169,0.2618829607963562,1.2585114240646362,0.01583123579621315,0.9111543297767639,0.17185473442077637,-0.3702220320701599,-0.1192111074924469,-0.21877622604370117,1.2125200033187866,-0.35481399297714233,0.01563149131834507,-0.6685358881950378,-0.13179980218410492,-0.23861294984817505,0.8024337887763977,-0.31490564346313477,-0.04617616534233093,0.26330214738845825,0.08017361909151077,3.2660319805145264,-0.14079101383686066,0.021389689296483994,0.23634931445121765,-5.043668746948242,0.5708491206169128,0.022905835881829262,-0.08840782195329666,0.17948542535305023,-5.310120105743408,-1.8995451927185059,-2.513437509536743,8.318214416503906,2.1108570098876953,-0.5985552668571472,1.964346170425415,0.4810643196105957,0.03672236576676369,0.11523735523223877,0.013029005378484726,0.08942780643701553,1741504531.6292887,1741504531573,-0.76819677734375,-2.114074951171875,0.43688107064858417,-4.90058544921875,-1.9777054443359376
1741504531.69186,-3.2084542512893677,-0.003227379623891005,-0.022541530155567653,-0.9997406981007669,-0.7914275527000427,-0.4055241346359253,0.8940184116363525,-1.6401618719100952,-0.5730239748954773,9.463774681091309,-0.060082435607910156,0.07610416412353516,0.23861294984817505,-1.2463041543960571,0.005149920005351305,-0.9485389590263367,0.18863965570926666,1.2630890607833862,0.015449759550392628,0.9122987985610962,0.17948424816131592,-0.4861905872821808,-0.15697719156742096,-0.23746852576732635,1.353284478187561,-0.34822872281074524,0.005636259447783232,-0.6315327882766724,-0.12912946939468384,-0.25501641631126404,0.7990005612373352,-0.31908562779426575,-0.03653228282928467,0.1339205801486969,0.6270769834518433,2.737621545791626,-0.2143072485923767,-0.017304597422480583,0.169627845287323,-4.864737510681152,0.10398957878351212,-0.043361689895391464,0.0941256582736969,0.32092219591140747,-5.7915239334106445,-1.803307294845581,-0.5118752121925354,6.533635139465332,-0.05497395619750023,-0.1765623390674591,2.037745237350464,0.1351844221353531,-0.802473783493042,-0.1044725775718689,-0.24665145576000214,0.5842099785804749,1741504531.6292887,1741504531573,-0.76819677734375,-2.114074951171875,0.43688107064858417,-4.90058544921875,-1.9777054443359376
1741504531.7113194,-3.1906824111938477,-0.00622288358843933,-0.008182628848273173,-0.9999471587563895,-0.6652827262878418,-0.10292491316795349,0.947670578956604,0.32139381766319275,4.112510681152344,10.066230773925781,-0.043679237365722656,0.07686710357666016,0.2977416515350342,-1.2470670938491821,0.005149920005351305,-0.9477760195732117,0.11615930497646332,1.2585114240646362,0.014686808921396732,0.9149690866470337,0.182917520403862,-0.5998703241348267,-0.17452506721019745,-0.2161058932542801,1.435683250427246,-0.38470813632011414,0.01465229969471693,-0.5827038884162903,-0.12645913660526276,-0.2630273997783661,0.7986190319061279,-0.32867538928985596,-0.01937492936849594,0.46263831853866577,0.08638203889131546,3.1380152702331543,-0.03677543252706528,-0.005354751832783222,0.030573533847928047,-4.755774021148682,-0.2812640070915222,-0.028379244729876518,0.18330256640911102,0.15599286556243896,-5.655231475830078,-0.6614741683006287,1.310137391090393,3.589240789413452,-2.0874686241149902,0.3659045994281769,2.2976996898651123,0.22695434093475342,-0.272916704416275,-0.019173968583345413,-0.4995320439338684,0.9057976007461548,1741504531.6292887,1741504531573,-0.76819677734375,-2.114074951171875,0.43688107064858417,-4.90058544921875,-1.9777054443359376
1741504531.731335,-3.1719080209732056,-0.009807879247919217,-0.004613837344889812,-0.9999412572794529,-0.09916730225086212,-0.16113346815109253,0.8717496991157532,-2.014528751373291,0.8896300196647644,9.26921558380127,-0.035668373107910156,0.07839298248291016,0.3549630045890808,-1.2527892589569092,0.005149920005351305,-0.9466315507888794,0.05283436179161072,1.2501189708709717,0.014686808921396732,0.9172579646110535,0.17643244564533234,-0.7070649266242981,-0.1672770231962204,-0.17490653693675995,1.4513237476348877,-0.43665096163749695,0.011308844201266766,-0.5582894682884216,-0.11348897218704224,-0.2599755823612213,0.7993820309638977,-0.348431259393692,-0.01026309747248888,0.27414873242378235,0.06671855598688126,2.7084946632385254,-0.4822934567928314,-0.018177224323153496,0.03542951121926308,-4.116881370544434,-0.6288589835166931,0.009478764608502388,0.1619541347026825,-0.5019147992134094,-5.199861526489258,0.17050603032112122,2.1883132457733154,0.2958310842514038,-2.5632128715515137,-0.3689541816711426,1.1676656007766724,0.7260405421257019,0.21302802860736847,0.07572963088750839,-1.171586275100708,0.27416110038757324,1741504531.6292887,1741504531573,-0.76819677734375,-2.114074951171875,0.43688107064858417,-4.90058544921875,-1.9777054443359376
1741504531.7513015,-3.1625999212265015,-0.007384948359966344,-0.0054839988300524395,-0.9999576932523458,0.030912579968571663,0.1426723301410675,0.3703376054763794,-0.31733599305152893,0.5572956800460815,8.808558464050293,-0.02574920654296875,0.06771183013916016,0.4018844962120056,-1.2562226057052612,0.00476844422519207,-0.9454871416091919,0.0020981156267225742,1.2379117012023926,0.01506828423589468,0.9203097820281982,0.17147326469421387,-0.7963302135467529,-0.1646067053079605,-0.12760357558727264,1.405165195465088,-0.474425733089447,-0.011199765838682652,-0.5334935784339905,-0.09975585341453552,-0.2504386901855469,0.80663001537323,-0.37804320454597473,-0.009511723183095455,0.2956819534301758,-0.31345346570014954,2.2086470127105713,-0.11574383080005646,-0.02711421065032482,0.06638876348733902,-3.2567636966705322,-0.8000593185424805,-0.015950992703437805,0.2011883705854416,-0.20266127586364746,-4.4336981773376465,0.2105700969696045,2.2385635375976562,-2.684171676635742,-1.65126371383667,-1.1578861474990845,1.204249382019043,0.5444337725639343,0.540919840335846,0.3522322177886963,-1.5527199506759644,0.015346530824899673,1741504531.6292887,1741504531573,-0.76819677734375,-2.114074951171875,0.43688107064858417,-4.90058544921875,-1.9777054443359376
1741504531.7714026,-3.157910466194153,-0.0008952437169828952,-0.00845660374540047,-0.9999638415421732,0.1410559117794037,0.3055837154388428,0.24639442563056946,-0.7776090502738953,-1.3807979822158813,9.62441349029541,-0.02269744873046875,0.058938026428222656,0.4404135048389435,-1.2566040754318237,0.005149920005351305,-0.9386205673217773,-0.0551232174038887,1.2306636571884155,0.01506828423589468,0.9294651746749878,0.164988175034523,-0.8604180812835693,-0.16041046380996704,-0.09708552807569504,1.3181887865066528,-0.47405117750167847,-0.013910381123423576,-0.5212863087654114,-0.09746700525283813,-0.2473868876695633,0.8203631639480591,-0.40816453099250793,-0.010908338241279125,0.09771616011857986,-0.24880118668079376,1.9874240159988403,-0.11709287762641907,-0.025814583525061607,0.4519805908203125,-3.9849703311920166,-0.44350430369377136,0.015092266723513603,0.6906042695045471,-0.49106326699256897,-2.960310935974121,0.20356641709804535,1.3665030002593994,-4.540282249450684,0.3220932185649872,0.009881642647087574,0.7348788976669312,0.03137880191206932,0.05956835299730301,0.82945716381073,-1.477280855178833,-0.17960798740386963,1741504531.6292887,1741504531573,-0.76819677734375,-2.114074951171875,0.43688107064858417,-4.90058544921875,-1.9777054443359376
1741504531.791387,-3.1499881744384766,0.01429033158859414,-0.010442321304816348,-0.999843359906368,0.0976141020655632,0.7559299468994141,0.30440187454223633,5.940108776092529,0.7140499949455261,9.929895401000977,-0.01468658447265625,0.052071571350097656,0.4690241813659668,-1.2569855451583862,0.00476844422519207,-0.9302281141281128,-0.09441519528627396,1.224941611289978,0.01430533267557621,0.9458686113357544,0.14782176911830902,-0.8978027105331421,-0.14858472347259521,-0.08373387902975082,1.1892499923706055,-0.4370131194591522,-0.012105570174753666,-0.506027340888977,-0.10051880776882172,-0.2462424635887146,0.8390554785728455,-0.4409981966018677,-0.009881546720862389,0.22914567589759827,-0.23322513699531555,1.278477668762207,0.041189223527908325,0.004409026354551315,0.40879884362220764,-2.338327407836914,-0.3954026699066162,-0.05043692886829376,1.1011476516723633,-0.8860016465187073,-1.9596878290176392,0.6660971641540527,0.5993320941925049,-6.697895526885986,1.9888367652893066,0.07401444017887115,0.8414753675460815,-0.09770457446575165,0.10900994390249252,0.9316744208335876,-1.686704397201538,0.19612550735473633,1741504531.6292887,1741504531573,-0.76819677734375,-2.114074951171875,0.43688107064858417,-4.90058544921875,-1.9777054443359376
1741504531.8115902,-3.1424458026885986,0.026770654584148245,-0.013200601657976492,-0.9995544388221203,0.11031652241945267,0.6423375606536865,0.3900580406188965,3.726168632507324,0.562441885471344,8.350513458251953,-0.01316070556640625,0.051308631896972656,0.481612890958786,-1.2566040754318237,0.005149920005351305,-0.9225986003875732,-0.11387044936418533,1.219982385635376,0.014686808921396732,0.9596017599105835,0.1188296303153038,-0.9084840416908264,-0.12264438718557358,-0.07534141838550568,1.030937671661377,-0.39089053869247437,-0.0038849145639687777,-0.4892423748970032,-0.09479667246341705,-0.23365376889705658,0.8543145060539246,-0.4788604974746704,-0.002226183656603098,0.06450508534908295,-0.06301916390657425,0.428142249584198,0.022059110924601555,-0.00241431244648993,0.3051391541957855,-1.0525704622268677,-0.29718953371047974,-4.233338768244721e-05,0.8684995174407959,-1.4815229177474976,-0.254448264837265,1.447449803352356,0.537659227848053,-8.261502265930176,2.315453052520752,0.3754730522632599,0.9342275261878967,0.3551269471645355,0.7332040071487427,0.7723318934440613,-1.902633547782898,0.4195105731487274,1741504531.6292887,1741504531573,-0.76819677734375,-2.114074951171875,0.43688107064858417,-4.90058544921875,-1.9777054443359376
1741504531.8316126,-3.133745551109314,0.03563398312936838,-0.013227255363181097,-0.9992773683827193,-0.04075745865702629,0.3920729160308838,0.45619291067123413,4.946684837341309,-1.9995474815368652,5.535778999328613,-0.01125335693359375,0.057793617248535156,0.47817960381507874,-1.2550780773162842,0.005149920005351305,-0.918402373790741,-0.10929274559020996,1.219219446182251,0.014686808921396732,0.9683756828308105,0.09060044586658478,-0.8916990756988525,-0.0883115902543068,-0.04482337832450867,0.8657587766647339,-0.35201308131217957,0.004196155816316605,-0.46139466762542725,-0.06427863240242004,-0.21953918039798737,0.8630884289741516,-0.5187588334083557,0.0010993145406246185,0.05359114706516266,0.17666907608509064,-0.25824764370918274,0.08320245146751404,-0.004657077603042126,0.18956442177295685,0.5105450749397278,-0.027171580120921135,0.0002964975719805807,0.4691923260688782,-1.3371648788452148,0.9875576496124268,1.561151385307312,1.6685101985931396,-8.286906242370605,1.7233582735061646,0.42020049691200256,1.4340999126434326,1.5110466480255127,0.689411997795105,0.3352374732494354,-2.045952558517456,0.03492609038949013,1741504531.6292887,1741504531573,-0.76819677734375,-2.114074951171875,0.43688107064858417,-4.90058544921875,-1.9777054443359376
1741504531.8515801,-3.1275217533111572,0.03272229693598952,-0.005553276663964332,-0.9994490544302528,-0.4390060305595398,-0.30639517307281494,0.2666793465614319,-17.48432731628418,-2.1702136993408203,18.873859405517578,-0.01277923583984375,0.08640384674072266,0.4648279547691345,-1.2524077892303467,0.00476844422519207,-0.9138246774673462,-0.08411535620689392,1.2196009159088135,0.014686808921396732,0.9683756828308105,0.07305257022380829,-0.8657587766647339,-0.06237125024199486,-0.0009536888683214784,0.7860303521156311,-0.31274181604385376,0.014471306465566158,-0.41371023654937744,-0.040627144277095795,-0.21763180196285248,0.8703364729881287,-0.5426262617111206,-0.0015946549829095602,-0.047532517462968826,0.7714055180549622,-0.6466056704521179,0.2128433734178543,-0.005742849316447973,0.3044981062412262,1.9880999326705933,0.020876610651612282,-0.0024544764310121536,-0.0430377796292305,-0.6949813365936279,1.4123661518096924,1.336212396621704,2.3350961208343506,-1.9238439798355103,2.217024326324463,0.7359397411346436,2.4846959114074707,0.6253466010093689,0.05697239562869072,0.3823259770870209,-0.9075503945350647,0.1287708282470703,1741504531.6292887,1741504531573,-0.76819677734375,-2.114074951171875,0.43688107064858417,-4.90058544921875,-1.9777054443359376
1741504531.8716629,-3.119969964027405,0.03145126438267415,-0.005569410169539265,-0.9994897696520434,0.024814466014504433,0.030395815148949623,0.30419403314590454,6.586438179016113,3.666720151901245,4.439645290374756,0.00514984130859375,0.07915592193603516,0.43125811219215393,-1.2478300333023071,0.00476844422519207,-0.9092469811439514,-0.039101243019104004,1.2211267948150635,0.01430533267557621,0.967994213104248,0.08945601433515549,-0.8222705721855164,-0.05703059583902359,0.005912871100008488,0.8329518437385559,-0.2902457118034363,0.03587493300437927,-0.3614480793476105,-0.03185320645570755,-0.21992065012454987,0.8745326995849609,-0.5298802852630615,-0.009181891568005085,0.5639728903770447,-0.16657046973705292,-2.031048059463501,0.2669045031070709,-0.00241944775916636,0.08321326971054077,3.1491177082061768,0.10861271619796753,-0.024029908701777458,0.01875108666718006,0.9933925271034241,1.5833282470703125,0.22272491455078125,-0.31966567039489746,1.7251030206680298,0.6804620623588562,0.8782181739807129,2.4998788833618164,0.5847576260566711,-0.2218550592660904,0.3121933341026306,0.8573585152626038,-0.7150858044624329,1741504531.6292887,1741504531573,-0.76819677734375,-2.114074951171875,0.43688107064858417,-4.90058544921875,-1.9777054443359376
1741504531.8916743,-3.1133334636688232,0.025353285230228548,-0.00801252893723515,-0.9996464426526334,0.10485812276601791,-0.26399824023246765,0.435412734746933,-3.4381446838378906,4.047806262969971,9.92331314086914,0.00133514404296875,0.08106327056884766,0.3725108802318573,-1.2520263195037842,0.005149920005351305,-0.9096284508705139,0.01125352829694748,1.2234156131744385,0.015449759550392628,0.9660868048667908,0.09975585341453552,-0.7902265787124634,-0.048638131469488144,-0.03337911143898964,0.8363851308822632,-0.29122766852378845,0.029957354068756104,-0.34657052159309387,-0.03604944050312042,-0.20618753135204315,0.9355688095092773,-0.4994449317455292,-0.022883325815200806,-0.09771104902029037,0.054909490048885345,-2.903958797454834,-0.3030466139316559,-0.032454051077365875,-0.006174813024699688,3.4144349098205566,0.22712038457393646,0.08951909095048904,-0.16990092396736145,0.3766489326953888,2.103026866912842,0.11938896775245667,-1.5707967281341553,0.19671031832695007,0.010969147086143494,-0.5224785208702087,0.3896203637123108,-0.34463953971862793,0.8950334191322327,3.6228322982788086,1.5228710174560547,-0.6885682940483093,1741504531.6292887,1741504531573,-0.76819677734375,-2.114074951171875,0.43688107064858417,-4.90058544921875,-1.9777054443359376
1741504531.911682,-3.11278760433197,0.025070255025761875,-0.01277279082397327,-0.9996040906916649,0.30300766229629517,-0.09730371832847595,-0.13882094621658325,-5.512746334075928,0.09864242374897003,12.028674125671387,0.00362396240234375,0.07610416412353516,0.2962157726287842,-1.2539336681365967,0.005149920005351305,-0.9119172692298889,0.06542305648326874,1.2394375801086426,0.01583123579621315,0.960746169090271,0.10166323184967041,-0.7463569045066833,-0.07000076025724411,-0.04940108209848404,0.8470664620399475,-0.29160335659980774,0.030003461986780167,-0.3923476040363312,-0.0398641936480999,-0.1684214472770691,1.0683223009109497,-0.458735853433609,-0.03131658956408501,0.09183304011821747,-0.13574838638305664,-3.777547597885132,-0.09312966465950012,0.04656152427196503,-0.12392930686473846,3.516573667526245,1.2421011924743652,0.07613025605678558,-0.41361498832702637,0.14469367265701294,1.7075188159942627,-0.6487350463867188,-0.8810452818870544,0.4881379008293152,-0.15040506422519684,0.07201025635004044,-2.8123626708984375,-0.2003111094236374,1.8297840356826782,7.052877426147461,2.0995125770568848,-0.28856295347213745,1741504531.6292887,1741504531573,-0.76819677734375,-2.114074951171875,0.43688107064858417,-4.90058544921875,-1.9777054443359376
1741504531.9316752,-3.128283739089966,0.024337505518435915,-0.017904028223915305,-0.9995434615855868,0.2086995244026184,-0.006234094966202974,-0.8678282499313354,7.6727375984191895,-7.41391134262085,12.087859153747559,0.00705718994140625,0.07648563385009766,0.22411687672138214,-1.2554595470428467,0.00476844422519207,-0.916876494884491,0.11387044936418533,1.2569855451583862,0.016594186425209045,0.9546425342559814,0.10547798871994019,-0.7059205174446106,-0.0707637146115303,-0.05855649709701538,0.8516441583633423,-0.2999511659145355,0.020547986030578613,-0.483138769865036,-0.03185320645570755,-0.13828489184379578,1.2277790307998657,-0.4231611490249634,-0.013451479375362396,0.044548459351062775,-0.19106023013591766,-3.6803412437438965,-0.020938333123922348,-0.020579000934958458,-0.258142352104187,3.1648898124694824,1.0684492588043213,-0.03631935641169548,-0.3546525835990906,0.27905526757240295,2.1179893016815186,0.09062117338180542,-0.23997700214385986,0.14913570880889893,-0.44679102301597595,-0.6155686378479004,-4.590849876403809,0.41382062435150146,1.2999141216278076,8.005585670471191,1.6252347230911255,1.1986747980117798,1741504531.6292887,1741504531573,-0.76819677734375,-2.114074951171875,0.43688107064858417,-4.90058544921875,-1.9777054443359376
1741504531.9516652,-3.152677536010742,0.023384376492339282,-0.01847942753960817,-0.9995557421644242,0.05072573944926262,-0.08158174157142639,-1.256005048751831,3.3077807426452637,-0.5385036468505859,11.836295127868652,-0.00133514404296875,0.08297061920166016,0.1520180106163025,-1.2493560314178467,0.00476844422519207,-0.9195467829704285,0.16231784224510193,1.2695741653442383,0.01583123579621315,0.9500648379325867,0.11310750246047974,-0.6666285395622253,-0.058175019919872284,-0.05970092490315437,0.8497368097305298,-0.3133280277252197,0.014976060949265957,-0.5819409489631653,-0.024986648932099342,-0.13027389347553253,1.3658732175827026,-0.4211130142211914,0.0003575084265321493,-0.22151406109333038,0.1860433965921402,-3.5828452110290527,0.48313218355178833,-0.003445613896474242,-0.10483957082033157,3.2327961921691895,0.8638268113136292,0.0092117665335536,-0.3530116379261017,0.3864200711250305,1.9609112739562988,0.5406089425086975,0.010294233448803425,-0.05800580605864525,-0.7339824438095093,-0.18509335815906525,-4.917914867401123,0.296893447637558,0.3147904574871063,6.3815083503723145,-0.19910049438476562,0.24837300181388855,1741504532.2410293,1741504532073,-1.3213175048828125,-2.1028037109375,0.943631142457604,-5.23659521484375,-2.0297454833984374
1741504531.9719012,-3.176449775695801,0.022220203872966755,-0.01979248856150598,-0.9995571619154087,0.08276454359292984,-0.047849174588918686,-1.1958543062210083,0.03607537969946861,-1.647752285003662,11.065200805664062,-0.00514984130859375,0.07877445220947266,0.08182650804519653,-1.2402005195617676,0.00476844422519207,-0.919165313243866,0.21915769577026367,1.2764407396316528,0.015449759550392628,0.9447242021560669,0.11043716967105865,-0.619325578212738,-0.04291599988937378,-0.05855649709701538,0.8428702354431152,-0.33795979619026184,0.012291274033486843,-0.6700618267059326,-0.02231631986796856,-0.13866636157035828,1.439497947692871,-0.44945478439331055,-0.014722763560712337,-0.11720769107341766,-0.08818890899419785,-3.5434789657592773,0.6046273708343506,-0.001534621580503881,-0.003682872047647834,3.7941854000091553,0.33456599712371826,-0.03731263056397438,-0.3033616840839386,-0.30754703283309937,2.454740524291992,0.7648136615753174,0.06716382503509521,-0.4135148823261261,-1.2867318391799927,-0.133390873670578,-4.154740810394287,0.17846179008483887,-0.47035422921180725,3.104174852371216,-1.5924626588821411,-0.5397123098373413,1741504532.2410293,1741504532073,-1.3213175048828125,-2.1028037109375,0.943631142457604,-5.23659521484375,-2.0297454833984374
1741504531.991885,-3.191248297691345,0.020514377136364843,-0.02009537896864966,-0.999587582993513,0.023912908509373665,-0.11946041882038116,-0.5652390122413635,2.0997719764709473,-5.501616477966309,10.406180381774902,-0.01392364501953125,0.07839298248291016,0.02079041674733162,-1.23295259475708,0.005149920005351305,-0.918402373790741,0.2779049277305603,1.2760592699050903,0.015449759550392628,0.9435797929763794,0.09975585341453552,-0.5674448609352112,-0.02689402550458908,-0.05359731614589691,0.8283741474151611,-0.37282082438468933,0.006042687222361565,-0.7471198439598083,-0.016594186425209045,-0.14476996660232544,1.4436942338943481,-0.4819713830947876,0.004305434413254261,-0.2761531472206116,-0.020151875913143158,-3.139892816543579,0.38647451996803284,0.021669084206223488,0.00861127208918333,3.9612162113189697,-0.06534447520971298,-0.008741914294660091,-0.03965376317501068,-0.6906281113624573,2.5488054752349854,0.906326174736023,0.263790488243103,-0.8340060710906982,-1.8196097612380981,-0.3141465485095978,-3.8332459926605225,0.18227437138557434,-0.14222781360149384,-0.29635968804359436,-1.52421236038208,1.2008363008499146,1741504532.2410293,1741504532073,-1.3213175048828125,-2.1028037109375,0.943631142457604,-5.23659521484375,-2.0297454833984374
1741504532.01273,-3.1911275386810303,0.020996476695711523,-0.01940736912345294,-0.9995911674229983,-0.022576769813895226,0.05665713548660278,0.10069305449724197,4.241788864135742,0.9061614871025085,7.83084774017334,-0.02040863037109375,0.07228946685791016,-0.039101243019104004,-1.233715534210205,0.00476844422519207,-0.9214541912078857,0.33550775051116943,1.2737704515457153,0.015449759550392628,0.9428167939186096,0.07305257022380829,-0.5094605684280396,-0.008964675478637218,-0.04558632895350456,0.8096818327903748,-0.41140156984329224,-5.0765429477905855e-05,-0.8112077713012695,-0.016594186425209045,-0.14476996660232544,1.3963912725448608,-0.4963114857673645,0.011005840264260769,-0.22905752062797546,-0.16987155377864838,-3.213872194290161,-0.09079458564519882,0.0024600927717983723,-0.16996105015277863,3.8146166801452637,-0.13269677758216858,-0.0069479732774198055,-0.03825690597295761,-1.3196020126342773,2.872884750366211,0.9019528031349182,0.4089065492153168,-1.003305435180664,-1.9205186367034912,-0.33606189489364624,-3.0365805625915527,-0.0064351605251431465,0.005537134595215321,-2.6312098503112793,-0.5244801044464111,-0.045350655913352966,1741504532.2410293,1741504532073,-1.3213175048828125,-2.1028037109375,0.943631142457604,-5.23659521484375,-2.0297454833984374
1741504532.0319343,-3.1877464056015015,0.0222259915443937,-0.019547927912488584,-0.9995618459175983,0.003670833306387067,0.051104310899972916,0.18583782017230988,0.9448521137237549,0.13163568079471588,5.736802577972412,-0.02384185791015625,0.06351566314697266,-0.09746700525283813,-1.233715534210205,0.004386968910694122,-0.9340428709983826,0.39730677008628845,1.2733889818191528,0.01583123579621315,0.9409094452857971,0.05245288833975792,-0.45872434973716736,0.006294346414506435,-0.028038453310728073,0.7871748208999634,-0.45050284266471863,-0.0011832136660814285,-0.8600366115570068,-0.02536812424659729,-0.14438849687576294,1.3170443773269653,-0.47989773750305176,0.008345347829163074,-0.1301477998495102,-0.3046613335609436,-2.5988855361938477,0.05205349624156952,-0.0594007670879364,-0.7619858384132385,4.316046714782715,0.013192960061132908,-0.021467432379722595,-0.18792960047721863,-0.9401897192001343,2.352818012237549,0.783695638179779,0.7839693427085876,-1.122460126876831,-1.9521534442901611,-0.017032481729984283,-2.2536659240722656,-0.5647598505020142,0.016899023205041885,-3.9659531116485596,1.1196478605270386,0.12808217108249664,1741504532.2410293,1741504532073,-1.3213175048828125,-2.1028037109375,0.943631142457604,-5.23659521484375,-2.0297454833984374
1741504532.052007,-3.1879360675811768,0.02314861269208921,-0.020619950264612955,-0.9995193641853651,0.07129194587469101,0.06889022141695023,-0.03627123683691025,1.826066017150879,-1.2879068851470947,5.71600866317749,-0.02574920654296875,0.055504798889160156,-0.12798504531383514,-1.2306636571884155,0.00476844422519207,-0.9485389590263367,0.4510948359966278,1.2688112258911133,0.015449759550392628,0.9340428709983826,0.05436026677489281,-0.4076066315174103,0.013923857361078262,-0.02040894143283367,0.763523280620575,-0.48520395159721375,-0.004932684823870659,-0.8875028491020203,-0.051689937710762024,-0.14744029939174652,1.2174792289733887,-0.4382239878177643,0.011965756304562092,-0.08398503810167313,-0.2341674566268921,-1.344035267829895,0.18995165824890137,-0.004362120758742094,-0.7240199446678162,3.2619550228118896,-0.3951621949672699,0.003507984336465597,-0.46718135476112366,0.2542911171913147,2.6949827671051025,0.27365627884864807,0.12114392220973969,-1.146806240081787,-1.645143747329712,-0.04577036574482918,-1.2069222927093506,-1.4218229055404663,-0.19205820560455322,-5.030590057373047,2.147254705429077,0.07776961475610733,1741504532.2410293,1741504532073,-1.3213175048828125,-2.1028037109375,0.943631142457604,-5.23659521484375,-2.0297454833984374
1741504532.0720518,-3.192497968673706,0.02514704443187945,-0.022877897863221232,-0.9994219469001575,0.12940292060375214,0.08744654059410095,-0.26762640476226807,1.9357773065567017,-1.9509081840515137,7.057490348815918,-0.02651214599609375,0.049782752990722656,-0.1337071806192398,-1.227993369102478,0.00476844422519207,-0.9634165167808533,0.4812313914299011,1.2611817121505737,0.015449759550392628,0.9275577664375305,0.07038223743438721,-0.3557259440422058,0.009727626107633114,-0.02727550081908703,0.7383459210395813,-0.513071596622467,-0.006430275738239288,-0.8829251527786255,-0.08487831056118011,-0.15316243469715118,1.098840355873108,-0.3917444348335266,0.006211475934833288,-0.013621858321130276,-0.12794750928878784,-0.08157876878976822,0.15728259086608887,-0.004690924193710089,-0.6969868540763855,1.9317858219146729,-0.5068404674530029,0.0012140265898779035,-0.4837954342365265,0.9242675304412842,2.5978829860687256,-0.26673051714897156,-0.4081798791885376,-1.2578487396240234,-1.2841734886169434,-0.040884360671043396,0.4018004238605499,-1.6951603889465332,-0.29975005984306335,-6.157116413116455,2.3609459400177,-0.35015881061553955,1741504532.2410293,1741504532073,-1.3213175048828125,-2.1028037109375,0.943631142457604,-5.23659521484375,-2.0297454833984374
1741504532.092018,-3.200155735015869,0.025854934077994135,-0.027059971369092845,-0.9992993947427999,0.2525128424167633,-0.034508660435676575,-0.3960481584072113,3.1091630458831787,0.543956458568573,3.961578130722046,-0.02574920654296875,0.047875404357910156,-0.11730372905731201,-1.227993369102478,0.00476844422519207,-0.9714275002479553,0.49229419231414795,1.2531707286834717,0.015449759550392628,0.9210727214813232,0.09098191559314728,-0.2969787120819092,-0.002861066721379757,-0.03757534176111221,0.7200350761413574,-0.5208722949028015,-0.007517194375395775,-0.8676661252975464,-0.11081864684820175,-0.17376211285591125,0.9546425342559814,-0.35282617807388306,-0.0010433709248900414,0.012513065710663795,-0.054236847907304764,0.9861282110214233,-0.025776615366339684,-0.007611042354255915,-0.3210737407207489,0.5206261277198792,-0.529150664806366,0.025895651429891586,-0.4292663335800171,0.9330360293388367,2.8267767429351807,-0.6440749168395996,-0.5446341037750244,-0.8545339107513428,-0.1757999211549759,-0.10671764612197876,1.0176808834075928,-1.2419710159301758,-1.1191587448120117,-7.19704532623291,1.7443050146102905,-0.44725877046585083,1741504532.2410293,1741504532073,-1.3213175048828125,-2.1028037109375,0.943631142457604,-5.23659521484375,-2.0297454833984374
1741504532.112015,-3.207145571708679,0.022763297588870773,-0.03402909341388452,-0.9991615750639681,0.32283762097358704,-0.16334232687950134,-0.31582707166671753,6.088803291320801,-0.44590047001838684,2.807279586791992,-0.02307891845703125,0.047112464904785156,-0.08106355369091034,-1.227993369102478,0.00476844422519207,-0.9714275002479553,0.4877164959907532,1.2443968057632446,0.015449759550392628,0.9172579646110535,0.1035706102848053,-0.2454795092344284,-0.027656977996230125,-0.03490501269698143,0.7223239541053772,-0.5034990310668945,-0.007812365889549255,-0.8306630253791809,-0.135233074426651,-0.18863965570926666,0.80663001537323,-0.34555310010910034,-0.010399341583251953,0.06162160262465477,-0.008713401854038239,1.814112901687622,0.006043435540050268,-0.01333634927868843,-0.014632907696068287,-0.41389521956443787,-0.593318521976471,0.007097986526787281,-0.2429044544696808,0.48556357622146606,2.3869266510009766,-1.0473164319992065,0.23296764492988586,0.34062227606773376,0.869472086429596,0.34080013632774353,1.9248548746109009,-1.290295124053955,-0.5919427871704102,-7.186883449554443,0.022790079936385155,-0.396307110786438,1741504532.2410293,1741504532073,-1.3213175048828125,-2.1028037109375,0.943631142457604,-5.23659521484375,-2.0297454833984374
1741504532.132129,-3.2099838256835938,0.014452310038678187,-0.048683578682347316,-0.9987096874974357,0.8656818866729736,-0.4279404282569885,-0.01495402306318283,-14.31045913696289,1.1954622268676758,35.574241638183594,-0.02117156982421875,0.061989784240722656,-0.032616160809993744,-1.228756308555603,0.00476844422519207,-0.967994213104248,0.4686427116394043,1.2371487617492676,0.01506828423589468,0.916876494884491,0.09746700525283813,-0.22068360447883606,-0.024223696440458298,-0.03643091395497322,0.7799267768859863,-0.4923365116119385,0.005864516831934452,-0.8039597272872925,-0.14171816408634186,-0.182154580950737,0.7467383742332458,-0.33198919892311096,-0.011179482564330101,0.039351969957351685,0.347383975982666,2.4249422550201416,-0.08843041211366653,-0.009185674600303173,0.2361735850572586,-1.3685556650161743,-0.5455866456031799,-0.030761267989873886,-0.08493439108133316,-0.28907662630081177,0.9541042447090149,0.7370752096176147,-0.09725581854581833,3.4548776149749756,0.5125495195388794,0.5597171783447266,1.2516212463378906,0.13983029127120972,0.25923797488212585,-0.5637646913528442,1.2662655115127563,-0.03891901671886444,1741504532.2410293,1741504532073,-1.3213175048828125,-2.1028037109375,0.943631142457604,-5.23659521484375,-2.0297454833984374
1741504532.1543865,-3.211645007133484,0.014921253941029113,-0.05564032938591931,-0.9983393761275039,0.18990767002105713,0.23086510598659515,0.0018641165224835277,7.893499851226807,-2.0801172256469727,1.1036523580551147,-0.02803802490234375,0.051690101623535156,0.02536812424659729,-1.2371487617492676,0.005531395319849253,-0.9603646993637085,0.43011367321014404,1.232571005821228,0.01583123579621315,0.9096284508705139,0.06694895774126053,-0.23899443447589874,-0.03376058489084244,-0.025749599561095238,0.889028787612915,-0.46536919474601746,0.013488664291799068,-0.7730602025985718,-0.11348897218704224,-0.14553292095661163,0.8176928162574768,-0.2887844741344452,-0.017201995477080345,-0.2562907934188843,-0.4033485949039459,2.7724852561950684,-0.528380274772644,0.06505393981933594,0.35726943612098694,-2.952244997024536,-0.11967140436172485,0.07894103974103928,-0.3816409111022949,-1.4684864282608032,-1.4663227796554565,-0.7650829553604126,0.6131598353385925,5.618911266326904,1.622233510017395,0.3523694574832916,0.8696922659873962,1.0155127048492432,2.253150224685669,2.778017044067383,2.1346588134765625,-0.23868490755558014,1741504532.2410293,1741504532073,-1.3213175048828125,-2.1028037109375,0.943631142457604,-5.23659521484375,-2.0297454833984374
1741504532.1721585,-3.206743597984314,0.012751862305409398,-0.061325962613621256,-0.9980363301590061,0.33025065064430237,0.014310765080153942,0.27653539180755615,-10.979598045349121,3.1525349617004395,15.82711410522461,-0.01926422119140625,0.054741859436035156,0.08907453715801239,-1.2436338663101196,0.004005493130534887,-0.9554055333137512,0.3595407009124756,1.238293170928955,0.015449759550392628,0.9138246774673462,0.043678950518369675,-0.30003052949905396,-0.05283436179161072,-0.02994582988321781,1.042000412940979,-0.41958507895469666,0.023953985422849655,-0.7543678879737854,-0.08907453715801239,-0.09174486994743347,0.7932783961296082,-0.26773199439048767,-0.015563007444143295,0.22847141325473785,-0.02050512470304966,2.956183910369873,-0.4181807339191437,-0.0692601203918457,0.25525885820388794,-4.862967491149902,0.27965691685676575,-0.024456394836306572,0.3279819190502167,-0.9311841130256653,-3.085772752761841,-0.9842605590820312,-0.20667937397956848,7.861902713775635,2.2852730751037598,0.5291469693183899,1.2859364748001099,1.3584080934524536,2.3602778911590576,-1.4300835132598877,0.881951093673706,0.41776159405708313,1741504532.2410293,1741504532073,-1.3213175048828125,-2.1028037109375,0.943631142457604,-5.23659521484375,-2.0297454833984374
1741504532.19212,-3.195517420768738,0.014183213341528373,-0.06343535475473792,-0.9978851598387709,-0.03289911895990372,0.0736563578248024,0.6542969346046448,3.9811906814575195,1.7556078433990479,12.201700210571289,-0.01964569091796875,0.057412147521972656,0.15506981313228607,-1.2543151378631592,0.005149920005351305,-0.9493018984794617,0.28439003229141235,1.23600435256958,0.01430533267557621,0.9103913903236389,0.023460745811462402,-0.3908216953277588,-0.06847485899925232,-0.03681239113211632,1.2037460803985596,-0.38100847601890564,0.010351545177400112,-0.7207980751991272,-0.07038223743438721,-0.06618601083755493,0.8142595291137695,-0.2537234127521515,-0.015112613327801228,-0.032727792859077454,0.10298263281583786,3.4097297191619873,-0.6899014115333557,0.016149235889315605,0.33485648036003113,-4.922021389007568,-0.1047120988368988,-0.05170001462101936,-0.27955275774002075,-0.9577170610427856,-4.59371280670166,-1.2194889783859253,-0.018189117312431335,7.807529449462891,1.680816888809204,-0.8859429955482483,1.3102107048034668,0.5491074323654175,1.1837197542190552,1.295569896697998,0.484728068113327,-0.1486647129058838,1741504532.2410293,1741504532073,-1.3213175048828125,-2.1028037109375,0.943631142457604,-5.23659521484375,-2.0297454833984374
1741504532.212183,-3.176451086997986,0.007331366631886312,-0.061668551468334304,-0.9980697574934861,-0.029057931154966354,-0.31255778670310974,0.9169400334358215,0.18492816388607025,3.6740219593048096,12.53316879272461,-0.01888275146484375,0.07648563385009766,0.21839475631713867,-1.2573670148849487,0.005149920005351305,-0.9466315507888794,0.21229113638401031,1.2379117012023926,0.014686808921396732,0.9103913903236389,0.009727626107633114,-0.4846646785736084,-0.09746700525283813,-0.0078202486038208,1.3265812397003174,-0.3830128610134125,0.002931219292804599,-0.6948577165603638,-0.07419699430465698,-0.05855649709701538,0.8257037997245789,-0.2629016935825348,-0.009690656326711178,0.09328651428222656,0.542245626449585,3.271106481552124,-0.19813330471515656,0.00657961331307888,0.10547598451375961,-4.7971272468566895,0.023074377328157425,0.009901224635541439,0.056375324726104736,-0.6785140633583069,-4.6036787033081055,-1.1769660711288452,1.5209739208221436,5.6551361083984375,-0.44154584407806396,-0.04396144673228264,1.6014444828033447,-0.11202047765254974,0.33026620745658875,0.44968000054359436,-0.4985850155353546,0.4748840928077698,1741504532.2410293,1741504532073,-1.3213175048828125,-2.1028037109375,0.943631142457604,-5.23659521484375,-2.0297454833984374
1741504532.2321794,-3.155539393424988,0.0011957820449132338,-0.06392810312910847,-0.9979537903809049,0.12915298342704773,-0.22024527192115784,1.0905812978744507,1.083755612373352,0.17439530789852142,12.231971740722656,-0.00896453857421875,0.07572269439697266,0.28744181990623474,-1.2634705305099487,0.005149920005351305,-0.9424353241920471,0.13866636157035828,1.2340970039367676,0.01430533267557621,0.9138246774673462,-0.010490577667951584,-0.570496678352356,-0.09136339277029037,0.03299763426184654,1.3929579257965088,-0.4206629991531372,0.015605619177222252,-0.6536583304405212,-0.07763027399778366,-0.05283436179161072,0.8340963125228882,-0.27859261631965637,-0.004286420531570911,0.2265947014093399,-0.02956189587712288,3.4493486881256104,-0.3790096640586853,-0.003927570767700672,0.2472534030675888,-4.873559951782227,-0.2165980488061905,-0.027683105319738388,0.19694435596466064,-1.0972470045089722,-4.166049003601074,0.4840714931488037,2.0441017150878906,2.7842483520507812,-2.0728671550750732,0.4166571795940399,1.919542670249939,-0.10869243741035461,0.31380990147590637,0.40198928117752075,-0.8266662955284119,0.20376484096050262,1741504532.2410293,1741504532073,-1.3213175048828125,-2.1028037109375,0.943631142457604,-5.23659521484375,-2.0297454833984374
1741504532.2522404,-3.13370418548584,-0.005353427997964882,-0.06824483364977013,-0.9976542404504608,0.23544670641422272,-0.23453421890735626,1.0817804336547852,-1.3016126155853271,2.2407655715942383,11.8028564453125,-0.01049041748046875,0.08106327056884766,0.35191118717193604,-1.2653779983520508,0.005149920005351305,-0.9367132186889648,0.071908138692379,1.2321895360946655,0.01430533267557621,0.9142061471939087,-0.03032730519771576,-0.6448844075202942,-0.08335240930318832,0.0875486359000206,1.3971542119979858,-0.4657473564147949,0.00036106983316130936,-0.6246662139892578,-0.07381551712751389,-0.03833829239010811,0.8360036611557007,-0.3077545166015625,0.0005543107399716973,-0.04524632915854454,0.15443411469459534,3.1777536869049072,-0.11462142318487167,-0.003044562414288521,0.24866853654384613,-4.342044353485107,-0.17251737415790558,0.005938032642006874,0.009818417951464653,-0.9304056763648987,-3.6800503730773926,0.4799576699733734,2.9370038509368896,-0.21789446473121643,-2.162057399749756,-0.9996650218963623,1.4377121925354004,0.14301443099975586,0.666922926902771,0.05325351282954216,-1.506978988647461,0.4417557120323181,1741504532.2410293,1741504532073,-1.3213175048828125,-2.1028037109375,0.943631142457604,-5.23659521484375,-2.0297454833984374
1741504532.272256,-3.120357394218445,-0.005403188774733295,-0.07355596305894554,-0.997276454073561,0.2861505150794983,0.06430558860301971,0.5820870399475098,-1.6342324018478394,3.7388863563537598,10.278745651245117,-0.00553131103515625,0.07839298248291016,0.4018844962120056,-1.2657594680786133,0.005149920005351305,-0.9374761581420898,0.016975661739706993,1.230282187461853,0.014686808921396732,0.9138246774673462,-0.042153049260377884,-0.7097352743148804,-0.07343403995037079,0.1329442262649536,1.3521400690078735,-0.4903804063796997,-0.013972812332212925,-0.5941481590270996,-0.07343403995037079,-0.032616160809993744,0.8348592519760132,-0.3444710969924927,0.004390518181025982,0.11453051120042801,-0.015600373968482018,2.3637514114379883,-0.018150048330426216,0.00794968195259571,-0.05960953235626221,-3.488542318344116,-0.1356074959039688,0.022169725969433784,-0.02447398751974106,-0.4191693067550659,-3.2457923889160156,0.5735291838645935,1.9949278831481934,-2.514721393585205,-0.9768129587173462,-0.39197298884391785,1.5108702182769775,-0.09965377300977707,0.3079456090927124,-0.0966009870171547,-1.890972375869751,0.20381797850131989,1741504532.2410293,1741504532073,-1.3213175048828125,-2.1028037109375,0.943631142457604,-5.23659521484375,-2.0297454833984374
1741504532.292313,-3.116474151611328,-0.00016012121272769296,-0.07687194754120988,-0.9970409610655016,0.12362097203731537,0.3137764036655426,0.17954929172992706,-1.1059690713882446,0.0832807645201683,10.186537742614746,-0.00324249267578125,0.061989784240722656,0.4377431869506836,-1.2661409378051758,0.005531395319849253,-0.9397650361061096,-0.0394827201962471,1.233715534210205,0.014686808921396732,0.9172579646110535,-0.042153049260377884,-0.7639048099517822,-0.06237125024199486,0.15812161564826965,1.272030234336853,-0.4790098965167999,-0.009534895420074463,-0.5624856948852539,-0.07343403995037079,-0.03032730519771576,0.8302815556526184,-0.3831325173377991,0.009517376311123371,0.05361787974834442,-0.39351651072502136,1.8293631076812744,-0.034653548151254654,0.032817576080560684,-0.07677794247865677,-4.047093868255615,0.30826535820961,0.016791779547929764,0.33925721049308777,-0.07469560950994492,-2.5048935413360596,0.539421021938324,1.1514577865600586,-4.246199607849121,0.8603206276893616,0.06433925777673721,1.5863224267959595,-0.01786312460899353,0.12276384234428406,-0.21680288016796112,-1.9564485549926758,0.17448532581329346,1741504532.2410293,1741504532073,-1.3213175048828125,-2.1028037109375,0.943631142457604,-5.23659521484375,-2.0297454833984374
1741504532.3122623,-3.108463764190674,0.011733955572874436,-0.07694552676452526,-0.9969662482740043,0.012507965788245201,0.621660590171814,0.401273638010025,-2.108412027359009,3.730395555496216,3.2096240520477295,-0.00324249267578125,0.051690101623535156,0.47589075565338135,-1.2653779983520508,0.00476844422519207,-0.9351872801780701,-0.0883115902543068,1.2363858222961426,0.014686808921396732,0.9306095838546753,-0.05283436179161072,-0.7955672740936279,-0.046730753034353256,0.16384375095367432,1.1678873300552368,-0.43771255016326904,-0.01049324031919241,-0.5289158225059509,-0.0722896158695221,-0.02994582988321781,0.8230335116386414,-0.4197315275669098,0.01402866467833519,0.006691582500934601,-0.2627820074558258,1.795484185218811,0.0756574496626854,-0.014572793617844582,0.18252883851528168,-2.8075051307678223,0.11221106350421906,-0.002580719068646431,1.0159716606140137,-0.5984116196632385,-1.5389900207519531,0.9142179489135742,0.3058524429798126,-5.553115367889404,2.1052966117858887,0.013923914171755314,1.6703782081604004,0.08156315237283707,0.0244336798787117,-0.3857717514038086,-1.7956185340881348,0.3086099326610565,1741504532.2410293,1741504532073,-1.3213175048828125,-2.1028037109375,0.943631142457604,-5.23659521484375,-2.0297454833984374
1741504532.3322954,-3.1029685735702515,0.01991125109268369,-0.07695484215981302,-0.996835740906235,-0.03068370372056961,0.3845454156398773,0.28814074397087097,-0.0803988054394722,0.8393146395683289,7.809629440307617,-0.00057220458984375,0.053215980529785156,0.4964904189109802,-1.2627075910568237,0.00476844422519207,-0.9313725233078003,-0.11310750246047974,1.2340970039367676,0.01430533267557621,0.9454871416091919,-0.07572289556264877,-0.810826301574707,-0.01773861236870289,0.17299915850162506,1.0393301248550415,-0.39128538966178894,-0.0038414911832660437,-0.49153125286102295,-0.06961929053068161,-0.023460745811462402,0.8119707107543945,-0.4544730484485626,0.01887384057044983,0.06818756461143494,0.04503561928868294,0.8572326898574829,0.15531478822231293,-0.0018042486626654863,0.19763903319835663,-1.474543809890747,-0.1442902386188507,0.0016421038890257478,0.9497323632240295,-1.2161515951156616,-0.47676604986190796,1.5032399892807007,0.5944016575813293,-6.397571563720703,2.3175737857818604,0.3491661548614502,1.812729835510254,0.16402889788150787,0.4934345483779907,-0.5669071674346924,-1.6859720945358276,0.31653448939323425,1741504532.2410293,1741504532073,-1.3213175048828125,-2.1028037109375,0.943631142457604,-5.23659521484375,-2.0297454833984374
1741504532.3523014,-3.0966047048568726,0.023870322256797662,-0.07495711416049777,-0.9969010175298683,-0.11551155149936676,0.17426681518554688,0.31001219153404236,3.3870127201080322,-1.354528546333313,4.525143146514893,-0.00362396240234375,0.06313419342041016,0.4983977973461151,-1.2611817121505737,0.00476844422519207,-0.924124538898468,-0.11463340371847153,1.2314265966415405,0.01430533267557621,0.9576943516731262,-0.10051880776882172,-0.80510413646698,0.021553369238972664,0.20237277448177338,0.9157320261001587,-0.3417963981628418,0.0035836792085319757,-0.44499123096466064,-0.0558861680328846,-0.009727626107633114,0.7997635006904602,-0.48264655470848083,0.010127843357622623,-0.06486678868532181,0.2746044993400574,-0.03918862342834473,0.09857232123613358,-0.004350744653493166,0.37006112933158875,0.09338065981864929,-0.18511717021465302,-0.005425200331956148,0.7383527159690857,-1.158447265625,0.36127230525016785,1.946937084197998,1.6256650686264038,-6.028360843658447,2.4178807735443115,0.32589152455329895,2.3573410511016846,0.6922421455383301,0.7227340936660767,-0.7370261549949646,-1.3797017335891724,-0.46068620681762695,1741504532.2410293,1741504532073,-1.3213175048828125,-2.1028037109375,0.943631142457604,-5.23659521484375,-2.0297454833984374
1741504532.3723361,-3.0900321006774902,0.021983837940831242,-0.06997105500746836,-0.9973067543792797,-0.27706578373908997,-0.10960614681243896,0.32871213555336,4.642162799835205,0.9525654315948486,3.942019462585449,-0.00705718994140625,0.07572269439697266,0.4854276478290558,-1.2581299543380737,0.00476844422519207,-0.9210727214813232,-0.09555962681770325,1.2306636571884155,0.01430533267557621,0.9649423956871033,-0.12340734153985977,-0.7894636392593384,0.05092698708176613,0.24891279637813568,0.812352180480957,-0.30043965578079224,0.004044221248477697,-0.3889143168926239,-0.03604944050312042,0.004386968910694122,0.7822155952453613,-0.49250712990760803,0.0060784537345170975,-0.09063983708620071,0.3808839023113251,-0.8019847869873047,0.21652108430862427,-0.00711406534537673,0.14203687012195587,1.5117645263671875,-0.03627067059278488,0.003378033172339201,0.37155547738075256,-1.089098572731018,0.81795334815979,1.243543267250061,2.3355743885040283,-4.905665874481201,1.8417032957077026,-0.09372866153717041,2.8129451274871826,0.9895250797271729,0.6860201954841614,-0.8806915879249573,-0.24386894702911377,-0.13232579827308655,1741504532.2410293,1741504532073,-1.3213175048828125,-2.1028037109375,0.943631142457604,-5.23659521484375,-2.0297454833984374
1741504532.3924127,-3.082266926765442,0.015480715780749721,-0.06241731915812675,-0.9979300705500501,-0.39087915420532227,-0.2980635166168213,0.38502946496009827,3.4137914180755615,0.15433913469314575,11.252305030822754,-0.01125335693359375,0.08106327056884766,0.4549095928668976,-1.2554595470428467,0.00476844422519207,-0.918402373790741,-0.056267641484737396,1.231045126914978,0.01430533267557621,0.9645609259605408,-0.134470134973526,-0.7631418108940125,0.08220797777175903,0.28820478916168213,0.7272831201553345,-0.2881186008453369,0.009401902556419373,-0.32940414547920227,-0.018120087683200836,0.009727626107633114,0.7749675512313843,-0.47680115699768066,0.0055513097904622555,-0.11968635022640228,0.14923925697803497,-1.6673988103866577,0.18715021014213562,-0.006547311786562204,0.1417286992073059,2.7511470317840576,-0.007214052136987448,0.00493271742016077,-0.0778142511844635,-0.4901283383369446,1.3413903713226318,1.5002473592758179,1.656187891960144,-3.898733139038086,0.37277185916900635,0.4304932653903961,2.8851654529571533,0.9098464250564575,0.31547534465789795,-0.17770308256149292,0.6525877118110657,-0.29204607009887695,1741504532.2410293,1741504532073,-1.3213175048828125,-2.1028037109375,0.943631142457604,-5.23659521484375,-2.0297454833984374
1741504532.4124053,-3.073529005050659,0.0033578814234710777,-0.053252154943249995,-0.998575451644114,-0.5274215340614319,-0.5993526577949524,0.4463393986225128,-6.677587509155273,1.3705331087112427,20.660228729248047,-0.01735687255859375,0.09136295318603516,0.4076066315174103,-1.2550780773162842,0.00476844422519207,-0.9145876169204712,-0.0032425422687083483,1.230282187461853,0.01430533267557621,0.9584572911262512,-0.14400701224803925,-0.7322422862052917,0.09403372555971146,0.2939268946647644,0.6883726119995117,-0.2936055660247803,0.03543001785874367,-0.28896772861480713,-0.004005493130534887,0.015449759550392628,0.8112077713012695,-0.4709280729293823,-0.006392639596015215,-0.1602032482624054,0.24046802520751953,-2.5839929580688477,0.029222294688224792,-0.005918612703680992,0.20585507154464722,3.6625497341156006,-0.03148752823472023,-0.001351765706203878,-0.4296533167362213,-0.5586091876029968,1.6430997848510742,0.3099711537361145,0.04233993962407112,-1.0065903663635254,-0.2075847089290619,1.4104455709457397,1.7508893013000488,0.40832802653312683,0.403542160987854,2.2382054328918457,0.3157319724559784,-0.4020997881889343,1741504532.2410293,1741504532073,-1.3213175048828125,-2.1028037109375,0.943631142457604,-5.23659521484375,-2.0297454833984374
1741504532.4324293,-3.0644803047180176,-0.00412649980309025,-0.046545094670182245,-0.9989076664845049,-0.2457175999879837,-0.16094976663589478,0.3959173858165741,-2.0016822814941406,1.4772700071334839,7.717315673828125,-0.01964569091796875,0.08792972564697266,0.3408484160900116,-1.2569855451583862,0.005149920005351305,-0.9130617380142212,0.05970092490315437,1.2356228828430176,0.01430533267557621,0.9546425342559814,-0.14171816408634186,-0.6857023239135742,0.06580453366041183,0.27141985297203064,0.7249943017959595,-0.29619666934013367,0.06268025189638138,-0.2924010157585144,-0.002861066721379757,0.03795681521296501,0.8993285894393921,-0.44963541626930237,-0.014232217334210873,-0.0641837790608406,-0.11751855164766312,-3.6251914501190186,-0.2192235141992569,0.0005087819881737232,-0.025788456201553345,4.195922374725342,0.3940928876399994,-0.003142386907711625,-0.213540717959404,0.21821996569633484,1.873103141784668,-1.4542677402496338,-1.3648852109909058,1.581948161125183,-0.27752840518951416,1.2079277038574219,-0.444511353969574,0.1967383325099945,1.1649311780929565,4.831376075744629,1.329668641090393,-0.52985680103302,1741504532.2410293,1741504532073,-1.3213175048828125,-2.1028037109375,0.943631142457604,-5.23659521484375,-2.0297454833984374
1741504532.4523904,-3.061225175857544,-0.007093639690302582,-0.049018760193329035,-0.9987726675400429,0.1539185792207718,-0.12806524336338043,0.12460801005363464,-5.902597904205322,0.09856854379177094,10.586507797241211,-0.01964569091796875,0.08907413482666016,0.2580682039260864,-1.2649965286254883,0.00476844422519207,-0.916113555431366,0.12111848592758179,1.23905611038208,0.015449759550392628,0.9523537158966064,-0.135233074426651,-0.6692988276481628,0.03643091395497322,0.22640573978424072,0.7303349375724792,-0.30369821190834045,0.07616200298070908,-0.34809643030166626,0.012397955171763897,0.08030059933662415,1.037422776222229,-0.40566983819007874,-0.022880464792251587,-0.029273655265569687,0.05709380283951759,-4.218544006347656,-0.5180060863494873,-0.04779478535056114,-0.16055744886398315,4.039401531219482,0.10438165068626404,0.07673639059066772,-0.13903172314167023,0.22735905647277832,1.2521588802337646,-1.4306738376617432,-2.1374146938323975,0.23445743322372437,-0.23907531797885895,0.539596438407898,-3.0400731563568115,0.7777658104896545,2.324424982070923,7.042314529418945,2.257800579071045,-0.5323752760887146,1741504532.2410293,1741504532073,-1.3213175048828125,-2.1028037109375,0.943631142457604,-5.23659521484375,-2.0297454833984374
