Freshhhhh-LC/Legged_odom/data/3/segments/booster_seg_9.82s.csv
time,yaw,projected_gravity_x,projected_gravity_y,projected_gravity_z,ang_vel_x,ang_vel_y,ang_vel_z,lin_acc_x,lin_acc_y,lin_acc_z,q_0,q_1,q_2,q_3,q_4,q_5,q_6,q_7,q_8,q_9,q_10,q_11,q_12,q_13,q_14,q_15,q_16,q_17,q_18,q_19,q_20,q_21,q_22,dq_0,dq_1,dq_2,dq_3,dq_4,dq_5,dq_6,dq_7,dq_8,dq_9,dq_10,dq_11,dq_12,dq_13,dq_14,dq_15,dq_16,dq_17,dq_18,dq_19,dq_20,dq_21,dq_22,mocap_time,mocap_timestamp,robot_x,robot_y,robot_yaw,ball_x,ball_y
1741504756.3355129,-3.788161277770996,0.02054096824212753,-0.03752307117079068,-0.9990846249210262,0.01374054979532957,0.12049978226423264,-1.2423584461212158,3.475966691970825,1.8441765308380127,9.516357421875,-0.02880096435546875,0.2996492385864258,0.15354390442371368,-1.2520263195037842,0.005149920005351305,-0.916113555431366,0.16880293190479279,1.2588928937911987,0.01583123579621315,0.955024003982544,0.045204851776361465,-0.6292439103126526,-0.008964675478637218,0.06961929053068161,0.80357825756073,-0.31776347756385803,0.036799557507038116,-0.5594338774681091,0.000572213320992887,-0.02536812424659729,1.2788968086242676,-0.3923293352127075,-0.0011180008295923471,-0.05384598299860954,-0.17110081017017365,-3.6727771759033203,0.3296256363391876,0.01632235199213028,-0.0716349259018898,3.2054364681243896,0.7156123518943787,-0.0011741494527086616,-0.2438974529504776,0.3265826404094696,1.6539112329483032,0.12034919112920761,-0.0050596012733876705,0.040700215846300125,-0.15105590224266052,-0.34824785590171814,-4.839947700500488,0.6599322557449341,-0.495618999004364,8.02926254272461,-0.10295052826404572,0.24182496964931488,1741504756.3039842,1741504756233,-3.100847900390625,-1.1331534423828125,-0.4555851804545444,-4.5928115234375,1.6718974609375001
1741504756.3376908,-3.8504116535186768,0.02108174461383751,-0.033655707351067966,-0.9992111155340178,-0.06565088778734207,-0.06337990611791611,-1.0417850017547607,5.95991849899292,-2.4337947368621826,9.157652854919434,-0.039483070373535156,0.3065156936645508,0.010872052982449532,-1.2363858222961426,0.005531395319849253,-0.916876494884491,0.28934919834136963,1.2676668167114258,0.015449759550392628,0.9435797929763794,0.048256658017635345,-0.5422675013542175,0.010490577667951584,0.07000076025724411,0.7993820309638977,-0.34977856278419495,0.026099806651473045,-0.7505531311035156,0.01926451548933983,-0.06961929053068161,1.4353017807006836,-0.4792143702507019,0.0025437225122004747,-0.18173748254776,0.0750359445810318,-2.6210291385650635,0.34773024916648865,0.06450481712818146,0.05042546987533569,3.594055652618408,-0.02027222327888012,-0.0022649774327874184,-0.36959946155548096,-0.1634894162416458,1.947587013244629,0.516708493232727,0.06386488676071167,-0.3760714530944824,-1.0763278007507324,-0.2969696819782257,-3.6141984462738037,0.35306766629219055,-0.9274241328239441,0.5678410530090332,-2.1041417121887207,0.6012008786201477,1741504756.3039842,1741504756233,-3.100847900390625,-1.1331534423828125,-0.4555851804545444,-4.5928115234375,1.6718974609375001
1741504756.3397264,-3.853635787963867,-0.025961612922317575,-0.04498557971296322,-0.9986502352036775,0.653039276599884,0.1662200689315796,0.1933089941740036,10.101482391357422,-9.607786178588867,-3.637671947479248,-0.3706035614013672,0.8806362152099609,0.19436179101467133,-1.367613434791565,0.00476844422519207,-0.5296788215637207,0.19245441257953644,1.3363324403762817,0.014686808921396732,0.5468451976776123,-0.05245288833975792,-0.5567635893821716,-0.05245288833975792,-0.011635004542768002,0.7932783961296082,-0.3524410128593445,0.03154321387410164,-0.6906614899635315,-0.024986648932099342,-0.008964675478637218,0.8104447722434998,-0.3585624694824219,-0.008167161606252193,-1.4624520540237427,-0.028455428779125214,-0.003917123656719923,-0.22393393516540527,-0.015218526124954224,0.06288477033376694,-0.14678309857845306,0.004326019901782274,0.01282405387610197,0.21536406874656677,-1.3137320280075073,0.6228753328323364,0.21059468388557434,-0.04359602555632591,-1.8259562253952026,1.228884220123291,0.5085376501083374,-0.18165239691734314,0.2654329836368561,-0.9778965711593628,0.06398944556713104,-1.0245848894119263,-0.10144182294607162,1741504756.3039842,1741504756233,-3.100847900390625,-1.1331534423828125,-0.4555851804545444,-4.5928115234375,1.6718974609375001
1741504756.3593922,-3.841273784637451,-0.02648945953647941,-0.043648974225408345,-0.998695687175295,-0.12649264931678772,-0.14684408903121948,0.5757372379302979,-8.262784957885742,2.4647417068481445,13.056029319763184,-0.4240102767944336,0.8905544281005859,0.19398032128810883,-1.364180088043213,0.00476844422519207,-0.5315861701965332,0.19321736693382263,1.3397656679153442,0.01430533267557621,0.5498970150947571,-0.08258945494890213,-0.5422675013542175,-0.05130846053361893,-0.0024795911740511656,0.7406347990036011,-0.31842368841171265,-0.002710058819502592,-0.6986724734306335,-0.03604944050312042,-0.010872052982449532,0.8237964510917664,-0.37110427021980286,0.001245683990418911,-1.5223712921142578,0.3964903950691223,-0.06722207367420197,0.34720379114151,-0.015572397038340569,-0.10596077889204025,0.035285141319036484,0.32567229866981506,0.046310968697071075,0.14643147587776184,-1.3726162910461426,0.7222701907157898,0.0075933123007416725,0.44845327734947205,-2.322967052459717,1.7681164741516113,-1.4485490322113037,-0.36440691351890564,-0.6547264456748962,-0.01393265649676323,0.6319431066513062,-0.6288955211639404,0.44592398405075073,1741504756.4032106,1741504756333,-3.095412109375,-1.1530013427734376,0.04817048050345886,-4.50071044921875,1.6291871337890624
1741504756.3793807,-3.836176872253418,-0.024917571424359235,-0.037547415503957134,-0.9989841371229501,-0.26870566606521606,0.10148313641548157,0.21579423546791077,1.0186504125595093,-1.3936330080032349,8.594176292419434,-0.4465169906616211,0.8817806243896484,0.18711376190185547,-1.3515914678573608,0.00476844422519207,-0.5323491096496582,0.19436179101467133,1.3599839210510254,0.015449759550392628,0.5460822582244873,-0.08144503086805344,-0.5464637279510498,-0.04711223021149635,-0.0032425422687083483,0.725375771522522,-0.2862204909324646,0.018655894324183464,-0.692568838596344,-0.03452353551983833,-0.02040894143283367,0.8325703740119934,-0.39163607358932495,-0.002973794937133789,-0.6876459717750549,-0.16492313146591187,-0.3288581967353821,0.8677396774291992,0.009339557960629463,-0.011678296141326427,0.08613284677267075,1.5258971452713013,0.050617050379514694,-0.27500951290130615,0.4316096603870392,-0.5355769991874695,0.2659541368484497,0.13280171155929565,-0.6702767014503479,1.3709934949874878,1.230736494064331,0.44422754645347595,0.24464133381843567,-0.4955732226371765,0.3282982409000397,-1.0212079286575317,-0.26044413447380066,1741504756.4032106,1741504756333,-3.095412109375,-1.1530013427734376,0.04817048050345886,-4.50071044921875,1.6291871337890624
1741504756.3994267,-3.839607000350952,-0.022041420698024783,-0.02887634731235141,-0.9993399483356546,-0.5326629877090454,0.15103735029697418,-0.202407568693161,0.44435572624206543,4.608907699584961,9.787565231323242,-0.4541463851928711,0.8817806243896484,0.182154580950737,-1.3401471376419067,0.00476844422519207,-0.5262455344200134,0.19398032128810883,1.377913236618042,0.014686808921396732,0.536926805973053,-0.04787518084049225,-0.5495155453681946,-0.04596780240535736,-0.0024795911740511656,0.7093538045883179,-0.28287583589553833,0.03197844699025154,-0.6803616285324097,-0.023079270496964455,-0.013160906732082367,0.8390554785728455,-0.4034425914287567,0.0009992365958169103,-0.27168604731559753,-0.025407927110791206,-0.22518794238567352,0.7533270120620728,0.0003469611401669681,0.37963366508483887,-0.03636481240391731,1.0579180717468262,-0.04648493975400925,-0.7003655433654785,1.548243761062622,-0.0742398127913475,-0.0059221601113677025,-0.028636783361434937,-0.7996572852134705,0.04311132803559303,0.3084295690059662,0.7561587691307068,0.48350030183792114,0.7537100315093994,0.394344300031662,-0.5107772350311279,0.33314719796180725,1741504756.4032106,1741504756333,-3.095412109375,-1.1530013427734376,0.04817048050345886,-4.50071044921875,1.6291871337890624
1741504756.4194224,-3.8484420776367188,-0.02029158969534207,-0.021539421093242698,-0.9995620564660325,-0.27251243591308594,-0.004938728176057339,-0.36649763584136963,3.9923055171966553,-2.256342649459839,8.900736808776855,-0.4568166732788086,0.8863582611083984,0.1832990050315857,-1.3294658660888672,0.00476844422519207,-0.5178530812263489,0.19398032128810883,1.389357566833496,0.01506828423589468,0.5231937170028687,-0.035667963325977325,-0.5495155453681946,-0.04100862145423889,-0.0036240178160369396,0.6979095339775085,-0.28490111231803894,0.030934777110815048,-0.654421329498291,-0.0024795911740511656,0.016975661739706993,0.8455405235290527,-0.40124547481536865,0.005171291995793581,-0.03830164670944214,0.16293317079544067,0.11303497105836868,0.6671583652496338,0.004222010262310505,0.44461536407470703,-0.006907718256115913,0.7114890217781067,0.007664685137569904,-0.9542704820632935,0.7244608998298645,0.03882322460412979,0.3396527171134949,0.04146241769194603,-0.5725120902061462,-0.07314999401569366,0.08054877072572708,1.3174245357513428,1.252314567565918,1.4714463949203491,0.37216493487358093,0.20591749250888824,0.05170425772666931,1741504756.4032106,1741504756333,-3.095412109375,-1.1530013427734376,0.04817048050345886,-4.50071044921875,1.6291871337890624
1741504756.4395046,-3.8489644527435303,-0.02514783766777527,-0.023754439624809852,-0.9994014773146708,0.14496541023254395,-0.23555922508239746,-0.0992315262556076,0.5899795889854431,-2.8021132946014404,10.893089294433594,-0.4648275375366211,0.8855953216552734,0.18596932291984558,-1.3290843963623047,0.00476844422519207,-0.5025940537452698,0.19398032128810883,1.393935203552246,0.01506828423589468,0.5098420977592468,-0.021171892061829567,-0.5384527444839478,-0.029182879254221916,0.01773861236870289,0.6765468716621399,-0.2865743935108185,0.03070147894322872,-0.6162737607955933,0.029182879254221916,0.045204851776361465,0.8520256280899048,-0.38833290338516235,0.00030687852995470166,-0.23687581717967987,0.005618199706077576,0.058331917971372604,-0.1006513237953186,-0.03461938723921776,0.6831221580505371,0.005007585044950247,0.186432883143425,0.0052141835913062096,-0.9182852506637573,0.4685898423194885,0.7176184058189392,0.6274853944778442,1.0464560985565186,-1.1885086297988892,-0.06200292706489563,-0.07493073493242264,2.0764217376708984,1.3888416290283203,1.2775812149047852,0.2570391297340393,0.686051070690155,-0.23271504044532776,1741504756.4032106,1741504756333,-3.095412109375,-1.1530013427734376,0.04817048050345886,-4.50071044921875,1.6291871337890624
1741504756.4595494,-3.840940475463867,-0.03166372729959845,-0.030414977692881696,-0.999035703819157,0.42904824018478394,-0.3422695994377136,0.5947346091270447,4.481357097625732,3.191692352294922,9.186960220336914,-0.4808502197265625,0.8844509124755859,0.18520638346672058,-1.3348065614700317,0.005149920005351305,-0.49267566204071045,0.19474326074123383,1.3966054916381836,0.014686808921396732,0.499542236328125,-0.03147173300385475,-0.5098420977592468,-0.02536812424659729,0.022697795182466507,0.6452658772468567,-0.28942033648490906,0.019418315961956978,-0.5556191205978394,0.04100862145423889,0.05970092490315437,0.841725766658783,-0.37533438205718994,-0.001585277495905757,-0.49530088901519775,-0.03563988208770752,-0.053747162222862244,-0.39202234148979187,0.03641292452812195,0.4710629880428314,0.12919533252716064,0.18123023211956024,-0.0077286153100430965,-0.610813319683075,-0.35410040616989136,1.3722485303878784,0.03719112649559975,0.28507712483406067,-1.548518180847168,-0.13617408275604248,-0.7616626620292664,3.06502628326416,0.3659439980983734,0.626511812210083,-0.8024258613586426,0.5771960616111755,-0.04833979159593582,1741504756.5057185,1741504756433,-3.077729736328125,-1.160015869140625,0.056616271022467524,-4.41118359375,1.5899305419921876
1741504756.4795218,-3.829272985458374,-0.04061205313815706,-0.04375947450283582,-0.9982162939619544,0.6856788396835327,-0.4029318392276764,0.48292869329452515,-3.1794655323028564,2.0667660236358643,5.629295825958252,-0.48504638671875,0.8802547454833984,0.1825360506772995,-1.3443434238433838,0.005149920005351305,-0.4865720570087433,0.20351719856262207,1.3943166732788086,0.01506828423589468,0.49038681387901306,-0.01430533267557621,-0.49153125286102295,-0.04406042397022247,0.03147173300385475,0.6250476837158203,-0.2941937744617462,0.011704444885253906,-0.4804684519767761,0.03223468363285065,0.0711451917886734,0.7810711860656738,-0.3751619756221771,-0.002041020430624485,-0.17714938521385193,-0.120429627597332,-0.09118609875440598,-0.758037805557251,-0.006077371072024107,0.17636306583881378,0.6189043521881104,-0.18914565443992615,-0.0035373056307435036,-0.6329448819160461,1.0225533246994019,0.9240424036979675,-1.0930633544921875,0.29107969999313354,-0.8348874449729919,-0.2054377794265747,-0.22526736557483673,3.8302273750305176,-0.3679552972316742,0.48083803057670593,-3.658649444580078,-0.14332327246665955,-0.10054919123649597,1741504756.5057185,1741504756433,-3.077729736328125,-1.160015869140625,0.056616271022467524,-4.41118359375,1.5899305419921876
1741504756.4995093,-3.8256051540374756,-0.045860520246529805,-0.06082636963120524,-0.9970942610607112,0.8990987539291382,-0.2436717450618744,0.10353945940732956,-21.528831481933594,13.998311042785645,26.671384811401367,-0.48809814453125,0.8718624114990234,0.18558785319328308,-1.3573135137557983,0.00476844422519207,-0.49038681387901306,0.20962081849575043,1.3889760971069336,0.01506828423589468,0.4846646785736084,0.009346150793135166,-0.483138769865036,-0.07610437273979187,0.018501564860343933,0.6269550919532776,-0.2901129424571991,0.003560879500582814,-0.4068436622619629,0.03833829239010811,0.06618601083755493,0.6639581918716431,-0.38170984387397766,-0.008523844182491302,-0.09560314565896988,-0.19180786609649658,0.15210886299610138,-0.7857042551040649,-0.014067839831113815,-0.27106747031211853,0.30524128675460815,-0.41675621271133423,0.008101916871964931,-0.3307953178882599,1.3716473579406738,0.3114132583141327,-1.6280488967895508,-0.7582610845565796,0.20860764384269714,0.3525826632976532,-0.4715648591518402,3.4340384006500244,0.49935632944107056,-0.07879772037267685,-5.985593318939209,-0.07486957311630249,-0.5294520854949951,1741504756.5057185,1741504756433,-3.077729736328125,-1.160015869140625,0.056616271022467524,-4.41118359375,1.5899305419921876
1741504756.519551,-3.824814796447754,-0.04464249297872492,-0.06747573530283421,-0.9967216627353829,-0.07886387407779694,-0.09335247427225113,-0.06541363894939423,5.078616142272949,-4.689395427703857,20.126935958862305,-0.5319681167602539,0.8928432464599609,0.18673227727413177,-1.373335599899292,0.00476844422519207,-0.4964904189109802,0.20809490978717804,1.3805835247039795,0.01506828423589468,0.4804684519767761,0.056267641484737396,-0.47779813408851624,-0.09555962681770325,-0.007438773289322853,0.6383993029594421,-0.26014378666877747,-0.006763389799743891,-0.39654383063316345,0.038719769567251205,0.049782559275627136,0.6380178332328796,-0.35534125566482544,-0.014302624389529228,-1.3882864713668823,0.943789541721344,0.01975223794579506,-0.9690910577774048,-0.004460042342543602,-0.2615359425544739,-0.1115565225481987,-0.4409920871257782,0.04306977987289429,-0.4509655237197876,2.3101718425750732,0.10712611675262451,-0.6717156171798706,-1.443989872932434,0.23562893271446228,1.6256057024002075,-0.2602958381175995,0.28656527400016785,-0.7943914532661438,-1.2018182277679443,-0.6029321551322937,1.026408076286316,-0.16898247599601746,1741504756.5057185,1741504756433,-3.077729736328125,-1.160015869140625,0.056616271022467524,-4.41118359375,1.5899305419921876
1741504756.539553,-3.8272526264190674,-0.04081779037034981,-0.05292439865213206,-0.9977639580665321,-0.5267468094825745,0.2688134014606476,-0.03373197093605995,-1.6997884511947632,0.2608933746814728,4.6725897789001465,-0.5498971939086914,0.8894100189208984,0.18711376190185547,-1.376387357711792,0.005149920005351305,-0.4972533881664276,0.20428015291690826,1.382109522819519,0.01506828423589468,0.4804684519767761,0.0864042118191719,-0.4877164959907532,-0.10013733059167862,-0.038719769567251205,0.6532768607139587,-0.2176920622587204,-0.004462944809347391,-0.3885328471660614,0.01926451548933983,0.0020981156267225742,0.5945296287536621,-0.36035341024398804,-0.013974133878946304,-0.5085551738739014,0.1328342854976654,0.03702583163976669,-0.14678369462490082,0.029301028698682785,-0.014612984843552113,-0.262168288230896,0.033708445727825165,-0.05031568184494972,0.14721907675266266,1.527428388595581,-0.41743916273117065,-0.1425044685602188,-1.6352659463882446,0.7881559729576111,2.047234058380127,0.36152592301368713,0.681783139705658,-0.5498768091201782,-2.430037021636963,-2.507909059524536,-0.34312939643859863,0.2921295762062073,1741504756.5057185,1741504756433,-3.077729736328125,-1.160015869140625,0.056616271022467524,-4.41118359375,1.5899305419921876
1741504756.5596266,-3.829843044281006,-0.028766276790921863,-0.044951353092994806,-0.9985749231653562,-0.4581432640552521,0.5811746716499329,-0.19464266300201416,2.1786553859710693,1.2981551885604858,7.31361198425293,-0.5476083755493164,0.8730068206787109,0.18673227727413177,-1.3744800090789795,0.00476844422519207,-0.49458304047584534,0.20122835040092468,1.3790576457977295,0.014686808921396732,0.4865720570087433,0.11463340371847153,-0.47627222537994385,-0.09136339277029037,-0.0715266615152359,0.6685358881950378,-0.19516946375370026,0.008653962053358555,-0.369840532541275,0.020027466118335724,-0.01926451548933983,0.5460822582244873,-0.36624640226364136,0.0012890864163637161,0.06810074299573898,-0.4111250340938568,-0.013166273944079876,0.11955461651086807,-0.0067139193415641785,0.12314283102750778,-0.18875752389431,-0.23767763376235962,0.028317656368017197,0.37539950013160706,0.8264986276626587,0.7270640134811401,0.6247039437294006,-1.4648162126541138,0.775407612323761,0.8665892481803894,0.6272451281547546,1.0080434083938599,-0.05859161540865898,-0.6745163798332214,-2.2072153091430664,-0.24905243515968323,0.51060950756073,1741504756.5057185,1741504756433,-3.077729736328125,-1.160015869140625,0.056616271022467524,-4.41118359375,1.5899305419921876
1741504756.5796616,-3.838052272796631,-0.020562331994141973,-0.03144828899839449,-0.9992938484860376,-0.6770403385162354,0.300883412361145,-0.2346278429031372,4.567115783691406,3.8300039768218994,8.602715492248535,-0.5498971939086914,0.8787288665771484,0.18863965570926666,-1.376387357711792,0.005149920005351305,-0.49038681387901306,0.1997024416923523,1.3718096017837524,0.014686808921396732,0.48962387442588806,0.07991912961006165,-0.44232088327407837,-0.07000076025724411,-0.07763027399778366,0.6837949156761169,-0.20379632711410522,0.010776796378195286,-0.36526283621788025,0.02231631986796856,-0.021171892061829567,0.5189974904060364,-0.3640495836734772,-0.001296209986321628,-0.0852522999048233,0.11913865059614182,0.13191714882850647,-0.19493776559829712,0.041602641344070435,0.27613914012908936,-0.1236310601234436,-0.5575138926506042,-0.042583104223012924,0.13947279751300812,-1.922715425491333,1.7843135595321655,1.0070449113845825,-0.04934549704194069,0.6827667355537415,-0.6407255530357361,0.03011624701321125,0.20163795351982117,0.3313835859298706,-0.0812399759888649,-1.0416957139968872,0.1659637838602066,0.005568191409111023,1741504756.5057185,1741504756433,-3.077729736328125,-1.160015869140625,0.056616271022467524,-4.41118359375,1.5899305419921876
1741504756.6047688,-3.839294672012329,-0.01705533829902863,-0.019455768395855663,-0.9996652382230926,-0.5664215683937073,0.1740625500679016,0.00044452905422076583,5.8690009117126465,-0.11567817628383636,2.083414077758789,-0.5476083755493164,0.8775844573974609,0.19474326074123383,-1.3824909925460815,0.005149920005351305,-0.4877164959907532,0.1962691694498062,1.364180088043213,0.014686808921396732,0.49000534415245056,0.05130846053361893,-0.3881513774394989,-0.04787518084049225,-0.06466010212898254,0.6692988276481628,-0.23636804521083832,0.005133374594151974,-0.35038527846336365,0.03528648987412453,-0.0020981156267225742,0.5079346895217896,-0.3550865352153778,0.0038261059671640396,0.03338981419801712,0.025282397866249084,0.2543468475341797,-0.34382364153862,-0.009748895652592182,0.02408505231142044,-0.1822068989276886,-0.4590059220790863,0.011545931920409203,-0.01598973199725151,-1.424804925918579,2.7485291957855225,1.0581239461898804,0.6507857441902161,-1.2663471698760986,-1.7172396183013916,-0.21833373606204987,1.066838264465332,0.7771868109703064,1.165988564491272,-0.5625232458114624,0.5718421339988708,0.24966242909431458,1741504756.5057185,1741504756433,-3.077729736328125,-1.160015869140625,0.056616271022467524,-4.41118359375,1.5899305419921876
1741504756.6196706,-3.8412089347839355,-0.019147652655132533,-0.00979573095250501,-0.999768678771697,-0.4861752390861511,-0.195461243391037,-0.11489931493997574,-28.856008529663086,-6.345677375793457,3.7581236362457275,-0.5411233901977539,0.8764400482177734,0.20084688067436218,-1.382872462272644,0.005149920005351305,-0.49191272258758545,0.19436179101467133,1.3573135137557983,0.014686808921396732,0.4884794354438782,-0.0009536888683214784,-0.3099488914012909,-0.03299763426184654,-0.05245288833975792,0.6055924296379089,-0.2723657786846161,-0.002134928712621331,-0.32940414547920227,0.06160829961299896,0.016212711110711098,0.4987792670726776,-0.3218573331832886,0.00954997818917036,0.17213205993175507,0.0277020875364542,0.29339656233787537,-0.0709964856505394,0.0011641111923381686,-0.2194264680147171,-0.14781522750854492,-0.4338178336620331,0.014495025388896465,-0.15094342827796936,-2.4834086894989014,4.3284912109375,0.6421372294425964,0.581792950630188,-3.2934730052948,-1.7546043395996094,-0.2846470773220062,0.5804689526557922,1.3508645296096802,0.7792384624481201,-0.6197388768196106,1.871547818183899,0.27943727374076843,1741504756.7102993,1741504756533,-3.074343994140625,-1.1645943603515625,0.03843129359016462,-4.32470751953125,1.5495289306640625
1741504756.639718,-3.8377132415771484,-0.017776983319031894,-0.0006052898158611147,-0.9998417937295447,-0.46997663378715515,0.0428447499871254,0.21468661725521088,1.2974181175231934,0.13621094822883606,0.3260709345340729,-0.5460824966430664,0.8592739105224609,0.20428015291690826,-1.381346583366394,0.005149920005351305,-0.49420157074928284,0.19321736693382263,1.3542617559432983,0.01430533267557621,0.4880979657173157,-0.021553369238972664,-0.22716869413852692,-0.02994582988321781,-0.037193864583969116,0.5121309161186218,-0.29066285490989685,-0.004575616214424372,-0.3271152675151825,0.09212634712457657,0.028038453310728073,0.4957274794578552,-0.26799529790878296,0.004556654952466488,-0.12133609503507614,-0.4602140486240387,0.09924662113189697,0.09664423763751984,-0.00429677776992321,-0.06221190467476845,-0.04525809735059738,-0.16819004714488983,-0.001231748959980905,-0.00666435994207859,-0.9544873237609863,3.965256690979004,0.01502273604273796,0.6301108598709106,-4.661728858947754,-0.6949967741966248,0.0020684388000518084,-0.0014820854412391782,1.3126575946807861,0.5248083472251892,-0.09682737290859222,2.714433193206787,-0.30814412236213684,1741504756.7102993,1741504756533,-3.074343994140625,-1.1645943603515625,0.03843129359016462,-4.32470751953125,1.5495289306640625
1741504756.6597333,-3.829824686050415,-0.01893407019947037,0.010325063138182376,-0.9997674199817045,-0.41719138622283936,-0.2405937910079956,0.5849803686141968,4.474677085876465,37.243919372558594,19.40148162841797,-0.5457010269165039,0.8710994720458984,0.20504310727119446,-1.3760058879852295,0.005531395319849253,-0.4877164959907532,0.19321736693382263,1.3542617559432983,0.013923857361078262,0.4854276478290558,-0.03643091395497322,-0.1985580176115036,-0.03490501269698143,-0.03681239113211632,0.4671168029308319,-0.27095863223075867,0.01797381229698658,-0.32978561520576477,0.06885633617639542,0.03376058489084244,0.49343863129615784,-0.20698235929012299,-0.005132398568093777,-0.18011309206485748,0.33412396907806396,0.030455518513917923,0.3859698474407196,0.05492352694272995,0.5170422196388245,0.0017095161601901054,0.009360222145915031,-0.034979548305273056,-0.28544965386390686,-0.5357488989830017,0.928219735622406,-0.12776635587215424,0.07746242731809616,-1.0641050338745117,1.3480364084243774,1.115464210510254,-0.08879729360342026,-1.8161497116088867,0.5307652950286865,-0.33903881907463074,3.1827919483184814,-0.41161999106407166,1741504756.7102993,1741504756533,-3.074343994140625,-1.1645943603515625,0.03843129359016462,-4.32470751953125,1.5495289306640625
1741504756.6797554,-3.8199732303619385,-0.03121986618302592,-0.015210342793770983,-0.9993968007891609,1.2645925283432007,-0.5963379740715027,0.5165654420852661,-0.3095737099647522,3.015169382095337,2.05068039894104,-0.4999237060546875,0.8745326995849609,0.20313572883605957,-1.383635401725769,0.005149920005351305,-0.4797055125236511,0.19359883666038513,1.3519729375839233,0.01430533267557621,0.4869535267353058,-0.03490501269698143,-0.1985580176115036,-0.0398641936480999,-0.02231631986796856,0.4880979657173157,-0.23535610735416412,0.02324722893536091,-0.3217746317386627,0.043678950518369675,0.0398641936480999,0.4858091175556183,-0.1418444812297821,-0.011211213655769825,0.9431381225585938,0.26814720034599304,-0.0972822904586792,-0.6961120367050171,-0.0047582280822098255,0.2793046534061432,0.03422705829143524,-0.2275073230266571,0.06943506747484207,0.19757907092571259,-0.04637272655963898,-0.17517629265785217,-0.6496163010597229,0.9139153957366943,0.6678038835525513,1.7798787355422974,-0.1134750172495842,0.42922207713127136,-0.6924514770507812,-0.0408676341176033,-0.340072900056839,3.189849853515625,-0.17303767800331116,1741504756.7102993,1741504756533,-3.074343994140625,-1.1645943603515625,0.03843129359016462,-4.32470751953125,1.5495289306640625
1741504756.6997693,-3.814805269241333,-0.04216513194993252,-0.04034549190199696,-0.9982957191788566,1.142559289932251,-0.47772058844566345,0.2063245177268982,-7.870318412780762,-10.20740032196045,9.305986404418945,-0.5045013427734375,0.8642330169677734,0.20275425910949707,-1.3878315687179565,0.00476844422519207,-0.4804684519767761,0.19359883666038513,1.3451063632965088,0.013923857361078262,0.4884794354438782,-0.04406042397022247,-0.19398032128810883,-0.07572289556264877,-0.016975661739706993,0.4732204079627991,-0.20244531333446503,0.007961140014231205,-0.3290226459503174,0.039101243019104004,0.03490501269698143,0.4842832088470459,-0.09545736759901047,-0.00339153571985662,-0.036086730659008026,-0.2617284655570984,-0.004337053745985031,-0.12431836128234863,-0.02585677243769169,-0.05007755756378174,-0.006072175223380327,-0.4125969111919403,-0.038400545716285706,0.06058536469936371,-0.24202744662761688,0.601148247718811,-1.8471895456314087,0.2966797649860382,-0.7799237966537476,1.41029953956604,-0.3866579532623291,-0.5333019495010376,-1.0844192504882812,0.1535721719264984,-0.1451500952243805,1.9663212299346924,0.2537585198879242,1741504756.7102993,1741504756533,-3.074343994140625,-1.1645943603515625,0.03843129359016462,-4.32470751953125,1.5495289306640625
1741504756.7197874,-3.8179538249969482,-0.046121494687488905,-0.05291035054426659,-0.9975336097260457,0.6685177683830261,-0.2417752891778946,-0.2816771864891052,-9.129227638244629,19.09261703491211,10.633965492248535,-0.5338754653930664,0.8623256683349609,0.20313572883605957,-1.382872462272644,0.00476844422519207,-0.4827573001384735,0.19321736693382263,1.3443434238433838,0.01430533267557621,0.4865720570087433,-0.021553369238972664,-0.17986571788787842,-0.12149996310472488,-0.00667582219466567,0.44499123096466064,-0.20247189700603485,0.02624843455851078,-0.34618905186653137,0.01125352829694748,0.04406042397022247,0.46025025844573975,-0.10342751443386078,-0.010557281784713268,-0.708262026309967,-0.07357466220855713,-0.0009515606798231602,0.3892503082752228,-0.019805019721388817,-0.1428709328174591,-0.0104746138677001,0.012037985026836395,0.051990583539009094,-0.18234455585479736,1.0787310600280762,0.5662364959716797,-2.0249764919281006,0.47687065601348877,-1.466776728630066,-0.17016290128231049,0.8358467221260071,-0.7888191342353821,-1.440698504447937,0.33979520201683044,-1.4550435543060303,-0.9226995706558228,-0.44928058981895447,1741504756.7102993,1741504756533,-3.074343994140625,-1.1645943603515625,0.03843129359016462,-4.32470751953125,1.5495289306640625
1741504756.7401226,-3.8329224586486816,-0.0366563947519438,-0.06970616039263543,-0.9968938558979615,0.7318879961967468,0.6311373710632324,-0.8505259156227112,-3.4730591773986816,-9.131333351135254,15.83984088897705,-0.5434122085571289,0.8505001068115234,0.20313572883605957,-1.3737170696258545,0.00476844422519207,-0.4842832088470459,0.19245441257953644,1.3458693027496338,0.01430533267557621,0.4854276478290558,-0.0009536888683214784,-0.17643244564533234,-0.09822995215654373,-0.026512550190091133,0.4194323718547821,-0.2227129191160202,0.024495577439665794,-0.34809643030166626,-0.016212711110711098,0.03643091395497322,0.4488059878349304,-0.14361560344696045,-0.007305716164410114,-0.3600660562515259,-0.3806441128253937,-0.004953732714056969,0.5928760170936584,-0.01676769182085991,-0.05593988299369812,-0.09388770163059235,0.11009270697832108,-0.025655953213572502,-0.039623625576496124,1.007534146308899,0.16325630247592926,1.5808897018432617,-1.1873724460601807,-1.208251953125,-1.1721575260162354,-0.22791074216365814,-0.4464086592197418,-0.947935163974762,-0.6735795736312866,-0.2854549288749695,-1.8341803550720215,0.5371379852294922,1741504756.7102993,1741504756533,-3.074343994140625,-1.1645943603515625,0.03843129359016462,-4.32470751953125,1.5495289306640625
1741504756.7599382,-3.854245901107788,-0.01225844335421742,-0.06870970623911116,-0.9975613799837414,-0.30387425422668457,1.1532111167907715,-0.8632504343986511,5.429812431335449,4.75424337387085,5.825005054473877,-0.5731668472290039,0.8672847747802734,0.20313572883605957,-1.36685049533844,0.00476844422519207,-0.4835202693939209,0.17528800666332245,1.3500655889511108,0.01430533267557621,0.4880979657173157,0.013923857361078262,-0.17605096101760864,-0.09822995215654373,-0.03452353551983833,0.4064621925354004,-0.2598731815814972,0.0031971773132681847,-0.38281071186065674,-0.016212711110711098,0.024986648932099342,0.46063172817230225,-0.16942423582077026,0.011960351839661598,-0.9516632556915283,0.4371931850910187,0.0004352318064775318,0.4562404155731201,0.013394688256084919,-0.005591999273747206,-1.3268035650253296,0.3663859963417053,0.035318899899721146,0.2690402567386627,0.7520608305931091,-0.11130005866289139,-0.5318429470062256,0.13551437854766846,-0.5016958117485046,-1.8272802829742432,-1.2246668338775635,-1.3102076053619385,0.14993977546691895,-0.690421998500824,0.641755223274231,-1.365883469581604,0.9227501749992371,1741504756.7102993,1741504756533,-3.074343994140625,-1.1645943603515625,0.03843129359016462,-4.32470751953125,1.5495289306640625
1741504756.7800965,-3.869018077850342,0.009675230748935592,-0.059774239332499327,-0.9981650315564936,-0.3559491038322449,0.9546146392822266,-0.7646342515945435,3.9611616134643555,2.958143472671509,5.380706787109375,-0.5659189224243164,0.8737697601318359,0.20313572883605957,-1.3615097999572754,0.00476844422519207,-0.4827573001384735,0.15850308537483215,1.3687578439712524,0.01506828423589468,0.49420157074928284,0.024605173617601395,-0.19398032128810883,-0.11615930497646332,-0.0036240178160369396,0.4087510406970978,-0.28297725319862366,0.006794246379286051,-0.39730677008628845,-0.004005493130534887,0.00019073777366429567,0.4655908942222595,-0.2092561423778534,0.01864488795399666,0.1635219305753708,0.25596684217453003,-0.0077845072373747826,0.3050857484340668,-0.0015780285466462374,0.05763639137148857,-0.9916641712188721,1.340035080909729,0.025275973603129387,0.41801169514656067,0.47251883149147034,-1.0770061016082764,0.1845746487379074,1.2659807205200195,0.03132345899939537,-0.9802830219268799,0.6595632433891296,-0.6087475419044495,0.6264877915382385,-1.1005455255508423,0.13155294954776764,-2.08567214012146,0.09891275316476822,1741504756.7102993,1741504756533,-3.074343994140625,-1.1645943603515625,0.03843129359016462,-4.32470751953125,1.5495289306640625
1741504756.7999477,-3.879669666290283,0.02300824017267288,-0.056233620454902704,-0.9981524937677061,-0.2413024604320526,0.6044753789901733,-0.46813151240348816,4.496521949768066,-4.363399982452393,0.36724352836608887,-0.5498971939086914,0.8772029876708984,0.20275425910949707,-1.3592209815979004,0.00476844422519207,-0.4827573001384735,0.15468832850456238,1.3790576457977295,0.01506828423589468,0.4983977973461151,0.023079270496964455,-0.21839475631713867,-0.06389715522527695,0.000572213320992887,0.39768826961517334,-0.28247973322868347,0.018273117020726204,-0.3934920132160187,0.016212711110711098,0.005912871100008488,0.4713130295276642,-0.24477076530456543,-0.0057538216933608055,0.4611033797264099,0.0743107944726944,-0.007794383447617292,0.10516178607940674,0.0027190393302589655,-0.03369550034403801,-0.09763313084840775,0.4935949444770813,0.013126333244144917,0.2709105908870697,-0.15292403101921082,-1.1181834936141968,2.374130964279175,0.17869466543197632,-0.7434202432632446,0.28597787022590637,0.19346392154693604,0.23720544576644897,1.0032085180282593,0.28932780027389526,0.42655089497566223,-1.601619839668274,-1.1186907291412354,1741504756.7102993,1741504756533,-3.074343994140625,-1.1645943603515625,0.03843129359016462,-4.32470751953125,1.5495289306640625
1741504756.8224568,-3.886221170425415,0.02364679344782092,-0.03998966490087896,-0.9989202449949404,-0.8487042784690857,-0.011130053550004959,-0.33535027503967285,5.724705219268799,0.32565292716026306,4.286770820617676,-0.5525674819946289,0.8886470794677734,0.20313572883605957,-1.3573135137557983,0.00476844422519207,-0.483138769865036,0.15888457000255585,1.3832539319992065,0.01506828423589468,0.4991607666015625,0.01506828423589468,-0.22602425515651703,-0.04787518084049225,0.00858320016413927,0.3839551508426666,-0.24442143738269806,-0.006116025615483522,-0.3912031650543213,0.030708782374858856,0.014686808921396732,0.4861905872821808,-0.23831334710121155,0.0004025558882858604,-0.0450153574347496,0.32001087069511414,-0.00419736048206687,0.17789281904697418,-0.005354978144168854,-0.013505359180271626,0.2978859841823578,0.41574183106422424,0.06206673011183739,0.03525475040078163,-0.36644279956817627,-0.046425145119428635,0.7995352149009705,0.41946807503700256,-0.5296663641929626,2.019442319869995,-1.2085039615631104,0.11281752586364746,0.5212821960449219,0.38385170698165894,0.6394591331481934,0.6303817629814148,0.5215155482292175,1741504756.9152484,1741504756833,-3.073523193359375,-1.171474365234375,0.1843183646050087,-4.094017578125,1.4393089599609374
1741504756.8400536,-3.887458086013794,0.01727494905413946,-0.024975632843101774,-0.999538790592573,-0.7039311528205872,-0.4001563489437103,-0.024326710030436516,-0.1392102688550949,-0.6629679203033447,7.163920879364014,-0.5518045425415039,0.8726253509521484,0.20275425910949707,-1.3542617559432983,0.005149920005351305,-0.482375830411911,0.1653696447610855,1.3935537338256836,0.01506828423589468,0.4991607666015625,0.019645990803837776,-0.2286945879459381,-0.04100862145423889,0.008964675478637218,0.3885328471660614,-0.2038181722164154,0.006492522079497576,-0.3843366205692291,0.03757534176111221,0.007438773289322853,0.4839017391204834,-0.19557379186153412,0.014477862976491451,0.01608376018702984,-0.49336519837379456,-0.009403134696185589,0.2140902578830719,0.004893864504992962,0.013983412645757198,0.5170648097991943,0.5941733717918396,-0.01245112344622612,-0.0058847651816904545,0.18346007168293,-0.3073166012763977,0.2498364895582199,-0.14249077439308167,0.2638454735279083,1.8496394157409668,1.0018935203552246,0.4962253272533417,0.327387273311615,-0.38264229893684387,-0.28368327021598816,2.247988700866699,0.4280094802379608,1741504756.9152484,1741504756833,-3.073523193359375,-1.171474365234375,0.1843183646050087,-4.094017578125,1.4393089599609374
1741504756.860017,-3.88338565826416,0.010196441113269696,-0.02108794079580765,-0.9997256280308193,-0.07968152314424515,-0.3140871822834015,0.25617900490760803,-1.784422755241394,3.5956852436065674,15.432820320129395,-0.5380716323852539,0.8089189529418945,0.1997024416923523,-1.3531173467636108,0.00476844422519207,-0.482375830411911,0.17605096101760864,1.391646385192871,0.014686808921396732,0.499542236328125,0.016975661739706993,-0.23632410168647766,-0.05283436179161072,0.0078202486038208,0.4056992530822754,-0.19139647483825684,0.03261564299464226,-0.368314653635025,0.03376058489084244,0.000572213320992887,0.4648279547691345,-0.1464148312807083,0.005319003481417894,0.36379703879356384,-1.8231456279754639,-0.20777182281017303,0.012808850035071373,0.000775697291828692,-0.04463890194892883,0.7334998250007629,-0.20934806764125824,-0.023599637672305107,0.03807152062654495,-0.3212237060070038,-0.34578579664230347,-0.9925439953804016,0.04361972212791443,1.058000922203064,0.30437952280044556,1.0359889268875122,0.7241686582565308,-0.29620587825775146,-0.22644329071044922,-1.043015480041504,2.4340131282806396,-0.7498460412025452,1741504756.9152484,1741504756833,-3.073523193359375,-1.171474365234375,0.1843183646050087,-4.094017578125,1.4393089599609374
1741504756.8800664,-3.8678536415100098,0.010729383628345534,-0.03681062117679405,-0.9992646588844891,0.8781282901763916,0.11460740864276886,0.8772708177566528,-5.427401065826416,-0.044274184852838516,9.154446601867676,-0.5235748291015625,0.7227058410644531,0.18940261006355286,-1.3538802862167358,0.005149920005351305,-0.4854276478290558,0.18902114033699036,1.382109522819519,0.01430533267557621,0.5018310546875,-0.018501564860343933,-0.25577935576438904,-0.07419699430465698,0.026512550190091133,0.43125811219215393,-0.22181907296180725,0.02481279894709587,-0.37937742471694946,0.011635004542768002,0.013923857361078262,0.45872434973716736,-0.11298957467079163,-0.0077882264740765095,0.4571548402309418,-2.565753221511841,-0.5718705058097839,-0.06876494735479355,-0.0017888364382088184,-0.18526245653629303,0.8924713134765625,-0.7027526497840881,0.007630460429936647,0.12384476512670517,-1.9624788761138916,-1.0936870574951172,-0.789551854133606,1.0763970613479614,1.2874501943588257,-1.7688190937042236,-0.4489177465438843,-0.930776834487915,-1.337382197380066,0.9055884480476379,-0.03921610862016678,1.469986081123352,-0.5582255125045776,1741504756.9152484,1741504756833,-3.073523193359375,-1.171474365234375,0.1843183646050087,-4.094017578125,1.4393089599609374
1741504756.9000938,-3.846733808517456,0.02292677094368779,-0.059514853757994486,-0.9979641002342019,1.1125407218933105,0.7147824168205261,1.049317717552185,-0.9829227924346924,2.6761767864227295,12.251928329467773,-0.523956298828125,0.6326770782470703,0.17338064312934875,-1.366087555885315,0.005149920005351305,-0.49382010102272034,0.20618753135204315,1.369139313697815,0.01430533267557621,0.4999237060546875,-0.05855649709701538,-0.28973066806793213,-0.06885633617639542,0.06160829961299896,0.4713130295276642,-0.27681925892829895,0.027883106842637062,-0.4346913993358612,-0.021171892061829567,0.05130846053361893,0.4804684519767761,-0.10548586398363113,-0.006120724603533745,0.02230507880449295,-2.7423911094665527,-0.7887803912162781,-0.9084806442260742,-0.007445218041539192,-0.4674117863178253,1.1079075336456299,-0.8554254770278931,0.00315114832483232,-0.18164382874965668,-1.729634165763855,-1.924092173576355,0.20114730298519135,1.7485599517822266,2.284024953842163,-2.8281636238098145,0.2770465016365051,-3.0845770835876465,-1.4785771369934082,1.9048709869384766,1.3228179216384888,0.13724343478679657,0.2740851640701294,1741504756.9152484,1741504756833,-3.073523193359375,-1.171474365234375,0.1843183646050087,-4.094017578125,1.4393089599609374
1741504756.9201465,-3.8300137519836426,0.04058185849614408,-0.0816156231736535,-0.9958373375280599,1.0465425252914429,0.9901376962661743,0.8314053416252136,-0.6386577486991882,7.860917568206787,10.047296524047852,-0.5098419189453125,0.5781259536743164,0.16269932687282562,-1.374861478805542,0.00476844422519207,-0.5052643418312073,0.21648737788200378,1.3576951026916504,0.01430533267557621,0.4980163276195526,-0.053215838968753815,-0.3572518527507782,-0.07534141838550568,0.09708552807569504,0.5666819214820862,-0.3356200158596039,0.03472552448511124,-0.50030517578125,-0.02727550081908703,0.05970092490315437,0.5178530812263489,-0.12337804585695267,0.009892754256725311,0.37968429923057556,-1.7292550802230835,-0.48360705375671387,-0.5004351735115051,-0.004423724953085184,-0.6195286512374878,0.5985142588615417,-0.7042210102081299,0.006630537565797567,-0.06090988591313362,0.6896508932113647,-3.8465933799743652,-0.3339998424053192,1.5892119407653809,5.561591625213623,-3.0570180416107178,0.19223181903362274,-3.1706674098968506,-0.2987571954727173,0.21148476004600525,1.8575279712677002,-1.0801602602005005,0.6935749650001526,1741504756.9152484,1741504756833,-3.073523193359375,-1.171474365234375,0.1843183646050087,-4.094017578125,1.4393089599609374
1741504756.9401217,-3.8345813751220703,0.06904493400237684,-0.0908876704922965,-0.9934647595365883,0.32443538308143616,1.477558970451355,-0.30606746673583984,0.5504790544509888,4.8576459884643555,10.232304573059082,-0.50946044921875,0.5453195571899414,0.16041046380996704,-1.3798205852508545,0.00476844422519207,-0.5212863087654114,0.2149614691734314,1.3504470586776733,0.01506828423589468,0.4987792670726776,-0.005149920005351305,-0.4640650153160095,-0.08602273464202881,0.10700388997793198,0.7303349375724792,-0.39496922492980957,0.021350501105189323,-0.5521858334541321,-0.03795681521296501,0.050164032727479935,0.5590524077415466,-0.1509159356355667,0.019829345867037773,-0.018581422045826912,-1.0449415445327759,-0.03522556275129318,-0.23877184092998505,-0.0053778160363435745,-0.8102620244026184,-0.196968674659729,-0.46402883529663086,0.04009935259819031,0.12905392050743103,2.7605044841766357,-5.576462745666504,-0.516222357749939,0.18482232093811035,8.189350128173828,-2.9848737716674805,-0.821964681148529,-2.58077073097229,-0.4706823229789734,-0.5051806569099426,2.13813853263855,-1.3043779134750366,0.5092938542366028,1741504756.9152484,1741504756833,-3.073523193359375,-1.171474365234375,0.1843183646050087,-4.094017578125,1.4393089599609374
1741504756.9601572,-3.8585455417633057,0.09537290217249055,-0.08294762422961223,-0.991979687879676,-0.3290325105190277,1.1474956274032593,-1.2647813558578491,1.0382885932922363,-2.7097411155700684,8.220379829406738,-0.5018310546875,0.5514230728149414,0.16880293190479279,-1.374861478805542,0.00476844422519207,-0.5365453362464905,0.1985580176115036,1.3508285284042358,0.015449759550392628,0.5041199326515198,0.061226826161146164,-0.5907148718833923,-0.07343403995037079,0.08907453715801239,0.9046692848205566,-0.4485693871974945,0.0042490167543292046,-0.5930037498474121,-0.043678950518369675,0.04100862145423889,0.6017776727676392,-0.17306965589523315,0.025761166587471962,0.19434747099876404,0.1432628333568573,0.4859922230243683,0.3726651072502136,-0.002137111034244299,-0.7783817052841187,-1.3108582496643066,0.1147572249174118,0.04852835088968277,0.4236922562122345,3.1253185272216797,-5.947515487670898,0.6317144632339478,-1.0777995586395264,8.723004341125488,-2.7783589363098145,-0.9563295245170593,-1.667080283164978,-0.27166545391082764,-0.29976245760917664,2.1015074253082275,-1.1185905933380127,0.21946166455745697,1741504756.9152484,1741504756833,-3.073523193359375,-1.171474365234375,0.1843183646050087,-4.094017578125,1.4393089599609374
1741504756.980158,-3.881967782974243,0.11135659490139178,-0.06954683763052895,-0.9913440099922731,-0.5483195185661316,0.5368061661720276,-1.1600329875946045,7.362927436828613,5.61624813079834,9.140259742736816,-0.48809814453125,0.5624856948852539,0.18787670135498047,-1.366087555885315,0.00476844422519207,-0.5487525463104248,0.17223620414733887,1.3496840000152588,0.01506828423589468,0.5197604298591614,0.08907453715801239,-0.6654840707778931,-0.06160829961299896,0.06542305648326874,1.0233081579208374,-0.4972987174987793,-0.004853400867432356,-0.5987258553504944,-0.04406042397022247,0.040245670825242996,0.6349660754203796,-0.19212697446346283,0.019218740984797478,0.3828890323638916,0.3805072009563446,0.9901617765426636,0.5344784259796143,0.02294912375509739,-0.4939182698726654,-1.6231656074523926,-0.21748356521129608,-0.0008486078004352748,1.1628295183181763,1.0122195482254028,-3.191408157348633,0.5368152856826782,-1.0739564895629883,5.21788215637207,-2.382633686065674,-0.24247314035892487,-0.44820454716682434,0.038022059947252274,-0.11439792811870575,1.418769359588623,-0.8800786733627319,-0.33815956115722656,1741504756.9152484,1741504756833,-3.073523193359375,-1.171474365234375,0.1843183646050087,-4.094017578125,1.4393089599609374
1741504757.0001612,-3.8893446922302246,0.10074474479263366,-0.06165945135097011,-0.9929998028477974,-0.2655539810657501,-0.6672682762145996,-0.232562854886055,-4.4320173263549805,-5.051865577697754,12.019429206848145,-0.47283935546875,0.5693521499633789,0.2130540907382965,-1.36837637424469,0.005149920005351305,-0.5548561811447144,0.15621423721313477,1.3428175449371338,0.01430533267557621,0.5392156839370728,0.07915617525577545,-0.6803616285324097,-0.05664911866188049,0.0555046908557415,1.0545891523361206,-0.5341498851776123,0.0030610349494963884,-0.6021591424942017,-0.04253452271223068,0.04139009863138199,0.6540398001670837,-0.20688268542289734,0.01286248303949833,0.4560467600822449,0.20764708518981934,1.1872367858886719,-0.24112747609615326,-0.011440073139965534,-0.33701828122138977,-0.9750714302062988,-0.43269217014312744,-0.048312798142433167,1.300802230834961,-0.8684054017066956,-0.15584097802639008,0.24264845252037048,-0.4387488067150116,0.8673412799835205,-1.731316089630127,0.4744369387626648,0.21765300631523132,0.021309634670615196,0.07037010043859482,1.1150771379470825,-0.7785810828208923,-0.2621670663356781,1741504756.9152484,1741504756833,-3.073523193359375,-1.171474365234375,0.1843183646050087,-4.094017578125,1.4393089599609374
1741504757.020201,-3.877870798110962,0.08366799786036921,-0.062271904488115495,-0.9945460653209887,0.018632790073752403,-0.8539425730705261,0.6256923079490662,7.097306728363037,1.8647834062576294,5.799492835998535,-0.48046875,0.5342569351196289,0.22678720951080322,-1.3702837228775024,0.005149920005351305,-0.5678263306617737,0.1527809500694275,1.3348065614700317,0.01430533267557621,0.5632486343383789,0.04139009863138199,-0.6258106231689453,-0.049782559275627136,0.05130846053361893,1.0015640258789062,-0.5512386560440063,-0.0016159189399331808,-0.5907148718833923,-0.04139009863138199,0.04100862145423889,0.6773098111152649,-0.2266428917646408,0.016357267275452614,-0.2144017219543457,-0.9831250309944153,0.4952915608882904,-0.04194240644574165,0.0021698607597500086,-0.6939924359321594,-0.07601504772901535,-0.5744558572769165,-0.0008893216727301478,1.5913043022155762,-1.9097532033920288,2.825762987136841,0.31349417567253113,-0.1959942877292633,-3.3446221351623535,-0.7524492740631104,-0.3895775079727173,0.2725018262863159,0.1277259737253189,-0.005323027726262808,1.1237571239471436,-1.0485594272613525,0.18235015869140625,1741504757.12016,1741504756933,-3.078292236328125,-1.15947412109375,0.8113162977331299,-4.025809814453125,1.4056630859375001
1741504757.0402358,-3.867380142211914,0.06093179479477226,-0.06660903641097964,-0.995916940638871,0.16341598331928253,-1.0028948783874512,0.5349907279014587,-8.243946075439453,-2.6629936695098877,4.631455421447754,-0.47283935546875,0.4877166748046875,0.2294575423002243,-1.3695207834243774,0.005149920005351305,-0.5884260535240173,0.1665140837430954,1.3264141082763672,0.014686808921396732,0.5838482975959778,0.01506828423589468,-0.5544747114181519,-0.04634927958250046,0.05130846053361893,0.8649957776069641,-0.5639657378196716,0.000533165002707392,-0.6071183085441589,-0.030708782374858856,0.034142062067985535,0.7101167440414429,-0.2572125792503357,0.013587313704192638,0.1767546534538269,-1.3756848573684692,0.1501593142747879,0.010420544072985649,-0.005582534242421389,-1.1040706634521484,1.058866262435913,-0.5338648557662964,0.00825781375169754,1.3248823881149292,-0.9848933815956116,3.7681543827056885,0.004302667453885078,0.0918968990445137,-7.39576530456543,-0.6681863069534302,0.41686034202575684,-0.7974534034729004,0.5377779603004456,-0.39495253562927246,1.8619204759597778,-1.6299649477005005,-0.27864521741867065,1741504757.12016,1741504756933,-3.078292236328125,-1.15947412109375,0.8113162977331299,-4.025809814453125,1.4056630859375001
1741504757.0602663,-3.869580030441284,0.04983989501225082,-0.06360230770186003,-0.9967300192731058,-0.24750249087810516,-0.6570949554443359,-0.43627873063087463,-13.145042419433594,2.607016086578369,19.73188018798828,-0.4869537353515625,0.4346914291381836,0.23479819297790527,-1.362654209136963,0.004005493130534887,-0.6158922910690308,0.17795833945274353,1.318021535873413,0.014686808921396732,0.6029220819473267,0.013160906732082367,-0.49076828360557556,-0.06275273114442825,0.06504157930612564,0.7600900530815125,-0.5408759117126465,0.00015316451026592404,-0.620088517665863,-0.02536812424659729,0.01926451548933983,0.768482506275177,-0.2976691424846649,0.013578596524894238,-0.3919839560985565,-1.5837663412094116,0.33006715774536133,0.584217369556427,-0.09050791710615158,-1.405869722366333,0.6804550290107727,-0.53608638048172,0.03939323127269745,1.1393579244613647,-0.27669602632522583,2.8546500205993652,-0.7966732978820801,0.8763671517372131,-3.0591139793395996,2.0245513916015625,0.09528658539056778,-0.82860267162323,-0.37899747490882874,-0.4832196831703186,2.9916110038757324,-2.1197047233581543,0.1337181031703949,1741504757.12016,1741504756933,-3.078292236328125,-1.15947412109375,0.8113162977331299,-4.025809814453125,1.4056630859375001
1741504757.0802763,-3.8875820636749268,0.03816365295113295,-0.07294933505670503,-0.9966052027298523,0.5557433366775513,-0.5410996675491333,-1.0048344135284424,-9.562724113464355,-7.830683708190918,9.734129905700684,-0.4571981430053711,0.3740367889404297,0.2470054179430008,-1.3542617559432983,0.005531395319849253,-0.6349660754203796,0.17948424816131592,1.312680959701538,0.014686808921396732,0.6204699873924255,0.04596780240535736,-0.49153125286102295,-0.08068207651376724,0.06046387553215027,0.7742046117782593,-0.5004171133041382,0.02140725404024124,-0.6342030763626099,-0.0551232174038887,0.01201647985726595,0.7974746227264404,-0.3436824381351471,0.014999797567725182,0.9713515043258667,-1.9692151546478271,0.6004958748817444,0.35526567697525024,0.03296331316232681,-0.8418373465538025,0.028472911566495895,-0.35033416748046875,-0.09100908041000366,1.3626689910888672,1.9389804601669312,-0.8463282585144043,-0.48800110816955566,-0.8110510110855103,0.13226766884326935,1.766567349433899,1.383063793182373,-0.37046754360198975,-0.9389951229095459,-0.8120909333229065,1.332430362701416,-2.380683183670044,0.04027090221643448,1741504757.12016,1741504756933,-3.078292236328125,-1.15947412109375,0.8113162977331299,-4.025809814453125,1.4056630859375001
1741504757.100306,-3.901689291000366,0.037620192123046646,-0.08069913363348755,-0.9960282982804403,0.36937978863716125,0.1105344220995903,-0.6516846418380737,9.752367973327637,-11.718748092651367,8.36413288116455,-0.4861907958984375,0.3095674514770508,0.25425344705581665,-1.3527358770370483,0.00476844422519207,-0.6548027992248535,0.17795833945274353,1.306958794593811,0.01430533267557621,0.6460288166999817,0.07801175117492676,-0.49382010102272034,-0.06351567804813385,0.02536812424659729,0.7726787328720093,-0.48000216484069824,0.023308370262384415,-0.6219958662986755,-0.07343403995037079,-0.016212711110711098,0.8127336502075195,-0.3864845037460327,0.02457716129720211,-0.7062273621559143,-2.0730996131896973,0.24634011089801788,0.2535560429096222,-0.017629850655794144,-1.035103678703308,-0.0815005749464035,-0.34640610218048096,-0.006664510816335678,1.696717619895935,1.3591080904006958,0.09833749383687973,0.6890767812728882,-1.590583086013794,0.001523515093140304,0.9922549724578857,-0.44874683022499084,0.7096661329269409,-0.9351211786270142,-1.2832070589065552,0.7448927760124207,-2.0168895721435547,0.586704432964325,1741504757.12016,1741504756933,-3.078292236328125,-1.15947412109375,0.8113162977331299,-4.025809814453125,1.4056630859375001
1741504757.120317,-3.9030699729919434,0.038690325184909925,-0.07425187047415722,-0.996488694601286,-0.37748071551322937,0.08227747678756714,0.03257911652326584,2.124737501144409,-3.6591877937316895,11.152002334594727,-0.498779296875,0.2718009948730469,0.2508201599121094,-1.3405286073684692,0.00476844422519207,-0.6776912808418274,0.17643244564533234,1.3050514459609985,0.01430533267557621,0.6689173579216003,0.09975585341453552,-0.4961089491844177,-0.0875486359000206,0.03643091395497322,0.7734416723251343,-0.47571930289268494,0.008708056062459946,-0.6116960644721985,-0.0864042118191719,-0.032616160809993744,0.8207446336746216,-0.41011232137680054,0.03779664635658264,-0.3524284362792969,-1.2197458744049072,-0.2573190927505493,0.8547201156616211,-0.0031758237164467573,-1.0986768007278442,-0.06927912682294846,-0.026781678199768066,-0.010053861886262894,1.5264767408370972,1.1073582172393799,-0.211861714720726,-1.3221416473388672,0.6089378595352173,0.22694344818592072,0.17210735380649567,-0.116129070520401,0.45878639817237854,-0.6021572947502136,-0.8074349164962769,0.29898691177368164,-0.98941969871521,0.6519358158111572,1741504757.1202211,1741504757033,-3.076187744140625,-1.17949462890625,0.539715484049641,-3.956569580078125,1.373194091796875
1741504757.1403556,-3.8940865993499756,0.03903367893981404,-0.06370720068396023,-0.9972049761656011,-0.5155869126319885,0.067003533244133,0.40043798089027405,0.6405323147773743,5.129817485809326,9.335575103759766,-0.4900054931640625,0.2847719192504883,0.23823148012161255,-1.3222178220748901,0.00476844422519207,-0.6914244294166565,0.17872129380702972,1.312680959701538,0.01506828423589468,0.6891355514526367,0.12531471252441406,-0.508316159248352,-0.08220797777175903,0.032616160809993744,0.8001449704170227,-0.4791811406612396,0.023169755935668945,-0.5884260535240173,-0.08068207651376724,-0.0551232174038887,0.8096818327903748,-0.4173581004142761,0.0312407948076725,0.20176099240779877,0.5363134145736694,-0.749025285243988,1.2433431148529053,0.006200745236128569,-0.7007408738136292,0.19286400079727173,0.5619202256202698,0.05041215568780899,1.3382489681243896,1.2498486042022705,-0.5432763695716858,0.7850857377052307,-0.8151564598083496,1.2588598728179932,-0.2818630039691925,0.570236325263977,1.231583595275879,0.3688426911830902,-1.0135167837142944,-0.5373669266700745,-0.19538843631744385,-0.44096997380256653,1741504757.1202211,1741504757033,-3.076187744140625,-1.17949462890625,0.539715484049641,-3.956569580078125,1.373194091796875
1741504757.160352,-3.8816189765930176,0.03337439159394369,-0.048108930394939436,-0.9982843687056253,-0.938199520111084,-0.29349708557128906,0.554896891117096,3.8187642097473145,-3.4251105785369873,11.857869148254395,-0.487335205078125,0.3023195266723633,0.2145799994468689,-1.304669976234436,0.005149920005351305,-0.7059205174446106,0.18635080754756927,1.315732717514038,0.01506828423589468,0.7055390477180481,0.1363775134086609,-0.4968718886375427,-0.04634927958250046,-0.01888304017484188,0.7955672740936279,-0.48396188020706177,0.006207140162587166,-0.5735484957695007,-0.06237125024199486,-0.0715266615152359,0.8104447722434998,-0.4286344647407532,0.004971442744135857,0.11246073246002197,0.7490134835243225,-1.2714403867721558,1.125248670578003,0.0013449969701468945,-0.7699483036994934,0.5576755404472351,0.14616209268569946,-0.018522366881370544,1.0137118101119995,0.5207328200340271,0.8934502601623535,2.121978521347046,-2.666537046432495,-0.5104007720947266,-0.18635185062885284,-0.998109757900238,0.44216981530189514,0.7824907898902893,-0.772100567817688,0.17659370601177216,-0.673714816570282,-1.458378553390503,1741504757.1202211,1741504757033,-3.076187744140625,-1.17949462890625,0.539715484049641,-3.956569580078125,1.373194091796875
1741504757.1803863,-3.873849630355835,0.023026332838331127,-0.023927126346866633,-0.9994484882277823,-1.2757176160812378,-0.4692702293395996,0.2849266529083252,-4.205060958862305,-2.787402629852295,11.242841720581055,-0.4999237060546875,0.3072786331176758,0.19245441257953644,-1.2905553579330444,0.00476844422519207,-0.7215610146522522,0.1997024416923523,1.3210734128952026,0.015449759550392628,0.7188906669616699,0.15354390442371368,-0.4663538634777069,-0.019645990803837776,-0.0398641936480999,0.7959487438201904,-0.48002636432647705,0.005077346693724394,-0.5830853581428528,-0.04940108209848404,-0.08525978773832321,0.8348592519760132,-0.4503098726272583,-0.011224696412682533,-0.43921375274658203,0.31805676221847534,-0.9759055376052856,0.8998871445655823,-0.015471408143639565,-0.7492216229438782,0.9381514191627502,0.4018705487251282,0.024258475750684738,0.9533824920654297,0.7294265031814575,1.0019980669021606,0.9894275069236755,-0.39024147391319275,0.16903729736804962,0.23479123413562775,0.10248437523841858,-0.2348041534423828,0.49153515696525574,-0.7577390074729919,1.7117940187454224,-1.1223551034927368,-0.3192007839679718,1741504757.1202211,1741504757033,-3.076187744140625,-1.17949462890625,0.539715484049641,-3.956569580078125,1.373194091796875
1741504757.2003825,-3.87716007232666,0.016326821462297535,-0.0042551645298106585,-0.9998576541067046,-0.8550834059715271,-0.3262185752391815,-0.25342315435409546,2.2868599891662598,1.1156864166259766,6.478056907653809,-0.4861907958984375,0.2893495559692383,0.182917520403862,-1.2794926166534424,0.00476844422519207,-0.734912633895874,0.2130540907382965,1.3267955780029297,0.015449759550392628,0.734149694442749,0.1672770231962204,-0.4682612419128418,-0.001716639962978661,-0.04940108209848404,0.8024337887763977,-0.48090246319770813,0.00628183176741004,-0.6197070479393005,-0.06008239835500717,-0.1199740618467331,0.9340428709983826,-0.47451215982437134,0.006393531337380409,0.42117005586624146,-0.431519091129303,-0.5120573043823242,0.6649572253227234,0.0005595774855464697,-0.6317614316940308,0.8945447206497192,0.21545906364917755,-0.011927040293812752,1.0862425565719604,0.6298978328704834,-0.005175488069653511,0.917819082736969,-0.4536553621292114,0.3472707271575928,-0.06497746706008911,-0.2062576860189438,-2.245634078979492,-0.49798640608787537,-2.016101360321045,5.426141738891602,-1.178611159324646,0.8479453921318054,1741504757.1202211,1741504757033,-3.076187744140625,-1.17949462890625,0.539715484049641,-3.956569580078125,1.373194091796875
1741504757.220399,-3.895573854446411,0.016393714996650204,0.004337563098468784,-0.9998562054890571,-0.36246350407600403,0.002434081630781293,-1.008743166923523,-2.5222649574279785,0.9428321123123169,12.009422302246094,-0.4854278564453125,0.24319076538085938,0.16918440163135529,-1.2726260423660278,0.00476844422519207,-0.7513160705566406,0.22640573978424072,1.3187845945358276,0.015449759550392628,0.7558938264846802,0.1817730963230133,-0.4705500900745392,0.01125352829694748,-0.0398641936480999,0.8096818327903748,-0.4854445457458496,0.003195024561136961,-0.7070649266242981,-0.08144503086805344,-0.16994735598564148,1.0885404348373413,-0.4847918152809143,0.004990077577531338,0.02766251750290394,-1.282243013381958,-0.7127341628074646,0.4059349596500397,-0.0024570184759795666,-0.8084859848022461,0.8243630528450012,-0.6176228523254395,-0.0014526387676596642,1.517576813697815,0.5994044542312622,-0.23845316469669342,0.5789377093315125,0.7250829935073853,0.29402121901512146,-0.283313125371933,-0.0922146812081337,-4.147480010986328,-1.229886531829834,-2.3958797454833984,7.861367225646973,-0.37510886788368225,-0.31421542167663574,1741504757.1202211,1741504757033,-3.076187744140625,-1.17949462890625,0.539715484049641,-3.956569580078125,1.373194091796875
1741504757.2404683,-3.9214627742767334,0.0171708687074149,0.00592532160232098,-0.9998350123054012,-0.0027961041778326035,-0.016097145155072212,-1.2711197137832642,7.279717445373535,-1.8149738311767578,12.915919303894043,-0.4892425537109375,0.21915817260742188,0.15812161564826965,-1.2714815139770508,0.00476844422519207,-0.7665750980377197,0.2309834510087967,1.3050514459609985,0.01506828423589468,0.7810711860656738,0.18978407979011536,-0.4701686203479767,0.023079270496964455,-0.02193484455347061,0.8100633025169373,-0.4965966045856476,-0.0027673407457768917,-0.7894636392593384,-0.11425192654132843,-0.1981765478849411,1.2308309078216553,-0.4796256721019745,-0.0012657084735110402,-0.11030902713537216,-0.7228884696960449,-0.5547651052474976,0.004541326314210892,-0.004775010980665684,-0.7905676364898682,0.36383509635925293,-0.9832566976547241,-0.0006326159345917404,1.6811535358428955,0.3858218789100647,0.061738237738609314,0.6626196503639221,0.9183381795883179,-0.06544528156518936,-0.5769842267036438,-0.19154667854309082,-4.043320655822754,-1.5851446390151978,-1.2396531105041504,6.656617641448975,0.3740868866443634,0.010641493834555149,1741504757.3248694,1741504757133,-3.092135009765625,-1.1893044433593751,-0.028058007263977346,-3.890179931640625,1.33985791015625
1741504757.260459,-3.9495773315429688,0.012823013257420995,0.003815026942823816,-0.9999105039454409,0.10588061809539795,-0.18445472419261932,-1.434113621711731,5.3747239112854,-1.689884066581726,11.44260025024414,-0.48809814453125,0.21267223358154297,0.14476996660232544,-1.2733889818191528,0.00476844422519207,-0.7791637778282166,0.24242770671844482,1.2897924184799194,0.01506828423589468,0.7982375621795654,0.1997024416923523,-0.44804301857948303,0.040245670825242996,-0.009727626107633114,0.805867075920105,-0.5101919174194336,-0.009627863764762878,-0.8215075731277466,-0.1333257108926773,-0.2157244235277176,1.2930114269256592,-0.46286046504974365,0.011076371185481548,0.02679448015987873,-0.21824932098388672,-0.7311749458312988,-0.08743374049663544,-0.011206275783479214,-0.6335835456848145,0.8032975196838379,-0.9370364546775818,-0.005083066876977682,1.0023558139801025,0.4577605724334717,1.2770284414291382,0.774074137210846,0.6001219153404236,-0.2618429958820343,-0.6968289017677307,-0.4743749797344208,-1.1131192445755005,-0.6912240386009216,-0.9599894285202026,2.275944471359253,0.8590677976608276,0.5238152146339417,1741504757.3248694,1741504757133,-3.092135009765625,-1.1893044433593751,-0.028058007263977346,-3.890179931640625,1.33985791015625
1741504757.2804885,-3.976658582687378,0.005547910873521071,0.004621536902907541,-0.999973930700993,-0.0665295273065567,-0.3695632219314575,-1.3287956714630127,2.1614370346069336,-3.978970766067505,10.972023010253906,-0.4938201904296875,0.21038341522216797,0.12912946939468384,-1.2722445726394653,0.00476844422519207,-0.7894636392593384,0.2569237947463989,1.2821629047393799,0.01506828423589468,0.8070115447044373,0.20122835040092468,-0.41218432784080505,0.05359731614589691,-0.005912871100008488,0.7898451089859009,-0.5274286270141602,-0.018437284976243973,-0.8024337887763977,-0.13981078565120697,-0.23403525352478027,1.2548638582229614,-0.4450578987598419,0.001381099340505898,-0.14893729984760284,-0.0497051477432251,-0.7667178511619568,0.05423823371529579,-0.01063400600105524,-0.5178478956222534,0.994584321975708,-0.44428330659866333,0.00028968381229788065,0.48078426718711853,0.04003173112869263,1.9274510145187378,0.6175004839897156,-0.048056770116090775,-0.7526587247848511,-0.8070344924926758,-0.42528557777404785,1.2124533653259277,-0.3880263864994049,-0.9203127026557922,-2.6080431938171387,0.8768637776374817,-0.6210011839866638,1741504757.3248694,1741504757133,-3.092135009765625,-1.1893044433593751,-0.028058007263977346,-3.890179931640625,1.33985791015625
1741504757.3005233,-3.9924612045288086,-0.0060276126568337834,0.008518662486502201,-0.9999455486550757,-0.20409394800662994,-0.6246613264083862,-0.7242609262466431,1.7124149799346924,-3.9465863704681396,8.375889778137207,-0.502593994140625,0.22106552124023438,0.11425192654132843,-1.2695741653442383,0.005149920005351305,-0.7951858043670654,0.273708701133728,1.2817814350128174,0.01506828423589468,0.8100633025169373,0.20923933386802673,-0.3702220320701599,0.06160829961299896,-0.013542382046580315,0.768482506275177,-0.5460582971572876,-0.02331671118736267,-0.7539864182472229,-0.13942931592464447,-0.25539788603782654,1.1362248659133911,-0.43256136775016785,-0.0051496089436113834,-0.2318328320980072,0.2615808844566345,-0.7553505897521973,0.18005973100662231,-0.002948528854176402,-0.252460777759552,1.1083296537399292,-0.018249280750751495,-0.024929730221629143,0.17397823929786682,0.3148581385612488,2.0735557079315186,0.259461373090744,-0.35982856154441833,-1.0773804187774658,-0.8925716876983643,-0.24673902988433838,2.5789027214050293,0.058704253286123276,-1.187822699546814,-6.309401988983154,0.5465258359909058,-0.11408165097236633,1741504757.3248694,1741504757133,-3.092135009765625,-1.1893044433593751,-0.028058007263977346,-3.890179931640625,1.33985791015625
1741504757.3204985,-3.9972903728485107,-0.018256611082423498,0.014267362936838262,-0.9997315332160998,-0.283720463514328,-0.5948125123977661,-0.14094582200050354,-2.05645489692688,-0.6273695230484009,7.593646049499512,-0.4957275390625,0.24242782592773438,0.1024261862039566,-1.2680482864379883,0.005149920005351305,-0.7970931529998779,0.28934919834136963,1.2817814350128174,0.014686808921396732,0.8119707107543945,0.2141985148191452,-0.32940414547920227,0.058175019919872284,-0.03147173300385475,0.7463569045066833,-0.5618324875831604,-0.019895106554031372,-0.6849393248558044,-0.13828489184379578,-0.28744181990623474,0.9809643626213074,-0.42988866567611694,0.0002661845355760306,0.16703656315803528,0.49151453375816345,-0.5669827461242676,0.09176837652921677,-0.0002942384162452072,-0.13180340826511383,1.0286123752593994,0.02477172017097473,-0.02040407806634903,0.16466128826141357,0.2789129316806793,1.9459564685821533,-0.29483094811439514,-0.7547504305839539,-1.1238666772842407,-0.7447232007980347,0.2464001178741455,3.546180486679077,0.025290291756391525,-1.5851304531097412,-7.851889133453369,0.012987075373530388,0.17404967546463013,1741504757.3248694,1741504757133,-3.092135009765625,-1.1893044433593751,-0.028058007263977346,-3.890179931640625,1.33985791015625
1741504757.3405588,-4.000965356826782,-0.023047771780783138,0.017801233462332883,-0.9995758682076916,-0.15334005653858185,-0.1900894194841385,-0.2499874085187912,-2.878202438354492,1.4035102128982544,6.961289405822754,-0.4884796142578125,0.2515830993652344,0.09403372555971146,-1.2676668167114258,0.00476844422519207,-0.805867075920105,0.30537116527557373,1.2806370258331299,0.01506828423589468,0.813115119934082,0.22716869413852692,-0.30155640840530396,0.05092698708176613,-0.04634927958250046,0.734912633895874,-0.5717455148696899,-0.0070625958032906055,-0.6254291534423828,-0.14019227027893066,-0.32101166248321533,0.838674008846283,-0.4407021999359131,-0.0036915945820510387,0.21201781928539276,0.24236059188842773,-0.4333040118217468,0.018498176708817482,-0.015840649604797363,-0.5025284290313721,1.1391617059707642,-0.07733650505542755,0.010178707540035248,0.0009855146054178476,0.794844388961792,1.289568305015564,-0.3730311095714569,-0.7121148705482483,-0.5058555603027344,-0.46228861808776855,0.6174161434173584,2.740482807159424,-0.09667473286390305,-1.6642979383468628,-6.75393009185791,-0.6272642016410828,-0.24003218114376068,1741504757.3248694,1741504757133,-3.092135009765625,-1.1893044433593751,-0.028058007263977346,-3.890179931640625,1.33985791015625
1741504757.3605752,-4.020949125289917,-0.016472674899305,0.014483282057769073,-0.9997594138203936,0.2103693038225174,0.4154079556465149,-1.1808420419692993,2.1219482421875,0.8868203163146973,6.433800220489502,-0.472076416015625,0.2553977966308594,0.09441519528627396,-1.2665224075317383,0.00476844422519207,-0.8230335116386414,0.31719690561294556,1.2779666185379028,0.014686808921396732,0.8127336502075195,0.2462424635887146,-0.28591591119766235,0.03604944050312042,-0.04901960864663124,0.727664589881897,-0.568008303642273,-0.009464721195399761,-0.5968185067176819,-0.14324407279491425,-0.3530556261539459,0.7421606779098511,-0.46089184284210205,-0.004411921836435795,0.4687991440296173,0.15487796068191528,0.14685826003551483,0.07462206482887268,-0.009962818585336208,-0.8847711086273193,0.5854328274726868,-0.2423076182603836,0.015629533678293228,0.02313438430428505,0.7999213337898254,0.7512528896331787,-0.770113468170166,-0.19218960404396057,-0.32602035999298096,0.38442862033843994,-0.19064535200595856,1.053110957145691,-0.24375879764556885,-1.437330961227417,-4.537175178527832,-0.9346760511398315,0.10919612646102905,1741504757.3248694,1741504757133,-3.092135009765625,-1.1893044433593751,-0.028058007263977346,-3.890179931640625,1.33985791015625
1741504757.3807578,-4.050420761108398,-0.009132913937329724,0.005137825512437175,-0.9999450948087186,0.40903282165527344,0.26007628440856934,-1.461307168006897,-6.28442907333374,-12.817625999450684,14.58663272857666,-0.4694061279296875,0.2759971618652344,0.11272602528333664,-1.2676668167114258,0.005149920005351305,-0.841725766658783,0.3107118308544159,1.2695741653442383,0.014686808921396732,0.811589241027832,0.2607385218143463,-0.27103838324546814,0.02079041674733162,-0.056267641484737396,0.7211795449256897,-0.5342110991477966,-0.013494323939085007,-0.5956740379333496,-0.15430685877799988,-0.36602577567100525,0.7513160705566406,-0.46205854415893555,-0.011932331137359142,0.10981915146112442,0.6195341348648071,0.9748417735099792,-0.16171149909496307,0.044384509325027466,-0.8652030825614929,-0.5150421261787415,-0.5468053817749023,0.005319561809301376,-0.23228617012500763,0.6309079527854919,0.7353098392486572,-0.7937251925468445,-0.29424795508384705,-0.37392404675483704,1.9913885593414307,-0.15761017799377441,0.3000659644603729,-0.27368104457855225,-0.5074874758720398,1.2937637567520142,-0.17155152559280396,-0.5062546730041504,1741504757.3248694,1741504757133,-3.092135009765625,-1.1893044433593751,-0.028058007263977346,-3.890179931640625,1.33985791015625
1741504757.4008317,-4.0856852531433105,0.0011700368145042622,0.0020563380630379737,-0.999997201239895,0.15456794202327728,0.5376878976821899,-1.7821555137634277,3.6292052268981934,-9.307442665100098,6.760708332061768,-0.47589111328125,0.2950716018676758,0.13828489184379578,-1.2669038772583008,0.00476844422519207,-0.8501182794570923,0.291638046503067,1.2665224075317383,0.01506828423589468,0.8100633025169373,0.2645532786846161,-0.2573052644729614,-0.000572213320992887,-0.07457847148180008,0.7135500311851501,-0.48852360248565674,-0.010966107249259949,-0.5849927663803101,-0.16117341816425323,-0.3530556261539459,0.7791637778282166,-0.47168365120887756,-0.013940973207354546,-0.2272523194551468,0.7129371166229248,1.258562684059143,0.09962064772844315,-0.01463871356099844,-0.369392067193985,-1.4289133548736572,-0.11849075555801392,0.018417397513985634,0.04237985238432884,0.31649744510650635,0.5834643244743347,-1.0788856744766235,-1.0918285846710205,-0.14416249096393585,2.1740052700042725,0.27180227637290955,0.3848096430301666,-0.4724125266075134,0.9171460270881653,0.9290220737457275,-0.5186082720756531,0.27415552735328674,1741504757.3248694,1741504757133,-3.092135009765625,-1.1893044433593751,-0.028058007263977346,-3.890179931640625,1.33985791015625
1741504757.420804,-4.113972425460815,0.008222202325396607,6.432490875216783e-05,-0.9999661950542259,0.05736347287893295,0.3171009421348572,-1.4822076559066772,-2.8854732513427734,-7.772045135498047,16.248188018798828,-0.470550537109375,0.3126192092895508,0.16308079659938812,-1.2657594680786133,0.004386968910694122,-0.8546959757804871,0.27065691351890564,1.2672853469848633,0.014686808921396732,0.8112077713012695,0.2809567451477051,-0.2641718089580536,-0.01888304017484188,-0.12302586436271667,0.7558938264846802,-0.4553157091140747,0.0104012256488204,-0.579270601272583,-0.15697719156742096,-0.33360037207603455,0.7795453071594238,-0.47574079036712646,-0.0049753799103200436,0.15839505195617676,0.6116821765899658,1.1818733215332031,0.078202024102211,-0.07420005649328232,-0.19678157567977905,-1.3220220804214478,0.047125160694122314,-0.007354377303272486,0.019552063196897507,0.5700083374977112,-0.8649755716323853,-1.0129772424697876,-2.647871494293213,2.751666307449341,1.5717209577560425,1.1452031135559082,0.5905203223228455,0.5990340709686279,0.7134984731674194,0.20845839381217957,-0.05963442847132683,0.2515493333339691,1741504757.3248694,1741504757133,-3.092135009765625,-1.1893044433593751,-0.028058007263977346,-3.890179931640625,1.33985791015625
1741504757.440879,-4.1234540939331055,0.012806333708479155,0.004530595051589393,-0.9999077315059752,-0.2624005973339081,0.19414375722408295,-0.2957279086112976,-6.833275318145752,-3.614856004714966,10.279180526733398,-0.47589111328125,0.3385591506958008,0.17872129380702972,-1.2672853469848633,0.005149920005351305,-0.8550774455070496,0.25196459889411926,1.2749148607254028,0.01506828423589468,0.813115119934082,0.28934919834136963,-0.3248264193534851,-0.03795681521296501,-0.1836804747581482,0.881017804145813,-0.42220279574394226,0.024853486567735672,-0.5647745728492737,-0.1340886503458023,-0.31910428404808044,0.7776378989219666,-0.4754886031150818,-0.008139565587043762,-0.14997410774230957,0.7616878747940063,0.6334043145179749,-0.14590473473072052,0.009692064486443996,-0.010827259160578251,-1.1623691320419312,0.6107692122459412,0.04732434079051018,0.05672832950949669,0.26548507809638977,-3.5886969566345215,-1.0131703615188599,-3.228849172592163,6.877866744995117,1.7910544872283936,0.5415894985198975,0.6503347754478455,1.1907501220703125,0.7877916097640991,-0.27207282185554504,-0.05261309817433357,0.022867241874337196,1741504757.5296433,1741504757333,-3.140516845703125,-1.13402685546875,-0.6593430709124625,-3.77450390625,1.2747894287109376
1741504757.46087,-4.109684705734253,0.012798265390968074,0.013835663960840657,-0.9998223736273083,-0.49552348256111145,0.007792736869305372,0.7853749990463257,-0.4548646807670593,-0.5803314447402954,8.559381484985352,-0.4777984619140625,0.3572521209716797,0.18940261006355286,-1.2684297561645508,0.005149920005351305,-0.8581292629241943,0.23327229917049408,1.2821629047393799,0.01506828423589468,0.8169298768043518,0.28782328963279724,-0.4373617172241211,-0.06313420087099075,-0.2283131182193756,1.0698481798171997,-0.38734495639801025,0.012104758992791176,-0.5495155453681946,-0.11196307092905045,-0.3076600432395935,0.7658121585845947,-0.475847065448761,-0.007126509677618742,-0.06561966985464096,0.6172902584075928,0.5292737483978271,-0.0471341647207737,0.0008457185467705131,-0.2156689316034317,-1.317609190940857,0.3909854590892792,-0.025520911440253258,0.30228495597839355,-0.09437256306409836,-5.909244537353516,-1.361575722694397,-1.824198842048645,9.6377592086792,1.500896692276001,-0.7699199318885803,0.803418755531311,1.2193671464920044,0.4992842376232147,-0.6023999452590942,-0.0008485267753712833,0.02199053391814232,1741504757.5296433,1741504757333,-3.140516845703125,-1.13402685546875,-0.6593430709124625,-3.77450390625,1.2747894287109376
1741504757.4808738,-4.089224338531494,0.010513080330010633,0.025024234690910883,-0.999631563537341,-0.5602337121963501,-0.1600528359413147,1.007799506187439,3.5203981399536133,3.5522072315216064,9.823533058166504,-0.4617757797241211,0.3809032440185547,0.20923933386802673,-1.2680482864379883,0.005149920005351305,-0.8691920638084412,0.20695048570632935,1.2817814350128174,0.01506828423589468,0.8279926776885986,0.2821011543273926,-0.5663004517555237,-0.08869306743144989,-0.230601966381073,1.267071008682251,-0.39721986651420593,0.004614387638866901,-0.5350194573402405,-0.08945601433515549,-0.28973066806793213,0.7566567659378052,-0.4766678810119629,-0.007250210735946894,0.463612824678421,0.7137306332588196,1.0647600889205933,0.022628232836723328,-0.0016300729475915432,-0.6665316820144653,-1.8560822010040283,-0.07522901892662048,-0.011453323066234589,0.8669143319129944,-0.2799642086029053,-6.377487659454346,-1.170359492301941,0.2364930361509323,9.47986125946045,-0.8894967436790466,-0.19783303141593933,0.7510959506034851,1.0047433376312256,1.1295089721679688,-0.4075194001197815,-0.05983453243970871,0.013227726332843304,1741504757.5296433,1741504757333,-3.140516845703125,-1.13402685546875,-0.6593430709124625,-3.77450390625,1.2747894287109376
1741504757.5009062,-4.0738255977630615,0.0038051194422574035,0.03277446500065234,-0.9994555295309298,-0.33475956320762634,-0.36966001987457275,0.7182353734970093,0.6510874032974243,12.062138557434082,12.253403663635254,-0.4385061264038086,0.4076070785522461,0.24242770671844482,-1.2680482864379883,0.005149920005351305,-0.88979172706604,0.17147326469421387,1.2772036790847778,0.01506828423589468,0.848210871219635,0.2786678969860077,-0.6696802973747253,-0.09555962681770325,-0.1985580176115036,1.3937208652496338,-0.4420661926269531,0.006954509299248457,-0.5197604298591614,-0.0711451917886734,-0.2576867341995239,0.7547493577003479,-0.480258971452713,-0.005648734979331493,0.6869744062423706,0.8539947867393494,1.7521430253982544,-0.018014151602983475,-0.0015297549543902278,-1.0849804878234863,-2.507291793823242,-0.3549251854419708,-0.015059643425047398,1.4243214130401611,-0.23584610223770142,-4.743740558624268,-0.18358558416366577,1.6829397678375244,5.468973159790039,-2.361581802368164,-0.04621366783976555,0.7974053025245667,0.8743476271629333,1.6728404760360718,-0.05490248650312424,-0.19810180366039276,0.09642616659402847,1741504757.5296433,1741504757333,-3.140516845703125,-1.13402685546875,-0.6593430709124625,-3.77450390625,1.2747894287109376
1741504757.5211635,-4.072244167327881,-0.0009253735613936774,0.026952375336688567,-0.999636290431416,0.3757663369178772,-0.20381323993206024,0.035748403519392014,1.8223440647125244,1.749104619026184,10.559480667114258,-0.4198141098022461,0.3992137908935547,0.28744181990623474,-1.2733889818191528,0.005149920005351305,-0.9107728600502014,0.12607766687870026,1.2646150588989258,0.01506828423589468,0.8752956390380859,0.2630273997783661,-0.7307164072990417,-0.09098191559314728,-0.16346226632595062,1.4135576486587524,-0.4902173578739166,-0.00314311939291656,-0.5033569931983948,-0.056267641484737396,-0.22602425515651703,0.7547493577003479,-0.49240347743034363,-0.0031547502148896456,0.5338228344917297,-0.12557534873485565,2.336693286895752,-0.41453590989112854,0.01176593080163002,-1.0193994045257568,-3.1044013500213623,-0.9361810088157654,-0.0032897854689508677,1.7873650789260864,-0.6624032258987427,-2.585339069366455,0.03895993158221245,1.9943703413009644,0.040713101625442505,-2.370333433151245,-0.457531601190567,0.7333074808120728,0.7235373854637146,1.601425290107727,0.008132429793477058,-0.7176094651222229,0.1457856297492981,1741504757.5296433,1741504757333,-3.140516845703125,-1.13402685546875,-0.6593430709124625,-3.77450390625,1.2747894287109376
1741504757.5411599,-4.085705518722534,-0.0064140211582418005,0.014902863108827621,-0.9998683738391474,0.6194081902503967,-0.2698056995868683,-0.8346573114395142,-5.7657365798950195,3.6432199478149414,10.268736839294434,-0.4129476547241211,0.3938732147216797,0.3419928252696991,-1.2756778001785278,0.005149920005351305,-0.9302281141281128,0.07763027399778366,1.2478300333023071,0.015449759550392628,0.9019989371299744,0.2584496736526489,-0.7413977384567261,-0.09708552807569504,-0.134470134973526,1.3162813186645508,-0.5345335006713867,-0.011733120307326317,-0.5006866455078125,-0.05130846053361893,-0.19130998849868774,0.7639048099517822,-0.5113111138343811,0.0011267104418948293,0.2452099621295929,-0.11713609099388123,2.65260910987854,-0.13326416909694672,-0.0012448393972590566,-0.935332179069519,-3.149264335632324,-1.0655176639556885,0.05855167657136917,1.7011590003967285,-0.19128763675689697,-0.22875140607357025,-0.3333650529384613,1.2758086919784546,-5.710567951202393,-2.1211636066436768,-0.10673746466636658,0.33439964056015015,0.1958475261926651,1.7032127380371094,0.6342671513557434,-0.942756175994873,0.20477387309074402,1741504757.534311,1741504757433,-3.176275390625,-1.0932679443359374,-0.72713584792664,-3.718804443359375,1.2458863525390624
1741504757.5612192,-4.113516569137573,-0.003915952289086251,-0.0022957103182757546,-0.999989697462831,0.8841462135314941,0.14459677040576935,-1.4484410285949707,-0.8646079301834106,-1.9637073278427124,6.853989601135254,-0.4022655487060547,0.3744182586669922,0.3931105434894562,-1.2768222093582153,0.005149920005351305,-0.9431982636451721,0.03643091395497322,1.2371487617492676,0.015449759550392628,0.9260318875312805,0.2622644305229187,-0.7249943017959595,-0.10700388997793198,-0.1203555315732956,1.1362248659133911,-0.5686572790145874,0.009676668792963028,-0.4999237060546875,-0.04711223021149635,-0.16308079659938812,0.7829785346984863,-0.5343825221061707,0.00032878725323826075,0.32200175523757935,-0.5250586867332458,2.4040944576263428,-0.054323021322488785,-0.003576188115403056,-0.5777522921562195,-2.6541972160339355,-0.631420910358429,0.013536819256842136,1.558706521987915,0.22421260178089142,1.0285292863845825,-0.343520849943161,0.5662767291069031,-9.447163581848145,-1.6779481172561646,1.1548593044281006,-0.1940271556377411,0.20639581978321075,1.3944501876831055,0.9004635810852051,-1.228205680847168,-0.11004355549812317,1741504757.534311,1741504757433,-3.176275390625,-1.0932679443359374,-0.72713584792664,-3.718804443359375,1.2458863525390624
1741504757.5812511,-4.141020059585571,0.008350910411182183,-0.017127908087626983,-0.9998184320464623,0.6948148012161255,0.6954777240753174,-1.2539105415344238,3.734179735183716,-4.374016284942627,4.616992950439453,-0.4079885482788086,0.3439006805419922,0.43125811219215393,-1.2772036790847778,0.005149920005351305,-0.9462500810623169,-0.005531395319849253,1.2371487617492676,0.01506828423589468,0.9458686113357544,0.2580682039260864,-0.6849393248558044,-0.09975585341453552,-0.11120012402534485,0.9142061471939087,-0.5960189700126648,0.0020444244146347046,-0.5155642032623291,-0.04253452271223068,-0.14858472347259521,0.811589241027832,-0.5560938715934753,-0.0027102583553642035,-0.15266118943691254,-0.8935565948486328,1.816463828086853,0.009496220387518406,-0.009820081293582916,-0.04747336730360985,-2.9009974002838135,-0.00046017541899345815,-0.004747012164443731,1.2503010034561157,-0.34686118364334106,2.0799174308776855,0.516167163848877,0.4875609576702118,-11.052957534790039,-1.3388546705245972,-0.899722695350647,-0.7897422313690186,0.25287339091300964,0.6356068253517151,1.52362060546875,-1.0470802783966064,-0.09689038246870041,1741504757.534311,1741504757433,-3.176275390625,-1.0932679443359374,-0.72713584792664,-3.718804443359375,1.2458863525390624
1741504757.6012256,-4.157183408737183,0.017512646214156685,-0.019631195932254136,-0.999653901792439,0.07223428785800934,0.1243976280093193,-0.8305928707122803,-60.644309997558594,1.2140953540802002,26.08802032470703,-0.4140920639038086,0.3557262420654297,0.4533836841583252,-1.2711000442504883,0.00476844422519207,-0.9382390975952148,-0.03337911143898964,1.23447847366333,0.01506828423589468,0.9618905782699585,0.23517967760562897,-0.6605249047279358,-0.08869306743144989,-0.06923781335353851,0.840199887752533,-0.5496417880058289,-0.03386973217129707,-0.5235751867294312,-0.051689937710762024,-0.13065537810325623,0.8398184180259705,-0.5725484490394592,-0.011595518328249454,-0.15252557396888733,0.2884822487831116,1.0548571348190308,0.504218339920044,-0.000467859412310645,0.6170159578323364,-1.513600468635559,-0.13312740623950958,0.005523069761693478,0.9568809866905212,-1.2472001314163208,1.1391507387161255,0.47064101696014404,2.7103569507598877,-0.5270062685012817,2.7577579021453857,-1.3223837614059448,0.0019045009976252913,-1.1741455793380737,1.2281229496002197,1.194150686264038,-0.688485860824585,-0.49396711587905884,1741504757.6321995,1741504757533,-3.2112309570312503,-1.0560417480468751,-0.329769903901201,-3.666844482421875,1.22067236328125
1741504757.6212418,-4.160808086395264,0.03649508965291881,-0.02528092130444896,-0.9990140056321651,0.2275806963443756,1.0142862796783447,-0.12634560465812683,2.484161853790283,-9.809955596923828,4.330572605133057,-0.3976879119873047,0.3301668167114258,0.44804301857948303,-1.2577484846115112,0.005149920005351305,-0.9233615398406982,-0.032616160809993744,1.23600435256958,0.013923857361078262,0.9706645011901855,0.23556114733219147,-0.6353475451469421,-0.07267109304666519,-0.058175019919872284,0.8661402463912964,-0.5145303010940552,-0.03301047161221504,-0.5193789601325989,-0.042153049260377884,-0.1363775134086609,0.8314259648323059,-0.5853959321975708,0.001713255071081221,0.4323677718639374,-0.6576249599456787,-0.6536251902580261,0.8283841013908386,-0.011707368306815624,0.5711392164230347,0.45790421962738037,-0.00936787761747837,-0.07589376717805862,0.5378729701042175,0.2218969315290451,1.0344266891479492,1.0073984861373901,0.08717788010835648,0.2670093774795532,1.1321548223495483,0.4567396640777588,0.24024954438209534,0.9517044425010681,-0.8409425020217896,-0.4048794209957123,-0.40203380584716797,0.895993709564209,1741504757.6321995,1741504757533,-3.2112309570312503,-1.0560417480468751,-0.329769903901201,-3.666844482421875,1.22067236328125
1741504757.6412954,-4.155393838882446,0.05541003217039697,-0.01671879724460663,-0.998323700086084,-0.5726054906845093,0.8698246479034424,0.4095716178417206,5.918389320373535,-8.681998252868652,11.47039794921875,-0.4251546859741211,0.3370332717895508,0.41218432784080505,-1.2470670938491821,0.005149920005351305,-0.924124538898468,-0.006294346414506435,1.23447847366333,0.013923857361078262,0.9721904397010803,0.24013885855674744,-0.6067368388175964,-0.035667963325977325,-0.08144503086805344,0.8196002244949341,-0.505157470703125,-0.014201772399246693,-0.5064088106155396,-0.03452353551983833,-0.1516365259885788,0.840962827205658,-0.5760889649391174,-0.006264341063797474,-0.7840548753738403,0.07238481938838959,-1.7924810647964478,0.7131659388542175,0.005031651351600885,-0.08657611906528473,1.997485876083374,-0.07049349695444107,0.014479192905128002,-0.023747118189930916,0.28003522753715515,1.819286584854126,1.3562278747558594,-1.0885398387908936,-2.3242697715759277,0.5766132473945618,1.010200023651123,0.43250614404678345,0.35724520683288574,-0.764007568359375,0.5564170479774475,0.7180160880088806,-0.42284107208251953,1741504757.6321995,1741504757533,-3.2112309570312503,-1.0560417480468751,-0.329769903901201,-3.666844482421875,1.22067236328125
1741504757.6613202,-4.143070220947266,0.061129566178816604,0.0039161941647291535,-0.9981221566331718,-1.0683447122573853,0.1978030949831009,0.4435728192329407,-0.6162189245223999,0.8149949312210083,9.94662857055664,-0.4110403060913086,0.3591594696044922,0.3732738196849823,-1.2291377782821655,0.00476844422519207,-0.9203097820281982,0.03528648987412453,1.2447782754898071,0.01506828423589468,0.968757152557373,0.25196459889411926,-0.5853742361068726,-0.03223468363285065,-0.0875486359000206,0.811589241027832,-0.4850911498069763,-0.0033302707597613335,-0.5086976289749146,-0.03833829239010811,-0.1836804747581482,0.881780743598938,-0.5370329022407532,-0.006404914427548647,0.2959584593772888,0.61646968126297,-1.9383111000061035,1.3021314144134521,-0.004894182551652193,0.26672056317329407,2.8153700828552246,0.9299584031105042,0.11493530869483948,-0.2541337311267853,0.5285583734512329,0.7900553345680237,0.23830053210258484,-0.7969380617141724,-0.10176674276590347,0.8783910274505615,0.5208765864372253,-0.4293586313724518,-0.3211537003517151,-1.7914483547210693,2.4233717918395996,2.009131669998169,-0.047697823494672775,1741504757.6321995,1741504757533,-3.2112309570312503,-1.0560417480468751,-0.329769903901201,-3.666844482421875,1.22067236328125
1741504757.681312,-4.141269207000732,0.05999734223785718,0.015029513222632863,-0.9980853834500755,-0.5208434462547302,-0.06188146770000458,-0.04132406786084175,3.841668128967285,-0.4301072061061859,7.946049213409424,-0.3847179412841797,0.3526744842529297,0.3225375711917877,-1.2115899324417114,0.00476844422519207,-0.916876494884491,0.08487831056118011,1.2581299543380737,0.016594186425209045,0.9649423956871033,0.25272753834724426,-0.5571450591087341,-0.02689402550458908,-0.1192111074924469,0.80510413646698,-0.467011421918869,-0.009497993625700474,-0.5498970150947571,-0.04406042397022247,-0.23441672325134277,0.9988937377929688,-0.49434834718704224,-0.005085371434688568,0.7005704641342163,-0.10146229714155197,-2.595621347427368,1.013777494430542,0.01712232269346714,0.15807312726974487,3.345350980758667,0.7025701403617859,0.013353843241930008,-0.2919617295265198,-0.02843632735311985,1.6846981048583984,0.06965324282646179,-1.2479937076568604,-0.5038078427314758,1.032935619354248,-0.5006054639816284,-2.4267020225524902,-0.35190504789352417,-2.369769334793091,6.5877838134765625,2.1253504753112793,0.08846957236528397,1741504757.6321995,1741504757533,-3.2112309570312503,-1.0560417480468751,-0.329769903901201,-3.666844482421875,1.22067236328125
1741504757.7013714,-4.15250563621521,0.05257947200387371,0.022477840033864094,-0.9983637342327724,-0.2570599317550659,-0.3851691782474518,-0.6725386381149292,2.0082600116729736,-2.0042426586151123,10.204376220703125,-0.3889141082763672,0.3507671356201172,0.26874953508377075,-1.2051048278808594,0.00476844422519207,-0.9122987985610962,0.1325627565383911,1.2619446516036987,0.015449759550392628,0.9584572911262512,0.2439536154270172,-0.5178530812263489,-0.022697795182466507,-0.12455176562070847,0.7856488823890686,-0.43668118119239807,-0.00041550208698026836,-0.6300068497657776,-0.06466010212898254,-0.2580682039260864,1.1640726327896118,-0.4526793956756592,-0.005858870223164558,-0.025995908305048943,-0.01880151592195034,-2.6825456619262695,0.39315322041511536,-0.006259472109377384,0.21707721054553986,3.186556339263916,0.1890859603881836,-0.04095729440450668,-0.43117544054985046,-0.33793094754219055,2.058915853500366,0.376203715801239,-0.21233555674552917,-0.9006714820861816,1.5472909212112427,0.6161211729049683,-3.71376371383667,-1.0616989135742188,-0.9059973955154419,8.328917503356934,1.9542957544326782,0.0789429247379303,1741504757.734552,1741504757633,-3.264991455078125,-1.0064719848632813,-0.47032443965888404,-3.615538330078125,1.19419775390625
1741504757.7214515,-4.179132699966431,0.04649461765389212,0.02156885810753515,-0.9986856536914683,0.1501227617263794,-0.295657753944397,-1.4171137809753418,5.1340556144714355,0.809754490852356,10.255111694335938,-0.3736553192138672,0.3328371047973633,0.21190966665744781,-1.2085380554199219,0.005149920005351305,-0.9134432077407837,0.1810101419687271,1.2604187726974487,0.015449759550392628,0.9561684727668762,0.2466239482164383,-0.4697871506214142,-0.011635004542768002,-0.11615930497646332,0.761997401714325,-0.4073960483074188,0.0029193174559623003,-0.7089722752571106,-0.0871671661734581,-0.26722362637519836,1.3075073957443237,-0.4356461763381958,0.0010561483213678002,0.3883930742740631,-0.48081880807876587,-2.728888750076294,-0.3510505259037018,0.009960545226931572,-0.06536529958248138,3.1463003158569336,-0.10172636061906815,0.0059523978270590305,-0.08691137284040451,0.22586525976657867,2.312958240509033,0.5675169229507446,0.5363940596580505,-1.3381142616271973,1.3378074169158936,-0.1044842004776001,-3.939384698867798,-1.1147347688674927,-0.48954346776008606,6.609340667724609,0.6331596374511719,0.34472939372062683,1741504757.734552,1741504757633,-3.264991455078125,-1.0064719848632813,-0.47032443965888404,-3.615538330078125,1.19419775390625
1741504757.7414749,-4.209475517272949,0.036511782721725526,0.01763944547213871,-0.9991775316158371,0.25505518913269043,-0.487307071685791,-1.4943218231201172,-1.249224066734314,-0.34769463539123535,12.966422080993652,-0.3744182586669922,0.3271150588989258,0.152399480342865,-1.2173120975494385,0.005149920005351305,-0.916113555431366,0.23289081454277039,1.2558410167694092,0.01506828423589468,0.9561684727668762,0.2603570520877838,-0.4232471287250519,0.0036240178160369396,-0.09174486994743347,0.735675573348999,-0.39769425988197327,0.0022350770886987448,-0.7658121585845947,-0.11272602528333664,-0.26722362637519836,1.3696879148483276,-0.43857795000076294,-0.0013633669586852193,0.0016425896901637316,-0.24342882633209229,-3.095564126968384,-0.5598223805427551,-0.0033335599582642317,-0.12050125002861023,3.535700798034668,-0.3032982051372528,-0.030286721885204315,-0.028498977422714233,0.7051755785942078,2.421970844268799,0.8270362019538879,1.2370268106460571,-1.1771876811981201,0.2337685376405716,0.12061537057161331,-2.541487216949463,-1.3248474597930908,0.08196676522493362,2.418419122695923,-0.17782898247241974,-0.08743002265691757,1741504757.734552,1741504757633,-3.264991455078125,-1.0064719848632813,-0.47032443965888404,-3.615538330078125,1.19419775390625
1741504757.7614055,-4.240325450897217,0.02871387802239156,0.011440630468062792,-0.999522198444541,0.3733266294002533,-0.37867045402526855,-1.5327492952346802,2.323046922683716,-0.8598093390464783,10.224843978881836,-0.3725109100341797,0.3160524368286133,0.0879301130771637,-1.223797082901001,0.005149920005351305,-0.917639434337616,0.28782328963279724,1.2527892589569092,0.01430533267557621,0.9557870030403137,0.2733272314071655,-0.3717479109764099,0.016594186425209045,-0.06885633617639542,0.7120240926742554,-0.4189664423465729,0.004373938776552677,-0.7948042750358582,-0.13904783129692078,-0.2592126429080963,1.344510555267334,-0.4444126784801483,-0.0016222073463723063,0.05466650426387787,-0.33028510212898254,-3.4823906421661377,-0.4084896743297577,-0.004165116231888533,-0.06918250769376755,3.6343348026275635,-0.24215401709079742,-0.011881513521075249,-0.03176617622375488,0.5657668113708496,2.4442508220672607,0.5946404337882996,1.0567386150360107,-1.3305156230926514,-1.3026808500289917,-0.08420179784297943,-1.2865440845489502,-1.3421757221221924,0.4611789584159851,-1.7865643501281738,-0.2109673172235489,0.01732999086380005,1741504757.734552,1741504757633,-3.264991455078125,-1.0064719848632813,-0.47032443965888404,-3.615538330078125,1.19419775390625
1741504757.7814217,-4.271201848983765,0.02026582902335738,0.0051617975079936654,-0.9997813020958547,0.34343114495277405,-0.3901914060115814,-1.510087490081787,-6.592929363250732,-3.424262285232544,9.729269027709961,-0.3744182586669922,0.3122377395629883,0.02880140393972397,-1.230282187461853,0.005149920005351305,-0.919165313243866,0.3400854468345642,1.2463041543960571,0.014686808921396732,0.9557870030403137,0.28439003229141235,-0.3278782367706299,0.027656977996230125,-0.04787518084049225,0.6792172193527222,-0.4542609751224518,-0.009529897943139076,-0.804341197013855,-0.16308079659938812,-0.2500572204589844,1.2594414949417114,-0.4398557245731354,0.0010284649906679988,-0.05373821780085564,-0.09868679940700531,-3.015619993209839,-0.40482038259506226,0.0009813510114327073,-0.10021037608385086,3.4350361824035645,-0.41887298226356506,0.007378990296274424,-0.014319284819066525,0.5797768831253052,2.530521869659424,0.6323290467262268,1.076795220375061,-1.5204620361328125,-1.6878838539123535,-0.7186642289161682,-0.4326091408729553,-1.2409383058547974,0.3027889132499695,-4.523408889770508,0.2899092137813568,0.10890141874551773,1741504757.734552,1741504757633,-3.264991455078125,-1.0064719848632813,-0.47032443965888404,-3.615538330078125,1.19419775390625
1741504757.8014753,-4.297049283981323,0.022129029327999785,0.0004196394265208601,-0.9997550349779452,0.28392329812049866,0.07543066889047623,-1.1753060817718506,0.39424973726272583,-1.8461174964904785,8.49569320678711,-0.3843364715576172,0.2946901321411133,-0.014686808921396732,-1.231045126914978,0.00476844422519207,-0.9222171306610107,0.38052186369895935,1.2447782754898071,0.01430533267557621,0.9554055333137512,0.2924010157585144,-0.2801937758922577,0.038719769567251205,-0.024605173617601395,0.6490806341171265,-0.48458901047706604,-0.023886067792773247,-0.80357825756073,-0.19054703414440155,-0.247768372297287,1.1488136053085327,-0.42725658416748047,0.004633013159036636,-0.3163677155971527,-0.4626425802707672,-2.0410618782043457,0.0015385225415229797,-0.009796978905797005,-0.14763136208057404,2.6080384254455566,-0.07618538290262222,-0.02316964417695999,-0.054070986807346344,0.3777502775192261,2.1812961101531982,0.5271208882331848,1.2124557495117188,-1.6839683055877686,-1.4934585094451904,-0.7534324526786804,0.11219435185194016,-1.4041346311569214,-0.06469876319169998,-5.532434940338135,0.7144656181335449,0.26690876483917236,1741504757.8369095,1741504757733,-3.303517578125,-0.9472221069335938,-0.6213303217485318,-3.568716552734375,1.1714124755859374
1741504757.821768,-4.315575122833252,0.029569865398766458,-0.0019935927062346885,-0.9995607278441968,0.12256485968828201,0.45357897877693176,-0.9152704477310181,1.6242491006851196,6.219624996185303,8.415517807006836,-0.3847179412841797,0.2676048278808594,-0.04291599988937378,-1.2306636571884155,0.004386968910694122,-0.9298466444015503,0.41332876682281494,1.2463041543960571,0.014686808921396732,0.9523537158966064,0.29964902997016907,-0.23632410168647766,0.040245670825242996,-0.00476844422519207,0.620851457118988,-0.50528883934021,-0.03240850195288658,-0.7867932915687561,-0.2153429538011551,-0.2634088695049286,1.035896897315979,-0.40840017795562744,0.004359570797532797,-0.05195882171392441,-0.7792292237281799,-1.461073875427246,0.02901672199368477,-0.05355898290872574,-0.48389551043510437,2.2956976890563965,0.1384984403848648,0.0666588619351387,-0.2525354027748108,0.42129337787628174,2.284071445465088,-0.029556429013609886,0.8875377178192139,-1.3909367322921753,-0.9864280819892883,-0.1559932976961136,0.8352102637290955,-1.197950839996338,-0.9775597453117371,-5.757272720336914,0.8985622525215149,-0.045676179230213165,1741504757.8369095,1741504757733,-3.303517578125,-0.9472221069335938,-0.6213303217485318,-3.568716552734375,1.1714124755859374
1741504757.8415425,-4.342648029327393,0.03734633745359122,-0.005635881636433625,-0.9992864894098101,0.260236531496048,0.2435978651046753,-1.3844910860061646,2.1924965381622314,-2.6840289137908258e-05,6.601284027099609,-0.3751811981201172,0.2603569030761719,-0.06427863240242004,-1.2291377782821655,0.00476844422519207,-0.9451056718826294,0.4488059878349304,1.2463041543960571,0.01506828423589468,0.9405279755592346,0.31490805745124817,-0.17910276353359222,0.03490501269698143,-0.0032425422687083483,0.5811780095100403,-0.5159556269645691,-0.019424015656113625,-0.7814526557922363,-0.23746852576732635,-0.3076600432395935,0.927176296710968,-0.3963806629180908,-0.0035389612894505262,0.2643432021141052,-0.23185798525810242,-0.8189221620559692,0.1050012856721878,-0.04433184862136841,-0.8464340567588806,2.072246551513672,-0.0677468478679657,-0.03003109060227871,-0.8311673998832703,0.5856517553329468,3.067265033721924,-0.4068811237812042,0.040947068482637405,-2.098886251449585,-0.3803344666957855,0.668925404548645,0.47744378447532654,-1.1033837795257568,-2.2547523975372314,-5.179195880889893,0.5015223622322083,-0.3716292083263397,1741504757.8369095,1741504757733,-3.303517578125,-0.9472221069335938,-0.6213303217485318,-3.568716552734375,1.1714124755859374
