Freshhhhh-LC/Legged_odom/data/3/segments/booster_seg_9.66s.csv
time,yaw,projected_gravity_x,projected_gravity_y,projected_gravity_z,ang_vel_x,ang_vel_y,ang_vel_z,lin_acc_x,lin_acc_y,lin_acc_z,q_0,q_1,q_2,q_3,q_4,q_5,q_6,q_7,q_8,q_9,q_10,q_11,q_12,q_13,q_14,q_15,q_16,q_17,q_18,q_19,q_20,q_21,q_22,dq_0,dq_1,dq_2,dq_3,dq_4,dq_5,dq_6,dq_7,dq_8,dq_9,dq_10,dq_11,dq_12,dq_13,dq_14,dq_15,dq_16,dq_17,dq_18,dq_19,dq_20,dq_21,dq_22,mocap_time,mocap_timestamp,robot_x,robot_y,robot_yaw,ball_x,ball_y
1741504519.06305,0.6420934200286865,0.044957566844567635,-0.0030039530735251536,-0.998984380983681,-0.04342038929462433,-0.24658001959323883,0.11541526764631271,-4.200314998626709,8.273789405822754,12.805235862731934,-0.02498626708984375,0.4613943099975586,0.043678950518369675,-1.2340970039367676,0.005912871100008488,-0.970283031463623,0.403410404920578,1.2440153360366821,0.01583123579621315,0.9069581031799316,-0.10738536715507507,-0.3736552894115448,-0.019645990803837776,0.09479667246341705,0.955024003982544,-0.47605183720588684,0.02691107615828514,-0.7906080484390259,0.0013351644156500697,-0.02689402550458908,0.8142595291137695,-0.2654609680175781,-0.0643659457564354,-0.5427547097206116,0.42716163396835327,3.900956153869629,-0.3194766640663147,0.07313729077577591,0.1685473620891571,-3.663710832595825,-0.14070789515972137,0.06033208221197128,0.036588940769433975,-0.5384634733200073,-0.8505131602287292,-0.1405489295721054,1.3142611980438232,4.371690273284912,1.8162959814071655,0.5024753212928772,0.5922214388847351,-0.3275371193885803,1.7516423463821411,0.42952319979667664,1.1860322952270508,-1.924155592918396,1741504519.04028,1741504518973,0.04556588745117188,3.22240625,-1.4088311463867467,1.46871728515625,3.0818842773437503
1741504519.0654087,0.7279574871063232,0.020305869515519506,-0.010513826032511603,-0.9997385313797688,-0.14272594451904297,-0.1369123011827469,0.764546811580658,-2.5575144290924072,4.740535736083984,8.607301712036133,-0.02651214599609375,0.4915313720703125,0.35114824771881104,-1.2619446516036987,0.004386968910694122,-0.9359502792358398,0.09594109654426575,1.2268489599227905,0.015449759550392628,0.9126802682876587,-0.12302586436271667,-0.7127870321273804,-0.011635004542768002,0.14133669435977936,1.4440757036209106,-0.4638713300228119,0.003258706070482731,-0.5952925682067871,0.0020981156267225742,0.006294346414506435,0.8512626886367798,-0.3162563145160675,-0.007748493459075689,0.004121691454201937,-0.11841408908367157,2.9980478286743164,-0.07103810459375381,-0.027820510789752007,0.0946350023150444,-4.721157073974609,-0.12061252444982529,0.0789341926574707,0.04890390485525131,0.010336817242205143,-3.3227193355560303,0.1385343074798584,0.9473037123680115,0.38651350140571594,-1.8169491291046143,-0.989614725112915,2.687722682952881,-0.5444963574409485,-0.07996954023838043,0.14840729534626007,-2.717561721801758,0.3832342028617859,1741504519.04028,1741504518973,0.04556588745117188,3.22240625,-1.4088311463867467,1.46871728515625,3.0818842773437503
1741504519.0675416,0.7512350082397461,0.02050422040651453,-0.015843859335526306,-0.999664218158716,0.09671369194984436,0.04954631254076958,0.4315505921840668,-5.13281774520874,2.1121294498443604,8.998010635375977,-0.02613067626953125,0.4823760986328125,0.5086976289749146,-1.2642335891723633,0.00476844422519207,-0.9225986003875732,-0.09822995215654373,1.229519248008728,0.01506828423589468,0.9367132186889648,-0.14171816408634186,-0.840199887752533,0.059319447726011276,0.17986571788787842,1.185053825378418,-0.430118590593338,-0.010358525440096855,-0.45834288001060486,-0.010490577667951584,-0.007438773289322853,0.8024337887763977,-0.4602319002151489,-0.007462588604539633,-0.13249103724956512,-0.14726857841014862,1.2744133472442627,0.00692145898938179,-0.01544518768787384,0.2199077308177948,-2.5324416160583496,-0.1896185725927353,0.0034240148961544037,0.9994617700576782,-0.7208859324455261,-0.35084450244903564,1.770172357559204,0.7401911020278931,-5.468822479248047,2.1395773887634277,0.02223527990281582,1.6430374383926392,-0.14655141532421112,-0.47370606660842896,-0.8649105429649353,-1.593632698059082,0.027574852108955383,1741504519.04028,1741504518973,0.04556588745117188,3.22240625,-1.4088311463867467,1.46871728515625,3.0818842773437503
1741504519.0762293,0.7850677967071533,0.03748033911955756,-0.01716412091204814,-0.9991499472715794,0.05238110199570656,0.10472357273101807,-0.11219152808189392,-0.01115452591329813,-1.0356959104537964,10.819437980651855,-0.4625387191772461,0.7860307693481445,0.3377965986728668,-1.311155080795288,0.005149920005351305,-0.8237964510917664,0.10967422276735306,1.2451597452163696,0.014686808921396732,0.8245593905448914,-0.07457847148180008,-0.778019368648529,0.01125352829694748,0.1508735716342926,1.4105058908462524,-0.40550434589385986,0.0046548983082175255,-0.5659189820289612,0.001716639962978661,0.086785688996315,0.8501182794570923,-0.32135888934135437,0.008251437917351723,-0.9267979860305786,0.14129379391670227,2.631129503250122,-0.5547080636024475,-0.0026768764946609735,0.9949114322662354,-3.9257607460021973,0.11785857379436493,0.005961418151855469,-1.000726580619812,1.0348321199417114,-3.0604538917541504,-0.8982589244842529,0.041396718472242355,-0.15374964475631714,-0.6156716346740723,-0.21055522561073303,2.315371036529541,-0.7734386324882507,-0.2443612515926361,-1.1351734399795532,-1.859447956085205,-0.024166107177734375,1741504519.04028,1741504518973,0.04556588745117188,3.22240625,-1.4088311463867467,1.46871728515625,3.0818842773437503
1741504519.096242,0.7764322757720947,0.042720704943527754,-0.018623054516417673,-0.9989134713325307,0.09002036601305008,0.2551446855068207,-0.41007718443870544,-0.21106672286987305,-2.4105048179626465,8.187614440917969,-0.5029754638671875,0.7764930725097656,0.3847180902957916,-1.318021535873413,0.005149920005351305,-0.8031967878341675,0.0398641936480999,1.2489745616912842,0.014686808921396732,0.8150225281715393,-0.05397878959774971,-0.8249408602714539,0.00019073777366429567,0.1508735716342926,1.361295461654663,-0.4064682424068451,-0.010489805601537228,-0.5159456729888916,-0.016212711110711098,0.07343403995037079,0.8234149813652039,-0.345765620470047,0.008858785964548588,-1.2305943965911865,-0.24726444482803345,2.347977876663208,-0.39528384804725647,-0.018321799114346504,1.1213068962097168,-4.926783561706543,0.2571079730987549,-0.0060379658825695515,-0.5199781060218811,1.0063440799713135,-2.2144556045532227,-0.4692389965057373,-0.015319803729653358,-2.806087017059326,0.08471211045980453,-0.6368768215179443,2.4281158447265625,-0.825862467288971,-0.6617668867111206,-1.3817416429519653,-1.0547808408737183,0.11327040195465088,1741504519.1357763,1741504519073,0.10795973205566406,3.28744287109375,-1.308248313948491,1.619836181640625,2.937556396484375
1741504519.1162536,0.7714571952819824,0.04744564669384971,-0.01910905134098617,-0.9986910206698817,0.04598502814769745,0.2001236379146576,-0.26427096128463745,-1.2605935335159302,-0.12169243395328522,6.8871917724609375,-0.5495157241821289,0.7589454650878906,0.42858776450157166,-1.3191660642623901,0.005149920005351305,-0.778782308101654,-0.01926451548933983,1.2527892589569092,0.014686808921396732,0.8093003630638123,-0.0394827201962471,-0.8585107326507568,0.002861066721379757,0.1493476778268814,1.275844931602478,-0.38909661769866943,-0.007942439056932926,-0.4713130295276642,-0.024605173617601395,0.06160829961299896,0.7974746227264404,-0.35644811391830444,0.010662274435162544,-1.3735127449035645,-0.5042217373847961,2.01667857170105,-0.006238062400370836,-0.004065812565386295,1.216750979423523,-3.613022804260254,0.23104113340377808,-0.012889488600194454,-0.3522290289402008,0.7453544735908508,-1.5299715995788574,0.25156527757644653,-0.0955563560128212,-4.326133728027344,1.022912859916687,0.13189703226089478,2.1505815982818604,-0.36390599608421326,-0.5261574983596802,-1.2465920448303223,-0.4927771985530853,0.015196227468550205,1741504519.1357763,1741504519073,0.10795973205566406,3.28744287109375,-1.308248313948491,1.619836181640625,2.937556396484375
1741504519.1363847,0.7670462131500244,0.051867000314741014,-0.017916727142201546,-0.9984932674619608,-0.07620486617088318,0.2162836343050003,-0.19483570754528046,-0.5688008069992065,0.6684260368347168,7.551799297332764,-0.5972003936767578,0.7372016906738281,0.4491874575614929,-1.3168771266937256,0.005149920005351305,-0.7558938264846802,-0.057793546468019485,1.2627075910568237,0.014686808921396732,0.804341197013855,-0.03223468363285065,-0.8745326995849609,0.014686808921396732,0.14400701224803925,1.1713206768035889,-0.35138005018234253,-0.004650769289582968,-0.43163958191871643,-0.026131074875593185,0.05703059583902359,0.7810711860656738,-0.36005082726478577,0.008465143851935863,-1.4262429475784302,-0.6367013454437256,0.9078874588012695,0.1793220341205597,-0.006337552331387997,1.1306474208831787,-2.4157378673553467,0.7279035449028015,0.024950174614787102,-0.3668019771575928,0.29336076974868774,-0.71281898021698,0.5608904957771301,-0.3331441879272461,-5.2688422203063965,1.992777943611145,0.09228931367397308,1.8923132419586182,-0.06377307325601578,-0.19977760314941406,-0.7500930428504944,-0.15750543773174286,-0.04417602717876434,1741504519.1357763,1741504519073,0.10795973205566406,3.28744287109375,-1.308248313948491,1.619836181640625,2.937556396484375
1741504519.1563165,0.7655308246612549,0.05485755269901246,-0.014384786359163444,-0.9983905682814097,-0.18634158372879028,0.14379239082336426,-0.09627208113670349,0.7628467082977295,-2.789323568344116,7.217931270599365,-0.6445026397705078,0.7143125534057617,0.4522392749786377,-1.3153512477874756,0.00476844422519207,-0.734149694442749,-0.071908138692379,1.2752963304519653,0.014686808921396732,0.7955672740936279,-0.02841992862522602,-0.8646143078804016,0.025749599561095238,0.14171816408634186,1.053444743156433,-0.3022870421409607,-0.004520128946751356,-0.4083695709705353,-0.016212711110711098,0.0558861680328846,0.7734416723251343,-0.360500693321228,0.010757548734545708,-1.412945032119751,-0.6739504337310791,-0.003939637448638678,0.04844056814908981,-0.003231585258617997,1.0454717874526978,-0.7614453434944153,0.7944111227989197,-0.0030301574151962996,-0.6355304718017578,0.20991985499858856,0.807470977306366,0.5947564840316772,-0.05099564418196678,-6.045511245727539,2.4746925830841064,0.07645725458860397,1.0381019115447998,0.6503345966339111,-0.023497816175222397,-0.28126204013824463,0.009632648900151253,0.05383487418293953,1741504519.1357763,1741504519073,0.10795973205566406,3.28744287109375,-1.308248313948491,1.619836181640625,2.937556396484375
1741504519.1763365,0.7633004188537598,0.05527305859187961,-0.005457463563844268,-0.9984563611321968,-0.4423065483570099,-0.09589674323797226,-0.16975226998329163,-7.8513102531433105,1.159055233001709,9.585299491882324,-0.6910429000854492,0.6971464157104492,0.439269095659256,-1.314206838607788,0.00476844422519207,-0.7143129706382751,-0.06771191209554672,1.2848331928253174,0.014686808921396732,0.7814526557922363,-0.027656977996230125,-0.8455405235290527,0.02880140393972397,0.1512550562620163,0.9164950251579285,-0.2568492591381073,0.001308513106778264,-0.3889143168926239,-0.0013351644156500697,0.0555046908557415,0.7803082466125488,-0.35628050565719604,0.010213359259068966,-1.4062668085098267,-0.5263444185256958,-0.7059813141822815,0.09146607667207718,-0.007118500769138336,1.0072708129882812,0.5169265270233154,0.6268455386161804,0.012625327333807945,-1.0304486751556396,0.06177430972456932,0.89697265625,0.3411025106906891,0.4660499095916748,-7.108454704284668,2.1602556705474854,0.30742543935775757,1.1022204160690308,0.7192755341529846,-0.07352802157402039,0.5484103560447693,0.24777880311012268,-0.07213512808084488,1741504519.1357763,1741504519073,0.10795973205566406,3.28744287109375,-1.308248313948491,1.619836181640625,2.937556396484375
1741504519.1963964,0.7594141960144043,0.05329878032225634,0.0033668420108978756,-0.9985729339367424,-0.4325764775276184,-0.06234176829457283,-0.2759501039981842,5.34625768661499,-1.1741878986358643,3.7463932037353516,-0.7234687805175781,0.6692991256713867,0.41332876682281494,-1.314206838607788,0.005149920005351305,-0.6971465349197388,-0.046730753034353256,1.2928441762924194,0.014686808921396732,0.761997401714325,-0.02040894143283367,-0.8031967878341675,0.040245670825242996,0.14858472347259521,0.7688639760017395,-0.23176361620426178,0.008024533279240131,-0.3732738196849823,0.01888304017484188,0.04711223021149635,0.8173113465309143,-0.34673893451690674,0.005094069521874189,-1.009859561920166,-0.7983366250991821,-1.5114637613296509,-0.025868162512779236,0.00593083631247282,0.8360145688056946,1.477603793144226,0.4524953067302704,0.011185663752257824,-1.3659558296203613,0.4494750201702118,2.0609729290008545,0.4600723683834076,-0.08891148865222931,-7.464913845062256,1.0260142087936401,0.29500654339790344,0.6665001511573792,0.9912874698638916,-0.4599294364452362,2.104520320892334,0.5200219750404358,-0.20077532529830933,1741504519.2379959,1741504519173,0.161756103515625,3.362967529296875,-1.356524853108813,1.7546851806640624,2.813851318359375
1741504519.2164426,0.7522947788238525,0.04922058523716282,0.017138188930932448,-0.9986408846372549,-0.7292975187301636,-0.14609909057617188,-0.39517098665237427,-2.3606643676757812,-3.6676313877105713,7.1219587326049805,-0.7669563293457031,0.6425952911376953,0.3774700462818146,-1.3161141872406006,0.00476844422519207,-0.6822690367698669,-0.01506828423589468,1.3000922203063965,0.014686808921396732,0.7375829815864563,-0.008964675478637218,-0.7581826448440552,0.042153049260377884,0.12989242374897003,0.6254291534423828,-0.2364964336156845,0.008379094302654266,-0.3839551508426666,0.037193864583969116,0.03376058489084244,0.8859769701957703,-0.3286093771457672,-0.0036131793167442083,-1.2832390069961548,-0.8178773522377014,-1.895982027053833,-0.12661269307136536,-0.009901878423988819,0.7185104489326477,2.250196933746338,0.5463984608650208,-0.0027799392119050026,-1.6348878145217896,0.5989609956741333,2.2645866870880127,0.07147156447172165,-1.1499714851379395,-6.841032028198242,-0.3415576219558716,0.007993190549314022,-0.6497581005096436,0.8957676887512207,-0.7255968451499939,3.8213961124420166,0.974276602268219,-0.43918147683143616,1741504519.2379959,1741504519173,0.161756103515625,3.362967529296875,-1.356524853108813,1.7546851806640624,2.813851318359375
1741504519.236402,0.7422375679016113,0.0476005329792585,0.0390690358951047,-0.9981020988327385,-1.0773558616638184,-0.20344986021518707,-0.590216338634491,-18.560792922973633,7.52254056930542,23.751903533935547,-0.818455696105957,0.6239032745361328,0.33245593309402466,-1.315732717514038,0.005149920005351305,-0.6643396615982056,0.021553369238972664,1.3073402643203735,0.014686808921396732,0.7093538045883179,0.006294346414506435,-0.7368200421333313,0.04444190114736557,0.0875486359000206,0.6166552305221558,-0.206577330827713,0.013705911114811897,-0.41256579756736755,0.03299763426184654,0.016212711110711098,0.9847791194915771,-0.2985731363296509,-0.013440498150885105,-1.5283424854278564,-0.5207315683364868,-2.219054698944092,0.013410585932433605,0.018466291949152946,1.0305784940719604,2.384542226791382,0.5677064061164856,-0.009505374357104301,-1.9496010541915894,0.8517546653747559,0.9465612173080444,-0.03404417261481285,-2.110708713531494,1.359410285949707,1.8323432207107544,0.45232680439949036,-1.5047128200531006,-0.5263150334358215,-0.8157469034194946,4.853271007537842,1.557684063911438,-0.531831681728363,1741504519.2379959,1741504519173,0.161756103515625,3.362967529296875,-1.356524853108813,1.7546851806640624,2.813851318359375
1741504519.2564201,0.7342989444732666,0.05361788994419642,0.04579549124837057,-0.9975108494945066,-0.20231078565120697,0.1263284981250763,-0.4874109625816345,0.36984774470329285,-4.445441246032715,7.815443992614746,-0.8203630447387695,0.5743112564086914,0.2786678969860077,-1.3161141872406006,0.005149920005351305,-0.6403067111968994,0.06466010212898254,1.3203104734420776,0.014686808921396732,0.6830319762229919,0.04100862145423889,-0.7459754347801208,0.050164032727479935,0.04139009863138199,0.6589990258216858,-0.18004919588565826,0.023651793599128723,-0.45948728919029236,0.05283436179161072,-0.010490577667951584,1.0763332843780518,-0.25106289982795715,-0.017759820446372032,-0.09352514147758484,-1.4927505254745483,-2.680917978286743,-0.03439748287200928,-0.013291723094880581,1.121793270111084,3.0238003730773926,0.6919177174568176,0.0037691884208470583,-1.8364664316177368,1.4288660287857056,-0.4516821503639221,0.5735987424850464,-2.02050518989563,1.4714195728302002,1.1349636316299438,0.1641920804977417,-2.5065789222717285,1.0722715854644775,-1.2969975471496582,4.523215293884277,2.4532763957977295,0.035539980977773666,1741504519.2379959,1741504519173,0.161756103515625,3.362967529296875,-1.356524853108813,1.7546851806640624,2.813851318359375
1741504519.276461,0.716240406036377,0.0527692129346419,0.06018795992797769,-0.9967912618226379,-0.8014593124389648,0.04495363309979439,-0.8337666392326355,-1.3836948871612549,-0.7990137934684753,9.343488693237305,-0.8535518646240234,0.5518045425415039,0.21686884760856628,-1.3203104734420776,0.00476844422519207,-0.6227588057518005,0.10166323184967041,1.3267955780029297,0.014686808921396732,0.6540398001670837,0.05283436179161072,-0.7188906669616699,0.05970092490315437,0.040245670825242996,0.6662470698356628,-0.1487092524766922,0.00462509598582983,-0.5109865069389343,0.06504157930612564,-0.024223696440458298,1.1598763465881348,-0.22737465798854828,-0.00690141087397933,-0.9465363025665283,-0.844404399394989,-2.8186628818511963,-0.25254231691360474,-0.010276412591338158,0.8225952982902527,2.420571804046631,0.5166484713554382,-0.025792399421334267,-1.9656918048858643,0.515185534954071,1.554787278175354,0.5852213501930237,0.16083072125911713,0.24963267147541046,1.6878796815872192,-0.8500766754150391,-2.5032103061676025,0.5326917767524719,-0.7226107120513916,4.367720127105713,0.7184439301490784,0.494403600692749,1741504519.2379959,1741504519173,0.161756103515625,3.362967529296875,-1.356524853108813,1.7546851806640624,2.813851318359375
1741504519.2964997,0.6928927898406982,0.04372515411372116,0.07647715037794825,-0.9961121203799298,-0.6485941410064697,-0.43637344241142273,-1.2689061164855957,0.2797884941101074,-0.30182623863220215,12.911921501159668,-0.8646144866943359,0.5376901626586914,0.16269932687282562,-1.3203104734420776,0.00476844422519207,-0.6078813076019287,0.13790340721607208,1.3397656679153442,0.015449759550392628,0.6258106231689453,0.07457847148180008,-0.697528064250946,0.0864042118191719,0.03337911143898964,0.6712062358856201,-0.09846270084381104,0.002787807025015354,-0.5579079985618591,0.07267109304666519,-0.057793546468019485,1.2090867757797241,-0.2579668164253235,-0.005954604595899582,-0.3319227993488312,-0.5280343890190125,-2.5669260025024414,0.009644118137657642,-0.0020949149038642645,0.8080852031707764,2.434441566467285,0.8312069177627563,0.05850187689065933,-1.882904052734375,1.3907856941223145,1.0823447704315186,1.2859467267990112,-0.34745311737060547,0.4328180253505707,2.570444107055664,0.04003630578517914,-2.2171924114227295,0.5224123001098633,-1.936876654624939,2.063601493835449,-1.839031457901001,-0.04793606325984001,1741504519.340702,1741504519273,0.2086888122558594,3.442892822265625,-2.1314552902442037,1.88324609375,2.694012939453125
1741504519.3164692,0.6594548225402832,0.034109218561142664,0.09010103166264122,-0.99534836379153,-0.6490347385406494,-0.35591062903404236,-1.7358394861221313,4.394008159637451,-2.3072633743286133,12.097383499145508,-0.8825435638427734,0.5159454345703125,0.12302586436271667,-1.3184030055999756,0.004386968910694122,-0.5914778113365173,0.17376211285591125,1.3477766513824463,0.014686808921396732,0.5987258553504944,0.10128175467252731,-0.6742580533027649,0.1035706102848053,0.03604944050312042,0.690280020236969,-0.04334304481744766,0.00882782880216837,-0.5891889929771423,0.07381551712751389,-0.11654078215360641,1.2216753959655762,-0.31703078746795654,-0.003828903893008828,-0.5613680481910706,-0.6275246739387512,-1.9404326677322388,0.14750762283802032,-0.02831973321735859,0.7672991752624512,2.2794809341430664,0.5494616031646729,-0.05336374044418335,-1.8611671924591064,1.1253420114517212,0.9331788420677185,0.7055351734161377,0.17964054644107819,0.9557458162307739,2.461454391479492,0.19349592924118042,-1.5963335037231445,-0.13712634146213531,-2.8858277797698975,0.37120556831359863,-3.067155361175537,0.14726655185222626,1741504519.340702,1741504519273,0.2086888122558594,3.442892822265625,-2.1314552902442037,1.88324609375,2.694012939453125
1741504519.3365796,0.6249489784240723,0.021716357054469136,0.09991442966234206,-0.9947590193516879,-0.3299795389175415,-0.3066540062427521,-1.6694626808166504,-8.426366806030273,1.356286883354187,17.576370239257812,-0.8894100189208984,0.4930572509765625,0.0875486359000206,-1.315732717514038,0.00476844422519207,-0.5766003131866455,0.20237277448177338,1.3569320440292358,0.014686808921396732,0.5735484957695007,0.12874799966812134,-0.6761654019355774,0.11081864684820175,0.03337911143898964,0.7169833183288574,-0.036464836448431015,0.013509548269212246,-0.621614396572113,0.05436026677489281,-0.16231784224510193,1.204127550125122,-0.37952420115470886,0.004150626249611378,-0.23687206208705902,-0.7129231095314026,-1.8910980224609375,0.10329378396272659,0.0005128344055265188,0.7276450991630554,1.8327993154525757,0.5890339016914368,0.015186279080808163,-1.6306686401367188,1.5506740808486938,-0.06907016038894653,0.46948665380477905,-0.14751982688903809,1.457047939300537,-0.06256411224603653,0.06384306401014328,-1.6369572877883911,-0.9352024793624878,-2.108264446258545,-1.0445655584335327,-3.1029789447784424,0.5053040981292725,1741504519.340702,1741504519273,0.2086888122558594,3.442892822265625,-2.1314552902442037,1.88324609375,2.694012939453125
1741504519.3565588,0.5975403785705566,0.02364426468293503,0.09724660479312341,-0.9949794201910979,0.18270736932754517,0.260206401348114,-1.2426739931106567,0.324150413274765,-2.702929735183716,7.396903991699219,-0.9138250350952148,0.4575796127319336,0.05092698708176613,-1.3195475339889526,0.00476844422519207,-0.5674448609352112,0.22182802855968475,1.361891269683838,0.014686808921396732,0.5533303022384644,0.12989242374897003,-0.6677729487419128,0.12226291000843048,0.032616160809993744,0.7291905283927917,-0.060499612241983414,0.001951239537447691,-0.6589990258216858,0.0555046908557415,-0.18902114033699036,1.1728465557098389,-0.42897307872772217,0.009479106403887272,-0.7177230715751648,-0.9865419864654541,-1.8022044897079468,-0.2767665982246399,-0.002941342070698738,0.42678651213645935,1.1821740865707397,0.3019336462020874,0.011300189420580864,-1.3275504112243652,-0.28124019503593445,0.5230426788330078,0.590265691280365,0.024860523641109467,0.265383780002594,-1.2852059602737427,-0.6779778003692627,-1.806463360786438,0.14263440668582916,-1.0175021886825562,-1.5867011547088623,-2.233710289001465,0.09959883987903595,1741504519.340702,1741504519273,0.2086888122558594,3.442892822265625,-2.1314552902442037,1.88324609375,2.694012939453125
1741504519.3765752,0.5783374309539795,0.02830128920227008,0.09506244450958919,-0.9950689265942088,0.12885752320289612,0.30896806716918945,-0.9163047671318054,-2.423598289489746,-2.6900076866149902,5.905093193054199,-0.9287023544311523,0.4343099594116211,0.026131074875593185,-1.3237437009811401,0.00476844422519207,-0.5598153471946716,0.23250934481620789,1.362654209136963,0.014686808921396732,0.5350194573402405,0.10814831405878067,-0.6410696506500244,0.13828489184379578,0.04329747334122658,0.7177462577819824,-0.09940027445554733,-0.012023583054542542,-0.698291003704071,0.05893797054886818,-0.1840619444847107,1.1255435943603516,-0.4426233172416687,0.008884642273187637,-0.4522339701652527,-0.6600675582885742,-1.1344026327133179,-0.2359764575958252,-0.013647758401930332,0.34720516204833984,0.624025821685791,0.017738234251737595,0.017475737258791924,-1.2459498643875122,-1.0126230716705322,1.633544683456421,0.8171048164367676,0.6432100534439087,-0.5090208053588867,-2.0753393173217773,-0.6326805353164673,-2.2181057929992676,0.2182692438364029,0.05334362015128136,-2.5333356857299805,-0.41214680671691895,-0.010185504332184792,1741504519.340702,1741504519273,0.2086888122558594,3.442892822265625,-2.1314552902442037,1.88324609375,2.694012939453125
1741504519.3966596,0.5635716915130615,0.03446056007915833,0.09335656518651471,-0.9950361910682478,0.12799325585365295,0.3931547999382019,-0.7129322290420532,-1.3867909908294678,-2.1609959602355957,7.451316833496094,-0.9344244003295898,0.4148550033569336,0.01735713705420494,-1.3248881101608276,0.00476844422519207,-0.5525673031806946,0.24166475236415863,1.364943027496338,0.014686808921396732,0.5170900821685791,0.09250781685113907,-0.6082627773284912,0.15468832850456238,0.05359731614589691,0.7143129706382751,-0.1452043652534485,-0.013004030101001263,-0.7238498330116272,0.06046387553215027,-0.1832990050315857,1.0648889541625977,-0.4241544008255005,0.010031006298959255,-0.19098544120788574,-0.5849745869636536,-0.3458274006843567,-0.08777463436126709,-0.00702669145539403,0.39021024107933044,0.7609259486198425,0.12673567235469818,0.006215956527739763,-1.2284795045852661,-0.6143105626106262,1.4917629957199097,0.746761679649353,0.32978543639183044,-0.0825793668627739,-2.2688944339752197,-0.013171670027077198,-0.9872764945030212,0.050325967371463776,-0.04504454880952835,-3.079892635345459,1.141432285308838,0.09375058859586716,1741504519.340702,1741504519273,0.2086888122558594,3.442892822265625,-2.1314552902442037,1.88324609375,2.694012939453125
1741504519.416663,0.5518026351928711,0.036958940214608105,0.09308788048890018,-0.9949716997202972,-0.00420860992744565,0.0911480113863945,-0.55339115858078,-1.2722355127334595,-4.256791591644287,5.788434982299805,-0.9351873397827148,0.4098958969116211,0.02384222112596035,-1.3279399871826172,0.00476844422519207,-0.5449378490447998,0.2573052644729614,1.3664690256118774,0.014686808921396732,0.4987792670726776,0.09327077120542526,-0.5888075232505798,0.15735866129398346,0.056267641484737396,0.724612832069397,-0.1772758662700653,-0.019635673612356186,-0.728427529335022,0.05436026677489281,-0.18863965570926666,0.9851605892181396,-0.381110817193985,0.010676976293325424,-0.020229408517479897,-0.22133229672908783,0.4810366928577423,-0.24808359146118164,-0.009183001704514027,0.33061766624450684,0.9333745837211609,0.09427019953727722,0.003797008655965328,-1.1060048341751099,0.11275125294923782,0.8239379525184631,0.20907147228717804,0.048937778919935226,0.5656622052192688,-1.391746997833252,-0.2847021222114563,-0.006054183933883905,-0.4277719557285309,-0.1515066921710968,-3.9460740089416504,2.191161870956421,-0.020876681432127953,1741504519.340702,1741504519273,0.2086888122558594,3.442892822265625,-2.1314552902442037,1.88324609375,2.694012939453125
1741504519.4366543,0.5470466613769531,0.036046051975257745,0.09641339062307083,-0.9946884639149889,-0.15232062339782715,-0.031975604593753815,-0.19900333881378174,-3.274672746658325,-4.141518592834473,8.490862846374512,-0.9439611434936523,0.4114217758178711,0.042153049260377884,-1.3290843963623047,0.00476844422519207,-0.5395971536636353,0.265697717666626,1.370665192604065,0.014686808921396732,0.49076828360557556,0.1031891331076622,-0.5670633912086487,0.16193637251853943,0.051689937710762024,0.7513160705566406,-0.187700092792511,-0.02241225726902485,-0.7078278660774231,0.04596780240535736,-0.19054703414440155,0.881780743598938,-0.33041325211524963,0.006130393594503403,-0.26451149582862854,0.039266981184482574,0.9352473616600037,-0.03658447042107582,-0.00430778693407774,0.2290649265050888,0.5501757860183716,0.29179686307907104,-0.001974076498299837,-0.4850875735282898,0.5661599636077881,1.1485286951065063,0.17832490801811218,-0.23070284724235535,1.478460669517517,-0.402544766664505,-0.03222552686929703,1.1655482053756714,-0.37139251828193665,-0.08838948607444763,-5.329415321350098,2.531723737716675,-0.24166175723075867,1741504519.340702,1741504519273,0.2086888122558594,3.442892822265625,-2.1314552902442037,1.88324609375,2.694012939453125
1741504519.4566607,0.5456995964050293,0.030305051433351136,0.09906028035149386,-0.9946198594007186,-0.12035815417766571,-0.34349483251571655,-0.06575287878513336,-0.664395272731781,-2.2991161346435547,8.165704727172852,-0.9462499618530273,0.4091329574584961,0.07000076025724411,-1.3290843963623047,0.00476844422519207,-0.5395971536636353,0.26874953508377075,1.374098539352417,0.014686808921396732,0.4884794354438782,0.1180666834115982,-0.569733738899231,0.15697719156742096,0.045204851776361465,0.7841230034828186,-0.19106200337409973,-0.019251683726906776,-0.6651026010513306,0.0398641936480999,-0.1993209719657898,0.7558938264846802,-0.2756267189979553,-0.0002281383640365675,-0.07419751584529877,-0.03802289441227913,1.4513622522354126,-0.04067118465900421,-0.011006400920450687,-0.025520533323287964,0.1086631789803505,0.17826178669929504,0.006532312370836735,-0.11397090554237366,0.7884672284126282,-0.22259508073329926,-0.30351722240448,-0.4373672902584076,1.6507118940353394,-0.15645481646060944,0.20127472281455994,2.163205862045288,-0.2879379689693451,-0.5437087416648865,-6.358969688415527,2.7262940406799316,-0.3283488154411316,1741504519.340702,1741504519273,0.2086888122558594,3.442892822265625,-2.1314552902442037,1.88324609375,2.694012939453125
1741504519.4767027,0.5461752414703369,0.02346069047370894,0.09715802955339255,-0.994992418712725,0.15389756858348846,-0.33081406354904175,-0.0025698160752654076,0.6591430306434631,-4.089237689971924,5.770190238952637,-0.9466314315795898,0.3965435028076172,0.10509651154279709,-1.3306102752685547,0.00476844422519207,-0.5407415628433228,0.265697717666626,1.374861478805542,0.014686808921396732,0.48962387442588806,0.14515145123004913,-0.568970799446106,0.1367589831352234,0.04139009863138199,0.8337147831916809,-0.19043567776679993,-0.017734887078404427,-0.6261920928955078,0.032616160809993744,-0.2149614691734314,0.612840473651886,-0.21688668429851532,-0.006173205561935902,-0.02695762924849987,-0.36892178654670715,1.7590125799179077,-0.09491381794214249,-0.011380087584257126,-0.05094950646162033,-0.25992006063461304,-0.015922805294394493,0.008609128184616566,0.10019844770431519,1.3824759721755981,-0.08793651312589645,-1.0831602811813354,-0.16139712929725647,2.525038719177246,0.018387706950306892,0.04996931925415993,1.8446898460388184,-0.45647284388542175,-0.7180482149124146,-7.1875505447387695,2.88236403465271,-0.39473146200180054,1741504519.340702,1741504519273,0.2086888122558594,3.442892822265625,-2.1314552902442037,1.88324609375,2.694012939453125
1741504519.496722,0.5422136783599854,0.015207723261317039,0.08918403867681686,-0.9958990573338742,0.46039217710494995,-0.34194186329841614,-0.24226000905036926,1.4290845394134521,0.24438893795013428,14.59409236907959,-0.9466314315795898,0.3877696990966797,0.14286258816719055,-1.3313732147216797,0.00476844422519207,-0.5407415628433228,0.25654229521751404,1.37295401096344,0.014686808921396732,0.49382010102272034,0.17071031033992767,-0.5849927663803101,0.1180666834115982,0.035667963325977325,0.8829251527786255,-0.18937157094478607,-0.017768509685993195,-0.5918593406677246,0.01773861236870289,-0.22182802855968475,0.5125123858451843,-0.14899811148643494,-0.007928242906928062,-0.007094915024936199,-0.3525949716567993,1.8631058931350708,-0.03258238360285759,-0.01379729900509119,0.015169152989983559,-0.6555098295211792,-0.17860634624958038,-0.004068625625222921,0.32072579860687256,1.2371011972427368,-0.8927344679832458,-0.7038971781730652,-0.42304930090904236,2.4357657432556152,0.07896272093057632,0.018071075901389122,1.602167010307312,-0.6181188821792603,-0.42836102843284607,-3.838442087173462,3.4679830074310303,-0.16136440634727478,1741504519.5446756,1741504519353,0.2534938354492188,3.481093017578125,-2.081013512116897,1.9853388671875,2.601963134765625
1741504519.5167148,0.5336301326751709,0.011438761034953433,0.0810715974844655,-0.9966426394788164,0.37902241945266724,-0.02319689840078354,-0.47658571600914,-3.560779333114624,5.8386383056640625,7.3716254234313965,-0.9557867050170898,0.3770885467529297,0.17872129380702972,-1.3332805633544922,0.00476844422519207,-0.5403600931167603,0.24280919134616852,1.3718096017837524,0.014686808921396732,0.4976348578929901,0.19512474536895752,-0.5922408103942871,0.10662241280078888,0.025749599561095238,0.9267948269844055,-0.18264985084533691,-0.014548343606293201,-0.5647745728492737,0.021171892061829567,-0.20542457699775696,0.5052643418312073,-0.08295582234859467,-0.024726789444684982,-0.2539219260215759,-0.37862229347229004,1.7915821075439453,-0.2341325730085373,-0.0041509042493999004,0.007581909652799368,-0.9536877274513245,0.030514391139149666,0.008905584923923016,0.3346182703971863,1.1168506145477295,-0.22262170910835266,-0.6596611738204956,-0.3731408715248108,2.120795488357544,0.4398118853569031,0.17328032851219177,1.1234278678894043,0.09230460971593857,1.174078345298767,-0.39038190245628357,2.9705750942230225,-0.8442986011505127,1741504519.5446756,1741504519353,0.2534938354492188,3.481093017578125,-2.081013512116897,1.9853388671875,2.601963134765625
1741504519.5367332,0.514394998550415,0.011379062486974947,0.0690947270413017,-0.9975452048062812,0.6811888813972473,0.02611251175403595,-0.8886662125587463,-4.335448741912842,1.3625673055648804,14.42586612701416,-0.9569311141967773,0.3751811981201172,0.20733195543289185,-1.3439619541168213,0.005149920005351305,-0.5384527444839478,0.22526131570339203,1.3718096017837524,0.014686808921396732,0.506027340888977,0.20160982012748718,-0.6109330654144287,0.08525978773832321,0.000572213320992887,0.9699015617370605,-0.18010275065898895,-0.005152755882591009,-0.5529488325119019,0.013923857361078262,-0.14553292095661163,0.49496451020240784,-0.044892966747283936,-0.029247798025608063,-0.07241222262382507,-0.05285225436091423,1.3930079936981201,-0.7692765593528748,0.00805105920881033,0.10464976727962494,-1.1695101261138916,-0.11588412523269653,0.0037735237274318933,0.5527468919754028,0.2559410035610199,-0.9662449955940247,-1.2171459197998047,-1.5011059045791626,2.212756872177124,-0.02678021788597107,0.5291364789009094,0.6967940926551819,-0.3019244372844696,2.8669593334198,-0.4411925673484802,1.7679996490478516,-0.07021035254001617,1741504519.5446756,1741504519353,0.2534938354492188,3.481093017578125,-2.081013512116897,1.9853388671875,2.601963134765625
1741504519.556761,0.5021038055419922,0.018804922481925133,0.050749562842727775,-0.998534354322234,0.9968354105949402,0.47705209255218506,-0.48300009965896606,-1.2061623334884644,-6.132669448852539,14.601213455200195,-0.9626531600952148,0.3667888641357422,0.22755016386508942,-1.3573135137557983,0.005149920005351305,-0.5373083353042603,0.20389868319034576,1.3687578439712524,0.01430533267557621,0.5170900821685791,0.20695048570632935,-0.6406881809234619,0.05664911866188049,-0.046730753034353256,1.0210193395614624,-0.2073523849248886,0.01024165190756321,-0.5281528830528259,0.02079041674733162,-0.10509651154279709,0.5121309161186218,-0.016155906021595,-0.023436935618519783,-0.17775411903858185,-0.21910962462425232,0.8910326957702637,-0.9414099454879761,-0.0040472038090229034,0.047635335475206375,-1.4891794919967651,-0.25406479835510254,0.00921566877514124,0.8107094764709473,0.22055448591709137,-1.3357065916061401,-1.4083610773086548,-2.444228410720825,2.693551778793335,-1.671615719795227,0.9012324810028076,0.814799964427948,0.2125033289194107,1.7671581506729126,0.9778973460197449,1.3451762199401855,0.37505024671554565,1741504519.5446756,1741504519353,0.2534938354492188,3.481093017578125,-2.081013512116897,1.9853388671875,2.601963134765625
1741504519.578009,0.4949049949645996,0.022204840841919,0.03755157715368281,-0.9990479588570592,0.5920698046684265,0.21754516661167145,-0.46980929374694824,-4.0377984046936035,-5.286217212677002,12.543508529663086,-0.9626531600952148,0.3946361541748047,0.23327229917049408,-1.36837637424469,0.004386968910694122,-0.5376898050308228,0.17376211285591125,1.3630356788635254,0.01506828423589468,0.5258640646934509,0.1844434291124344,-0.6677729487419128,0.01888304017484188,-0.07877469807863235,1.0870145559310913,-0.2675289809703827,0.020577896386384964,-0.5445563197135925,0.016212711110711098,-0.08144503086805344,0.5243381261825562,-0.0036212943959981203,-0.019404234364628792,-0.003964611329138279,0.7803276181221008,0.17235717177391052,-0.6425954699516296,-0.05293501168489456,-0.03496536612510681,-1.9979227781295776,-0.4264237880706787,0.022900406271219254,0.6006528735160828,-1.2309916019439697,-1.6469701528549194,-2.0432138442993164,-1.2751730680465698,3.2976882457733154,-3.132807970046997,0.4845179319381714,-0.6682904958724976,-0.16823190450668335,1.279905915260315,0.6377925276756287,0.5102149844169617,0.04531438276171684,1741504519.5446756,1741504519353,0.2534938354492188,3.481093017578125,-2.081013512116897,1.9853388671875,2.601963134765625
1741504519.5968199,0.4869372844696045,0.03011769528805752,0.03219409754536892,-0.9990277596312201,0.2626109719276428,0.48335301876068115,-0.578729510307312,8.498745918273926,4.000799179077148,9.74874496459961,-0.9702835083007812,0.4056987762451172,0.2302204966545105,-1.37142813205719,0.00476844422519207,-0.5403600931167603,0.14705882966518402,1.3584580421447754,0.014686808921396732,0.534637987613678,0.17719538509845734,-0.7120240926742554,-0.009727626107633114,-0.09098191559314728,1.1545357704162598,-0.33578428626060486,0.0206728707998991,-0.54264897108078,0.03681239113211632,-0.04558632895350456,0.54112309217453,0.0012280693044885993,-0.01501927338540554,-0.1971360743045807,0.3515343964099884,-0.13628026843070984,-0.21555635333061218,-0.009172406047582626,-0.12709540128707886,-1.762602686882019,-0.17298299074172974,0.0033777751959860325,0.5244683027267456,-0.2563480734825134,-2.374253273010254,-1.337881088256836,-0.4489783048629761,3.42637300491333,-3.3856725692749023,-0.024719830602407455,0.07604891806840897,1.0983210802078247,1.7903823852539062,0.7680472135543823,0.2586284577846527,0.1650913953781128,1741504519.646551,1741504519573,0.3568193359375,3.512799560546875,-1.426510412724478,2.25108251953125,2.35612548828125
1741504519.616852,0.469226598739624,0.034486673734337475,0.028131740771482047,-0.9990091463524784,0.20205006003379822,0.3059234023094177,-0.8451051115989685,-2.239576816558838,1.7718695402145386,6.517444610595703,-0.9630346298217773,0.4106588363647461,0.2290760725736618,-1.37295401096344,0.00476844422519207,-0.5399786233901978,0.12111848592758179,1.3584580421447754,0.014686808921396732,0.54112309217453,0.1665140837430954,-0.7589455842971802,-0.023460745811462402,-0.086785688996315,1.2067978382110596,-0.3905993402004242,-0.0019830220844596624,-0.5540932416915894,0.026512550190091133,-0.02193484455347061,0.541886031627655,0.002278390107676387,-0.018371490761637688,0.2175067812204361,0.1324162781238556,-0.06880687922239304,-0.09706786274909973,-0.0004764622135553509,0.01905694417655468,-1.5824956893920898,-0.04160694777965546,-0.02312617562711239,0.3926932215690613,-0.5915855169296265,-2.3171112537384033,-0.6240578889846802,0.35715943574905396,2.316601037979126,-2.6202385425567627,-1.5198538303375244,-0.7092775702476501,-0.762273907661438,0.9724497199058533,0.03827012702822685,0.026706930249929428,-0.08560856431722641,1741504519.646551,1741504519573,0.3568193359375,3.512799560546875,-1.426510412724478,2.25108251953125,2.35612548828125
1741504519.6368663,0.4519481658935547,0.03984796326440956,0.026041696399009055,-0.9988663423463322,0.1506960242986679,0.2965889275074005,-0.863897979259491,-0.7714751362800598,1.9189718961715698,9.31120491027832,-0.9660863876342773,0.4125661849975586,0.22449836134910583,-1.3718096017837524,0.00476844422519207,-0.5399786233901978,0.10662241280078888,1.3576951026916504,0.014686808921396732,0.5476081371307373,0.16346226632595062,-0.7963302135467529,-0.03795681521296501,-0.07877469807863235,1.2216753959655762,-0.4172245264053345,-0.012800687924027443,-0.5624856948852539,0.024605173617601395,-0.00858320016413927,0.5498970150947571,0.0019934168085455894,-0.01653929613530636,-0.07675691694021225,0.0737437829375267,-0.2880367338657379,0.08685202896595001,-0.004296358209103346,5.194226832827553e-05,-0.9395719766616821,-0.04288070648908615,0.0020112425554543734,0.37790510058403015,-0.004503944423049688,-1.745583415031433,-0.6928753852844238,0.4603784680366516,0.4326898455619812,-1.0677214860916138,-0.24861812591552734,-0.2880763113498688,0.13825343549251556,0.7726977467536926,0.5692799091339111,-0.02027631178498268,0.053584832698106766,1741504519.646551,1741504519573,0.3568193359375,3.512799560546875,-1.426510412724478,2.25108251953125,2.35612548828125
1741504519.6568584,0.43611764907836914,0.042412984557748154,0.02024860713118064,-0.9988949557636936,0.32869505882263184,0.123842753469944,-0.7634422779083252,-1.8790385723114014,2.3075332641601562,8.42462158203125,-0.9645605087280273,0.4148550033569336,0.2130540907382965,-1.37142813205719,0.00476844422519207,-0.5403600931167603,0.10128175467252731,1.3557876348495483,0.014686808921396732,0.5521858334541321,0.16308079659938812,-0.8150225281715393,-0.05092698708176613,-0.07495994865894318,1.1869611740112305,-0.41198644042015076,-0.003944477532058954,-0.5724040865898132,0.024605173617601395,0.006294346414506435,0.5701152086257935,-0.001809234730899334,-0.015984009951353073,0.04372291639447212,0.0924263745546341,-0.6114471554756165,0.03741235285997391,-0.001486289082095027,-0.011161494068801403,-0.2285601794719696,-0.13218966126441956,-0.008476708084344864,0.21396367251873016,-0.12327459454536438,-0.6840741038322449,-0.7384775876998901,0.14205127954483032,-2.1413352489471436,0.4806966781616211,0.31826046109199524,-0.6402505040168762,-0.10932411253452301,0.6044787764549255,1.0612497329711914,-0.23506398499011993,0.07915759086608887,1741504519.646551,1741504519573,0.3568193359375,3.512799560546875,-1.426510412724478,2.25108251953125,2.35612548828125
1741504519.676894,0.4193685054779053,0.04307027333099633,0.012925207653767331,-0.9989884336479078,0.3667747974395752,0.019832290709018707,-0.7367817759513855,-0.15976116061210632,0.6749714016914368,5.399047374725342,-0.9653234481811523,0.4152364730834961,0.1993209719657898,-1.369139313697815,0.00476844422519207,-0.5403600931167603,0.10433356463909149,1.3531173467636108,0.014686808921396732,0.5502784848213196,0.15812161564826965,-0.80357825756073,-0.0707637146115303,-0.06656748056411743,1.1007477045059204,-0.379650741815567,-0.008911281824111938,-0.5884260535240173,0.023079270496964455,0.01773861236870289,0.5933852195739746,-0.010199194774031639,-0.006186981685459614,-0.02273116633296013,0.029481759294867516,-0.6892212629318237,0.16264989972114563,-0.005610499065369368,-0.016040051355957985,0.26484450697898865,-0.18345320224761963,0.013382966630160809,-0.15263696014881134,-0.22365006804466248,0.7751128077507019,-1.0393131971359253,0.38565224409103394,-4.6938347816467285,1.7356764078140259,-0.17856161296367645,-0.809738278388977,-0.07774654030799866,0.5858850479125977,1.182432770729065,-0.43526190519332886,0.5424295663833618,1741504519.646551,1741504519573,0.3568193359375,3.512799560546875,-1.426510412724478,2.25108251953125,2.35612548828125
1741504519.6969368,0.4045076370239258,0.04026380751005062,0.005171183882864448,-0.9991757025979181,0.42836177349090576,-0.1454450935125351,-0.7158356308937073,0.08952587842941284,2.836127996444702,6.560417175292969,-0.9653234481811523,0.4118032455444336,0.18787670135498047,-1.36685049533844,0.00476844422519207,-0.5403600931167603,0.11234454810619354,1.3493025302886963,0.014686808921396732,0.5479896068572998,0.15545128285884857,-0.7631418108940125,-0.08907453715801239,-0.061226826161146164,0.9748607873916626,-0.33314478397369385,-0.004982934799045324,-0.6090257167816162,0.02536812424659729,0.024986648932099342,0.622377336025238,-0.02650759555399418,-0.003799131140112877,0.00404382823035121,-0.10095256567001343,-0.5398461222648621,0.1371183544397354,-0.006018329411745071,-0.008951730094850063,0.6104841232299805,-0.3192121982574463,0.017191940918564796,-0.12188093364238739,-0.11247436702251434,2.1605215072631836,-0.925618588924408,0.36824437975883484,-6.407755374908447,2.351059675216675,0.29354897141456604,-1.0104330778121948,0.1092398464679718,0.23620346188545227,1.5466920137405396,-0.9081549048423767,0.01284683309495449,1741504519.646551,1741504519573,0.3568193359375,3.512799560546875,-1.426510412724478,2.25108251953125,2.35612548828125
1741504519.7169394,0.3884153366088867,0.03627108361983775,-0.0009463316328984809,-0.9993415396897517,0.3067600131034851,-0.21204610168933868,-0.8408814668655396,2.740028142929077,-4.9106669425964355,6.236452102661133,-0.9657049179077148,0.4072256088256836,0.1802472025156021,-1.3653244972229004,0.00476844422519207,-0.54112309217453,0.12569619715213776,1.3454878330230713,0.014686808921396732,0.5479896068572998,0.152399480342865,-0.7131685614585876,-0.09784847497940063,-0.06084534898400307,0.8249408602714539,-0.2886127531528473,0.0034309779293835163,-0.6311513185501099,0.032616160809993744,0.023460745811462402,0.6540398001670837,-0.05669522285461426,-0.012720897793769836,-0.025178836658596992,-0.11138179153203964,-0.34432798624038696,0.0906389132142067,-0.011452791281044483,-0.043126050382852554,0.9146859645843506,-0.13733959197998047,0.015067141503095627,0.011763020418584347,-0.1585504412651062,2.5436487197875977,-0.36487269401550293,-0.11560460925102234,-7.499843597412109,2.1215133666992188,0.4096388816833496,-1.197975993156433,0.47910276055336,-0.11346190422773361,1.5508902072906494,-1.6278249025344849,-0.4554876387119293,1741504519.7552323,1741504519673,0.3722769775390625,3.520839599609375,-1.8469942126932741,2.366857666015625,2.24789013671875
1741504519.7369866,0.37015295028686523,0.03169912213266954,0.0013543039349532171,-0.9994965390219567,-0.18236973881721497,-0.22227083146572113,-0.9491377472877502,46.97719192504883,2.659123420715332,36.82059860229492,-0.9691390991210938,0.4137105941772461,0.17872129380702972,-1.3637986183166504,0.00476844422519207,-0.5415045619010925,0.13866636157035828,1.3462507724761963,0.014686808921396732,0.5483710765838623,0.1520180106163025,-0.6761654019355774,-0.08907453715801239,-0.06733043491840363,0.6979095339775085,-0.24436113238334656,0.00041432189755141735,-0.6570916175842285,0.05283436179161072,0.022697795182466507,0.6818875670433044,-0.10128415375947952,-0.01877349242568016,-0.09448026865720749,0.13978499174118042,-0.0626930519938469,0.1237945407629013,-0.01499210111796856,-0.0034175883047282696,0.800544798374176,0.03683853521943092,0.002635428449138999,-0.023156335577368736,-0.050938334316015244,1.330379843711853,0.5719457268714905,-0.31227362155914307,-5.206819534301758,2.553844928741455,-0.31347164511680603,-0.956276535987854,0.9554370045661926,0.07099512964487076,1.5790460109710693,-2.309814929962158,-0.30763572454452515,1741504519.7552323,1741504519673,0.3722769775390625,3.520839599609375,-1.8469942126932741,2.366857666015625,2.24789013671875
1741504519.7570004,0.34449493885040283,0.02880294638631975,0.011340187573592122,-0.9995207803869125,-0.38398605585098267,0.08314555138349533,-1.2635810375213623,10.216967582702637,-4.082460880279541,5.046472549438477,-0.9706649780273438,0.4102773666381836,0.17452506721019745,-1.3615097999572754,0.00476844422519207,-0.5403600931167603,0.14248111844062805,1.3531173467636108,0.014686808921396732,0.5464637279510498,0.15621423721313477,-0.6670100092887878,-0.07267109304666519,-0.07610437273979187,0.7089722752571106,-0.18977729976177216,0.006782138720154762,-0.6651026010513306,0.0551232174038887,0.01735713705420494,0.6994354128837585,-0.15377071499824524,-0.030962014570832253,-0.04242147132754326,-0.2291371077299118,-0.272921085357666,0.17783305048942566,0.0127676110714674,0.016669247299432755,0.21209275722503662,0.5613546967506409,0.011354257352650166,-0.06775012612342834,0.5430814623832703,0.15085731446743011,0.8189706206321716,-0.44712114334106445,0.5973865985870361,2.326946973800659,0.48242995142936707,-0.21702851355075836,0.28311893343925476,-0.6307691335678101,0.47715485095977783,-2.626469373703003,-0.48168542981147766,1741504519.7552323,1741504519673,0.3722769775390625,3.520839599609375,-1.8469942126932741,2.366857666015625,2.24789013671875
1741504519.777021,0.32351040840148926,0.0251902813512677,0.02295986556700976,-0.9994189783562191,-0.662981390953064,-0.16370029747486115,-1.105204463005066,-1.0232338905334473,-7.8220438957214355,8.90961742401123,-0.9702835083007812,0.4087514877319336,0.1665140837430954,-1.3557876348495483,0.00476844422519207,-0.5415045619010925,0.1489662081003189,1.358839511871338,0.014686808921396732,0.5476081371307373,0.17185473442077637,-0.6700618267059326,-0.03490501269698143,-0.07572289556264877,0.699816882610321,-0.16704930365085602,0.011486492119729519,-0.6620507836341858,0.07495994865894318,-0.024223696440458298,0.699053943157196,-0.20241326093673706,-0.04181373119354248,0.03038041666150093,-0.06757591664791107,-0.2948988676071167,0.38057196140289307,-0.00643502501770854,-0.0557568334043026,0.4929424226284027,0.2440330684185028,0.006401042453944683,0.06012963131070137,0.493823379278183,0.2062053084373474,1.8827431201934814,0.3130646347999573,-0.7427880167961121,0.9851340055465698,-0.018289947882294655,0.19820597767829895,0.7913920879364014,-2.1015732288360596,0.10146299749612808,-2.3550643920898438,-0.5512773990631104,1741504519.7552323,1741504519673,0.3722769775390625,3.520839599609375,-1.8469942126932741,2.366857666015625,2.24789013671875
1741504519.7970362,0.30242395401000977,0.0215231546517564,0.049879392616890755,-0.9985233096958762,-1.3368360996246338,-0.21011601388454437,-1.0358933210372925,1.22624933719635,-4.130755424499512,8.347640991210938,-0.9821090698242188,0.4125661849975586,0.1680399775505066,-1.3485395908355713,0.00476844422519207,-0.5422675013542175,0.15697719156742096,1.367613434791565,0.01506828423589468,0.5468451976776123,0.1661325991153717,-0.6525139212608337,0.011635004542768002,-0.06923781335353851,0.6841763854026794,-0.14292512834072113,-0.006157975643873215,-0.6624323129653931,0.07457847148180008,-0.06351567804813385,0.7223239541053772,-0.24750161170959473,-0.046554937958717346,-0.35816988348960876,0.07003219425678253,0.05367593839764595,0.5292938947677612,-0.006795271299779415,-0.037166669964790344,0.5408719182014465,0.7162978649139404,0.04514126479625702,-0.04707123711705208,-0.31521695852279663,0.8045901656150818,2.1929688453674316,0.3703916072845459,-0.6858825087547302,1.3200112581253052,-0.8473886847496033,-0.11940646916627884,-0.08559726178646088,-2.098273515701294,1.3462713956832886,-2.317286968231201,-0.050349216908216476,1741504519.7552323,1741504519673,0.3722769775390625,3.520839599609375,-1.8469942126932741,2.366857666015625,2.24789013671875
1741504519.8170872,0.2849447727203369,0.010351615478017358,0.07558621258106234,-0.9970855372156622,-1.2002264261245728,-0.4794386923313141,-0.9456168413162231,-1.627930760383606,0.7628309726715088,7.949443817138672,-0.9641790390014648,0.3976879119873047,0.1661325991153717,-1.3390027284622192,0.00476844422519207,-0.54112309217453,0.1661325991153717,1.3805835247039795,0.01506828423589468,0.5453193187713623,0.16193637251853943,-0.6490806341171265,0.05207141116261482,-0.057793546468019485,0.6754024624824524,-0.11347376555204391,-0.010783899575471878,-0.6795986890792847,0.06542305648326874,-0.12149996310472488,0.7890821695327759,-0.2895120084285736,-0.0069505600258708,0.5416296124458313,-0.4685286581516266,-0.10281408578157425,0.6076026558876038,-0.01790010929107666,0.05008392035961151,0.6127599477767944,0.7554576396942139,0.0068900627084076405,-0.106904536485672,-0.2209651619195938,0.19754543900489807,2.006582736968994,0.6015006303787231,-0.3315892219543457,1.4084603786468506,0.018201647326350212,-0.9516623616218567,-0.5158522725105286,-2.9866886138916016,3.6514439582824707,-1.9773426055908203,2.372001886367798,1741504519.7552323,1741504519673,0.3722769775390625,3.520839599609375,-1.8469942126932741,2.366857666015625,2.24789013671875
1741504519.837068,0.26366186141967773,0.004685841116476927,0.09229009916887547,-0.9957211359052445,-0.7612659335136414,-0.2272830307483673,-1.0277527570724487,-3.0769333839416504,0.48853349685668945,9.651529312133789,-0.9679937362670898,0.3667888641357422,0.1684214472770691,-1.3328990936279297,0.00476844422519207,-0.5403600931167603,0.17566949129104614,1.381346583366394,0.014686808921396732,0.5449378490447998,0.14248111844062805,-0.6433585286140442,0.07915617525577545,-0.037193864583969116,0.6788357496261597,-0.0915960967540741,-0.0015002965228632092,-0.7288090586662292,0.048638131469488144,-0.17071031033992767,0.8863584399223328,-0.3118234872817993,0.02227146178483963,-0.09439781308174133,-0.8291776776313782,0.14149290323257446,0.333637535572052,0.00036343224928714335,0.062158070504665375,0.6232176423072815,-0.027791082859039307,-0.020938118919730186,-0.02275654301047325,-0.9204391837120056,0.18628841638565063,1.2527360916137695,1.042066216468811,0.12362426519393921,0.9682832360267639,0.49348217248916626,-2.6240689754486084,-0.8415671586990356,-2.17484450340271,4.907866477966309,-0.9206163287162781,0.8325691223144531,1741504519.7552323,1741504519673,0.3722769775390625,3.520839599609375,-1.8469942126932741,2.366857666015625,2.24789013671875
1741504519.8571029,0.24833464622497559,0.0021459241225856686,0.09631475570177651,-0.9953486137247427,-0.12791049480438232,-0.014750642701983452,-0.7937034368515015,-0.8620219826698303,-2.4967830181121826,9.996895790100098,-0.9576940536499023,0.3168153762817383,0.17071031033992767,-1.3313732147216797,0.00476844422519207,-0.54112309217453,0.1840619444847107,1.3767688274383545,0.014686808921396732,0.5453193187713623,0.12149996310472488,-0.6425955891609192,0.10547798871994019,-0.004005493130534887,0.6795986890792847,-0.0903521478176117,0.0012047893833369017,-0.775730550289154,0.03757534176111221,-0.18749523162841797,0.9874494671821594,-0.31192439794540405,0.00018547900253906846,0.269785076379776,-1.3942791223526,0.06982521712779999,0.07515296339988708,-0.01235006283968687,-0.0873219296336174,0.5506411194801331,-0.3794872760772705,-0.00025436285068280995,0.001649175537750125,-1.0820554494857788,0.13824070990085602,1.322746753692627,1.6911532878875732,0.06593932956457138,-0.11232048273086548,-0.0038348303642123938,-2.178148031234741,-0.5125758647918701,-0.6410933136940002,4.992630958557129,0.1730198860168457,-1.1138420104980469,1741504519.7552323,1741504519673,0.3722769775390625,3.520839599609375,-1.8469942126932741,2.366857666015625,2.24789013671875
1741504519.8771548,0.23674368858337402,0.002435473180158208,0.09241987240096874,-0.995717146410454,0.22158563137054443,0.07335802912712097,-0.5751194953918457,0.8010746836662292,0.851821780204773,10.503105163574219,-0.9554052352905273,0.2855348587036133,0.17071031033992767,-1.3317546844482422,0.00476844422519207,-0.541886031627655,0.18940261006355286,1.3687578439712524,0.014686808921396732,0.5449378490447998,0.09861142933368683,-0.6425955891609192,0.13027389347553253,0.02841992862522602,0.6738765835762024,-0.11083994060754776,-0.004881180822849274,-0.7925154566764832,0.03643091395497322,-0.17681391537189484,1.043144941329956,-0.29179102182388306,0.0006063822656869888,0.08588345348834991,-0.9717697501182556,0.014760676771402359,-0.047499414533376694,0.002811579266563058,-0.007700930815190077,0.3757157623767853,-0.47109532356262207,0.00923423282802105,-0.033692531287670135,-1.1319663524627686,-0.08145300298929214,1.1543848514556885,1.5092555284500122,-0.34344547986984253,-1.1003931760787964,-0.31517040729522705,-0.6195369362831116,0.02097700908780098,0.6204420328140259,2.2232933044433594,1.082099437713623,0.1834469586610794,1741504519.7552323,1741504519673,0.3722769775390625,3.520839599609375,-1.8469942126932741,2.366857666015625,2.24789013671875
1741504519.8982909,0.22766661643981934,-0.0018697938231278495,0.08732293533638064,-0.9961783017288106,0.2004876434803009,-0.18555893003940582,-0.44817832112312317,2.675023317337036,0.4031536877155304,7.289854049682617,-0.9454870223999023,0.2702751159667969,0.17223620414733887,-1.3374768495559692,0.00476844422519207,-0.5403600931167603,0.19359883666038513,1.36685049533844,0.014686808921396732,0.5422675013542175,0.08525978773832321,-0.6292439103126526,0.1527809500694275,0.03376058489084244,0.6754024624824524,-0.13683786988258362,-0.011387323960661888,-0.7860303521156311,0.03757534176111221,-0.15659570693969727,1.0385671854019165,-0.2665936052799225,0.00675049377605319,0.29300791025161743,-0.46675974130630493,0.10394560545682907,-0.38434433937072754,-0.009514765813946724,0.04030068591237068,0.24072545766830444,-0.04957449063658714,0.016118720173835754,-0.1938612312078476,-0.6075687408447266,0.7924774289131165,1.060916781425476,0.11122261732816696,0.08603886514902115,-1.3123197555541992,-0.2190280705690384,0.6738554835319519,0.02540891245007515,0.9775299429893494,-0.5947521328926086,1.2058202028274536,0.14778617024421692,1741504519.7552323,1741504519673,0.3722769775390625,3.520839599609375,-1.8469942126932741,2.366857666015625,2.24789013671875
1741504519.9171605,0.21779561042785645,-0.009638130450160069,0.0850764866530527,-0.9963278064272816,0.07782524079084396,-0.37058141827583313,-0.5056281685829163,3.848565101623535,-4.884885787963867,7.050700664520264,-0.9370946884155273,0.2672233581542969,0.17643244564533234,-1.3416730165481567,0.00476844422519207,-0.5407415628433228,0.19436179101467133,1.3679949045181274,0.014686808921396732,0.5388342142105103,0.08945601433515549,-0.6204699873924255,0.1672770231962204,0.03452353551983833,0.6795986890792847,-0.16266578435897827,-0.021089475601911545,-0.7425421476364136,0.03490501269698143,-0.1508735716342926,0.995078980922699,-0.25143715739250183,-0.00338379992172122,0.25608301162719727,-0.030854230746626854,0.25016316771507263,-0.23980417847633362,-0.011916744522750378,-0.003753634402528405,0.017304491251707077,0.028636690229177475,0.006527577992528677,-0.28921952843666077,0.3515872359275818,0.33579176664352417,0.7036391496658325,0.0206321831792593,0.2485865205526352,-1.2193596363067627,-0.39362651109695435,2.3091208934783936,-0.14541615545749664,0.176995187997818,-2.331676721572876,0.6398091912269592,-0.5720309615135193,1741504519.9530957,1741504519773,0.3727742614746094,3.537390625,-2.378390050754364,2.480132568359375,2.142093017578125
1741504519.9371722,0.20409011840820312,-0.022226185211635777,0.08770276125113911,-0.9958987008525836,-0.16445428133010864,-0.57481849193573,-0.7011881470680237,-0.20746636390686035,-1.6428935527801514,5.13287353515625,-0.9275579452514648,0.2656974792480469,0.18635080754756927,-1.3428175449371338,0.00476844422519207,-0.5407415628433228,0.19398032128810883,1.370665192604065,0.014686808921396732,0.5334935784339905,0.10814831405878067,-0.6166552305221558,0.17795833945274353,0.03376058489084244,0.6921873688697815,-0.18603137135505676,-0.02971394918859005,-0.6860837936401367,0.03337911143898964,-0.15583276748657227,0.9290837049484253,-0.24970382452011108,-0.005718349479138851,0.2665575444698334,-0.029919888824224472,0.5530930161476135,-0.04215575009584427,-0.011694232001900673,-0.009363960474729538,-0.026726549491286278,0.22718507051467896,0.005749457515776157,-0.32098591327667236,1.0446116924285889,0.11409571766853333,0.5161139965057373,-0.05414970591664314,0.6212913393974304,-1.171180009841919,-0.28555354475975037,2.8425490856170654,-0.08629588782787323,-0.2520151734352112,-3.4358882904052734,0.0006579231121577322,0.07464165985584259,1741504519.9530957,1741504519773,0.3727742614746094,3.537390625,-2.378390050754364,2.480132568359375,2.142093017578125
1741504519.957247,0.18767762184143066,-0.034572542593477695,0.09175088983231042,-0.9951816485012178,-0.2285943627357483,-0.5377040505409241,-0.8397823572158813,-0.5568509101867676,0.9797338247299194,5.129457950592041,-0.9195470809936523,0.2595939636230469,0.1985580176115036,-1.3424360752105713,0.00476844422519207,-0.5407415628433228,0.19245441257953644,1.374098539352417,0.014686808921396732,0.5327305793762207,0.13103684782981873,-0.6212329268455505,0.19016556441783905,0.031090257689356804,0.7146944403648376,-0.2110510915517807,-0.03864103928208351,-0.6254291534423828,0.026131074875593185,-0.1657511293888092,0.846684992313385,-0.2565327286720276,0.0016148325521498919,0.2379460334777832,-0.1377224326133728,0.6066998243331909,0.006115487311035395,-0.007420545443892479,0.010450467467308044,-0.09697389602661133,0.19048774242401123,0.0027363377157598734,-0.019605306908488274,1.107149362564087,-0.3415190875530243,0.622199296951294,-0.13842225074768066,1.2258179187774658,-1.1851096153259277,-0.39038145542144775,3.080157995223999,-0.36791977286338806,-0.49938908219337463,-3.958569288253784,-0.3790678381919861,0.3586564362049103,1741504519.9530957,1741504519773,0.3727742614746094,3.537390625,-2.378390050754364,2.480132568359375,2.142093017578125
1741504519.9772081,0.16778159141540527,-0.044869697775922465,0.09187657965174013,-0.9947589679580652,0.0019223683048039675,-0.38602763414382935,-1.0071159601211548,-2.7286784648895264,0.7939140796661377,6.816704750061035,-0.9088659286499023,0.24967575073242188,0.20771344006061554,-1.3424360752105713,0.00476844422519207,-0.5399786233901978,0.19130998849868774,1.373335599899292,0.014686808921396732,0.5342565178871155,0.15430685877799988,-0.6395437717437744,0.1958876997232437,0.03223468363285065,0.7478827834129333,-0.2360694259405136,-0.051163457334041595,-0.5655375123023987,0.026131074875593185,-0.1806286722421646,0.76276034116745,-0.26745426654815674,0.00040061381878331304,0.2946092486381531,-0.2838345766067505,0.41853246092796326,-0.008842337876558304,-0.007214333862066269,0.017950389534235,-0.06437785923480988,-0.1112559363245964,-0.0013330767396837473,0.11230285465717316,1.1241852045059204,-1.0095031261444092,0.2816391587257385,0.07582394778728485,1.718851923942566,-1.2465168237686157,-0.5577248930931091,2.839190721511841,0.020347828045487404,-0.7320941686630249,-3.804043769836426,-0.5283254384994507,-0.09303691238164902,1741504519.9530957,1741504519773,0.3727742614746094,3.537390625,-2.378390050754364,2.480132568359375,2.142093017578125
1741504519.9972467,0.14646399021148682,-0.04720613333429336,0.08517328986065634,-0.99524725152594,0.3277955651283264,0.044782694429159164,-1.07431960105896,0.1410287320613861,-0.5383977293968201,14.595094680786133,-0.9000911712646484,0.22106552124023438,0.2138170450925827,-1.3424360752105713,0.00476844422519207,-0.5395971536636353,0.19130998849868774,1.3702837228775024,0.014686808921396732,0.536163866519928,0.17109178006649017,-0.6647211313247681,0.18940261006355286,0.03643091395497322,0.7921339869499207,-0.2579517662525177,-0.06216639280319214,-0.5251010656356812,0.02841992862522602,-0.19550621509552002,0.6887540817260742,-0.27285608649253845,-0.0004340378218330443,0.252032071352005,-0.7837457060813904,0.24853242933750153,-0.0074431817047297955,-0.004828904289752245,0.03177091106772423,-0.0034160709474235773,-0.1913088709115982,-0.004256124142557383,0.1143764927983284,0.7075482606887817,-1.3860623836517334,-0.504566490650177,0.24668239057064056,2.2603914737701416,-1.1129964590072632,-0.561615526676178,1.7995076179504395,0.05521756783127785,-0.7308148741722107,-3.417816162109375,-0.025726936757564545,-0.0051239547319710255,1741504519.9530957,1741504519773,0.3727742614746094,3.537390625,-2.378390050754364,2.480132568359375,2.142093017578125
1741504520.0173068,0.12489855289459229,-0.047326947151150676,0.08013408802017442,-0.9956599258835956,0.07501280307769775,-0.006379300262778997,-1.0967390537261963,6.265913486480713,-1.5936342477798462,11.379399299621582,-0.8916988372802734,0.22526168823242188,0.2153429538011551,-1.3424360752105713,0.00476844422519207,-0.5365453362464905,0.19054703414440155,1.36685049533844,0.014686808921396732,0.5323491096496582,0.1813916265964508,-0.6940947771072388,0.19054703414440155,0.013923857361078262,0.840199887752533,-0.28011709451675415,-0.05992254242300987,-0.5266270041465759,0.04253452271223068,-0.1997024416923523,0.6857023239135742,-0.24317292869091034,-0.02969716489315033,0.2527240216732025,0.07414577901363373,0.00983246136456728,-0.0033386987634003162,-0.011027012020349503,0.1295274943113327,-0.07225753366947174,-0.18187248706817627,0.004334266763180494,-0.35393279790878296,0.5295069217681885,-1.3466898202896118,0.15481126308441162,-1.4872952699661255,2.188062906265259,-1.247907042503357,0.31471097469329834,-0.4955790042877197,0.8969483375549316,-0.01884397491812706,0.30977997183799744,1.5700335502624512,-1.4302319288253784,1741504520.0642014,1741504519873,0.368726806640625,3.53656640625,-2.7875910723323947,2.59276953125,2.039417236328125
1741504520.0373101,0.10638070106506348,-0.055150278051128154,0.0859214065719293,-0.9947743255249325,-0.34653353691101074,-0.2635348439216614,-0.905152440071106,0.7676101326942444,3.6434667110443115,11.1704740524292,-0.8821620941162109,0.2565422058105469,0.2149614691734314,-1.3424360752105713,0.00476844422519207,-0.5350194573402405,0.18749523162841797,1.3710466623306274,0.01506828423589468,0.5289158225059509,0.18978407979011536,-0.7150759100914001,0.15926603972911835,-0.027656977996230125,0.8695735335350037,-0.3178689777851105,-0.028105787932872772,-0.5357823967933655,0.040627144277095795,-0.17833982408046722,0.6723506450653076,-0.21879850327968597,-0.026523837819695473,0.2855437099933624,0.8479163646697998,-0.027583783492445946,-0.0001432882563676685,-0.0193361546844244,0.08883289247751236,-0.18020844459533691,0.2954499423503876,-8.96862184163183e-05,-0.14777038991451263,0.37683531641960144,-0.9518493413925171,-1.6352003812789917,-2.1656057834625244,1.4132174253463745,-1.958176851272583,1.7372355461120605,-0.28036272525787354,-0.0649527758359909,0.9871087670326233,-0.8118255138397217,1.2480289936065674,0.5855342745780945,1741504520.0642014,1741504519873,0.368726806640625,3.53656640625,-2.7875910723323947,2.59276953125,2.039417236328125
1741504520.0573454,0.09983313083648682,-0.05654319210672309,0.08498151464995965,-0.99477686422342,0.11826806515455246,0.024710655212402344,-0.25408315658569336,0.5409356951713562,-0.058220092207193375,13.170636177062988,-0.8760585784912109,0.2542533874511719,0.2130540907382965,-1.3462507724761963,0.005149920005351305,-0.5308232307434082,0.18787670135498047,1.372191071510315,0.014686808921396732,0.5300602912902832,0.2004653960466385,-0.7402533292770386,0.1203555315732956,-0.08068207651376724,0.9107728600502014,-0.3583925664424896,0.004421241115778685,-0.5296788215637207,0.04787518084049225,-0.17261768877506256,0.6597619652748108,-0.19480396807193756,-0.02598305232822895,0.22515247762203217,-0.0056153712794184685,-0.1310475617647171,-0.3925081491470337,0.009134899824857712,0.2341446429491043,0.09094516932964325,-0.05460631474852562,-0.04881016165018082,0.11329019069671631,0.3830304443836212,-1.2958106994628906,-1.8396413326263428,-2.8057193756103516,2.3786821365356445,-1.9971297979354858,1.630852222442627,0.2831360399723053,0.27731025218963623,0.16302631795406342,-0.5696567296981812,1.1071079969406128,-0.25607359409332275,1741504520.0642014,1741504519873,0.368726806640625,3.53656640625,-2.7875910723323947,2.59276953125,2.039417236328125
1741504520.0773287,0.09839606285095215,-0.05225656878656331,0.08063856838582055,-0.9953726298765405,0.20911291241645813,0.2697810232639313,-0.02751186490058899,5.737781524658203,3.8802552223205566,9.046398162841797,-0.8684291839599609,0.2573051452636719,0.200083926320076,-1.360365390777588,0.005149920005351305,-0.5281528830528259,0.19245441257953644,1.36685049533844,0.014686808921396732,0.5300602912902832,0.19283588230609894,-0.7646677494049072,0.08258945494890213,-0.11730372905731201,0.9802014231681824,-0.3899107873439789,-0.00012769769818987697,-0.5407415628433228,0.05130846053361893,-0.16918440163135529,0.6448844075202942,-0.18078763782978058,-0.033196114003658295,0.2045278698205948,0.0796319991350174,-0.6989707350730896,-0.8703629970550537,-0.00982074998319149,0.0997462272644043,0.28264346718788147,-0.40748831629753113,0.00430184556171298,-0.027622215449810028,-0.5189409255981445,-1.261685848236084,-1.8012187480926514,-1.6497671604156494,3.432715654373169,-1.4889165163040161,-0.5460283160209656,-0.8063457012176514,0.26795896887779236,0.2708958089351654,-0.6883324384689331,0.6768656969070435,-0.33082741498947144,1741504520.0642014,1741504519873,0.368726806640625,3.53656640625,-2.7875910723323947,2.59276953125,2.039417236328125
1741504520.0973477,0.09734678268432617,-0.047841013026970976,0.07731706757231474,-0.9958580765021546,0.15547481179237366,0.2626851201057434,-0.09029123932123184,-1.7599129676818848,5.347073554992676,9.403448104858398,-0.8558406829833984,0.2626457214355469,0.1840619444847107,-1.3679949045181274,0.005149920005351305,-0.5289158225059509,0.19436179101467133,1.3584580421447754,0.014686808921396732,0.5292973518371582,0.1832990050315857,-0.80510413646698,0.05436026677489281,-0.1203555315732956,1.0660333633422852,-0.3990802764892578,-0.015176788903772831,-0.5479896068572998,0.05703059583902359,-0.14553292095661163,0.6429770588874817,-0.17213940620422363,-0.03207385167479515,0.3745822608470917,0.14747990667819977,-0.8180719017982483,-0.5269940495491028,-0.0014022005489096045,-0.06866762042045593,0.10269541293382645,-0.5737339854240417,-0.0009991618571802974,-0.04094791039824486,-0.4986978769302368,-1.9635871648788452,-1.363823652267456,-0.07822293788194656,4.499446392059326,-0.27861452102661133,-0.4124450087547302,-0.22699397802352905,0.25128617882728577,1.2930803298950195,-0.07807939499616623,0.3696563243865967,0.17588956654071808,1741504520.0642014,1741504519873,0.368726806640625,3.53656640625,-2.7875910723323947,2.59276953125,2.039417236328125
1741504520.1174212,0.08395767211914062,-0.04371059843312662,0.07386661534634668,-0.9963097443676303,0.16347312927246094,0.24988354742527008,-0.6755015254020691,0.9664394855499268,2.7681167125701904,9.943217277526855,-0.841343879699707,0.2710380554199219,0.17452506721019745,-1.3737170696258545,0.00476844422519207,-0.5300602912902832,0.19169145822525024,1.3515914678573608,0.014686808921396732,0.5285343527793884,0.17681391537189484,-0.8447775840759277,0.03147173300385475,-0.12073700875043869,1.1614023447036743,-0.39121705293655396,-0.0014299205504357815,-0.5571450591087341,0.06389715522527695,-0.12912946939468384,0.6418325901031494,-0.17157481610774994,-0.030149012804031372,0.39237847924232483,0.2884220480918884,-0.3918825089931488,-0.3050471246242523,-0.004509077873080969,-0.02336040884256363,-0.2285066395998001,-0.4125303328037262,0.014791254885494709,-0.05372240021824837,-0.10631071776151657,-2.041982889175415,-1.1336851119995117,-0.09207377582788467,4.702020168304443,0.50223308801651,0.6840794086456299,-0.53786700963974,0.2749550938606262,0.8371055126190186,-0.012315074913203716,-0.016115842387080193,-0.05836336314678192,1741504520.1595507,1741504519973,0.36431634521484374,3.515148193359375,-2.8423999187319566,2.7017333984375003,1.94064208984375
1741504520.13742,0.06396770477294922,-0.04228600657362684,0.0693247977462835,-0.9966975298782936,0.16759827733039856,0.1420503556728363,-1.0081462860107422,3.387451410293579,3.2154595851898193,8.872007369995117,-0.8241777420043945,0.2851533889770508,0.17147326469421387,-1.378676176071167,0.00476844422519207,-0.5289158225059509,0.1848248988389969,1.3458693027496338,0.014686808921396732,0.5277714133262634,0.1832990050315857,-0.8745326995849609,0.005531395319849253,-0.12264438718557358,1.2365529537200928,-0.3748949468135834,0.0005860998062416911,-0.5682078003883362,0.06351567804813385,-0.1188296303153038,0.6437399983406067,-0.17174293100833893,-0.029787078499794006,0.5146462321281433,0.44071266055107117,-0.12246701866388321,-0.27963852882385254,-0.005970206577330828,0.08509339392185211,-0.4354711174964905,-0.3677475154399872,-0.0027065526228398085,-0.04301344230771065,0.3415984809398651,-1.338595986366272,-1.486925721168518,0.05575497820973396,3.401442289352417,0.7890117764472961,0.00033101753797382116,-0.4891909658908844,0.030857691541314125,0.5161229968070984,0.09819085896015167,0.016672125086188316,0.052773360162973404,1741504520.1595507,1741504519973,0.36431634521484374,3.515148193359375,-2.8423999187319566,2.7017333984375003,1.94064208984375
1741504520.157438,0.04100692272186279,-0.04382051201444628,0.06556443629600031,-0.9968856842286279,0.14090187847614288,-0.023211954161524773,-1.1108872890472412,2.796050548553467,1.7012972831726074,8.928548812866211,-0.813115119934082,0.2950716018676758,0.17376211285591125,-1.378676176071167,0.00476844422519207,-0.5273899435997009,0.17986571788787842,1.3435804843902588,0.014686808921396732,0.5266270041465759,0.18673227727413177,-0.8760585784912109,-0.02689402550458908,-0.12340734153985977,1.2621119022369385,-0.3594280481338501,-0.005725855007767677,-0.5758373141288757,0.06427863240242004,-0.11120012402534485,0.6441214680671692,-0.1726302206516266,-0.030235400423407555,0.3051237165927887,0.30878788232803345,0.12254051864147186,-0.002089298563078046,-0.0023587290197610855,0.04757176339626312,-0.2568718492984772,-0.09383143484592438,0.0021963014733046293,-0.09128189086914062,0.152878537774086,0.11669718474149704,-1.506137728691101,-0.08897531032562256,0.9705178737640381,0.7105969786643982,-0.17662541568279266,-0.36852914094924927,-0.05042539909482002,0.4285622239112854,0.015030293725430965,-0.03007803112268448,-0.02869355119764805,1741504520.1595507,1741504519973,0.36431634521484374,3.515148193359375,-2.8423999187319566,2.7017333984375003,1.94064208984375
1741504520.177424,0.020158886909484863,-0.04819714181099295,0.060780740264565994,-0.9969868289672348,0.19206032156944275,-0.1445521116256714,-1.0452039241790771,-0.22176679968833923,0.301412433385849,8.98962688446045,-0.7997636795043945,0.2977418899536133,0.17605096101760864,-1.378676176071167,0.00476844422519207,-0.5285343527793884,0.17986571788787842,1.3443434238433838,0.014686808921396732,0.5251010656356812,0.182917520403862,-0.846684992313385,-0.04787518084049225,-0.13065537810325623,1.2388418912887573,-0.35153764486312866,0.002295811427757144,-0.5823224186897278,0.06160829961299896,-0.10547798871994019,0.6441214680671692,-0.17524820566177368,-0.029319921508431435,0.3893962502479553,0.10053462535142899,0.08210179954767227,-0.00217345985583961,-0.0021095960400998592,-0.08277943730354309,0.06391097605228424,0.0027202272322028875,-0.01486827339977026,-0.10330559313297272,-0.2603723406791687,1.7901514768600464,-0.9430850744247437,-0.37833690643310547,-1.5573339462280273,0.32362499833106995,0.3981597125530243,-0.32519081234931946,-0.1306924968957901,0.242710143327713,0.02733493596315384,-0.14304271340370178,0.15080364048480988,1741504520.1595507,1741504519973,0.36431634521484374,3.515148193359375,-2.8423999187319566,2.7017333984375003,1.94064208984375
1741504520.197524,0.0005476474761962891,-0.04970079019208692,0.05666690189563521,-0.9971553006848195,0.1476573646068573,0.02895280346274376,-0.9965143799781799,0.5854545831680298,-0.11612793803215027,8.89073657989502,-0.789463996887207,0.2969789505004883,0.17795833945274353,-1.377913236618042,0.00476844422519207,-0.5292973518371582,0.182154580950737,1.3443434238433838,0.014686808921396732,0.5247195959091187,0.17071031033992767,-0.7841230034828186,-0.058175019919872284,-0.14324407279491425,1.1667429208755493,-0.35554051399230957,0.0013259308179840446,-0.5952925682067871,0.05970092490315437,-0.10547798871994019,0.648699164390564,-0.1828784942626953,-0.02387033775448799,0.3232215642929077,-0.009103844873607159,0.0950498953461647,0.06679859012365341,0.003297467017546296,-0.030358273535966873,0.1618529111146927,-0.001496594399213791,-0.0016924530500546098,-0.016132306307554245,-0.6034661531448364,3.281327247619629,-0.37951162457466125,-0.7073367238044739,-4.025403022766113,-0.3227134048938751,-0.13079304993152618,-0.6442068219184875,-0.1145448163151741,0.018001092597842216,0.2874947190284729,-0.45072630047798157,0.22774820029735565,1741504520.1595507,1741504519973,0.36431634521484374,3.515148193359375,-2.8423999187319566,2.7017333984375003,1.94064208984375
1741504520.2174907,-0.019266843795776367,-0.048732156958616483,0.0535509382400424,-0.9973752924008956,0.095378078520298,0.09084999561309814,-1.010823369026184,-0.22237195074558258,-0.27754008769989014,7.111168384552002,-0.781834602355957,0.2943086624145508,0.1810101419687271,-1.3760058879852295,0.00476844422519207,-0.5281528830528259,0.1844434291124344,1.3443434238433838,0.014686808921396732,0.5243381261825562,0.15926603972911835,-0.7139315009117126,-0.061226826161146164,-0.15926603972911835,1.046196699142456,-0.3803993761539459,0.005498392507433891,-0.6139848828315735,0.06427863240242004,-0.11348897218704224,0.6643396615982056,-0.20063628256320953,-0.031915824860334396,0.2543298006057739,-0.060059066861867905,0.16457222402095795,0.09472054988145828,0.006176705937832594,0.058013614267110825,0.1155567616224289,0.0019314948003739119,0.006447195541113615,-0.03191738203167915,-0.5402904152870178,3.4392459392547607,-0.1383185237646103,-0.7965030670166016,-6.3427510261535645,-1.430390477180481,0.4568093419075012,-0.9787305593490601,0.2577901780605316,-0.49538707733154297,0.8497565388679504,-0.9692069888114929,-0.4275694787502289,1741504520.260993,1741504520173,0.3581319580078125,3.490812255859375,-2.767151253845195,2.910425048828125,1.7521905517578125
1741504520.2375228,-0.04348409175872803,-0.04592758296532767,0.05595611271386665,-0.9973763434997424,-0.2278994470834732,0.19778837263584137,-1.1905522346496582,0.3234660029411316,-1.9165538549423218,6.616144180297852,-0.7726783752441406,0.2954530715942383,0.18558785319328308,-1.3744800090789795,0.00476844422519207,-0.5285343527793884,0.1836804747581482,1.3454878330230713,0.014686808921396732,0.5243381261825562,0.14744029939174652,-0.647936224937439,-0.05855649709701538,-0.16956588625907898,0.8970397710800171,-0.42284315824508667,0.006380836479365826,-0.6410696506500244,0.07610437273979187,-0.12836651504039764,0.691805899143219,-0.2239370495080948,-0.03937161713838577,0.23706193268299103,0.036587636917829514,0.19479018449783325,0.1395113319158554,-0.0005071960622444749,-0.020709920674562454,-0.05237722024321556,0.1275094747543335,0.00715087354183197,0.003570868633687496,-0.595984935760498,3.166577100753784,0.212820902466774,-0.5940406918525696,-7.6535773277282715,-2.123887300491333,-0.18366721272468567,-1.422133207321167,0.6590694785118103,-0.7127854228019714,1.4103091955184937,-1.1525908708572388,-0.2797328233718872,1741504520.260993,1741504520173,0.3581319580078125,3.490812255859375,-2.767151253845195,2.910425048828125,1.7521905517578125
1741504520.2575362,-0.06789886951446533,-0.04126825256054624,0.06342702808310734,-0.9971328614779194,-0.27599939703941345,0.33129575848579407,-1.1111646890640259,0.46258535981178284,2.3451766967773438,17.463098526000977,-0.7658119201660156,0.2988862991333008,0.18558785319328308,-1.3679949045181274,0.005149920005351305,-0.5251010656356812,0.17910276353359222,1.3565505743026733,0.014686808921396732,0.5224307775497437,0.12531471252441406,-0.6342030763626099,-0.03643091395497322,-0.17071031033992767,0.8882657885551453,-0.3941188156604767,-0.05209973454475403,-0.6631952524185181,0.06771191209554672,-0.13103684782981873,0.7177462577819824,-0.24474883079528809,-0.04580707103013992,0.1821071356534958,0.18066366016864777,-0.03882693126797676,0.430625319480896,0.01635800302028656,0.3056895434856415,-0.3815484642982483,1.0451743602752686,0.014943585731089115,-0.17873205244541168,-1.0696043968200684,-0.14066165685653687,1.0582218170166016,0.11113548278808594,0.8531147837638855,1.736811637878418,-2.9975240230560303,-0.7195759415626526,-0.8017019033432007,0.013932546600699425,0.9624345302581787,-1.0239959955215454,-0.36343225836753845,1741504520.260993,1741504520173,0.3581319580078125,3.490812255859375,-2.767151253845195,2.910425048828125,1.7521905517578125
1741504520.277531,-0.08229219913482666,-0.03581290258088101,0.057711938261874485,-0.9976907177030314,0.15144045650959015,0.20785795152187347,-0.6721461415290833,-1.8044275045394897,-15.555994033813477,12.358856201171875,-0.7322425842285156,0.2855348587036133,0.182917520403862,-1.3645615577697754,0.00476844422519207,-0.5201418995857239,0.17833982408046722,1.36837637424469,0.01506828423589468,0.5228122472763062,0.10471503436565399,-0.6647211313247681,0.013542382046580315,-0.15506981313228607,0.8649957776069641,-0.3607412874698639,-0.0729508027434349,-0.6715877056121826,0.06809338182210922,-0.14705882966518402,0.7280460596084595,-0.2749616801738739,-0.01582937501370907,0.9301656484603882,-0.0990978553891182,-0.17084676027297974,0.11553340405225754,-0.016266636550426483,0.23241472244262695,0.09187949448823929,0.611886739730835,0.031411994248628616,0.02068638987839222,-1.0886430740356445,-0.7392439842224121,2.1194100379943848,1.2403273582458496,-1.7963813543319702,1.6353670358657837,-0.2863399386405945,-0.44354763627052307,0.014301803894340992,-0.9029684066772461,0.4598942697048187,-1.4916324615478516,1.7668055295944214,1741504520.260993,1741504520173,0.3581319580078125,3.490812255859375,-2.767151253845195,2.910425048828125,1.7521905517578125
1741504520.2976148,-0.08973729610443115,-0.024790794267307133,0.06831015862915388,-0.9973560742020153,-0.5101675987243652,0.4441906213760376,-0.30365973711013794,-5.311901569366455,-0.9529018402099609,7.814517498016357,-0.7520790100097656,0.2718009948730469,0.17948424816131592,-1.364943027496338,0.00476844422519207,-0.5163271427154541,0.1840619444847107,1.372191071510315,0.013923857361078262,0.5201418995857239,0.09136339277029037,-0.6376363635063171,0.0394827201962471,-0.12149996310472488,0.8211261034011841,-0.3285832703113556,-0.029703302308917046,-0.6841763854026794,0.0555046908557415,-0.17948424816131592,0.7558938264846802,-0.30089887976646423,0.005940490402281284,-0.5312139987945557,-0.20700380206108093,-0.14286667108535767,0.09787265211343765,0.009859531186521053,0.1542893797159195,0.41806095838546753,0.3026409149169922,-0.0218376312404871,-0.2128065824508667,-0.5463485717773438,1.1644783020019531,0.9356805086135864,1.4190152883529663,-2.0509579181671143,1.6649789810180664,2.21846604347229,-0.6449476480484009,-0.8147764205932617,-1.61909818649292,1.7364803552627563,-1.2326358556747437,0.666339635848999,1741504520.260993,1741504520173,0.3581319580078125,3.490812255859375,-2.767151253845195,2.910425048828125,1.7521905517578125
1741504520.3176014,-0.09558439254760742,-0.019655124190918236,0.07363763507794335,-0.9970913572953921,-0.183515727519989,0.22582952678203583,-0.3526759147644043,-1.4058502912521362,-0.7386307716369629,10.041024208068848,-0.7024869918823242,0.2653160095214844,0.17185473442077637,-1.3573135137557983,0.00476844422519207,-0.5136567950248718,0.19092851877212524,1.383635401725769,0.01506828423589468,0.5148012638092041,0.10852979123592377,-0.6357290148735046,0.050164032727479935,-0.12912946939468384,0.8016708493232727,-0.2948110103607178,-0.02936732769012451,-0.7131685614585876,0.03147173300385475,-0.20847637951374054,0.813115119934082,-0.32219475507736206,-0.0047746263444423676,1.3613579273223877,-0.21253426373004913,-0.381592720746994,0.5625748038291931,0.008731257170438766,0.11254147440195084,0.507080614566803,0.6975368857383728,0.04121524840593338,-0.4014556407928467,1.1327943801879883,-0.2780666649341583,0.5562566518783569,-0.468779057264328,-0.8107306957244873,1.5671135187149048,-0.2814697325229645,-1.5017820596694946,-1.1417142152786255,-1.4058623313903809,3.101869821548462,-1.0141316652297974,-0.5602432489395142,1741504520.260993,1741504520173,0.3581319580078125,3.490812255859375,-2.767151253845195,2.910425048828125,1.7521905517578125
1741504520.3376043,-0.11748945713043213,-0.0179481852427002,0.077871604803626,-0.9968018237402064,-0.2963384687900543,0.13679476082324982,-1.240607738494873,10.954092025756836,5.776157855987549,3.744513750076294,-0.6967649459838867,0.2603569030761719,0.17032882571220398,-1.3500655889511108,0.004386968910694122,-0.5167086124420166,0.1977950781583786,1.3889760971069336,0.01506828423589468,0.5086976289749146,0.13904783129692078,-0.6235218048095703,0.04482337832450867,-0.12951095402240753,0.7837415337562561,-0.2750639319419861,-0.029444754123687744,-0.7497901916503906,0.01125352829694748,-0.23403525352478027,0.8882657885551453,-0.32656896114349365,-0.0007181272376328707,0.24169482290744781,-0.1719711720943451,0.04605598747730255,0.42232728004455566,-0.029871704056859016,-0.20192715525627136,0.39801281690597534,0.279154509305954,0.02039351873099804,-0.34128063917160034,1.5690590143203735,0.8476077318191528,-0.3155101239681244,-0.009341907687485218,-0.9755343794822693,0.8545857071876526,0.3159695565700531,-1.7639027833938599,-1.0004724264144897,-1.169234037399292,3.7098069190979004,-0.06744366884231567,0.4125402271747589,1741504520.260993,1741504520173,0.3581319580078125,3.490812255859375,-2.767151253845195,2.910425048828125,1.7521905517578125
1741504520.3576658,-0.15217912197113037,-0.024988501210692873,0.07383832580196983,-0.996957108631061,0.2366705983877182,-0.22312869131565094,-1.8349062204360962,1.1780678033828735,-6.38355016708374,11.507125854492188,-0.6662473678588867,0.2550163269042969,0.17986571788787842,-1.3458693027496338,0.00476844422519207,-0.5178530812263489,0.2004653960466385,1.3885945081710815,0.014686808921396732,0.508316159248352,0.17872129380702972,-0.6197070479393005,0.054741740226745605,-0.12989242374897003,0.7597085237503052,-0.26437821984291077,-0.02613193914294243,-0.7574197053909302,-0.01125352829694748,-0.24090181291103363,0.955024003982544,-0.3175496459007263,0.008564448915421963,0.902432918548584,-0.1976877897977829,0.5642271637916565,0.2532522678375244,0.004026111215353012,-0.000593809993006289,0.18795643746852875,-0.17841580510139465,-0.03212886303663254,0.00575558515265584,2.019843339920044,0.1549805849790573,0.5657384991645813,0.13742969930171967,-0.9546869397163391,0.5457440614700317,-0.14739413559436798,-0.18068723380565643,-1.0965205430984497,-0.20010094344615936,3.1871302127838135,0.499150812625885,0.2811602056026459,1741504520.260993,1741504520173,0.3581319580078125,3.490812255859375,-2.767151253845195,2.910425048828125,1.7521905517578125
1741504520.3776827,-0.1880500316619873,-0.0333738889599127,0.0650364978096489,-0.9973246399685245,0.4128718376159668,-0.3166678845882416,-1.7282558679580688,1.6045855283737183,-3.342886209487915,9.209932327270508,-0.6548023223876953,0.24662399291992188,0.2004653960466385,-1.3416730165481567,0.00476844422519207,-0.5167086124420166,0.20313572883605957,1.3832539319992065,0.014686808921396732,0.5136567950248718,0.19245441257953644,-0.6132219433784485,0.06389715522527695,-0.11310750246047974,0.7421606779098511,-0.2644725441932678,-0.03826502338051796,-0.7509346008300781,-0.03185320645570755,-0.24052032828330994,0.995078980922699,-0.3004057705402374,0.0007512126467190683,0.36035284399986267,-0.24619410932064056,1.0116207599639893,0.2504400312900543,-0.0014757764292880893,0.021477006375789642,0.17112267017364502,-0.2570156455039978,0.009253918193280697,0.5013807415962219,0.33890479803085327,0.3108089864253998,0.4056077003479004,0.8929183483123779,-1.0701465606689453,-0.12227164208889008,-0.4643048346042633,0.4111711382865906,-1.0012420415878296,0.0445803701877594,1.6786866188049316,0.8725525736808777,-0.4153846800327301,1741504520.260993,1741504520173,0.3581319580078125,3.490812255859375,-2.767151253845195,2.910425048828125,1.7521905517578125
1741504520.3977058,-0.20403623580932617,-0.03819803836704866,0.05208592483984638,-0.9979118028656077,0.6158615946769714,-0.0981680154800415,-0.6666114330291748,1.4163602590560913,-4.803873062133789,7.86191463470459,-0.6383991241455078,0.23365402221679688,0.212672621011734,-1.3435804843902588,0.005149920005351305,-0.5205233693122864,0.20695048570632935,1.3790576457977295,0.014686808921396732,0.5285343527793884,0.18787670135498047,-0.5991073250770569,0.07801175117492676,-0.1028076633810997,0.7280460596084595,-0.2677706778049469,-0.04824918508529663,-0.726901650428772,-0.05054550990462303,-0.2302204966545105,1.0095750093460083,-0.2869453728199005,-0.003715881146490574,0.479255348443985,-0.3802649974822998,0.44080832600593567,-0.1718243807554245,0.005745867267251015,-0.27756378054618835,0.24932904541492462,-0.3204388916492462,-0.020679384469985962,1.0334645509719849,-0.405036598443985,0.6968124508857727,0.7144332528114319,0.5955890417098999,-0.5238223075866699,-0.1716751754283905,-0.5462073683738708,1.3950533866882324,-0.9681217670440674,0.5497379899024963,0.6458151340484619,0.5556972622871399,-0.13649283349514008,1741504520.260993,1741504520173,0.3581319580078125,3.490812255859375,-2.767151253845195,2.910425048828125,1.7521905517578125
1741504520.4176745,-0.20117735862731934,-0.03799539567870601,0.04256845815043853,-0.9983708110105749,0.43453332781791687,-0.0050146873109042645,0.2921769917011261,1.2442556619644165,-4.316462516784668,9.358186721801758,-0.6315326690673828,0.22526168823242188,0.20618753135204315,-1.3431990146636963,0.005149920005351305,-0.5342565178871155,0.2141985148191452,1.3737170696258545,0.014686808921396732,0.5476081371307373,0.164988175034523,-0.5945296287536621,0.08983749151229858,-0.08869306743144989,0.7227054238319397,-0.2749873697757721,-0.06337109208106995,-0.6986724734306335,-0.05703059583902359,-0.21725031733512878,1.0175859928131104,-0.2910703420639038,-0.004075232893228531,0.19864368438720703,-0.2342061847448349,-0.4756937623023987,0.0344587042927742,0.02601674385368824,-0.8018720149993896,0.5900049209594727,-0.31354770064353943,0.005116516258567572,1.2639846801757812,-1.1954360008239746,0.3422667384147644,0.5485396385192871,0.6596818566322327,-0.18500541150569916,-0.3673876225948334,-0.7137406468391418,1.0955389738082886,-0.33761876821517944,0.5324985980987549,0.26444578170776367,-0.39069586992263794,0.01823428086936474,1741504520.4658341,1741504520273,0.35975634765625003,3.490550537109375,-2.947193565076964,3.0098828125,1.660949951171875
1741504520.437713,-0.19345223903656006,-0.034336458465021126,0.03805272653543561,-0.9986856350340177,0.21547900140285492,0.17983458936214447,0.3675307333469391,2.876870632171631,-3.6077001094818115,6.79188346862793,-0.6132221221923828,0.21152782440185547,0.18825818598270416,-1.3397656679153442,0.00476844422519207,-0.5590524077415466,0.23556114733219147,1.372191071510315,0.014686808921396732,0.5651560425758362,0.15354390442371368,-0.5945296287536621,0.10967422276735306,-0.07801175117492676,0.7303349375724792,-0.2847587764263153,-0.07576826214790344,-0.6754024624824524,-0.06542305648326874,-0.19398032128810883,1.0172045230865479,-0.32362979650497437,-0.007153606973588467,0.5222238898277283,-0.41590559482574463,-0.9411389231681824,0.24439400434494019,-0.010777181014418602,-1.2591301202774048,1.466156244277954,-0.12201341241598129,-0.011342240497469902,1.1622049808502197,-0.2953464388847351,-0.15389305353164673,0.851459801197052,0.5508670806884766,0.4183415472507477,-0.49956491589546204,-0.5485973358154297,1.315222978591919,-0.3635067641735077,1.2091082334518433,0.05054248869419098,-1.8277347087860107,-0.1571778804063797,1741504520.4658341,1741504520273,0.35975634765625003,3.490550537109375,-2.947193565076964,3.0098828125,1.660949951171875
1741504520.4577394,-0.19045555591583252,-0.03381316925279442,0.03715946083946542,-0.9987371246004637,0.05173470079898834,-0.026000289246439934,0.05758454278111458,2.1800336837768555,-1.35953950881958,5.498671054840088,-0.5941486358642578,0.21000194549560547,0.1684214472770691,-1.3348065614700317,0.00476844422519207,-0.5907148718833923,0.25234606862068176,1.3702837228775024,0.014686808921396732,0.5842298269271851,0.17071031033992767,-0.6074998378753662,0.12226291000843048,-0.07267109304666519,0.7520790696144104,-0.2959367036819458,-0.08496785163879395,-0.6437399983406067,-0.06923781335353851,-0.17376211285591125,0.9996566772460938,-0.3785644769668579,-0.003853400470688939,0.5534186959266663,-0.0678180679678917,-0.9888350963592529,0.34892499446868896,-0.005494548939168453,-1.5527881383895874,1.0369465351104736,-0.17346078157424927,0.022725433111190796,1.2736258506774902,0.8205021023750305,-0.7017548680305481,0.5806612968444824,0.07967555522918701,1.2109179496765137,-0.5655254125595093,-0.3865807354450226,1.568866491317749,-0.28793925046920776,0.9209373593330383,-1.2348830699920654,-2.788571834564209,0.16199684143066406,1741504520.4658341,1741504520273,0.35975634765625003,3.490550537109375,-2.947193565076964,3.0098828125,1.660949951171875
1741504520.4777827,-0.20250356197357178,-0.03582343838750475,0.03696925878346157,-0.9986740985762563,-0.002323833992704749,-0.06314719468355179,-0.6118484139442444,-4.316603183746338,3.9947800636291504,5.543697357177734,-0.5720224380493164,0.20695018768310547,0.15392538905143738,-1.3256510496139526,0.00476844422519207,-0.6242847442626953,0.2603570520877838,1.362654209136963,0.014686808921396732,0.6052109599113464,0.20885786414146423,-0.620088517665863,0.12607766687870026,-0.08030059933662415,0.7898451089859009,-0.30995985865592957,-0.08556022495031357,-0.5937666893005371,-0.07000076025724411,-0.17185473442077637,0.9267948269844055,-0.4341529309749603,0.006331858690828085,0.6482002139091492,-0.111604705452919,-0.5925403833389282,0.6461313962936401,-0.007961370050907135,-1.6720415353775024,0.4552180767059326,-0.5643301606178284,-0.026457766070961952,1.5012362003326416,2.0260937213897705,-0.7958266735076904,0.15719546377658844,-0.45009830594062805,1.9974448680877686,-0.6973385214805603,0.01772775501012802,2.881037950515747,0.031046845018863678,-0.02704988792538643,-3.880671739578247,-2.688668966293335,0.3760473132133484,1741504520.4658341,1741504520273,0.35975634765625003,3.490550537109375,-2.947193565076964,3.0098828125,1.660949951171875
1741504520.4978073,-0.2274918556213379,-0.03226062717921075,0.03343565782918446,-0.9989200712366999,0.2091963291168213,0.23920601606369019,-1.2501072883605957,2.015655994415283,0.9622916579246521,39.8765754699707,-0.5575265884399414,0.20160961151123047,0.16117341816425323,-1.3161141872406006,0.004386968910694122,-0.6509880423545837,0.2588311731815338,1.3512099981307983,0.01430533267557621,0.6288624405860901,0.25425344705581665,-0.6589990258216858,0.10738536715507507,-0.08068207651376724,0.8318074345588684,-0.32709458470344543,-0.08115185052156448,-0.5296788215637207,-0.07381551712751389,-0.19436179101467133,0.8333333134651184,-0.45420145988464355,0.025670375674962997,0.43133556842803955,-0.1553245335817337,0.5399971604347229,0.6382323503494263,-0.03533901274204254,-1.2639410495758057,-0.16892744600772858,-0.8701624870300293,0.009080120362341404,1.5788960456848145,2.2506160736083984,-1.9941028356552124,-0.873602032661438,-0.15997573733329773,2.143531322479248,-0.8653615713119507,0.2164478600025177,2.5593740940093994,-0.3292519450187683,-1.9568907022476196,-3.5305087566375732,-0.02299199439585209,0.9619010090827942,1741504520.4658341,1741504520273,0.35975634765625003,3.490550537109375,-2.947193565076964,3.0098828125,1.660949951171875
1741504520.5178437,-0.26349568367004395,-0.044456294299728166,0.04005337928022393,-0.9982080768584125,-0.47822582721710205,-0.6994567513465881,-1.791232943534851,-6.850470066070557,-5.5289306640625,13.185308456420898,-0.5384531021118164,0.23746871948242188,0.17605096101760864,-1.306958794593811,0.00476844422519207,-0.6666285395622253,0.24891279637813568,1.3405286073684692,0.01506828423589468,0.6433585286140442,0.2939268946647644,-0.6651026010513306,0.10967422276735306,-0.11615930497646332,0.8699550032615662,-0.3513887822628021,-0.05366957560181618,-0.535400927066803,-0.05130846053361893,-0.22640573978424072,0.8443961143493652,-0.42072486877441406,0.007413771469146013,0.5265601873397827,1.0365098714828491,0.677568256855011,0.5744911432266235,0.020663393661379814,-0.8279698491096497,-0.743415892124176,-0.5675641894340515,0.05351031944155693,1.0248688459396362,2.2095441818237305,-0.09608729183673859,-0.7310706377029419,-1.4416731595993042,1.797780156135559,-1.4136083126068115,1.876920223236084,-0.2972205579280853,0.8696956038475037,-0.7395217418670654,-0.24013161659240723,1.717786431312561,-0.7782167792320251,1741504520.4658341,1741504520273,0.35975634765625003,3.490550537109375,-2.947193565076964,3.0098828125,1.660949951171875
1741504520.538177,-0.29777514934539795,-0.05822057787419154,0.0496677395016733,-0.997067440028401,-0.45255234837532043,-0.4711768329143524,-1.6312435865402222,-2.209716796875,4.0579352378845215,19.220457077026367,-0.5319681167602539,0.23022079467773438,0.18558785319328308,-1.3023810386657715,0.00476844422519207,-0.6837949156761169,0.23632410168647766,1.3359509706497192,0.014686808921396732,0.6658655405044556,0.31681543588638306,-0.6708247661590576,0.0883115902543068,-0.14744029939174652,0.8924620151519775,-0.38727203011512756,-0.0018715253099799156,-0.5052643418312073,-0.03795681521296501,-0.19321736693382263,0.7951858043670654,-0.4017561376094818,-0.013497306033968925,0.20480872690677643,-0.1625550091266632,0.4560908079147339,0.20909596979618073,0.0005569494096562266,-0.8941453695297241,-0.8592734336853027,-0.3284757137298584,-0.03587732091546059,1.6254961490631104,0.7872845530509949,-0.39166855812072754,-1.1441189050674438,-1.5637274980545044,1.0960384607315063,-1.773555040359497,2.346043109893799,1.6267056465148926,1.1672377586364746,1.3012267351150513,-2.403726577758789,0.8482111692428589,-0.729556679725647,1741504520.5683422,1741504520373,0.35794189453125,3.466004150390625,-2.8984123073391213,3.10472607421875,1.5722130126953124
1741504520.5582614,-0.31586170196533203,-0.06064820353229881,0.043286161747784546,-0.9972201881277021,0.29132598638534546,0.015733838081359863,-0.9244895577430725,1.855066180229187,-4.7880635261535645,11.993990898132324,-0.5067901611328125,0.20885753631591797,0.18749523162841797,-1.3161141872406006,0.004386968910694122,-0.6986724734306335,0.22373540699481964,1.3237437009811401,0.013923857361078262,0.6952391862869263,0.3103303611278534,-0.6704432964324951,0.07305257022380829,-0.17261768877506256,0.9061951637268066,-0.43499210476875305,0.014636605978012085,-0.4957274794578552,0.001716639962978661,-0.17528800666332245,0.7722972631454468,-0.40061140060424805,-0.031447168439626694,0.7544483542442322,-0.7713790535926819,-0.018638070672750473,-1.0548137426376343,-0.11075235158205032,-0.8220922350883484,-0.8507481217384338,-0.8998793363571167,-0.03897770494222641,1.9086055755615234,-0.5572861433029175,0.2684271037578583,-0.602409839630127,-1.1462293863296509,0.43457239866256714,-2.424684524536133,0.5810611248016357,0.01740873232483864,1.4453608989715576,1.2674368619918823,-0.9732047915458679,-0.10142633318901062,-0.8174708485603333,1741504520.5683422,1741504520373,0.35794189453125,3.466004150390625,-2.8984123073391213,3.10472607421875,1.5722130126953124
1741504520.5782523,-0.32326531410217285,-0.058365855150131575,0.039338770524583844,-0.9975198685170176,0.1562477946281433,0.14323081076145172,-0.3516594171524048,-0.04664863273501396,3.6217498779296875,11.739908218383789,-0.5060272216796875,0.19512462615966797,0.18558785319328308,-1.3210734128952026,0.005149920005351305,-0.7200350761413574,0.21114671230316162,1.3073402643203735,0.013923857361078262,0.7192721366882324,0.273708701133728,-0.6616693139076233,0.05245288833975792,-0.1684214472770691,0.9103913903236389,-0.4841342270374298,0.014316152781248093,-0.49343863129615784,0.006294346414506435,-0.14591439068317413,0.7654306888580322,-0.40523990988731384,-0.03462662920355797,0.08049361407756805,-0.48254114389419556,-0.08409418165683746,-0.1715039759874344,0.04279780015349388,-1.1187965869903564,-0.868916928768158,-1.1350094079971313,-0.0008596291299909353,1.60487699508667,-1.8909345865249634,0.46839550137519836,-1.1371256113052368,0.3971773087978363,0.39897629618644714,-2.4677734375,-0.056679632514715195,0.1274532675743103,0.21919211745262146,1.3821666240692139,-0.38870275020599365,-0.19722624123096466,-0.25744906067848206,1741504520.5683422,1741504520373,0.35794189453125,3.466004150390625,-2.8984123073391213,3.10472607421875,1.5722130126953124
