Freshhhhh-LC/Legged_odom/data/3/segments/booster_seg_9.91s.csv
time,yaw,projected_gravity_x,projected_gravity_y,projected_gravity_z,ang_vel_x,ang_vel_y,ang_vel_z,lin_acc_x,lin_acc_y,lin_acc_z,q_0,q_1,q_2,q_3,q_4,q_5,q_6,q_7,q_8,q_9,q_10,q_11,q_12,q_13,q_14,q_15,q_16,q_17,q_18,q_19,q_20,q_21,q_22,dq_0,dq_1,dq_2,dq_3,dq_4,dq_5,dq_6,dq_7,dq_8,dq_9,dq_10,dq_11,dq_12,dq_13,dq_14,dq_15,dq_16,dq_17,dq_18,dq_19,dq_20,dq_21,dq_22,mocap_time,mocap_timestamp,robot_x,robot_y,robot_yaw,ball_x,ball_y
1741504860.9613903,-4.068510293960571,0.03885123723259013,-0.011084918578484029,-0.999183519652724,0.9819386601448059,0.36661767959594727,-0.5275347828865051,8.920296669006348,4.630863666534424,4.154219150543213,0.02231597900390625,0.4030284881591797,0.22640573978424072,-1.380964994430542,0.005149920005351305,-0.5178530812263489,0.15506981313228607,1.3473951816558838,0.014686808921396732,0.5373083353042603,0.09784847497940063,-0.6868467330932617,-0.00019073777366429567,0.06733043491840363,0.7631418108940125,-0.49069344997406006,0.0018113111145794392,-0.5163271427154541,-0.01773861236870289,0.01888304017484188,0.6696802973747253,-0.3924981653690338,0.019698526710271835,-0.10107617825269699,0.05615943297743797,-0.21696875989437103,-0.5385138392448425,0.00892613921314478,0.23681195080280304,0.25072380900382996,-0.03350318223237991,-0.009457483887672424,0.06996787339448929,1.1216448545455933,-0.7901201248168945,-0.29279085993766785,0.09272048622369766,1.5620850324630737,-0.34264513850212097,-0.9418721795082092,-0.3271929919719696,-0.9232214093208313,1.47357976436615,-0.20262384414672852,2.145578145980835,0.3086138665676117,1741504860.9573805,1741504860853,-4.9790927734375,-0.015390757560729981,-0.8103331669213698,-6.40226220703125,1.498401611328125
1741504860.963345,-4.1031389236450195,0.021864338868938397,-0.0491532065322785,-0.9985519080014916,0.47935500741004944,-0.4389338791370392,-0.9126391410827637,0.32162854075431824,-2.8355836868286133,12.197251319885254,0.00705718994140625,0.4198141098022461,0.20466163754463196,-1.382872462272644,0.00476844422519207,-0.5174715518951416,0.16880293190479279,1.3336620330810547,0.01430533267557621,0.534637987613678,0.08182650804519653,-0.7558938264846802,-0.026512550190091133,0.06694895774126053,0.9905012845993042,-0.45601728558540344,7.468758849427104e-05,-0.5308232307434082,-0.020027466118335724,0.07763027399778366,0.6605249047279358,-0.306795597076416,0.01819673366844654,-0.2396581470966339,0.05260850116610527,-0.5592712163925171,0.1633806675672531,-0.035329557955265045,-0.11451636999845505,0.58985835313797,-0.6413804888725281,0.022276166826486588,-0.0474248044192791,0.017111727967858315,-1.6132619380950928,-0.4333268105983734,-0.12953609228134155,5.9942522048950195,1.4782637357711792,0.17438052594661713,-0.46368780732154846,0.28693097829818726,1.3797709941864014,-0.04951757937669754,1.5461667776107788,0.3133244216442108,1741504860.9573805,1741504860853,-4.9790927734375,-0.015390757560729981,-0.8103331669213698,-6.40226220703125,1.498401611328125
1741504860.966121,1.204822301864624,0.07556625125865285,0.022386483432657145,-0.9968894557724209,-1.2796921730041504,-0.010027438402175903,-0.6478420495986938,-1.8808938264846802,-7.286648273468018,9.433828353881836,0.8119707107543945,0.3099489212036133,0.1832990050315857,-1.3554061651229858,0.00476844422519207,-0.5220493078231812,0.19474326074123383,1.3687578439712524,0.01506828423589468,0.5205233693122864,0.11577782779932022,-0.5849927663803101,0.054741740226745605,-0.0551232174038887,0.6410696506500244,-0.23691260814666748,-0.02357916720211506,-0.619325578212738,0.09670405089855194,-0.0558861680328846,0.7024872303009033,-0.28440341353416443,-0.06986724585294724,0.5862187147140503,-0.04445895180106163,0.22017300128936768,0.5423151254653931,0.011136782355606556,-0.32785484194755554,0.08594134449958801,1.3640758991241455,-0.009665165096521378,0.01659519039094448,0.5268680453300476,0.9376879930496216,2.4790022373199463,-0.35906797647476196,-1.2155747413635254,1.824150562286377,-2.41582989692688,0.13937918841838837,0.9069751501083374,-1.7573283910751343,0.35589855909347534,-0.9703966975212097,0.2987411320209503,1741504860.9573805,1741504860853,-4.9790927734375,-0.015390757560729981,-0.8103331669213698,-6.40226220703125,1.498401611328125
1741504860.9835284,1.1921684741973877,0.07318927173022384,0.05420706654843212,-0.995843825325946,-1.5116175413131714,-0.19391480088233948,-0.7226237654685974,-12.617439270019531,3.948256015777588,6.178900241851807,0.826848030090332,0.3068971633911133,0.18940261006355286,-1.3431990146636963,0.00476844422519207,-0.5243381261825562,0.19474326074123383,1.3805835247039795,0.01506828423589468,0.5201418995857239,0.13065537810325623,-0.5815594792366028,0.09136339277029037,-0.04444190114736557,0.6235218048095703,-0.19896814227104187,-0.06132841110229492,-0.6296253800392151,0.09174486994743347,-0.09975585341453552,0.7574197053909302,-0.31274092197418213,-0.03259565308690071,0.43694883584976196,-0.06577571481466293,0.28472596406936646,0.8503502011299133,0.006138784345239401,-0.09389306604862213,-0.020882796496152878,0.7588770985603333,0.014414272271096706,-0.019026823341846466,0.6533254981040955,0.005611048080027103,1.6830382347106934,0.5240064859390259,-0.7494248151779175,1.789146065711975,-0.9829429388046265,-0.7128413915634155,-0.6262244582176208,-2.175905466079712,3.139526844024658,-1.4849350452423096,2.168142080307007,1741504860.9573805,1741504860853,-4.9790927734375,-0.015390757560729981,-0.8103331669213698,-6.40226220703125,1.498401611328125
1741504861.0035489,1.1760880947113037,0.06939285173934914,0.07290256346128489,-0.9949220313010735,-0.7723038196563721,-0.1411493867635727,-0.8547728061676025,-5.202596187591553,3.352048635482788,12.090465545654297,0.8615627288818359,0.3316926956176758,0.1962691694498062,-1.3313732147216797,0.005149920005351305,-0.5224307775497437,0.19359883666038513,1.3847798109054565,0.014686808921396732,0.5220493078231812,0.13027389347553253,-0.5819409489631653,0.11425192654132843,-0.03643091395497322,0.6273365616798401,-0.1659262776374817,-0.03932062163949013,-0.6776912808418274,0.06771191209554672,-0.1512550562620163,0.8623254895210266,-0.34324130415916443,0.015951696783304214,1.0658804178237915,0.7517486810684204,0.34714779257774353,0.665767252445221,0.020809166133403778,0.10148079693317413,-0.05483291670680046,0.1503533273935318,-0.009471727535128593,0.1280367523431778,-0.10771510004997253,-0.027093272656202316,0.8676304221153259,0.38211002945899963,0.3487890064716339,1.682542085647583,1.1458449363708496,-2.656571626663208,-1.2235950231552124,-2.6208982467651367,5.5387091636657715,-1.4500573873519897,2.0041513442993164,1741504860.9573805,1741504860853,-4.9790927734375,-0.015390757560729981,-0.8103331669213698,-6.40226220703125,1.498401611328125
1741504861.0235095,1.1610939502716064,0.0672825251348942,0.07574541909370694,-0.9948546091252686,0.008694996125996113,-0.01585466042160988,-0.7600984573364258,1.3816787004470825,-0.4590294361114502,8.244706153869629,0.8810176849365234,0.3599224090576172,0.1970321238040924,-1.3336620330810547,0.005149920005351305,-0.5178530812263489,0.19245441257953644,1.380964994430542,0.014686808921396732,0.5228122472763062,0.11959258466959,-0.5834668278694153,0.11310750246047974,-0.015449759550392628,0.6376363635063171,-0.14278286695480347,-0.02940717153251171,-0.733386754989624,0.04596780240535736,-0.1806286722421646,0.9840161800384521,-0.3647589087486267,0.0037906079087406397,0.6030449271202087,0.8245056867599487,-0.07345809042453766,-0.4006942808628082,0.009428477846086025,0.21683576703071594,-0.05685010924935341,-0.3056783378124237,-0.004771383944898844,0.011181478388607502,-0.6579073667526245,-0.13259358704090118,-0.1005357950925827,1.1348365545272827,0.3835360109806061,0.9579297304153442,0.3266732394695282,-2.631502628326416,-1.137342929840088,-1.136976718902588,5.889520645141602,-0.9787118434906006,-0.9668277502059937,1741504860.9573805,1741504860853,-4.9790927734375,-0.015390757560729981,-0.8103331669213698,-6.40226220703125,1.498401611328125
1741504861.0435104,1.148310661315918,0.06485721883307485,0.06876069906406353,-0.995522730744738,0.4375544786453247,-0.06587755680084229,-0.5715388059616089,-0.1447812020778656,-1.8699127435684204,12.066067695617676,0.8966579437255859,0.3759441375732422,0.19359883666038513,-1.3493025302886963,0.005149920005351305,-0.5117494463920593,0.19245441257953644,1.372191071510315,0.014686808921396732,0.5205233693122864,0.10624094307422638,-0.5819409489631653,0.12264438718557358,0.009346150793135166,0.6445029377937317,-0.14519056677818298,-0.03523023799061775,-0.7608529925346375,0.021171892061829567,-0.17757686972618103,1.0629816055297852,-0.3712560832500458,-0.005861297249794006,0.46765515208244324,0.5137740969657898,-0.16690857708454132,-0.9386826157569885,-0.008670326322317123,0.2558303773403168,0.008299906738102436,-0.6418718695640564,-0.0032578795216977596,-0.19016355276107788,-0.5595793724060059,0.13054533302783966,0.7405441403388977,1.1121090650558472,0.3536854386329651,-0.3399793803691864,-0.3163301944732666,-0.9167687296867371,-1.2253862619400024,0.3023644685745239,3.394232988357544,-0.17750707268714905,-0.06234750896692276,1741504860.9573805,1741504860853,-4.9790927734375,-0.015390757560729981,-0.8103331669213698,-6.40226220703125,1.498401611328125
1741504861.06355,1.1373074054718018,0.06174354272710463,0.056722868808426474,-0.9964789265637524,0.6373835206031799,-0.1854269653558731,-0.5272994041442871,-0.26109230518341064,-3.038347005844116,13.776637077331543,0.9134435653686523,0.3877696990966797,0.19245441257953644,-1.3573135137557983,0.005149920005351305,-0.509079098701477,0.19245441257953644,1.366087555885315,0.014686808921396732,0.5178530812263489,0.10509651154279709,-0.5773632526397705,0.14744029939174652,0.02231631986796856,0.6464102864265442,-0.1680195927619934,-0.04194376617670059,-0.7475013136863708,0.006294346414506435,-0.15964750945568085,1.0675593614578247,-0.3652682304382324,0.005146640818566084,0.5070358514785767,0.3685694932937622,-0.01261634286493063,-0.4464247226715088,0.0027274489402770996,0.1311243772506714,0.005371553357690573,-0.352292001247406,0.009327382780611515,-0.1766289919614792,-0.03425569087266922,0.2846367359161377,0.956504762172699,0.6118167042732239,0.149093359708786,-1.2327073812484741,-0.4766358435153961,0.8355210423469543,-0.697668731212616,0.8813496828079224,-0.41614454984664917,0.3516738712787628,0.4411969482898712,1741504861.1619046,1741504861053,-4.97267236328125,-0.00807135009765625,-1.1472816446319496,-6.40174169921875,1.4985576171875001
1741504861.0835814,1.1248748302459717,0.0548508609921621,0.04728102412185069,-0.9973744972709134,0.4622327387332916,-0.32513535022735596,-0.5878788828849792,0.5547394156455994,-3.094163179397583,6.820237636566162,0.9229803085327148,0.3881511688232422,0.19398032128810883,-1.360365390777588,0.005149920005351305,-0.5056458115577698,0.19245441257953644,1.367613434791565,0.014686808921396732,0.5132753252983093,0.10852979123592377,-0.5655375123023987,0.15354390442371368,0.02841992862522602,0.6582360863685608,-0.1948724389076233,-0.06358517706394196,-0.7101167440414429,-0.0020981156267225742,-0.14476996660232544,1.0042344331741333,-0.35906657576560974,0.001565440557897091,0.2983558773994446,0.07101023197174072,0.06874339282512665,-0.15306083858013153,0.0012644953094422817,0.1554189771413803,0.004388562869280577,0.19770930707454681,0.010379516519606113,-0.3805544972419739,0.3428144156932831,0.5730783939361572,0.24416980147361755,0.18934135138988495,0.672136127948761,-1.369227409362793,-1.0072764158248901,2.142451524734497,-0.421805202960968,0.7334535717964172,-3.5216636657714844,0.2320249378681183,-0.29011037945747375,1741504861.1619046,1741504861053,-4.97267236328125,-0.00807135009765625,-1.1472816446319496,-6.40174169921875,1.4985576171875001
1741504861.1036048,1.1130731105804443,0.045705755330229414,0.0428722835413446,-0.998034544108391,0.22361020743846893,-0.4451572895050049,-0.5924370884895325,0.9172283411026001,-2.9331130981445312,4.033709526062012,0.9290838241577148,0.3835735321044922,0.1966506391763687,-1.359602451324463,0.005149920005351305,-0.5022125840187073,0.19207294285297394,1.3744800090789795,0.014686808921396732,0.5079346895217896,0.134470134973526,-0.5640115737915039,0.15964750945568085,0.02193484455347061,0.6876096725463867,-0.22342754900455475,-0.07004093378782272,-0.6460288166999817,-0.008201723918318748,-0.1333257108926773,0.8882657885551453,-0.3591247498989105,-0.007765044458210468,0.17852607369422913,-0.1104196161031723,0.16162419319152832,0.03737219050526619,0.005412936210632324,0.11661224812269211,-0.008750717155635357,0.48396432399749756,0.010522929020226002,-0.2981022596359253,1.4390686750411987,-0.0855167806148529,0.12390682101249695,-0.27502164244651794,1.6519360542297363,-1.3725861310958862,-0.11032892018556595,3.221893787384033,-0.22269900143146515,0.44803836941719055,-6.151034832000732,-0.07364863902330399,-0.38154593110084534,1741504861.1619046,1741504861053,-4.97267236328125,-0.00807135009765625,-1.1472816446319496,-6.40174169921875,1.4985576171875001
1741504861.1236367,1.1000752449035645,0.03621798843868282,0.04372819583121472,-0.9983867498133188,-0.051579296588897705,-0.38141319155693054,-0.692608654499054,5.706770896911621,20.173974990844727,23.475826263427734,0.9367132186889648,0.3763256072998047,0.1974135935306549,-1.3569320440292358,0.00476844422519207,-0.5048828721046448,0.19207294285297394,1.3767688274383545,0.014686808921396732,0.5071717500686646,0.16956588625907898,-0.577744722366333,0.14438849687576294,0.010872052982449532,0.7337682247161865,-0.25413623452186584,-0.059681881219148636,-0.5781261920928955,-0.008201723918318748,-0.14553292095661163,0.7501716613769531,-0.35269999504089355,-0.0024186016526073217,0.2181064337491989,-0.19483807682991028,-0.006488017737865448,0.20079593360424042,-0.016431262716650963,-0.15273191034793854,0.0023683852050453424,0.07168864458799362,0.014429907314479351,-0.009541742503643036,1.7274307012557983,-0.6986647844314575,-1.1438610553741455,-0.5427135825157166,2.4739181995391846,-1.5781840085983276,0.6679975986480713,3.32356858253479,0.028103910386562347,-0.9283191561698914,-6.338367938995361,0.8685064911842346,0.262738972902298,1741504861.1619046,1741504861053,-4.97267236328125,-0.00807135009765625,-1.1472816446319496,-6.40174169921875,1.4985576171875001
1741504861.1437018,1.0799283981323242,0.030238164711312413,0.05385888489460963,-0.9980906140791029,-0.7108510136604309,-0.3442273437976837,-1.142376184463501,-1.161810278892517,1.9059293270111084,12.784303665161133,0.9512090682983398,0.3568706512451172,0.1970321238040924,-1.3550246953964233,0.00476844422519207,-0.5048828721046448,0.18902114033699036,1.377150297164917,0.01506828423589468,0.5033569931983948,0.1989395022392273,-0.5865186452865601,0.1356145590543747,-0.011635004542768002,0.7906080484390259,-0.28551700711250305,-0.04654707759618759,-0.5601968169212341,0.02193484455347061,-0.1810101419687271,0.7463569045066833,-0.3116457164287567,-0.03422294929623604,0.46837443113327026,-0.5642454624176025,-0.017473237589001656,0.09508778154850006,0.025136839598417282,0.022825563326478004,-0.30108341574668884,0.28805410861968994,0.050178155303001404,-0.37838301062583923,1.5432171821594238,-0.25759005546569824,-0.4993511438369751,-1.3107050657272339,2.5612025260925293,-1.7089569568634033,0.9053123593330383,0.018923800438642502,1.1928002834320068,-1.0425091981887817,-0.26408910751342773,1.744723916053772,-1.5539004802703857,1741504861.1619046,1741504861053,-4.97267236328125,-0.00807135009765625,-1.1472816446319496,-6.40174169921875,1.4985576171875001
1741504861.1636858,1.0526223182678223,0.020601014663484053,0.07130718931082952,-0.9972416371910193,-0.7793229222297668,-0.2695830464363098,-1.482198715209961,2.852463960647583,10.926679611206055,7.639906406402588,0.9473943710327148,0.3435182571411133,0.1977950781583786,-1.3546432256698608,0.004386968910694122,-0.5033569931983948,0.182917520403862,1.3855427503585815,0.015449759550392628,0.50030517578125,0.2283131182193756,-0.6006332635879517,0.1184481605887413,-0.038719769567251205,0.8169298768043518,-0.326649934053421,-0.0015195442829281092,-0.5495155453681946,0.024605173617601395,-0.1512550562620163,0.7181277275085449,-0.29241082072257996,-0.025347404181957245,-0.04581591486930847,-0.4215362071990967,0.04639057442545891,0.00016097736079245806,-0.056514427065849304,0.046125464141368866,-0.42689189314842224,0.5347309112548828,-0.011504234746098518,-0.17626100778579712,1.147706151008606,-0.5476046800613403,-1.0498566627502441,-1.4167938232421875,1.2134729623794556,-2.129631757736206,2.431553602218628,1.2279294729232788,0.3979031443595886,1.729396939277649,-1.3737072944641113,1.0395348072052002,0.7548398375511169,1741504861.1619046,1741504861053,-4.97267236328125,-0.00807135009765625,-1.1472816446319496,-6.40174169921875,1.4985576171875001
1741504861.1837053,1.0275957584381104,0.021489767010913926,0.07460776925439858,-0.996981379304899,-0.03601623326539993,0.08272485435009003,-1.1412203311920166,10.112971305847168,5.958741664886475,10.24828052520752,0.9802017211914062,0.3393220901489258,0.1985580176115036,-1.3565505743026733,0.005531395319849253,-0.5018310546875,0.17795833945274353,1.383635401725769,0.014686808921396732,0.5006866455078125,0.22640573978424072,-0.5910963416099548,0.09784847497940063,-0.06733043491840363,0.8360036611557007,-0.36243656277656555,0.012822683900594711,-0.5334935784339905,0.05664911866188049,-0.1348516047000885,0.6914244294166565,-0.26658904552459717,-0.020065436139702797,0.8540382385253906,-0.07082591950893402,0.016624050214886665,-0.2538241147994995,0.05453329533338547,0.17185303568840027,-0.28745490312576294,-0.26174089312553406,-0.03193870931863785,-0.0030035418458282948,-0.37666964530944824,0.546299159526825,-0.8870987892150879,-1.2082628011703491,0.5989099144935608,-1.7307981252670288,0.15652382373809814,0.22850669920444489,1.8781818151474,0.5337284803390503,-1.2718325853347778,1.3005084991455078,-0.19760151207447052,1741504861.1619046,1741504861053,-4.97267236328125,-0.00807135009765625,-1.1472816446319496,-6.40174169921875,1.4985576171875001
1741504861.2037008,1.0068717002868652,0.022065115230922402,0.06945605354282715,-0.9973409584069542,0.2527819573879242,0.19239135086536407,-0.9240243434906006,-0.12097907066345215,3.354463577270508,9.295051574707031,0.9702835083007812,0.3377962112426758,0.1970321238040924,-1.372191071510315,0.005149920005351305,-0.5041199326515198,0.17528800666332245,1.374861478805542,0.014686808921396732,0.50030517578125,0.19016556441783905,-0.5727855563163757,0.08983749151229858,-0.06923781335353851,0.8005264401435852,-0.39168375730514526,-0.01396357174962759,-0.54264897108078,0.08144503086805344,-0.10929274559020996,0.6872282028198242,-0.24034041166305542,-0.033474698662757874,-0.23302949965000153,-0.07299011945724487,-0.10764922946691513,-1.0203732252120972,-0.027369143441319466,-0.1831270307302475,-0.14514626562595367,-0.6364153623580933,-0.0015378596726804972,0.025995220988988876,-2.1142749786376953,1.1647485494613647,-0.33044442534446716,0.13939028978347778,-1.814437985420227,-1.276679515838623,-1.35517156124115,-0.028195636346936226,0.8489887714385986,1.620499610900879,-0.021508589386940002,1.3379430770874023,-0.27660027146339417,1741504861.1619046,1741504861053,-4.97267236328125,-0.00807135009765625,-1.1472816446319496,-6.40174169921875,1.4985576171875001
1741504861.2237453,0.9878356456756592,0.02935769609950873,0.06263561566007236,-0.9976045836555747,0.43228402733802795,0.381794810295105,-0.8941924571990967,2.9889771938323975,3.7784626483917236,9.91811752319336,0.9809646606445312,0.3324556350708008,0.19398032128810883,-1.3775317668914795,0.005149920005351305,-0.506027340888977,0.17490653693675995,1.3630356788635254,0.014686808921396732,0.5006866455078125,0.1333257108926773,-0.5342565178871155,0.07648584991693497,-0.059319447726011276,0.7913710474967957,-0.39915570616722107,-0.025913180783391,-0.5323491096496582,0.07305257022380829,-0.0555046908557415,0.6799801588058472,-0.21065206825733185,-0.017934462055563927,0.2656360864639282,-0.1384171098470688,-0.148765429854393,-0.3028072416782379,-0.0018040607683360577,-0.017684882506728172,-0.026092229411005974,-0.7757498025894165,0.006511349231004715,0.003469349117949605,-2.7621405124664307,1.55270516872406,-0.6463719606399536,0.5258623361587524,-0.007704920135438442,-0.3529864549636841,-0.2169194519519806,0.5868366956710815,-0.6675986647605896,2.7937119007110596,-0.6416333913803101,1.4097508192062378,0.7776936292648315,1741504861.1619046,1741504861053,-4.97267236328125,-0.00807135009765625,-1.1472816446319496,-6.40174169921875,1.4985576171875001
1741504861.2437353,0.9700381755828857,0.033209787806327946,0.048000162757408406,-0.9982950938320397,0.7850799560546875,0.14971596002578735,-0.854699969291687,-24.349834442138672,-15.29790210723877,12.79497241973877,0.9805831909179688,0.3393220901489258,0.18635080754756927,-1.3855427503585815,0.005149920005351305,-0.5037384629249573,0.17490653693675995,1.3462507724761963,0.014686808921396732,0.4987792670726776,0.1028076633810997,-0.5617227554321289,0.06351567804813385,-0.06542305648326874,0.8318074345588684,-0.40935707092285156,-0.001285060658119619,-0.5239566564559937,0.08258945494890213,-0.024605173617601395,0.6639581918716431,-0.18586032092571259,-0.022959046065807343,-0.008264663629233837,0.20150506496429443,-0.4570838510990143,-0.5998802185058594,0.00022638638620264828,0.08327609300613403,0.03366854041814804,-1.1401101350784302,0.0005160392029210925,-0.14001697301864624,-1.28690505027771,-1.7530527114868164,-0.7434484362602234,-0.47664371132850647,2.488783121109009,-0.6011227369308472,1.3218082189559937,0.5300410389900208,0.7972221374511719,1.240452527999878,-0.7312760353088379,1.1803200244903564,-0.44407936930656433,1741504861.1619046,1741504861053,-4.97267236328125,-0.00807135009765625,-1.1472816446319496,-6.40174169921875,1.4985576171875001
1741504861.2638202,0.9606788158416748,0.04044711743264497,0.03844453795809381,-0.9984418101184358,0.3736485540866852,0.3145604729652405,-0.31721028685569763,-3.333643674850464,4.642209053039551,8.787211418151855,0.9744796752929688,0.3450450897216797,0.17910276353359222,-1.3885945081710815,0.005149920005351305,-0.5037384629249573,0.17719538509845734,1.3313732147216797,0.01430533267557621,0.499542236328125,0.1024261862039566,-0.621614396572113,0.03643091395497322,-0.07457847148180008,0.9382390975952148,-0.42124074697494507,0.00616992823779583,-0.5231937170028687,0.0875486359000206,-0.0009536888683214784,0.6540398001670837,-0.16766203939914703,-0.03693502023816109,-0.1467306762933731,0.37226054072380066,-0.2773694097995758,-0.06626250594854355,0.02324772998690605,0.014751913025975227,0.19577382504940033,-0.868810772895813,-0.0070647308602929115,0.005618182476609945,0.0829099491238594,-3.703684091567993,-1.5618062019348145,-0.18662099540233612,5.727733612060547,-0.5387409329414368,-0.0786985233426094,-0.17686247825622559,0.1403726190328598,1.0412856340408325,-0.4950833320617676,0.8330512046813965,-0.5312246680259705,1741504861.1619046,1741504861053,-4.97267236328125,-0.00807135009765625,-1.1472816446319496,-6.40174169921875,1.4985576171875001
1741504861.2838488,0.9566957950592041,0.04664082924278882,0.035696219093505656,-0.9982737164675696,0.09423547238111496,0.3846437633037567,-0.13365142047405243,-4.170761585235596,3.1649060249328613,8.276274681091309,0.9710464477539062,0.3416109085083008,0.17376211285591125,-1.3847798109054565,0.00476844422519207,-0.5048828721046448,0.182154580950737,1.3294658660888672,0.014686808921396732,0.4999237060546875,0.11463340371847153,-0.7177462577819824,0.00858320016413927,-0.06542305648326874,1.0816738605499268,-0.4262208938598633,-0.008788038976490498,-0.533875048160553,0.08373387902975082,-0.0032425422687083483,0.649462103843689,-0.1593909114599228,-0.033624619245529175,-0.07045876234769821,-0.029671207070350647,-0.3381062150001526,0.27718034386634827,-0.015794862061738968,-0.06806725263595581,0.344147264957428,-0.029166320338845253,0.012775021605193615,0.02232077717781067,0.7449800968170166,-4.73626708984375,-1.2438058853149414,0.3938125967979431,7.348111152648926,-0.17405526340007782,-0.45137301087379456,-0.44144201278686523,-0.201510950922966,-0.08297457545995712,-0.116778165102005,0.3324003517627716,0.29763031005859375,1741504861.1619046,1741504861053,-4.97267236328125,-0.00807135009765625,-1.1472816446319496,-6.40174169921875,1.4985576171875001
1741504861.3038707,0.9489297866821289,0.05538532306934987,0.03848072698930514,-0.9977232580424686,-0.1543523669242859,0.39543581008911133,-0.46795979142189026,1.6730453968048096,1.0843675136566162,6.356963157653809,0.9840164184570312,0.3332185745239258,0.1653696447610855,-1.3798205852508545,0.005149920005351305,-0.506027340888977,0.1848248988389969,1.3332805633544922,0.014686808921396732,0.4991607666015625,0.1356145590543747,-0.80663001537323,-0.0020981156267225742,-0.05703059583902359,1.2067978382110596,-0.4202924966812134,0.0030435866210609674,-0.5460822582244873,0.08106355369091034,0.002861066721379757,0.6475547552108765,-0.15926022827625275,-0.026950614526867867,0.3541719615459442,-0.19320183992385864,-0.326476126909256,0.31995242834091187,-0.01640712469816208,-0.08145243674516678,0.09269730001688004,0.2945815622806549,0.01264465507119894,-0.040564581751823425,0.8103879690170288,-4.155029296875,-0.3678908050060272,0.28212934732437134,5.694922924041748,0.3851400911808014,0.5577491521835327,-0.7702629566192627,-0.1646491289138794,0.37478041648864746,-0.20574961602687836,-0.06846830248832703,0.19488047063350677,1741504861.1619046,1741504861053,-4.97267236328125,-0.00807135009765625,-1.1472816446319496,-6.40174169921875,1.4985576171875001
1741504861.323904,0.9331052303314209,0.057070068273567545,0.042136259581021546,-0.9974805977740976,-0.11880148947238922,0.12054063379764557,-0.7554596066474915,2.021866798400879,6.376953125,7.695784091949463,0.9786758422851562,0.3439006805419922,0.164988175034523,-1.3775317668914795,0.005149920005351305,-0.5052643418312073,0.1810101419687271,1.3386212587356567,0.014686808921396732,0.499542236328125,0.1489662081003189,-0.8512626886367798,-0.01735713705420494,-0.04940108209848404,1.264019250869751,-0.4006233811378479,-0.005728804040700197,-0.5640115737915039,0.07839322835206985,0.008964675478637218,0.6460288166999817,-0.16300077736377716,-0.03057776764035225,-0.12289711087942123,0.29987412691116333,0.011408575810492039,0.08746444433927536,0.014547727070748806,0.06521923094987869,-0.27505558729171753,0.34659361839294434,-0.0005327555118128657,-0.0005845339619554579,0.6873120665550232,-1.6748820543289185,-1.1589642763137817,0.5214195251464844,2.1890838146209717,1.0367778539657593,-0.5329167246818542,-0.7497634887695312,-0.02938265912234783,0.373542457818985,-0.004983536433428526,-0.18314222991466522,-0.19835101068019867,1741504861.4690785,1741504861353,-4.91959814453125,0.027210800170898438,-1.1730573714333137,-6.40166015625,1.4985269775390626
1741504861.343894,0.9067904949188232,0.058844747431317485,0.041859008336630636,-0.9973891512949288,0.13872724771499634,0.08599957078695297,-1.3506635427474976,1.9702630043029785,5.101248264312744,8.403045654296875,0.9866867065429688,0.3522930145263672,0.1680399775505066,-1.377913236618042,0.005149920005351305,-0.5037384629249573,0.17566949129104614,1.3390027284622192,0.014686808921396732,0.4999237060546875,0.15697719156742096,-0.8478294014930725,-0.04177157208323479,-0.050164032727479935,1.2304493188858032,-0.3800187110900879,-0.0021878115367144346,-0.5628671646118164,0.07763027399778366,0.027656977996230125,0.6483176946640015,-0.1666526049375534,-0.02191246673464775,0.1939944177865982,0.31422877311706543,0.2065967321395874,-0.03481335937976837,0.011172677390277386,0.06012197956442833,-0.34801003336906433,-0.010159092955291271,0.0022879501339048147,0.05821124464273453,0.34244081377983093,0.47736692428588867,-1.19167959690094,-0.1897774189710617,-2.452871084213257,0.944877564907074,0.40907877683639526,-0.07601574063301086,0.06930344551801682,0.8225476741790771,0.08916845917701721,-0.2380131334066391,0.49067816138267517,1741504861.4690785,1741504861353,-4.91959814453125,0.027210800170898438,-1.1730573714333137,-6.40166015625,1.4985269775390626
1741504861.3639383,0.8763682842254639,0.05438611054766943,0.03226138744262872,-0.9979986742775631,0.5996707081794739,-0.13423724472522736,-1.474835753440857,-2.317599296569824,-0.7896100878715515,6.624992370605469,0.9863052368164062,0.3595409393310547,0.17681391537189484,-1.3824909925460815,0.005149920005351305,-0.5029755234718323,0.17299915850162506,1.3378583192825317,0.014686808921396732,0.5006866455078125,0.1489662081003189,-0.7959487438201904,-0.061226826161146164,-0.06427863240242004,1.1030365228652954,-0.36930155754089355,0.005637678317725658,-0.5708781480789185,0.07991912961006165,0.040245670825242996,0.6582360863685608,-0.17809611558914185,-0.01669492945075035,-0.005267786327749491,0.2219962775707245,0.45183971524238586,-0.30414044857025146,-0.00495875021442771,-0.04372456669807434,-0.18630418181419373,-0.09366356581449509,0.003288041101768613,0.011365038342773914,-0.597956657409668,2.9808051586151123,-0.9156562685966492,-0.7276605367660522,-6.896144866943359,0.41397005319595337,0.23561327159404755,-0.4116661846637726,0.17819152772426605,0.4885309934616089,0.7206462621688843,-0.6319569945335388,0.14051134884357452,1741504861.4690785,1741504861353,-4.91959814453125,0.027210800170898438,-1.1730573714333137,-6.40166015625,1.4985269775390626
1741504861.3839087,0.8485267162322998,0.05295839395095463,0.020976831552101036,-0.9983763724408597,0.6345900297164917,-0.04327469319105148,-1.3371697664260864,1.592337965965271,5.04680871963501,1.247693657875061,0.9874496459960938,0.3538188934326172,0.18596932291984558,-1.3824909925460815,0.005149920005351305,-0.5056458115577698,0.17261768877506256,1.3374768495559692,0.014686808921396732,0.4999237060546875,0.11234454810619354,-0.7059205174446106,-0.06694895774126053,-0.07381551712751389,0.9069581031799316,-0.37308159470558167,0.007494250312447548,-0.5884260535240173,0.08182650804519653,0.03490501269698143,0.689517080783844,-0.19570988416671753,-0.019882194697856903,0.018232010304927826,-0.14572161436080933,0.4794042408466339,0.027164030820131302,-0.0005661582108587027,-0.09496892243623734,0.016370214521884918,-0.02376333810389042,0.0013821074971929193,-0.05155734345316887,-1.8840371370315552,4.6037163734436035,-0.11962848901748657,-0.3985408842563629,-10.060774803161621,-0.27572283148765564,0.05929671600461006,-1.0654497146606445,0.10505673289299011,-0.32955873012542725,1.5401641130447388,-0.9329487085342407,-0.06292903423309326,1741504861.4690785,1741504861353,-4.91959814453125,0.027210800170898438,-1.1730573714333137,-6.40166015625,1.4985269775390626
1741504861.4039533,0.8297023773193359,0.05213425564599544,0.012280297581437567,-0.9985645766196343,0.3959657549858093,-0.0027697973418980837,-0.8959153294563293,-17.93251609802246,-8.890464782714844,9.29693603515625,0.9821090698242188,0.3511486053466797,0.19283588230609894,-1.381346583366394,0.005149920005351305,-0.5048828721046448,0.17452506721019745,1.3374768495559692,0.014686808921396732,0.50030517578125,0.07915617525577545,-0.6330586671829224,-0.059319447726011276,-0.07267109304666519,0.7089722752571106,-0.3784647583961487,-0.005692901089787483,-0.6155108213424683,0.08602273464202881,0.024605173617601395,0.7192721366882324,-0.21570143103599548,-0.025056397542357445,-0.12419962137937546,-0.07875162363052368,0.31507429480552673,0.12156012654304504,-0.0027355500496923923,0.03410942852497101,0.15727220475673676,-0.011720879003405571,0.005585660692304373,0.03342905268073082,-1.676932692527771,3.3017282485961914,0.4599856734275818,0.06725645065307617,-9.417776107788086,0.16306856274604797,-1.1361722946166992,-1.2389341592788696,0.17713777720928192,-0.4373113811016083,1.5523408651351929,-0.9449165463447571,-0.3345596492290497,1741504861.4690785,1741504861353,-4.91959814453125,0.027210800170898438,-1.1730573714333137,-6.40166015625,1.4985269775390626
1741504861.4239974,0.8171641826629639,0.05962474757429294,0.014870296666351653,-0.9981100960083293,0.0059928311966359615,0.427573025226593,-0.5145345330238342,-0.9105183482170105,3.9299933910369873,19.990182876586914,0.9786758422851562,0.3393220901489258,0.19550621509552002,-1.375624418258667,0.005149920005351305,-0.501068115234375,0.17833982408046722,1.3428175449371338,0.01430533267557621,0.4972533881664276,0.06351567804813385,-0.6204699873924255,-0.05436026677489281,-0.05245288833975792,0.7181277275085449,-0.32118627429008484,-0.04935670271515846,-0.6273365616798401,0.06313420087099075,0.01926451548933983,0.7478827834129333,-0.22949394583702087,-0.0363636314868927,-0.14949262142181396,-0.18003584444522858,0.008534540422260761,0.3925235867500305,0.01417605858296156,0.2760325074195862,0.22183774411678314,0.6543354988098145,0.006270281039178371,-0.1883901208639145,-0.39160218834877014,0.01879396103322506,0.19044946134090424,1.0144890546798706,1.1473270654678345,2.7785003185272217,-1.7213486433029175,-0.4216732978820801,-1.1364868879318237,-0.41414302587509155,0.7619306445121765,-0.8017235398292542,-0.45901602506637573,1741504861.4690785,1741504861353,-4.91959814453125,0.027210800170898438,-1.1730573714333137,-6.40166015625,1.4985269775390626
1741504861.4440274,0.8126926422119141,0.06348736075964177,0.011264699139988264,-0.9979190656446347,0.01103887241333723,0.05899617820978165,-0.18188370764255524,2.232348918914795,-3.7358968257904053,13.916411399841309,0.9889755249023438,0.3469524383544922,0.18749523162841797,-1.37142813205719,0.00476844422519207,-0.5033569931983948,0.182154580950737,1.3531173467636108,0.01506828423589468,0.4999237060546875,0.07534141838550568,-0.6506065726280212,-0.02727550081908703,-0.0558861680328846,0.7272831201553345,-0.2810867726802826,-0.025334112346172333,-0.6288624405860901,0.07534141838550568,-0.013542382046580315,0.728427529335022,-0.2542952001094818,-0.027973385527729988,0.27483025193214417,0.25132590532302856,-0.374289870262146,0.27560946345329285,-0.027388796210289,-0.1908639520406723,0.25932177901268005,0.5786702632904053,0.05037180334329605,0.16021481156349182,0.27499720454216003,-1.2691730260849,1.623976230621338,-0.3606608510017395,-0.13444896042346954,1.9120556116104126,1.9063539505004883,0.022797131910920143,0.5218058824539185,-1.7284579277038574,-0.5984742641448975,-1.048367977142334,0.41148826479911804,1741504861.4690785,1741504861353,-4.91959814453125,0.027210800170898438,-1.1730573714333137,-6.40166015625,1.4985269775390626
1741504861.4640527,0.8049566745758057,0.06426675055274321,0.029998497683224063,-0.9974817667056081,-1.0242360830307007,0.0730297714471817,-0.40452250838279724,-2.0592217445373535,-4.3639020919799805,10.415105819702148,0.9691390991210938,0.3274965286254883,0.182917520403862,-1.364180088043213,0.004386968910694122,-0.509079098701477,0.18596932291984558,1.3657060861587524,0.015449759550392628,0.4980163276195526,0.07457847148180008,-0.6239032745361328,0.009727626107633114,-0.06466010212898254,0.697528064250946,-0.2525430917739868,0.008001303300261497,-0.6273365616798401,0.08106355369091034,-0.03528648987412453,0.7387273907661438,-0.2785293459892273,-0.03742512688040733,-0.517601490020752,-0.5167214870452881,-0.2216029018163681,0.48774659633636475,-0.04329510033130646,-0.29432082176208496,0.26220759749412537,1.0720477104187012,0.06407368183135986,-0.09659866243600845,0.4019196629524231,1.6793566942214966,1.87539541721344,-0.3435426950454712,-1.6028790473937988,1.447538137435913,0.907599925994873,-0.14877761900424957,0.45629817247390747,-1.0552257299423218,0.35861751437187195,-1.4459471702575684,-0.4171101152896881,1741504861.4690785,1741504861353,-4.91959814453125,0.027210800170898438,-1.1730573714333137,-6.40166015625,1.4985269775390626
1741504861.4840863,0.7931480407714844,0.05745082656962961,0.05746470530298153,-0.9966931374153771,-1.3410533666610718,-0.34790822863578796,-0.9293540716171265,-10.046889305114746,-11.965702056884766,12.48168659210205,0.9752426147460938,0.3210115432739258,0.18520638346672058,-1.3523544073104858,0.00476844422519207,-0.5098420977592468,0.19245441257953644,1.386687159538269,0.015449759550392628,0.4976348578929901,0.10624094307422638,-0.6109330654144287,0.04634927958250046,-0.06542305648326874,0.6773098111152649,-0.21588629484176636,-0.03065517731010914,-0.6334401369094849,0.0883115902543068,-0.06847485899925232,0.7402533292770386,-0.31416288018226624,-0.03676419332623482,0.10568626970052719,-0.12698237597942352,0.12510672211647034,0.9487254619598389,-0.010666371323168278,-0.007872797548770905,0.43703171610832214,1.2631877660751343,0.0034464881755411625,-0.0629933550953865,1.1659232378005981,0.22076167166233063,1.7852412462234497,-0.3174491226673126,-0.9812418818473816,1.8842121362686157,-1.905225157737732,0.18913264572620392,0.32972487807273865,-1.8643079996109009,0.49228736758232117,-1.794220209121704,0.14063392579555511,1741504861.4690785,1741504861353,-4.91959814453125,0.027210800170898438,-1.1730573714333137,-6.40166015625,1.4985269775390626
1741504861.5040927,0.7751414775848389,0.052047164998856234,0.08364391003017987,-0.9951355630920066,-1.1604971885681152,-0.37034380435943604,-0.7777006030082703,0.7350972890853882,1.3879284858703613,9.74915885925293,0.9882125854492188,0.3213930130004883,0.18673227727413177,-1.3363324403762817,0.00476844422519207,-0.507553219795227,0.19550621509552002,1.3969870805740356,0.014686808921396732,0.5006866455078125,0.1188296303153038,-0.6097886562347412,0.07648584991693497,-0.07000076025724411,0.6719691753387451,-0.1812966912984848,-0.04271860420703888,-0.6326771974563599,0.0879301130771637,-0.11310750246047974,0.7871748208999634,-0.348267525434494,-0.015770001336932182,0.41155797243118286,0.08580496907234192,0.04780183732509613,1.0989947319030762,0.029907800257205963,0.15370768308639526,0.14949262142181396,0.552338182926178,-0.056604623794555664,0.3174208402633667,1.0250728130340576,0.011927668005228043,1.4689974784851074,0.25748923420906067,-0.2596712112426758,1.5639362335205078,-0.11643468588590622,-0.30540144443511963,-0.09247931092977524,-2.154277801513672,2.6674301624298096,-1.6252731084823608,1.4657741785049438,1741504861.4690785,1741504861353,-4.91959814453125,0.027210800170898438,-1.1730573714333137,-6.40166015625,1.4985269775390626
1741504861.5241244,0.7531843185424805,0.04609692275806075,0.09855786903186196,-0.9940630866117783,-0.6126428246498108,-0.13539041578769684,-1.3073742389678955,-1.0816317796707153,7.549026012420654,13.26573371887207,0.9958419799804688,0.3461894989013672,0.18635080754756927,-1.3241251707077026,0.004005493130534887,-0.5018310546875,0.19398032128810883,1.3977500200271606,0.01506828423589468,0.5029755234718323,0.1371404528617859,-0.6109330654144287,0.09441519528627396,-0.038719769567251205,0.6738765835762024,-0.16413506865501404,-0.022922497242689133,-0.6708247661590576,0.07381551712751389,-0.15354390442371368,0.8642328381538391,-0.3637274205684662,0.011863619089126587,0.2800886034965515,0.8433016538619995,0.02153445966541767,0.7180218696594238,-0.10047777742147446,0.1424969881772995,-0.11477415263652802,-0.10938326269388199,0.04077545180916786,0.06586726754903793,0.07270240038633347,-0.10813247412443161,0.8471348285675049,1.281606912612915,0.294164776802063,0.7865058779716492,0.8217447400093079,-2.0504138469696045,-0.9214312434196472,-1.960019826889038,4.221071720123291,-0.604996383190155,1.0678342580795288,1741504861.5745552,1741504861453,-4.9227265625,0.0420469970703125,-1.6136537147113295,-6.40203076171875,1.4985120849609375
1741504861.5441153,0.7392392158508301,0.04705323125308096,0.09538587341140439,-0.9943276766650859,0.28847596049308777,0.13938216865062714,-0.5128633379936218,-1.0879157781600952,-5.1837592124938965,9.569836616516113,0.9996566772460938,0.3778514862060547,0.18711376190185547,-1.3256510496139526,0.005912871100008488,-0.5052643418312073,0.18940261006355286,1.391646385192871,0.01430533267557621,0.5071717500686646,0.10929274559020996,-0.6090257167816162,0.10814831405878067,-0.03528648987412453,0.6780728101730347,-0.1631569117307663,-0.03075382113456726,-0.7135500311851501,0.05130846053361893,-0.17261768877506256,0.9569314122200012,-0.3618369698524475,0.00034452727413736284,0.09507277607917786,0.8861747980117798,0.03720860183238983,-0.35060203075408936,0.11920474469661713,-0.08799456059932709,-0.2802153527736664,-0.4178445637226105,-0.0808621495962143,0.41351109743118286,-1.0873174667358398,0.1937391608953476,0.6266831755638123,0.45266348123550415,0.08014649897813797,-0.14282506704330444,-0.4405606985092163,-2.120199680328369,-1.0208150148391724,-0.6641801595687866,4.680280685424805,0.2374955713748932,-0.6182011961936951,1741504861.5745552,1741504861453,-4.9227265625,0.0420469970703125,-1.6136537147113295,-6.40203076171875,1.4985120849609375
1741504861.564197,0.7290542125701904,0.05183691441869086,0.08407888032401464,-0.9951098814638559,0.6152308583259583,0.26995477080345154,-0.48267465829849243,2.0755650997161865,-3.120551109313965,11.57491397857666,0.9992752075195312,0.3908214569091797,0.18558785319328308,-1.3431990146636963,0.004386968910694122,-0.5117494463920593,0.18940261006355286,1.380202054977417,0.01430533267557621,0.5170900821685791,0.09403372555971146,-0.5994887948036194,0.12569619715213776,0.009727626107633114,0.6773098111152649,-0.1767229288816452,-0.03212299942970276,-0.7436865568161011,0.03833829239010811,-0.16308079659938812,1.022926688194275,-0.3477950096130371,-0.0005279796896502376,0.022134872153401375,0.49603337049484253,-0.05874910205602646,-1.0388970375061035,-0.02431987039744854,-0.38294681906700134,0.03875880315899849,-0.8400599956512451,0.02163032814860344,0.6307291388511658,-1.0610871315002441,0.4705272614955902,0.9377679228782654,2.100968599319458,-0.057004641741514206,-0.7008830904960632,0.0065744053572416306,-1.1401464939117432,-0.8022884130477905,0.5821521878242493,2.8136863708496094,0.7369075417518616,0.14140433073043823,1741504861.5745552,1741504861453,-4.9227265625,0.0420469970703125,-1.6136537147113295,-6.40203076171875,1.4985120849609375
1741504861.586417,0.7177951335906982,0.051098137887197664,0.06939162300042855,-0.9962799721774133,0.7733719348907471,-0.10323791205883026,-0.3651924729347229,1.5937994718551636,4.460122585296631,9.501001358032227,0.9950790405273438,0.4079885482788086,0.18520638346672058,-1.3500655889511108,0.005149920005351305,-0.5254825949668884,0.18825818598270416,1.3679949045181274,0.01430533267557621,0.5258640646934509,0.06466010212898254,-0.5926222801208496,0.14057374000549316,0.02231631986796856,0.6776912808418274,-0.1897844821214676,-0.03732839599251747,-0.7429236173629761,0.01926451548933983,-0.1520180106163025,1.032463550567627,-0.3342215120792389,0.0026202432345598936,-0.12994922697544098,0.520234227180481,-0.028424100950360298,-0.3851846158504486,0.028520137071609497,-0.6605901718139648,-0.054677460342645645,-0.6731634140014648,0.005095858126878738,0.6432507634162903,-0.8630831837654114,0.40659138560295105,0.6234531402587891,0.6137983798980713,0.08173863589763641,-0.6256103515625,-0.37740737199783325,0.17160455882549286,-0.8686206340789795,0.5155041217803955,-0.05289601907134056,0.604654848575592,0.08137492835521698,1741504861.5745552,1741504861453,-4.9227265625,0.0420469970703125,-1.6136537147113295,-6.40203076171875,1.4985120849609375
1741504861.6044276,0.7064027786254883,0.04409944516324071,0.05876365581815079,-0.9972973837783694,0.45896801352500916,-0.2955797016620636,-0.6621990203857422,2.735816717147827,-12.485499382019043,6.335809707641602,0.9885940551757812,0.4079885482788086,0.1848248988389969,-1.3542617559432983,0.00476844422519207,-0.5357823967933655,0.18902114033699036,1.364180088043213,0.014686808921396732,0.5334935784339905,0.07648584991693497,-0.5682078003883362,0.14705882966518402,0.02994582988321781,0.6876096725463867,-0.20226623117923737,-0.03914063796401024,-0.7135500311851501,0.01201647985726595,-0.14095520973205566,0.9931715726852417,-0.32988643646240234,-0.002387756248936057,-0.17596550285816193,-0.026041850447654724,0.03433835506439209,-0.27099156379699707,-0.016589123755693436,-0.5074673891067505,0.02421114593744278,-0.21903295814990997,0.04205857589840889,0.41692879796028137,0.21338793635368347,1.2028647661209106,0.3220517337322235,0.31911903619766235,0.5346568822860718,-0.654955267906189,0.06514756381511688,1.7442539930343628,-0.3195566236972809,0.4101373553276062,-2.250702142715454,0.10272147506475449,-0.21923479437828064,1741504861.5745552,1741504861453,-4.9227265625,0.0420469970703125,-1.6136537147113295,-6.40203076171875,1.4985120849609375
1741504861.6244197,0.6960961818695068,0.03357681466186461,0.057908792205401724,-0.9977570692821346,0.04413909465074539,-0.5408267378807068,-0.2626236081123352,-0.18018782138824463,5.130557537078857,7.8336076736450195,0.9798202514648438,0.3992137908935547,0.18787670135498047,-1.3538802862167358,0.00476844422519207,-0.5472266674041748,0.18787670135498047,1.363417148590088,0.014686808921396732,0.5399786233901978,0.06923781335353851,-0.5739299654960632,0.14782176911830902,0.024986648932099342,0.7074463963508606,-0.21932457387447357,-0.035733044147491455,-0.6548027992248535,0.00858320016413927,-0.13027389347553253,0.9157320261001587,-0.3378598690032959,-0.0013619436649605632,-0.3149664103984833,-0.2677377462387085,0.13720516860485077,0.06791229546070099,-0.00942174717783928,-0.5978617668151855,-0.04220350459218025,0.03323185071349144,0.0022531726863235235,0.4296087622642517,0.2979165315628052,-0.4209955334663391,-0.06345605105161667,-0.16402536630630493,1.2055212259292603,-0.8988305926322937,0.14062169194221497,2.9514026641845703,-0.1246655136346817,0.722367525100708,-4.336133003234863,-0.4382263720035553,0.024435976520180702,1741504861.6738038,1741504861553,-4.9037939453125,0.03402829742431641,-1.311733711237221,-6.40194677734375,1.4984793701171875
1741504861.644441,0.6891992092132568,0.021224583116871778,0.059466892850079306,-0.9980046120766538,-0.09528156369924545,-0.6267247200012207,-0.5348601341247559,-3.792764902114868,2.163424491882324,6.244513034820557,0.9859237670898438,0.3953990936279297,0.18978407979011536,-1.3519729375839233,0.004386968910694122,-0.5544747114181519,0.18978407979011536,1.363417148590088,0.01506828423589468,0.54417484998703,0.09861142933368683,-0.5872815847396851,0.14209964871406555,0.013542382046580315,0.7539864182472229,-0.2449975311756134,-0.025295523926615715,-0.5979629158973694,0.013542382046580315,-0.12912946939468384,0.7913710474967957,-0.34791988134384155,0.0008388275746256113,0.133757546544075,-0.12354547530412674,0.0606781505048275,0.09921862930059433,-0.058870039880275726,-0.29211750626564026,0.15434087812900543,-0.04368414729833603,0.0735754668712616,0.1881006360054016,0.9613200426101685,-0.8179407715797424,-0.5619539022445679,-0.7384737133979797,2.433990716934204,-1.38367760181427,0.6606290936470032,3.160914897918701,0.38559019565582275,-0.13118338584899902,-6.3960466384887695,-0.5009928345680237,0.0717620924115181,1741504861.6738038,1741504861553,-4.9037939453125,0.03402829742431641,-1.311733711237221,-6.40194677734375,1.4984793701171875
1741504861.666948,0.6810567378997803,0.016332781132006167,0.06391883349651829,-0.997821438427206,-0.3389566242694855,-0.3078579008579254,-0.25942865014076233,10.784408569335938,-3.8847923278808594,3.566225290298462,0.9946975708007812,0.3896770477294922,0.19283588230609894,-1.3512099981307983,0.005149920005351305,-0.5548561811447144,0.19130998849868774,1.359602451324463,0.01430533267557621,0.5449378490447998,0.10051880776882172,-0.6158922910690308,0.13752193748950958,-0.012397955171763897,0.804341197013855,-0.27634769678115845,-0.026842979714274406,-0.5525673031806946,0.04749370738863945,-0.16880293190479279,0.7654306888580322,-0.32089975476264954,-0.04168802872300148,0.3045615255832672,-0.11164864897727966,0.15629135072231293,0.032739315181970596,0.06257423013448715,0.02825690247118473,0.10550403594970703,-0.28403615951538086,-0.1241685077548027,8.53080564411357e-05,0.6925246119499207,-1.1944652795791626,0.231903538107872,-1.17868173122406,2.3325681686401367,-1.596468448638916,-0.38781294226646423,1.2829347848892212,2.1256253719329834,-1.7973301410675049,-0.28417280316352844,1.419967770576477,-2.398627996444702,1741504861.6738038,1741504861553,-4.9037939453125,0.03402829742431641,-1.311733711237221,-6.40194677734375,1.4984793701171875
1741504861.6844788,0.6659855842590332,0.005835103285481066,0.08561095635416376,-0.996311555549655,-1.0792239904403687,-0.38411372900009155,-1.133415937423706,-12.806377410888672,5.364190578460693,13.186205863952637,0.9744796752929688,0.3702220916748047,0.19398032128810883,-1.3512099981307983,0.004005493130534887,-0.5506599545478821,0.19016556441783905,1.362654209136963,0.015449759550392628,0.5437933802604675,0.1356145590543747,-0.6239032745361328,0.12684062123298645,-0.029182879254221916,0.838674008846283,-0.318759024143219,-0.010690976865589619,-0.5617227554321289,0.05359731614589691,-0.1508735716342926,0.7417792081832886,-0.2987481653690338,-0.039124615490436554,-0.5484398603439331,-0.520499050617218,0.040287770330905914,0.012621765956282616,-0.13487458229064941,0.09610864520072937,-0.11260044574737549,0.1597496122121811,0.1449584662914276,-0.132679283618927,1.0743306875228882,-0.46374472975730896,-0.4421687424182892,-1.1774466037750244,1.6787673234939575,-2.064927339553833,1.3122260570526123,0.5422505736351013,-0.21411006152629852,1.2989399433135986,-1.43888521194458,1.1166527271270752,0.8219856023788452,1741504861.6738038,1741504861553,-4.9037939453125,0.03402829742431641,-1.311733711237221,-6.40194677734375,1.4984793701171875
1741504861.7045853,0.653083324432373,0.007720594891082147,0.0946526320407644,-0.9954804225409375,-0.2688951790332794,0.050666697323322296,-0.5346102714538574,1.8484822511672974,2.933764934539795,11.138826370239258,1.0065231323242188,0.3671703338623047,0.19512474536895752,-1.3451063632965088,0.005912871100008488,-0.5529488325119019,0.18673227727413177,1.363417148590088,0.01430533267557621,0.5460822582244873,0.1329442262649536,-0.6445029377937317,0.11539635062217712,-0.059319447726011276,0.8646143078804016,-0.3582347631454468,0.019308818504214287,-0.5258640646934509,0.0722896158695221,-0.14705882966518402,0.7150759100914001,-0.27263057231903076,-0.02404574118554592,0.8490026593208313,0.05492749437689781,0.03026985190808773,0.44042345881462097,0.16052378714084625,0.09640512615442276,-0.1363629400730133,-0.07833068072795868,-0.13624750077724457,0.23619116842746735,0.13469575345516205,-0.8131972551345825,-0.3178980052471161,-1.3326306343078613,1.0658611059188843,-2.0076327323913574,1.1470603942871094,1.105097770690918,1.342725157737732,-0.19580546021461487,-1.36844801902771,1.2697341442108154,0.10145045816898346,1741504861.6738038,1741504861553,-4.9037939453125,0.03402829742431641,-1.311733711237221,-6.40194677734375,1.4984793701171875
1741504861.724518,0.6335783004760742,0.00837307604479648,0.093291786061951,-0.9956036029720459,-0.005719466600567102,0.19362176954746246,-1.1606487035751343,-6.23064661026001,-4.009263038635254,11.616848945617676,1.0027084350585938,0.3747997283935547,0.19398032128810883,-1.3531173467636108,0.005149920005351305,-0.5479896068572998,0.18558785319328308,1.3565505743026733,0.01430533267557621,0.5506599545478821,0.12607766687870026,-0.6254291534423828,0.10852979123592377,-0.06542305648326874,0.8520256280899048,-0.39561572670936584,4.323418761487119e-05,-0.5388342142105103,0.09632257372140884,-0.1367589831352234,0.6891355514526367,-0.24832826852798462,-0.04049617424607277,-0.003120451932772994,0.24592721462249756,-0.028045395389199257,-1.004071831703186,-0.006763789802789688,0.012780914083123207,-0.13766145706176758,-0.4429751932621002,0.04838106408715248,0.21087990701198578,-1.1292989253997803,1.087791919708252,-0.5634788870811462,-0.12669432163238525,-0.9409752488136292,-1.7891086339950562,-1.2904406785964966,0.145724818110466,1.1099125146865845,0.8350554704666138,-0.9327117204666138,1.2695274353027344,-0.4325565993785858,1741504861.6738038,1741504861553,-4.9037939453125,0.03402829742431641,-1.311733711237221,-6.40194677734375,1.4984793701171875
1741504861.7447963,0.6169803142547607,0.019374192090975472,0.09038563214458775,-0.9957183729261228,0.28564533591270447,0.5671098828315735,-0.6401311159133911,-2.199533462524414,2.713252067565918,9.905813217163086,1.0046157836914062,0.3751811981201172,0.19398032128810883,-1.3657060861587524,0.005149920005351305,-0.5472266674041748,0.17490653693675995,1.3496840000152588,0.014686808921396732,0.5506599545478821,0.07495994865894318,-0.6029220819473267,0.1028076633810997,-0.06618601083755493,0.8276112079620361,-0.4195365905761719,-0.023049313575029373,-0.5209048390388489,0.09822995215654373,-0.09594109654426575,0.6795986890792847,-0.2235616147518158,-0.038533005863428116,0.012442011386156082,0.10103766620159149,-0.03678243234753609,-0.7314085960388184,-0.013141141273081303,0.24505676329135895,-0.677112877368927,-0.4762040674686432,-0.007919772528111935,-0.021892333403229713,-2.1160600185394287,1.0016400814056396,-0.0786365270614624,-0.059311460703611374,-0.912931501865387,-1.1144187450408936,-0.9402085542678833,0.5407237410545349,-0.20672909915447235,2.402099609375,-0.8016287684440613,1.1218883991241455,0.09742133319377899,1741504861.7761643,1741504861653,-4.89944140625,0.020979333877563476,-2.0803948091011555,-6.4018798828125005,1.49863916015625
1741504861.7645833,0.6084470748901367,0.02743535785523539,0.07805669194329837,-0.9965713491678476,0.650868833065033,0.4258691370487213,-0.391553670167923,-3.695845365524292,3.1171822547912598,12.762606620788574,0.9992752075195312,0.3858623504638672,0.19169145822525024,-1.375624418258667,0.005149920005351305,-0.5430304408073425,0.17299915850162506,1.3401471376419067,0.01430533267557621,0.5491340756416321,0.05397878959774971,-0.6094071865081787,0.08525978773832321,-0.06542305648326874,0.8508812189102173,-0.44170743227005005,-0.003866283455863595,-0.5201418995857239,0.1031891331076622,-0.06313420087099075,0.6528953909873962,-0.20444729924201965,-0.03500242531299591,-0.17579582333564758,0.3490121066570282,-0.10687745362520218,-0.7061557769775391,0.014051279984414577,0.07949193567037582,-0.03315986320376396,-0.6767427921295166,0.001074114115908742,-0.1550305038690567,-1.2594270706176758,-0.8630026578903198,-1.0597258806228638,0.01101748552173376,1.7353118658065796,-1.0268200635910034,1.302412509918213,0.5057693123817444,0.521009624004364,1.2087628841400146,-1.030031681060791,0.9871600270271301,0.10249652713537216,1741504861.7761643,1741504861653,-4.89944140625,0.020979333877563476,-2.0803948091011555,-6.4018798828125005,1.49863916015625
1741504861.7845933,0.6090352535247803,0.03985165209465787,0.06388273626469415,-0.9971613920688376,0.6014913320541382,0.5403636693954468,0.3195268213748932,0.11642162501811981,1.4158484935760498,6.37337589263916,0.9962234497070312,0.3801403045654297,0.17910276353359222,-1.3870686292648315,0.005531395319849253,-0.54264897108078,0.17795833945274353,1.3290843963623047,0.013923857361078262,0.5476081371307373,0.03032730519771576,-0.6593804955482483,0.06771191209554672,-0.07457847148180008,0.9386205673217773,-0.4513339102268219,0.007225483190268278,-0.5182345509529114,0.10662241280078888,-0.04940108209848404,0.6353475451469421,-0.18573220074176788,-0.04471154138445854,-0.1483086496591568,-0.14749248325824738,-0.7664737105369568,-0.700890064239502,0.046544093638658524,0.0229257270693779,0.39701148867607117,-0.806847333908081,-0.0361219197511673,-0.04752900078892708,-0.44661253690719604,-2.8851828575134277,-0.8557248711585999,-0.21737398207187653,4.724609851837158,-0.3729075491428375,0.07889238744974136,-0.37341827154159546,-0.03676094114780426,0.7923477292060852,-0.9391390681266785,0.9155105352401733,-0.4634923040866852,1741504861.7761643,1741504861653,-4.89944140625,0.020979333877563476,-2.0803948091011555,-6.4018798828125005,1.49863916015625
1741504861.804683,0.6141259670257568,0.048312960116451385,0.05872189621152893,-0.9971046067440009,0.18507392704486847,0.4968990385532379,0.17687314748764038,-4.634884357452393,-0.12862111628055573,9.2439603805542,0.9847793579101562,0.3725109100341797,0.15964750945568085,-1.384398341178894,0.004386968910694122,-0.54264897108078,0.18673227727413177,1.3206919431686401,0.01430533267557621,0.5479896068572998,0.043678950518369675,-0.7478827834129333,0.04634927958250046,-0.06427863240242004,1.0706111192703247,-0.44887152314186096,-0.008638620376586914,-0.5273899435997009,0.1031891331076622,-0.04444190114736557,0.6292439103126526,-0.1689843386411667,-0.044169310480356216,-0.3517449200153351,-0.2493221014738083,-0.8461561799049377,0.29370856285095215,0.012843762524425983,-0.01511333417147398,0.6081885695457458,-0.42959749698638916,0.04394223541021347,0.046433672308921814,0.5325126051902771,-4.587496280670166,-1.0448192358016968,0.5034235715866089,6.71029806137085,0.2268352210521698,-0.6187410354614258,-0.21830394864082336,-0.12841907143592834,-0.1786586195230484,-0.05433499440550804,0.7972525954246521,0.1518920361995697,1741504861.7761643,1741504861653,-4.89944140625,0.020979333877563476,-2.0803948091011555,-6.4018798828125005,1.49863916015625
1741504861.8246708,0.6172754764556885,0.05725752704803399,0.0585008168062321,-0.996643983591607,-0.03211411461234093,0.3259769380092621,0.24870434403419495,1.3758060932159424,1.5780271291732788,7.789447784423828,0.9901199340820312,0.3637371063232422,0.15430685877799988,-1.374861478805542,0.005149920005351305,-0.54264897108078,0.19359883666038513,1.3214548826217651,0.01430533267557621,0.5472266674041748,0.05207141116261482,-0.8344777822494507,0.026512550190091133,-0.05970092490315437,1.1972609758377075,-0.43408793210983276,-0.00023904094996396452,-0.5403600931167603,0.09060044586658478,-0.06198977679014206,0.6303883194923401,-0.15904183685779572,-0.047295257449150085,0.12598687410354614,-0.24980655312538147,-0.13965541124343872,0.6171783208847046,0.02822807803750038,0.03532594069838524,0.35244229435920715,0.08830761164426804,-0.01477768924087286,-0.10219371318817139,0.7233729958534241,-4.075130462646484,-0.9051777124404907,0.24295087158679962,5.964846611022949,0.8096528053283691,0.5823537707328796,-0.9470145106315613,-0.8149181008338928,-0.7282885909080505,-0.08759495615959167,0.36886849999427795,-0.1895689219236374,1741504861.7761643,1741504861653,-4.89944140625,0.020979333877563476,-2.0803948091011555,-6.4018798828125005,1.49863916015625
1741504861.8446724,0.6097421646118164,0.05839714627965801,0.06172912397005043,-0.9963831033093056,-0.1709081381559372,0.09351536631584167,-0.5949401259422302,-8.066754341125488,-0.13131272792816162,13.763703346252441,0.9851608276367188,0.3595409393310547,0.15621423721313477,-1.3702837228775024,0.004005493130534887,-0.5384527444839478,0.19245441257953644,1.3267955780029297,0.014686808921396732,0.54417484998703,0.07763027399778366,-0.882543683052063,0.0020981156267225742,-0.04749370738863945,1.266308069229126,-0.40736648440361023,-0.0015206155367195606,-0.5586709380149841,0.08487831056118011,-0.06008239835500717,0.6307697892189026,-0.15985049307346344,-0.04107321798801422,-0.13722176849842072,-0.08142880350351334,0.1053648367524147,0.28317156434059143,-0.07958973944187164,0.22587433457374573,-0.199906587600708,0.3614281415939331,0.020238839089870453,-0.2545299530029297,1.159962773323059,-1.9276468753814697,-1.403714656829834,0.7024222612380981,2.904611349105835,1.3807622194290161,-0.3035617768764496,-0.7136393189430237,-0.17423796653747559,0.12881863117218018,0.08202826231718063,-0.15439188480377197,0.38731849193573,1741504861.8787303,1741504861753,-4.87562890625,0.020281103134155275,-1.7169977019769533,-6.3679697265625,1.5090098876953126
1741504861.8646793,0.5950949192047119,0.057853474294007515,0.0610396742655033,-0.9964572914468908,0.13030721247196198,-0.04571253061294556,-0.7568401098251343,1.181993842124939,1.5040117502212524,8.835708618164062,0.9908828735351562,0.3763256072998047,0.164988175034523,-1.3664690256118774,0.005149920005351305,-0.5312047004699707,0.1848248988389969,1.3306102752685547,0.01430533267557621,0.5380712747573853,0.08297093212604523,-0.8894102573394775,-0.016212711110711098,-0.0394827201962471,1.2514305114746094,-0.37868717312812805,-0.005192929413169622,-0.5560005903244019,0.07305257022380829,-0.06008239835500717,0.6334401369094849,-0.1740683615207672,-0.03186032176017761,0.14170002937316895,0.5654181838035583,0.4475516378879547,0.209581196308136,0.02138850837945938,0.4371114671230316,-0.4465702176094055,0.2863397002220154,-0.004653193987905979,-0.4120674729347229,0.14144356548786163,0.013499421067535877,-0.9733597040176392,0.25877946615219116,-1.496751070022583,1.3673486709594727,0.04276387020945549,0.033817168325185776,-0.5433422923088074,0.014638697728514671,0.11045633256435394,-0.8925296068191528,0.4957939684391022,1741504861.8787303,1741504861753,-4.87562890625,0.020281103134155275,-1.7169977019769533,-6.3679697265625,1.5090098876953126
1741504861.88475,0.5816121101379395,0.05297788334920496,0.05346887135116538,-0.9971631880852153,0.4546791613101959,-0.17842958867549896,-0.6065669655799866,0.3228488564491272,2.2329859733581543,8.111685752868652,0.9908828735351562,0.3892955780029297,0.17452506721019745,-1.36837637424469,0.005149920005351305,-0.5209048390388489,0.17948424816131592,1.3355695009231567,0.01430533267557621,0.5296788215637207,0.07686731964349747,-0.8455405235290527,-0.03185320645570755,-0.0398641936480999,1.1507209539413452,-0.36154696345329285,0.005702889058738947,-0.5628671646118164,0.0707637146115303,-0.054741740226745605,0.6406881809234619,-0.2049785852432251,-0.02646639570593834,-0.008803348056972027,0.42977768182754517,0.4587082266807556,-0.12119264900684357,0.0009474967373535037,0.44956907629966736,-0.3431079685688019,0.3353731632232666,0.005874906666576862,-0.538737416267395,-0.5607475638389587,2.52632737159729,-0.8566341996192932,-0.029751431196928024,-5.808618068695068,0.7460436820983887,0.4560451805591583,-0.16694419085979462,-0.03272249177098274,0.25963109731674194,0.6142825484275818,-1.6292911767959595,0.17413246631622314,1741504861.8787303,1741504861753,-4.87562890625,0.020281103134155275,-1.7169977019769533,-6.3679697265625,1.5090098876953126
1741504861.9047804,0.5707943439483643,0.05088677947312617,0.04196709573037467,-0.9978222780389356,0.6220749616622925,-0.09234993904829025,-0.44358617067337036,-0.6657487154006958,-0.8215242624282837,5.760636329650879,0.9916458129882812,0.3900585174560547,0.1810101419687271,-1.369139313697815,0.005149920005351305,-0.5151827335357666,0.17795833945274353,1.3382397890090942,0.01430533267557621,0.5239566564559937,0.042153049260377884,-0.7639048099517822,-0.03833829239010811,-0.04329747334122658,0.9748607873916626,-0.3632335364818573,0.004486508667469025,-0.579270601272583,0.06923781335353851,-0.048256658017635345,0.6719691753387451,-0.24634477496147156,-0.04231392592191696,0.015581720508635044,0.038933850824832916,0.30904442071914673,-0.05474182218313217,-0.0009157334570772946,0.27640992403030396,-0.002401897683739662,0.09064337611198425,-0.01007502619177103,-0.3663310408592224,-1.6310694217681885,4.421095848083496,-0.21709057688713074,-0.059282027184963226,-9.143007278442383,-0.2865244746208191,-0.12304269522428513,-1.1197582483291626,0.04957634583115578,0.2427910715341568,1.6372013092041016,-2.151089906692505,-0.943848729133606,1741504861.8787303,1741504861753,-4.87562890625,0.020281103134155275,-1.7169977019769533,-6.3679697265625,1.5090098876953126
1741504861.9249604,0.5658490657806396,0.05100162613711831,0.030534776066713835,-0.9982316672906771,0.5323940515518188,0.07861741632223129,-0.27501481771469116,11.448283195495605,-0.23987463116645813,0.5521972179412842,0.9905014038085938,0.3908214569091797,0.18673227727413177,-1.3679949045181274,0.005149920005351305,-0.5186160206794739,0.1802472025156021,1.3359509706497192,0.01430533267557621,0.5254825949668884,0.0078202486038208,-0.6807430982589722,-0.03528648987412453,-0.03528648987412453,0.7761120200157166,-0.3903713524341583,0.005241533741354942,-0.6044480204582214,0.07534141838550568,-0.05436026677489281,0.7116426229476929,-0.285663366317749,-0.05418107658624649,-0.0339544452726841,0.03237491846084595,0.24168147146701813,0.09957005828619003,-0.013558311387896538,-0.26459747552871704,0.12838098406791687,-0.18570101261138916,0.001909019541926682,0.17194612324237823,-1.863683819770813,3.7515974044799805,0.23340272903442383,0.34630316495895386,-9.910844802856445,-1.5476365089416504,0.2435390055179596,-1.0132362842559814,0.29273146390914917,-0.43967244029045105,2.159003257751465,-1.863878846168518,-0.348622590303421,1741504861.8787303,1741504861753,-4.87562890625,0.020281103134155275,-1.7169977019769533,-6.3679697265625,1.5090098876953126
1741504861.9449468,0.5633630752563477,0.05587430624522243,0.030726283323715353,-0.9979649079074504,-0.05263315141201019,0.20458915829658508,-0.05045522376894951,-10.269968032836914,31.596317291259766,23.56549072265625,0.9863052368164062,0.3717479705810547,0.18902114033699036,-1.3630356788635254,0.00476844422519207,-0.5315861701965332,0.17948424816131592,1.3374768495559692,0.01430533267557621,0.5292973518371582,-0.02536812424659729,-0.6406881809234619,-0.03032730519771576,-0.023460745811462402,0.7185091972351074,-0.36365067958831787,-0.050331126898527145,-0.6170367002487183,0.05855649709701538,-0.05436026677489281,0.7551308274269104,-0.30862730741500854,-0.06291034817695618,-0.10849326848983765,-0.6704536080360413,0.11283162981271744,0.37922072410583496,-0.011316115967929363,-0.6771283745765686,-0.08452014625072479,0.2827911674976349,-0.03312423452734947,0.2067335993051529,-1.0828430652618408,1.351378321647644,-0.1016169860959053,0.7328768968582153,-0.3522633910179138,1.8904772996902466,-2.947592258453369,-0.5659320950508118,-1.5536978244781494,0.2441767305135727,1.8770666122436523,-0.8978369832038879,-0.4719396233558655,1741504861.8787303,1741504861753,-4.87562890625,0.020281103134155275,-1.7169977019769533,-6.3679697265625,1.5090098876953126
1741504861.9649923,0.5685303211212158,0.05923432064858365,0.0187355884201118,-0.9980682707028878,0.4929915964603424,-0.03573516383767128,0.22093099355697632,0.9629163146018982,-0.8675587177276611,9.173163414001465,0.9912643432617188,0.4030284881591797,0.18902114033699036,-1.3565505743026733,0.00476844422519207,-0.541886031627655,0.17948424816131592,1.3512099981307983,0.015449759550392628,0.5388342142105103,-0.01735713705420494,-0.6708247661590576,-0.009346150793135166,-0.025749599561095238,0.7463569045066833,-0.32729923725128174,-0.0698648989200592,-0.612077534198761,0.05245288833975792,-0.06923781335353851,0.7417792081832886,-0.33227288722991943,-0.05010715126991272,0.14811009168624878,0.654945969581604,0.016182031482458115,0.3871380090713501,-0.03319917246699333,-0.6343280673027039,0.10575450956821442,0.6638136506080627,0.14439740777015686,0.7330211400985718,0.24874147772789001,-1.6658591032028198,1.3262534141540527,-0.3670322597026825,0.705939531326294,1.592942714691162,0.13449092209339142,0.521953821182251,0.22585104405879974,-1.204422116279602,-0.7715392708778381,-1.1290563344955444,0.9842041730880737,1741504861.8787303,1741504861753,-4.87562890625,0.020281103134155275,-1.7169977019769533,-6.3679697265625,1.5090098876953126
1741504861.984999,0.5733356475830078,0.055760605383650255,0.024187335519884615,-0.9981511547294314,-0.4366465210914612,-0.1527264267206192,0.20306715369224548,9.249062538146973,-2.81111216545105,8.642550468444824,0.9710464477539062,0.3969249725341797,0.18978407979011536,-1.3493025302886963,0.00476844422519207,-0.5670633912086487,0.1832990050315857,1.3561691045761108,0.01506828423589468,0.5529488325119019,-0.021553369238972664,-0.6628137826919556,0.001716639962978661,-0.02231631986796856,0.7307164072990417,-0.3140275180339813,-0.003537392243742943,-0.5869001150131226,0.05970092490315437,-0.10090028494596481,0.732623815536499,-0.34602606296539307,-0.04675142467021942,-0.5911573171615601,-0.22402922809123993,0.022297745570540428,0.5184319615364075,-0.02256346121430397,-1.368273138999939,0.32152849435806274,0.4274965524673462,-0.07377538084983826,0.9052801132202148,0.2024347484111786,0.8461293578147888,0.39407622814178467,0.16245447099208832,-0.8611474633216858,0.5110043883323669,3.5446553230285645,1.0092166662216187,0.18027706444263458,-1.1296181678771973,-0.6208813786506653,-0.7214465141296387,-0.34092769026756287,1741504861.8787303,1741504861753,-4.87562890625,0.020281103134155275,-1.7169977019769533,-6.3679697265625,1.5090098876953126
1741504862.004992,0.5783641338348389,0.04586477749424541,0.04538656566874541,-0.9979160695380148,-1.0741130113601685,-0.5669471025466919,0.10605159401893616,-0.17476190626621246,-0.34160658717155457,5.506115913391113,0.9706649780273438,0.3969249725341797,0.18978407979011536,-1.3378583192825317,0.00476844422519207,-0.5971999764442444,0.19207294285297394,1.3718096017837524,0.01583123579621315,0.569733738899231,0.020027466118335724,-0.6395437717437744,0.014686808921396732,-0.029182879254221916,0.7181277275085449,-0.3041764795780182,0.003510653506964445,-0.5773632526397705,0.06656748056411743,-0.11234454810619354,0.7135500311851501,-0.3590683937072754,-0.055811528116464615,-0.11675095558166504,-0.0579741969704628,-0.019869467243552208,0.8559092879295349,0.00941141601651907,-1.442358374595642,0.6122565865516663,1.008419156074524,0.025367800146341324,1.152233362197876,1.9795719385147095,1.095744013786316,1.0680714845657349,-0.8170773386955261,-0.4756959080696106,0.5665932893753052,-0.6395301222801208,0.6659339070320129,0.377896785736084,-0.8998916745185852,-0.7617706656455994,-0.6023114323616028,-0.21243816614151,1741504861.8787303,1741504861753,-4.87562890625,0.020281103134155275,-1.7169977019769533,-6.3679697265625,1.5090098876953126
1741504862.0250583,0.574009895324707,0.03288883203491121,0.06977344620953585,-0.9970205569251943,-1.205045461654663,-0.6268272399902344,-0.22695882618427277,4.383948802947998,1.677860140800476,6.622012615203857,0.9832534790039062,0.3999767303466797,0.18825818598270416,-1.3187845945358276,0.00476844422519207,-0.6227588057518005,0.20199130475521088,1.3775317668914795,0.015449759550392628,0.5914778113365173,0.040627144277095795,-0.614366352558136,0.05130846053361893,-0.07877469807863235,0.7036316394805908,-0.3006727993488312,-0.028629247099161148,-0.5533303022384644,0.08297093212604523,-0.14438849687576294,0.7200350761413574,-0.37311774492263794,-0.046370912343263626,0.3285117745399475,0.07244305312633514,-0.056164972484111786,1.2554467916488647,0.037826765328645706,-1.2750829458236694,0.6982959508895874,0.14840906858444214,-0.024312887340784073,1.5025746822357178,1.2469168901443481,1.3046760559082031,1.6425807476043701,-2.2033729553222656,-0.7887333035469055,0.08010631799697876,-1.2532254457473755,0.8195399641990662,0.7946503162384033,-1.4008502960205078,0.604645311832428,-0.7638525366783142,0.7372027635574341,1741504861.8787303,1741504861753,-4.87562890625,0.020281103134155275,-1.7169977019769533,-6.3679697265625,1.5090098876953126
1741504862.0455794,0.5698196887969971,0.018359138099044416,0.08860236957265878,-0.995897867330968,-0.8269133567810059,-0.6177219748497009,-0.34531939029693604,-5.865451335906982,1.4913057088851929,14.03561782836914,0.9916458129882812,0.4251546859741211,0.19207294285297394,-1.3042885065078735,0.00476844422519207,-0.6422140598297119,0.212672621011734,1.3725725412368774,0.01506828423589468,0.6177996397018433,0.071908138692379,-0.6029220819473267,0.06809338182210922,-0.07381551712751389,0.6979095339775085,-0.29796102643013,-0.04747944697737694,-0.5670633912086487,0.08945601433515549,-0.14705882966518402,0.7841230034828186,-0.3899816572666168,0.0025352255906909704,0.23160547018051147,0.7109482288360596,0.16267481446266174,0.8655776381492615,-0.030086886137723923,-0.9381259679794312,0.6855663061141968,-0.32319653034210205,0.026200978085398674,1.79813814163208,0.8559839129447937,0.3486214280128479,0.9861031174659729,0.08037211000919342,-0.11974487453699112,0.17952397465705872,-0.8381580114364624,-0.7844666838645935,0.16648070514202118,-0.06637762486934662,3.912245512008667,-0.840941846370697,2.4742236137390137,1741504862.1858015,1741504861953,-4.868916015625,0.018790380477905273,-1.697426846057175,-6.3666059570312505,1.5095386962890625
1741504862.0650768,0.564323902130127,0.013037812300446662,0.0886319906747687,-0.9959791090577382,0.10157468169927597,-0.17616741359233856,-0.10008261352777481,6.80120849609375,-4.626270771026611,5.6956071853637695,1.0046157836914062,0.4762725830078125,0.19016556441783905,-1.299710750579834,0.005149920005351305,-0.6570916175842285,0.22182802855968475,1.361891269683838,0.01506828423589468,0.6464102864265442,0.050164032727479935,-0.5994887948036194,0.08297093212604523,-0.06694895774126053,0.7040131092071533,-0.29714804887771606,-0.05925486609339714,-0.6284809708595276,0.08525978773832321,-0.14324407279491425,0.9122987985610962,-0.40397152304649353,0.009283145889639854,0.32082414627075195,1.4312957525253296,-0.17287011444568634,0.08515934646129608,0.018389886245131493,-0.7443813681602478,0.5888683795928955,-0.8349398970603943,-0.02553017996251583,2.0811681747436523,-0.8513799905776978,0.1534571647644043,0.347168892621994,0.97319096326828,0.25768643617630005,-0.035083383321762085,-0.696383535861969,-3.7632880210876465,-0.18674097955226898,0.24281863868236542,6.639991760253906,-0.5884442329406738,-0.11357071995735168,1741504862.1858015,1741504861953,-4.868916015625,0.018790380477905273,-1.697426846057175,-6.3666059570312505,1.5095386962890625
1741504862.0850637,0.563046932220459,0.013187661325283496,0.08117581891052889,-0.9966125485929698,0.43613168597221375,0.0962042286992073,-0.21838727593421936,0.5621986389160156,-5.964929103851318,11.769585609436035,1.0038528442382812,0.5029754638671875,0.17643244564533234,-1.3073402643203735,0.004386968910694122,-0.6750209927558899,0.2294575423002243,1.3435804843902588,0.01430533267557621,0.6776912808418274,0.04406042397022247,-0.6010147333145142,0.08297093212604523,-0.034142062067985535,0.7051575779914856,-0.30094826221466064,-0.0648755207657814,-0.7146944403648376,0.06809338182210922,-0.1340886503458023,1.051918864250183,-0.4042762517929077,-0.007940885610878468,0.0025802685413509607,0.853486955165863,-0.770778238773346,-0.5118100047111511,-0.07382912188768387,-0.9326278567314148,0.4705789387226105,-1.1786707639694214,-0.0008415916818194091,2.123868703842163,-0.8106793761253357,-0.1497383713722229,0.14440320432186127,1.1840449571609497,0.15541958808898926,-0.12313931435346603,-0.18750770390033722,-4.020073413848877,-1.0628345012664795,0.4452865421772003,6.759055137634277,0.0710027739405632,-0.5040559768676758,1741504862.1858015,1741504861953,-4.868916015625,0.018790380477905273,-1.697426846057175,-6.3666059570312505,1.5095386962890625
1741504862.105088,0.5614981651306152,0.015775145390141947,0.06508463231876546,-0.9977550478067505,0.8277713656425476,0.08095542341470718,0.05057798698544502,4.709537506103516,2.276641607284546,11.172135353088379,1.0061416625976562,0.5197601318359375,0.15354390442371368,-1.310010552406311,0.005531395319849253,-0.6948577165603638,0.23250934481620789,1.3218363523483276,0.014686808921396732,0.7066834568977356,0.019645990803837776,-0.6082627773284912,0.08602273464202881,-0.03643091395497322,0.7078278660774231,-0.3034849166870117,-0.07362563163042068,-0.7520790696144104,0.04253452271223068,-0.12607766687870026,1.1461433172225952,-0.3994360566139221,0.00927917193621397,-0.009532243013381958,0.5757046937942505,-1.1616041660308838,-0.08974198997020721,0.051075443625450134,-0.8952535390853882,0.20311740040779114,-1.4556435346603394,-0.01571713387966156,1.8888776302337646,-0.49208152294158936,-0.2316683977842331,0.12698398530483246,0.39154383540153503,0.11742077022790909,-0.19168008863925934,-0.6906406283378601,-1.5221552848815918,-1.2025015354156494,0.24279996752738953,3.9485349655151367,0.27305418252944946,0.8731295466423035,1741504862.1858015,1741504861953,-4.868916015625,0.018790380477905273,-1.697426846057175,-6.3666059570312505,1.5095386962890625
1741504862.1255667,0.5636234283447266,0.012168793480029371,0.05291263628518615,-0.9985249988791427,0.5023181438446045,-0.23188751935958862,-0.09615157544612885,2.8739583492279053,-5.061927795410156,10.467521667480469,0.9966049194335938,0.5258636474609375,0.12760357558727264,-1.310010552406311,0.004386968910694122,-0.7162203192710876,0.23823148012161255,1.301999568939209,0.013923857361078262,0.7303349375724792,0.031090257689356804,-0.5998703241348267,0.08945601433515549,-0.016212711110711098,0.7143129706382751,-0.31414833664894104,-0.07624903321266174,-0.7543678879737854,0.026512550190091133,-0.11959258466959,1.1472877264022827,-0.39931681752204895,0.004408170003443956,-0.26316848397254944,0.20389550924301147,-1.2326686382293701,0.007115432061254978,-0.0545128732919693,-1.1607260704040527,0.39513811469078064,-1.2483444213867188,0.002478872425854206,1.4504481554031372,-0.15500439703464508,0.3271520435810089,0.29136577248573303,0.42867299914360046,0.3396678566932678,-0.6048590540885925,0.1356057971715927,0.4627174139022827,-0.8179879188537598,0.5528899431228638,-0.6479958295822144,-0.14045503735542297,-0.4986269176006317,1741504862.1858015,1741504861953,-4.868916015625,0.018790380477905273,-1.697426846057175,-6.3666059570312505,1.5095386962890625
1741504862.145118,0.5746896266937256,0.004526742640813354,0.04661976569502292,-0.9989024507165877,0.3138367831707001,-0.4118283987045288,1.0254062414169312,0.3631986379623413,0.12816444039344788,2.343512535095215,0.9836349487304688,0.5258636474609375,0.11692225188016891,-1.302762508392334,0.005912871100008488,-0.735675573348999,0.2458609938621521,1.2955145835876465,0.015449759550392628,0.7482643127441406,0.023079270496964455,-0.5971999764442444,0.09937438368797302,-0.018501564860343933,0.734912633895874,-0.3314758241176605,-0.07932735979557037,-0.699053943157196,0.02040894143283367,-0.09517814964056015,1.0538262128829956,-0.42160460352897644,-0.009725636802613735,-0.39557892084121704,0.051612626761198044,-0.5063537359237671,0.5293101072311401,0.08238770812749863,-0.8503850102424622,0.5717806220054626,-0.2109677791595459,-0.010789263062179089,1.2307425737380981,0.26775482296943665,0.20448218286037445,0.18230248987674713,0.23336495459079742,1.2891241312026978,-0.9579878449440002,-0.2924225926399231,2.9403207302093506,0.15451334416866302,1.3138175010681152,-5.565631866455078,-1.3324414491653442,-0.5362512469291687,1741504862.1858015,1741504861953,-4.868916015625,0.018790380477905273,-1.697426846057175,-6.3666059570312505,1.5095386962890625
1741504862.1651247,0.5871703624725342,-0.004346336057971009,0.046367827602584406,-0.9989149783271288,-0.020345674827694893,-0.5330799221992493,0.31047922372817993,-2.0772409439086914,-3.5221731662750244,5.726010322570801,0.9901199340820312,0.5201416015625,0.10814831405878067,-1.2928441762924194,0.0036240178160369396,-0.7566567659378052,0.2588311731815338,1.2955145835876465,0.01506828423589468,0.763523280620575,0.0558861680328846,-0.6105515956878662,0.09212634712457657,-0.0020981156267225742,0.7738231420516968,-0.3598114848136902,-0.06875613331794739,-0.6246662139892578,0.029182879254221916,-0.07686731964349747,0.8722438216209412,-0.4671195447444916,-0.007419622503221035,0.19320008158683777,-0.15808698534965515,-0.4385274648666382,0.5943596959114075,-0.13396786153316498,-1.171931505203247,0.8548674583435059,-0.08259405195713043,0.0781572237610817,0.9424506425857544,1.3690201044082642,-0.9706315994262695,-0.7543341517448425,0.5410683751106262,2.062507152557373,-1.4293813705444336,0.8053061962127686,3.8608877658843994,0.2771016061306,0.8844392895698547,-9.533010482788086,-2.3759512901306152,0.17226150631904602,1741504862.1858015,1741504861953,-4.868916015625,0.018790380477905273,-1.697426846057175,-6.3666059570312505,1.5095386962890625
1741504862.1851728,0.5946142673492432,-0.00934610785670786,0.04905031147475159,-0.9987525805784737,-0.13799019157886505,-0.2990776300430298,0.38177189230918884,-0.09088337421417236,-3.561744451522827,22.554338455200195,1.0034713745117188,0.5235748291015625,0.10433356463909149,-1.2855961322784424,0.00476844422519207,-0.7856488823890686,0.27103838324546814,1.291699767112732,0.01430533267557621,0.776493489742279,0.07953765243291855,-0.6334401369094849,0.09555962681770325,-0.02040894143283367,0.8337147831916809,-0.3882429301738739,-0.0451764278113842,-0.5533303022384644,0.03147173300385475,-0.10433356463909149,0.7925154566764832,-0.44660624861717224,-0.018939899280667305,0.5030872821807861,0.06406879425048828,-0.1293971687555313,0.5282517671585083,0.03547641634941101,-1.3224334716796875,0.7483677864074707,-0.29236188530921936,-0.19668439030647278,0.8414365649223328,1.6957191228866577,-0.5597089529037476,1.4337297677993774,-1.3563244342803955,3.181821346282959,-1.3905699253082275,1.128111481666565,2.482288122177124,0.606995701789856,-2.146754026412964,-1.1588655710220337,1.7419705390930176,-1.1506026983261108,1741504862.1858015,1741504861953,-4.868916015625,0.018790380477905273,-1.697426846057175,-6.3666059570312505,1.5095386962890625
1741504862.2051973,0.5804674625396729,-0.015972244289354395,0.06819405069843479,-0.9975442139883828,-1.0695486068725586,-0.3728830814361572,-0.9670708179473877,-23.655105590820312,11.403154373168945,5.039759635925293,0.9908828735351562,0.5106048583984375,0.10471503436565399,-1.2749148607254028,0.005149920005351305,-0.804341197013855,0.2756160795688629,1.290936827659607,0.016975661739706993,0.7806897163391113,0.13179980218410492,-0.6383993029594421,0.09708552807569504,-0.020027466118335724,0.8772030472755432,-0.42495158314704895,-0.01949913427233696,-0.5724040865898132,0.04291599988937378,-0.10852979123592377,0.7906080484390259,-0.3984076976776123,-0.06922346353530884,-0.3387722671031952,-0.3503951132297516,0.1131344810128212,0.7448874115943909,0.03047143667936325,-0.9839837551116943,0.21915242075920105,-0.07166896760463715,0.3474113345146179,0.36794912815093994,2.172025203704834,-0.8862820267677307,-0.24394002556800842,0.40859347581863403,1.744717001914978,-1.921684741973877,1.6164255142211914,-0.4448881149291992,0.06725968420505524,0.4508691430091858,-0.7359269857406616,1.8734819889068604,-1.8951144218444824,1741504862.1858015,1741504861953,-4.868916015625,0.018790380477905273,-1.697426846057175,-6.3666059570312505,1.5095386962890625
1741504862.225257,0.5607481002807617,-0.01755475228449237,0.07609712409368921,-0.9969458653191255,-0.1859220415353775,0.017188148573040962,-0.7364059686660767,4.052496433258057,10.422577857971191,10.435141563415527,1.0111007690429688,0.5174713134765625,0.11730372905731201,-1.2649965286254883,0.00476844422519207,-0.8260852694511414,0.2660791873931885,1.2920812368392944,0.016975661739706993,0.7925154566764832,0.14553292095661163,-0.6399252414703369,0.09327077120542526,-0.016975661739706993,0.88979172706604,-0.4655359387397766,0.008241015486419201,-0.5560005903244019,0.053215838968753815,-0.09212634712457657,0.7578011751174927,-0.3777850568294525,-0.0628850907087326,0.7083308696746826,0.12867875397205353,0.6968681812286377,0.6518229246139526,0.07466715574264526,-0.9020992517471313,-0.6953195333480835,-0.024678368121385574,-0.10094304382801056,0.9980407357215881,0.7249823212623596,0.4756033718585968,-0.03742106258869171,0.1812376081943512,0.5079003572463989,-1.99616277217865,1.2726167440414429,0.6771033406257629,1.0389622449874878,0.401730477809906,-1.3415921926498413,0.8921947479248047,0.9588128924369812,1741504862.1858015,1741504861953,-4.868916015625,0.018790380477905273,-1.697426846057175,-6.3666059570312505,1.5095386962890625
1741504862.2452319,0.5476138591766357,-0.013517399279189369,0.06833312189801975,-0.9975709821202687,0.36113402247428894,0.29090774059295654,-0.7436014413833618,0.11082856357097626,-2.1980698108673096,12.564311981201172,1.0156784057617188,0.5361642837524414,0.13179980218410492,-1.2661409378051758,0.004386968910694122,-0.8291370868682861,0.2500572204589844,1.2836887836456299,0.012397955171763897,0.8077744841575623,0.1340886503458023,-0.6040665507316589,0.08564125746488571,-0.010872052982449532,0.8787289261817932,-0.499695748090744,-0.009445986710488796,-0.5540932416915894,0.07763027399778366,-0.06313420087099075,0.760471522808075,-0.37386056780815125,-0.05931829661130905,0.14542466402053833,0.5025790929794312,0.7405778169631958,-0.44999462366104126,-0.13456274569034576,-0.28513363003730774,-1.0596574544906616,-0.6641175746917725,-0.2121446430683136,0.9178621172904968,-1.2660578489303589,1.6930283308029175,-0.30857792496681213,0.13159847259521484,-0.9565410614013672,-1.5495281219482422,-1.4679803848266602,-0.14049087464809418,1.0191460847854614,1.7780388593673706,0.35015448927879333,0.10381165891885757,-0.26807063817977905,1741504862.2882586,1741504862053,-4.87386279296875,0.009555184364318847,-2.391287242704643,-6.3684443359375,1.5088658447265626
1741504862.2652588,0.5412566661834717,-0.014263828849627522,0.05634763458995893,-0.9983093144224715,0.6682202816009521,-0.05270333215594292,-0.234817773103714,2.100705862045288,13.179462432861328,7.608481407165527,0.9973678588867188,0.5552377700805664,0.14286258816719055,-1.2817814350128174,0.005531395319849253,-0.8299000263214111,0.2302204966545105,1.2703371047973633,0.012397955171763897,0.812352180480957,0.07419699430465698,-0.5842298269271851,0.08068207651376724,0.007057297509163618,0.8524070978164673,-0.5181527733802795,-0.03931424021720886,-0.5571450591087341,0.07381551712751389,-0.01888304017484188,0.7814526557922363,-0.37835079431533813,-0.05964408069849014,-0.5583491921424866,0.5295158624649048,0.40832167863845825,-0.9678500890731812,0.020507747307419777,0.0935259610414505,-1.3768068552017212,-0.8282604217529297,-0.01623585633933544,0.18226154148578644,-2.4542036056518555,0.9820180535316467,-0.3293573260307312,1.184339165687561,-0.7225561738014221,-0.7291897535324097,-1.091113805770874,0.11293269693851471,-0.3836262822151184,2.5124831199645996,0.8885380625724792,-0.3032551109790802,0.1594347208738327,1741504862.2882586,1741504862053,-4.87386279296875,0.009555184364318847,-2.391287242704643,-6.3684443359375,1.5088658447265626
1741504862.2852619,0.5335006713867188,-0.016403853873293534,0.03402466334404041,-0.9992863632925391,1.1097421646118164,-0.10149813443422318,-0.5047126412391663,3.127614736557007,5.595844268798828,7.204245090484619,1.0034713745117188,0.5582895278930664,0.15468832850456238,-1.2970404624938965,0.00476844422519207,-0.8188372850418091,0.20923933386802673,1.2577484846115112,0.011635004542768002,0.8073930144309998,0.04596780240535736,-0.568970799446106,0.06466010212898254,0.03223468363285065,0.883306622505188,-0.5304901003837585,0.004735744092613459,-0.5300602912902832,0.06656748056411743,0.02727550081908703,0.7822155952453613,-0.38414648175239563,-0.040986720472574234,0.12650468945503235,0.07791706919670105,0.8079961538314819,-0.9746856689453125,-0.010067139752209187,0.5903064012527466,-1.3576569557189941,-0.8911401629447937,-0.014455288648605347,-0.4436645209789276,-1.6199802160263062,0.5275177359580994,-0.7704898715019226,0.9890837669372559,1.9611068964004517,-0.5651251077651978,2.5720419883728027,1.2210524082183838,-0.2397340089082718,1.6769603490829468,-0.12301775813102722,-0.2481307089328766,0.7262529730796814,1741504862.2882586,1741504862053,-4.87386279296875,0.009555184364318847,-2.391287242704643,-6.3684443359375,1.5088658447265626
1741504862.3082845,0.5306339263916016,-0.023161718473826896,0.013311432782399874,-0.9996431065908568,0.8988105058670044,-0.3347386121749878,0.08535695821046829,-6.628998279571533,3.3461520671844482,11.032684326171875,0.9935531616210938,0.5468454360961914,0.18558785319328308,-1.310010552406311,0.005912871100008488,-0.7982375621795654,0.19398032128810883,1.2421079874038696,0.010872052982449532,0.7925154566764832,0.016975661739706993,-0.6029220819473267,0.04749370738863945,0.03223468363285065,0.9588387608528137,-0.5264697670936584,-0.00045522706932388246,-0.5201418995857239,0.06809338182210922,0.037193864583969116,0.775730550289154,-0.385843962430954,-0.0479983352124691,-0.283004492521286,-0.3291890025138855,1.6545312404632568,-0.8699502348899841,0.07612697780132294,1.0901564359664917,-0.9024401307106018,-1.0311211347579956,-0.07667174935340881,-1.0072184801101685,-0.6717013716697693,-1.9088870286941528,-0.8726362586021423,0.19385716319084167,4.172670364379883,0.34292876720428467,-1.0778764486312866,0.47230127453804016,-0.028146106749773026,0.6504282355308533,-0.06528832018375397,-0.02078193426132202,-0.08501523733139038,1741504862.2883153,1741504862153,-4.854427734375,-0.0006990082859992981,-2.0922030730948924,-6.3679375,1.5091314697265625
1741504862.3253016,0.5315191745758057,-0.02557348091150714,0.010537671511223548,-0.9996174040867787,0.08552801609039307,-0.1398010402917862,-0.024515997618436813,1.840497612953186,1.2127724885940552,6.637745380401611,0.9847793579101562,0.5121307373046875,0.21229113638401031,-1.311155080795288,0.004005493130534887,-0.7753490209579468,0.1813916265964508,1.2379117012023926,0.007057297509163618,0.770008385181427,0.027656977996230125,-0.6742580533027649,0.031090257689356804,0.040627144277095795,1.0843442678451538,-0.5089435577392578,-0.019232627004384995,-0.5098420977592468,0.07534141838550568,0.04901960864663124,0.7742046117782593,-0.3877425491809845,-0.04445869103074074,-0.2504277527332306,-0.988409698009491,1.2874397039413452,0.06418486684560776,-0.009424182586371899,1.0564981698989868,-0.9163110256195068,-0.13661815226078033,-0.15845175087451935,-1.5619736909866333,0.2860064208507538,-3.7269704341888428,-0.6705551743507385,0.34628424048423767,6.488973617553711,0.9643900394439697,-0.11715879291296005,0.3407420217990875,0.65960693359375,0.04796977713704109,-0.3203074634075165,-0.13344736397266388,-0.07771921157836914,1741504862.2883153,1741504862153,-4.854427734375,-0.0006990082859992981,-2.0922030730948924,-6.3679375,1.5091314697265625
1741504862.3453305,0.5441572666168213,-0.024021181183629343,0.013862777933366342,-0.9996153291354197,-0.21880733966827393,0.13348744809627533,0.9300392866134644,6.649831771850586,-0.9181463122367859,9.555461883544922,0.9851608276367188,0.478179931640625,0.2317463904619217,-1.3058143854141235,0.005531395319849253,-0.7562752962112427,0.1665140837430954,1.2443968057632446,0.006294346414506435,0.7475013136863708,0.026512550190091133,-0.7623788714408875,0.02994582988321781,0.04444190114736557,1.2060348987579346,-0.4766295552253723,0.0024369987659156322,-0.5071717500686646,0.086785688996315,0.030708782374858856,0.7597085237503052,-0.3944340944290161,-0.06065429374575615,-0.028850257396697998,-1.0580012798309326,0.7361746430397034,0.3433147966861725,0.02138173207640648,1.0088534355163574,-0.914474368095398,0.5462589263916016,-0.10447143763303757,-1.4256079196929932,0.23487353324890137,-4.461324214935303,-0.004480439703911543,0.17518825829029083,5.719805717468262,1.7190066576004028,0.8069414496421814,0.050820861011743546,0.10604476183652878,-0.46743035316467285,-0.6268888711929321,-0.29083192348480225,-0.7542843222618103,1741504862.3906887,1741504862253,-4.8201640625,-0.012726935386657715,-1.186025733485239,-6.367290527343751,1.5091256103515625
1741504862.3653407,0.5600490570068359,-0.0227404469868229,0.026123950596463115,-0.9994000256534283,-0.5890849828720093,0.07883604615926743,0.7790452241897583,-2.0128610134124756,5.6858930587768555,10.458693504333496,0.9836349487304688,0.4606313705444336,0.24128328263759613,-1.3023810386657715,0.004386968910694122,-0.734912633895874,0.15735866129398346,1.2684297561645508,0.005149920005351305,0.7230868935585022,0.037193864583969116,-0.8230335116386414,0.03528648987412453,0.04558632895350456,1.276607871055603,-0.436111181974411,-0.00354626402258873,-0.5048828721046448,0.07419699430465698,0.03528648987412453,0.7578011751174927,-0.3939623236656189,-0.0527854859828949,-0.07694730907678604,-0.4861370027065277,0.5405027270317078,0.1597825437784195,-0.020730752497911453,1.1309267282485962,-0.5791825652122498,1.7160245180130005,-0.01939077116549015,-1.662509799003601,0.3302404284477234,-2.6316311359405518,0.3398311734199524,0.14384829998016357,2.9039626121520996,1.978817343711853,-0.46815580129623413,0.1960667371749878,-0.40238580107688904,-0.19074444472789764,-0.017280753701925278,0.05135376751422882,0.48100441694259644,1741504862.3906887,1741504862253,-4.8201640625,-0.012726935386657715,-1.186025733485239,-6.367290527343751,1.5091256103515625
1741504862.3853679,0.5690250396728516,-0.018014849708358927,0.03196649422517112,-0.9993265774695165,-0.2413872927427292,0.25101932883262634,0.4570567309856415,4.130985260009766,7.685572147369385,9.470706939697266,0.9985122680664062,0.4468984603881836,0.25539788603782654,-1.304669976234436,0.005149920005351305,-0.7093538045883179,0.14782176911830902,1.2905553579330444,0.005149920005351305,0.700579822063446,0.02841992862522602,-0.8348592519760132,0.024986648932099342,0.04634927958250046,1.2747005224227905,-0.39931681752204895,-0.004408170003443956,-0.499542236328125,0.07572289556264877,0.024605173617601395,0.7509346008300781,-0.4013826549053192,-0.048226624727249146,0.4514878988265991,-0.44204238057136536,0.7457114458084106,-0.1843733936548233,0.03471981734037399,1.3429417610168457,-0.6196715831756592,1.3663902282714844,-0.005253685172647238,-1.4737422466278076,-0.19002442061901093,-0.31014490127563477,-0.48724156618118286,0.12482010573148727,-0.7698059678077698,1.712375521659851,0.3015446960926056,0.2933977544307709,-0.06180824339389801,-0.27432477474212646,-0.40743422508239746,-0.41927021741867065,0.2993484437465668,1741504862.3906887,1741504862253,-4.8201640625,-0.012726935386657715,-1.186025733485239,-6.367290527343751,1.5091256103515625
1741504862.40541,0.5614123344421387,-0.014293599265729014,0.033169747329597744,-0.9993475175744029,-0.01408256683498621,0.18287239968776703,-0.49409806728363037,-0.09977814555168152,6.016232967376709,9.033623695373535,1.0049972534179688,0.4537649154663086,0.2748531401157379,-1.314969778060913,0.00476844422519207,-0.6834134459495544,0.13866636157035828,1.302762508392334,0.004386968910694122,0.6784542798995972,0.025749599561095238,-0.8157854676246643,0.015449759550392628,0.04787518084049225,1.1919203996658325,-0.37843558192253113,0.009559378027915955,-0.49114975333213806,0.071908138692379,0.02536812424659729,0.7513160705566406,-0.41182026267051697,-0.045602649450302124,0.1429586559534073,0.18341265618801117,0.9644323587417603,-0.7625419497489929,0.0027096609119325876,1.222516655921936,-0.6013749241828918,0.7098680734634399,-5.2964387577958405e-05,-1.4369292259216309,-0.226986363530159,1.2929480075836182,-0.39036768674850464,0.05340627208352089,-4.680378437042236,0.8926851749420166,0.5080987811088562,0.4099818468093872,-0.11145123094320297,0.005740148015320301,0.13968154788017273,-0.5537518262863159,0.07651221752166748,1741504862.3906887,1741504862253,-4.8201640625,-0.012726935386657715,-1.186025733485239,-6.367290527343751,1.5091256103515625
1741504862.425525,0.549065351486206,-0.012167362143207336,0.02881752889418035,-0.9995106329233867,0.2412576526403427,0.09988652914762497,-0.4849817454814911,-0.8965823650360107,-0.04936355724930763,6.312580585479736,1.0019454956054688,0.4541463851928711,0.30117493867874146,-1.3260325193405151,0.005149920005351305,-0.6548027992248535,0.12798504531383514,1.3115365505218506,0.004386968910694122,0.6624323129653931,0.010872052982449532,-0.7612344622612,0.009346150793135166,0.05130846053361893,1.055733561515808,-0.37589842081069946,0.0011719900649040937,-0.49038681387901306,0.0722896158695221,0.03032730519771576,0.7597085237503052,-0.4230099618434906,-0.03904031962156296,-0.08999033272266388,0.039755698293447495,1.2630926370620728,-0.7503926157951355,-0.0033657094463706017,1.3745466470718384,-0.7826295495033264,0.6484286785125732,-0.00538476649671793,-0.9857290983200073,-0.9012081623077393,2.9378628730773926,-0.27546897530555725,0.17367711663246155,-6.991783142089844,-0.017714058980345726,-0.5148519277572632,-0.03283320367336273,0.05459997430443764,0.27834901213645935,0.47332265973091125,-0.5683230757713318,0.43974289298057556,1741504862.3906887,1741504862253,-4.8201640625,-0.012726935386657715,-1.186025733485239,-6.367290527343751,1.5091256103515625
1741504862.445817,0.5466580390930176,-0.009797842866795853,0.02159833449999583,-0.9997187175510839,0.34114667773246765,0.13799738883972168,-0.09366406500339508,2.2140820026397705,-3.829943895339966,4.372279644012451,0.9969863891601562,0.4526205062866211,0.3107118308544159,-1.3348065614700317,0.005149920005351305,-0.6345845460891724,0.1180666834115982,1.3184030055999756,0.004386968910694122,0.6555657386779785,-0.02231631986796856,-0.6967650651931763,0.009727626107633114,0.061226826161146164,0.8886472582817078,-0.3932926058769226,0.0007450687699019909,-0.49420157074928284,0.07534141838550568,0.02841992862522602,0.7791637778282166,-0.4355488717556,-0.03000069595873356,-0.11343976855278015,-0.03843636065721512,0.29288241267204285,-0.5149416327476501,0.006086521316319704,0.8895079493522644,-0.5053437352180481,0.3343535363674164,0.011326045729219913,-0.3527788817882538,-1.7210493087768555,3.0528719425201416,0.04207846149802208,0.555722177028656,-8.020968437194824,-1.0106779336929321,0.29434022307395935,-0.20812922716140747,0.18554380536079407,-0.17791330814361572,0.9893056750297546,-0.5542716979980469,0.5243143439292908,1741504862.4931388,1741504862353,-4.805771484375,0.0030292816162109377,-1.2125551797039438,-6.3668115234375,1.5093802490234376
1741504862.465847,0.5513994693756104,-0.004226632870268585,0.022706498025409954,-0.999733239680467,-0.16276772320270538,0.39085590839385986,0.3294932544231415,1.8997039794921875,-0.7700645327568054,6.635406970977783,0.9908828735351562,0.4365987777709961,0.3076600432395935,-1.3367139101028442,0.005149920005351305,-0.6258106231689453,0.11768520623445511,1.3195475339889526,0.004386968910694122,0.655184268951416,-0.048256658017635345,-0.6406881809234619,0.009727626107633114,0.07877469807863235,0.7425421476364136,-0.4117774963378906,0.003462783759459853,-0.5029755234718323,0.08258945494890213,0.018120087683200836,0.8001449704170227,-0.4372877776622772,-0.02211659587919712,-0.22664308547973633,-0.40553414821624756,-0.22328662872314453,-0.07319331169128418,-0.002521214308217168,0.35479500889778137,0.0658307746052742,0.12503762543201447,-0.006669448222965002,0.0021380858961492777,-0.9945970773696899,2.6282849311828613,0.011004460975527763,0.7063692808151245,-6.536575794219971,-0.3827396333217621,-0.2798998951911926,-0.4824071526527405,0.4007280468940735,-0.6332483291625977,1.046779990196228,0.05187041312456131,0.2059510052204132,1741504862.4931388,1741504862353,-4.805771484375,0.0030292816162109377,-1.2125551797039438,-6.3668115234375,1.5093802490234376
1741504862.485875,0.5658524036407471,0.0023297252944745215,0.03030150627159334,-0.9995380888679155,-0.19542992115020752,0.23808836936950684,0.7872284054756165,0.055205170065164566,-4.673651695251465,13.751649856567383,0.9916458129882812,0.4392690658569336,0.30117493867874146,-1.3313732147216797,0.005149920005351305,-0.621614396572113,0.11959258466959,1.3290843963623047,0.004386968910694122,0.6532768607139587,-0.050164032727479935,-0.6334401369094849,0.007438773289322853,0.08411535620689392,0.7738231420516968,-0.38453033566474915,-0.005535011645406485,-0.5041199326515198,0.0722896158695221,0.01125352829694748,0.8093003630638123,-0.4253219962120056,-0.02885841764509678,-0.011583209969103336,0.10425477474927902,-0.39688822627067566,0.41446653008461,0.014074699953198433,0.22015124559402466,0.14457029104232788,0.8429427742958069,0.04246591776609421,-0.11214902997016907,0.08282643556594849,-0.018979189917445183,0.09372799843549728,-0.1513713002204895,1.8921470642089844,1.1369975805282593,-0.3319893479347229,0.07678154110908508,-0.5918023586273193,-0.43541640043258667,-0.03409694507718086,0.6042162179946899,-0.19319556653499603,1741504862.4931388,1741504862353,-4.805771484375,0.0030292816162109377,-1.2125551797039438,-6.3668115234375,1.5093802490234376
