Freshhhhh-LC/Legged_odom/data/3/segments/booster_seg_9.96s.csv
time,yaw,projected_gravity_x,projected_gravity_y,projected_gravity_z,ang_vel_x,ang_vel_y,ang_vel_z,lin_acc_x,lin_acc_y,lin_acc_z,q_0,q_1,q_2,q_3,q_4,q_5,q_6,q_7,q_8,q_9,q_10,q_11,q_12,q_13,q_14,q_15,q_16,q_17,q_18,q_19,q_20,q_21,q_22,dq_0,dq_1,dq_2,dq_3,dq_4,dq_5,dq_6,dq_7,dq_8,dq_9,dq_10,dq_11,dq_12,dq_13,dq_14,dq_15,dq_16,dq_17,dq_18,dq_19,dq_20,dq_21,dq_22,mocap_time,mocap_timestamp,robot_x,robot_y,robot_yaw,ball_x,ball_y
1741504542.316177,1.3415451049804688,0.03257398282970314,0.020289776082306366,-0.9992633589945846,-0.25090688467025757,0.2963184714317322,-0.9887990355491638,3.6290926933288574,-1.3126908540725708,7.722438335418701,-0.6708250045776367,0.2576866149902344,0.17795833945274353,-1.317258596420288,0.00476844422519207,-0.5926222801208496,0.13790340721607208,1.3428175449371338,0.01430533267557621,0.6155108213424683,0.17910276353359222,-0.6433585286140442,-0.009727626107633114,-0.030708782374858856,0.7658121585845947,-0.113917276263237,0.005016676615923643,-0.650225043296814,-0.013160906732082367,-0.14553292095661163,1.19611656665802,-0.30055415630340576,-0.006669101770967245,-0.13301615417003632,-0.598767101764679,-2.159562826156616,-0.07478894293308258,-0.015738099813461304,0.9616397023200989,2.4562578201293945,0.5240063071250916,-0.0633520856499672,-1.8232358694076538,0.8227792382240295,0.6385530233383179,0.4624505639076233,-0.0273562204092741,0.2570030093193054,-0.45173540711402893,-0.10095810890197754,-2.1438708305358887,-0.06420230865478516,-1.2549364566802979,2.3240983486175537,-0.9432401657104492,-0.2929525077342987,1741504542.2788723,1741504542173,-4.56393798828125,1.5527662353515626,-1.67869365227933,-0.9149951782226563,3.0239770507812502
1741504542.3180664,1.300779104232788,0.039489295452988925,0.027284841608601104,-0.9988474022407127,-0.06376180052757263,0.347369521856308,-1.1207938194274902,-1.7124063968658447,-0.5170602798461914,8.051536560058594,-0.6841764450073242,0.23556137084960938,0.09212634712457657,-1.3191660642623901,0.00476844422519207,-0.5701152086257935,0.19474326074123383,1.3554061651229858,0.014686808921396732,0.5701152086257935,0.1806286722421646,-0.6067368388175964,0.020027466118335724,-0.01201647985726595,0.7524605393409729,-0.1389634907245636,-0.001941315713338554,-0.726138710975647,-0.023079270496964455,-0.15888457000255585,1.2209124565124512,-0.37633761763572693,-0.0021718856878578663,-0.17177671194076538,-0.5103224515914917,-2.4567039012908936,-0.08533111959695816,-0.008072474971413612,0.32746148109436035,1.7850713729858398,0.5133094191551208,-0.009828734211623669,-1.5804417133331299,-0.022416139021515846,1.0227797031402588,0.8359668850898743,0.4074386954307556,-0.17159850895404816,-0.688923180103302,-0.12086674571037292,-1.8120533227920532,-0.32553282380104065,-0.29409927129745483,-0.03562364727258682,-2.220463514328003,0.7358397245407104,1741504542.2788723,1741504542173,-4.56393798828125,1.5527662353515626,-1.67869365227933,-0.9149951782226563,3.0239770507812502
1741504542.3200169,0.35683250427246094,0.005087000263827585,0.048760124591948915,-0.9987975634121729,-0.19750681519508362,0.22948157787322998,-0.5393473505973816,-1.324565052986145,-2.417827844619751,9.70205020904541,-0.07190799713134766,0.13485145568847656,0.4247730076313019,-1.2604187726974487,0.005531395319849253,-0.9454871416091919,0.014686808921396732,1.2466856241226196,0.015449759550392628,0.9245060086250305,0.18825818598270416,-0.9145876169204712,-0.15659570693969727,-0.14858472347259521,1.2373158931732178,-0.4346494972705841,0.0028852468822151423,-0.47856107354164124,0.001716639962978661,-0.2504386901855469,0.735675573348999,-0.493159681558609,-0.06375781446695328,0.3919146656990051,-0.021866053342819214,2.4229540824890137,-0.10046691447496414,0.03667916730046272,0.215572789311409,-2.8045248985290527,0.2220642864704132,0.009258700534701347,0.02053607627749443,-0.4242474436759949,-0.16170310974121094,0.789035975933075,-0.1648748219013214,-4.530023097991943,0.9231400489807129,0.5213214755058289,0.0751114934682846,0.9771015644073486,0.1946396827697754,0.2382350116968155,-0.885350227355957,-0.5704532265663147,1741504542.2788723,1741504542173,-4.56393798828125,1.5527662353515626,-1.67869365227933,-0.9149951782226563,3.0239770507812502
1741504542.3400478,0.3549778461456299,0.011689028859280701,0.0506461678960376,-0.9986482525302758,-0.09541203826665878,0.32776516675949097,-0.04195081442594528,2.840869903564453,-1.6436517238616943,8.909059524536133,-0.060845375061035156,0.12951087951660156,0.4682612419128418,-1.2604187726974487,0.005149920005351305,-0.9359502792358398,-0.023460745811462402,1.2508819103240967,0.01506828423589468,0.9287022352218628,0.17223620414733887,-0.8943694233894348,-0.13218127191066742,-0.1516365259885788,1.117151141166687,-0.4275100529193878,0.003974757622927427,-0.4720759987831116,0.010872052982449532,-0.25463491678237915,0.7410162687301636,-0.5065529942512512,-0.06734549254179001,0.3276820480823517,-0.12579932808876038,1.9015871286392212,0.11554329842329025,-0.004265663214027882,0.4606773555278778,-2.4396579265594482,0.12363604456186295,-0.024268444627523422,0.3551521897315979,-0.8624480962753296,1.1889570951461792,1.2963014841079712,0.0541246272623539,-6.3287835121154785,0.20311564207077026,-0.073165662586689,0.3906281292438507,0.26907968521118164,-0.2996155023574829,0.2541263699531555,-0.5825916528701782,-0.08751436322927475,1741504542.3885672,1741504542273,-4.52828759765625,1.5686131591796875,-2.2236004715869804,-0.8080049438476563,3.01465283203125
1741504542.3600311,0.3616899251937866,0.01732842876590672,0.053043091227632476,-0.9984418641210523,-0.12074857205152512,0.27476611733436584,0.38457611203193665,4.681074619293213,-4.021023273468018,7.942050457000732,-0.050927162170410156,0.12912940979003906,0.481612890958786,-1.2550780773162842,0.005149920005351305,-0.9279392957687378,-0.04558632895350456,1.2443968057632446,0.01506828423589468,0.9367132186889648,0.16079194843769073,-0.8585107326507568,-0.09937438368797302,-0.1348516047000885,0.9794384837150574,-0.44017285108566284,0.005156388971954584,-0.46025025844573975,0.016594186425209045,-0.2733272314071655,0.7436865568161011,-0.5123007893562317,-0.061986908316612244,0.2980155646800995,-0.02191687375307083,0.475422739982605,0.28403982520103455,0.002361791208386421,0.383789986371994,-1.1922271251678467,-0.45788469910621643,0.017166249454021454,0.5820920467376709,-0.48119962215423584,1.8017882108688354,1.7289928197860718,1.0286513566970825,-6.927247047424316,-0.8312936425209045,0.19825544953346252,0.7117704749107361,0.5187615156173706,-1.0530697107315063,0.048330653458833694,-0.2372884303331375,0.4293641746044159,1741504542.3885672,1741504542273,-4.52828759765625,1.5686131591796875,-2.2236004715869804,-0.8080049438476563,3.01465283203125
1741504542.380037,0.37485170364379883,0.02066494752099958,0.05999570961218635,-0.9979847066824645,-0.43454834818840027,0.07820288091897964,0.6608836054801941,3.5437965393066406,-6.163206577301025,7.138594627380371,-0.048638343811035156,0.12989234924316406,0.47817960381507874,-1.2524077892303467,0.005149920005351305,-0.9214541912078857,-0.04444190114736557,1.2379117012023926,0.014686808921396732,0.9454871416091919,0.15926603972911835,-0.8157854676246643,-0.05893797054886818,-0.11348897218704224,0.8535515666007996,-0.47468823194503784,0.004288131836801767,-0.4369802474975586,0.03795681521296501,-0.2954528033733368,0.7383459210395813,-0.5145012736320496,-0.055217958986759186,0.07937274873256683,0.0351639986038208,-0.27561652660369873,0.1864190548658371,0.003150236327201128,0.2592998743057251,0.2680790424346924,-0.4379422068595886,0.005142458714544773,0.5227136015892029,0.14286155998706818,2.248077154159546,2.0868570804595947,1.0096980333328247,-5.984866619110107,-1.711844563484192,-0.2201293706893921,1.2142574787139893,1.145982027053833,-1.0165926218032837,-0.31337884068489075,-0.08397985994815826,0.20295867323875427,1741504542.3885672,1741504542273,-4.52828759765625,1.5686131591796875,-2.2236004715869804,-0.8080049438476563,3.01465283203125
1741504542.4000745,0.39022135734558105,0.013100294051950389,0.0755655536366258,-0.9970547775319782,-0.7137672305107117,-0.5842368602752686,0.7478334903717041,-1.6253304481506348,2.1891422271728516,15.609890937805176,-0.044060707092285156,0.15163612365722656,0.46253910660743713,-1.2466856241226196,0.005149920005351305,-0.9142061471939087,-0.026131074875593185,1.23905611038208,0.015449759550392628,0.9500648379325867,0.1672770231962204,-0.7909895181655884,-0.0394827201962471,-0.11081864684820175,0.8562218546867371,-0.4678700864315033,-0.012031386606395245,-0.4003585875034332,0.05664911866188049,-0.30498969554901123,0.728427529335022,-0.5084102153778076,-0.039462730288505554,0.10457796603441238,0.7490636110305786,-0.7887234687805176,0.44565683603286743,0.02917129173874855,0.5210354924201965,1.3829634189605713,0.36492282152175903,0.08458054065704346,0.19785092771053314,0.5549790263175964,1.2242366075515747,0.6912516951560974,0.009623824618756771,1.437595009803772,0.270230233669281,-0.8418716192245483,1.924963116645813,0.6654901504516602,-0.4567173421382904,-0.6951881647109985,0.39391154050827026,1.1303414106369019,1741504542.3885672,1741504542273,-4.52828759765625,1.5686131591796875,-2.2236004715869804,-0.8080049438476563,3.01465283203125
1741504542.4201307,0.40773797035217285,0.005101897506410115,0.07991273863733796,-0.9967888065409415,-0.20452512800693512,-0.5853874683380127,0.7085462212562561,4.954066753387451,-5.268054008483887,8.649250030517578,-0.01392364501953125,0.14820289611816406,0.4201953113079071,-1.23753023147583,0.00476844422519207,-0.9096284508705139,0.012779430486261845,1.2451597452163696,0.01506828423589468,0.9493018984794617,0.20084688067436218,-0.7795453071594238,-0.01430533267557621,-0.14019227027893066,0.8749141693115234,-0.4568525552749634,-0.06091183051466942,-0.3603036403656006,0.0871671661734581,-0.31643396615982056,0.7127870321273804,-0.4896788001060486,0.005389102268964052,0.8717378973960876,0.053691472858190536,-2.5448927879333496,0.5835720896720886,-0.014859694056212902,0.10886288434267044,2.786146640777588,0.33837488293647766,-0.02917512319982052,-0.07928099483251572,1.4425824880599976,0.6359093189239502,1.0040589570999146,-1.4971646070480347,0.17743068933486938,0.3781415522098541,-2.0867788791656494,1.7790130376815796,1.59867525100708,-0.5581876635551453,-0.6686776876449585,1.1427323818206787,1.9492909908294678,1741504542.3885672,1741504542273,-4.52828759765625,1.5686131591796875,-2.2236004715869804,-0.8080049438476563,3.01465283203125
1741504542.4408214,0.41341090202331543,-0.009350527720506064,0.08379498928925574,-0.9964391438524289,-0.20701880753040314,-0.655316174030304,0.35995912551879883,-5.012980937957764,-3.8689746856689453,13.021431922912598,-0.02689361572265625,0.14858436584472656,0.3622110188007355,-1.2371487617492676,0.005149920005351305,-0.9103913903236389,0.054741740226745605,1.2459226846694946,0.015449759550392628,0.9489204287528992,0.22182802855968475,-0.7421606779098511,0.000572213320992887,-0.1520180106163025,0.8592736721038818,-0.44756096601486206,-0.054779741913080215,-0.35152971744537354,0.10166323184967041,-0.31948578357696533,0.7410162687301636,-0.4624156355857849,-0.0025275663938373327,-0.32573989033699036,0.048167526721954346,-2.6627731323242188,-0.08691615611314774,0.0010148311266675591,0.01471975352615118,2.6311123371124268,0.005299455486238003,-0.0337832048535347,0.07709658145904541,0.8133824467658997,1.7862929105758667,0.373983234167099,-0.2980979382991791,-0.6202079653739929,0.6805217862129211,0.47136369347572327,0.17744717001914978,0.3826949894428253,0.02852611243724823,2.0869154930114746,1.3648452758789062,-0.7399808168411255,1741504542.3885672,1741504542273,-4.52828759765625,1.5686131591796875,-2.2236004715869804,-0.8080049438476563,3.01465283203125
1741504542.460156,0.4153621196746826,-0.018615500420533868,0.08289050687045635,-0.9963847785945207,0.16961468756198883,-0.4491194188594818,-0.01184147410094738,-6.535909175872803,1.7290432453155518,10.145641326904297,-0.00782012939453125,0.14476966857910156,0.30003052949905396,-1.23753023147583,0.005149920005351305,-0.9115357995033264,0.09479667246341705,1.2493560314178467,0.015449759550392628,0.9496833682060242,0.23403525352478027,-0.724612832069397,0.000572213320992887,-0.16269932687282562,0.8539330363273621,-0.43204376101493835,-0.05123898759484291,-0.39578089118003845,0.08411535620689392,-0.3084229826927185,0.8440146446228027,-0.4475184381008148,-0.011850576847791672,0.4760565757751465,0.0018907248741015792,-3.270585775375366,-0.07526735961437225,0.01693006046116352,-0.09415481239557266,2.7821669578552246,0.24197115004062653,0.010449042543768883,-0.010850146412849426,0.6135050058364868,0.8338229656219482,0.0219248216599226,-0.7192131280899048,-0.27087855339050293,0.7204742431640625,-0.04031938686966896,-2.50465726852417,-1.0161869525909424,0.617238461971283,5.609217166900635,0.4599643349647522,-0.14457722008228302,1741504542.3885672,1741504542273,-4.52828759765625,1.5686131591796875,-2.2236004715869804,-0.8080049438476563,3.01465283203125
1741504542.4801908,0.40433526039123535,-0.01924229670374625,0.07600920932296305,-0.9969214282558395,0.3283889889717102,0.016754383221268654,-0.5912024974822998,-3.3602843284606934,0.8199413418769836,10.943157196044922,-0.00286102294921875,0.12378883361816406,0.22106507420539856,-1.2440153360366821,0.005149920005351305,-0.917639434337616,0.1348516047000885,1.2497375011444092,0.015449759550392628,0.9493018984794617,0.24166475236415863,-0.699053943157196,0.000572213320992887,-0.15659570693969727,0.840199887752533,-0.4242324233055115,-0.053774457424879074,-0.481612890958786,0.058175019919872284,-0.30270084738731384,0.9920271635055542,-0.4613684415817261,-0.0018560660537332296,0.10965307801961899,-0.5532156229019165,-3.9336295127868652,-0.38193485140800476,-0.004388964734971523,-0.23589570820331573,2.607374429702759,0.020021989941596985,0.0003809073241427541,0.0010931192664429545,0.37610381841659546,1.1923400163650513,0.037254251539707184,0.5809491872787476,-0.8181959390640259,0.3664325773715973,0.030100587755441666,-4.345547676086426,-1.3763229846954346,0.3769203722476959,7.463381290435791,-0.9505261182785034,0.5700695514678955,1741504542.3885672,1741504542273,-4.52828759765625,1.5686131591796875,-2.2236004715869804,-0.8080049438476563,3.01465283203125
1741504542.5002048,0.38329386711120605,-0.018011467693589224,0.0624953261847124,-0.9978827191792576,0.7195029854774475,0.12533895671367645,-1.0991482734680176,-0.9501716494560242,-1.4609589576721191,9.496859550476074,-0.00438690185546875,0.11005592346191406,0.14705882966518402,-1.2463041543960571,0.00476844422519207,-0.919165313243866,0.17681391537189484,1.2493560314178467,0.015449759550392628,0.9493018984794617,0.2500572204589844,-0.6788357496261597,0.012779430486261845,-0.1367589831352234,0.8268482685089111,-0.4192068874835968,-0.05859411135315895,-0.5754558444023132,0.012779430486261845,-0.28248265385627747,1.1434729099273682,-0.49600324034690857,-0.005340802017599344,-0.028560804203152657,-0.3912794589996338,-3.586259365081787,-0.07596411556005478,-0.007779402192682028,-0.036063872277736664,2.8827333450317383,-0.009721171110868454,0.0026904158294200897,0.006182796787470579,0.4964698851108551,1.0346653461456299,0.6847662329673767,1.1475627422332764,-0.6443078517913818,0.14883309602737427,-0.25283533334732056,-4.3702239990234375,-2.335700511932373,1.154934048652649,7.47274923324585,-1.8489806652069092,-0.18554319441318512,1741504542.3885672,1741504542273,-4.52828759765625,1.5686131591796875,-2.2236004715869804,-0.8080049438476563,3.01465283203125
1741504542.5201774,0.35928595066070557,-0.016503026300957135,0.04448758126570642,-0.9988736182500954,0.8751676082611084,0.10005541145801544,-1.1803979873657227,2.5690598487854004,-2.023491382598877,9.407976150512695,0.00362396240234375,0.10471534729003906,0.07686731964349747,-1.2447782754898071,0.00476844422519207,-0.9195467829704285,0.22411687672138214,1.2474485635757446,0.015449759550392628,0.9481574892997742,0.2508201599121094,-0.6506065726280212,0.03299763426184654,-0.1035706102848053,0.813878059387207,-0.42216676473617554,-0.06294725090265274,-0.6620507836341858,-0.030708782374858856,-0.2588311731815338,1.2563897371292114,-0.5333093404769897,-0.0029224934987723827,0.2111346423625946,-0.11627216637134552,-3.3892815113067627,0.11460718512535095,-0.003248874330893159,-0.018360957503318787,3.2091121673583984,-0.1579560786485672,0.007228302303701639,-0.10653457790613174,-0.13037799298763275,1.4466159343719482,1.0470637083053589,1.5953108072280884,-0.7336132526397705,-0.1578625738620758,-0.2852812707424164,-4.031580448150635,-2.08172345161438,1.2047454118728638,5.093677520751953,-1.8259656429290771,0.25531914830207825,1741504542.3885672,1741504542273,-4.52828759765625,1.5686131591796875,-2.2236004715869804,-0.8080049438476563,3.01465283203125
1741504542.5402176,0.3390713930130005,-0.017722002971618356,0.02726328423271399,-0.9994711821475996,0.8398669958114624,-0.031310129910707474,-0.9311827421188354,4.856663703918457,2.1591928005218506,7.616635322570801,-0.00057220458984375,0.09861183166503906,0.016594186425209045,-1.2417265176773071,0.005149920005351305,-0.9195467829704285,0.2748531401157379,1.2466856241226196,0.015449759550392628,0.9470130205154419,0.24013885855674744,-0.6231403350830078,0.056267641484737396,-0.07419699430465698,0.8001449704170227,-0.4260437786579132,-0.07183001190423965,-0.7162203192710876,-0.07000076025724411,-0.22068360447883606,1.3082703351974487,-0.5591942071914673,0.00557718425989151,-0.09378494322299957,-0.1418696641921997,-2.978268623352051,0.19719748198986053,0.009782836772501469,0.026938220486044884,3.386192798614502,-0.010345126502215862,-0.005156522151082754,-0.03464387357234955,-0.4048713743686676,1.3339827060699463,1.082901120185852,1.5636773109436035,-0.6757705211639404,-0.20781585574150085,-0.451564759016037,-2.399923801422119,-1.9328181743621826,2.0590057373046875,2.051687240600586,-1.1688508987426758,0.2764725387096405,1741504542.5855145,1741504542373,-4.47918359375,1.5834505615234375,-1.8016248001422632,-0.7043012084960938,3.003760986328125
1741504542.5602763,0.32968366146087646,-0.020842203351307386,0.009966658026419443,-0.999733098525425,0.8398549556732178,-0.09564204514026642,-0.4057673215866089,1.1135190725326538,-2.0248334407806396,6.437613487243652,0.00019073486328125,0.10090065002441406,-0.029182879254221916,-1.2413450479507446,0.00476844422519207,-0.9210727214813232,0.3271152675151825,1.2459226846694946,0.014686808921396732,0.9477760195732117,0.22259098291397095,-0.5926222801208496,0.07610437273979187,-0.04749370738863945,0.7917525172233582,-0.43409398198127747,-0.08574922382831573,-0.7402533292770386,-0.1031891331076622,-0.17643244564533234,1.2975890636444092,-0.5671661496162415,0.0024754207115620375,-0.003596558701246977,0.014066585339605808,-2.169212818145752,-0.014837875962257385,-0.017269009724259377,-0.11295805126428604,3.415597438812256,-0.07197418808937073,-0.026980936527252197,-0.0005443147965706885,-0.8975390195846558,1.6511298418045044,0.9666507840156555,1.2340164184570312,-0.2675696909427643,-0.433439701795578,-0.5915130376815796,-1.0758966207504272,-1.631218433380127,2.2672007083892822,-0.9233107566833496,-0.21786698698997498,0.007900004275143147,1741504542.5855145,1741504542373,-4.47918359375,1.5834505615234375,-1.8016248001422632,-0.7043012084960938,3.003760986328125
1741504542.5802577,0.326143741607666,-0.021282202202552274,-0.002731275485831058,-0.9997697775006154,0.5780015587806702,-0.049821849912405014,-0.2408401519060135,0.06410662829875946,-5.003222942352295,5.853474140167236,-0.00247955322265625,0.09975624084472656,-0.07610437273979187,-1.2413450479507446,0.005149920005351305,-0.9294651746749878,0.3728923499584198,1.2459226846694946,0.015449759550392628,0.9473945498466492,0.20885786414146423,-0.5663004517555237,0.10013733059167862,-0.022697795182466507,0.7944228053092957,-0.4472830891609192,-0.0879143550992012,-0.7475013136863708,-0.12989242374897003,-0.12874799966812134,1.2190051078796387,-0.5623005032539368,0.00978772435337305,-0.10544215142726898,0.014142663218080997,-2.286465883255005,0.008747059851884842,-0.010139157064259052,-0.5669588446617126,2.955374002456665,0.008197822608053684,0.0826045423746109,-0.021868644282221794,-0.5720654129981995,1.2031916379928589,1.331212043762207,1.278471827507019,0.18689115345478058,-0.7167599201202393,0.03458135947585106,-0.16052797436714172,-1.300774097442627,2.329885482788086,-4.536563873291016,0.2804258167743683,0.3921603858470917,1741504542.5855145,1741504542373,-4.47918359375,1.5834505615234375,-1.8016248001422632,-0.7043012084960938,3.003760986328125
1741504542.6003122,0.31920528411865234,-0.021244773362031934,-0.008292647813905448,-0.9997399119756251,0.25177744030952454,0.026144947856664658,-0.45471328496932983,-1.963539481163025,0.4286716878414154,3.0027923583984375,-0.01239776611328125,0.09670448303222656,-0.10585946589708328,-1.2405821084976196,0.00476844422519207,-0.9489204287528992,0.4201953113079071,1.2539336681365967,0.01583123579621315,0.9393835067749023,0.2145799994468689,-0.5529488325119019,0.11158160120248795,-0.012779430486261845,0.8161669373512268,-0.4624885022640228,-0.08212301880121231,-0.7188906669616699,-0.1489662081003189,-0.09975585341453552,1.055733561515808,-0.5626639127731323,0.0038254447281360626,-0.3008381724357605,-0.054546285420656204,-1.25826096534729,0.05192987993359566,-0.0016224883729591966,-0.914786159992218,3.168476104736328,0.5541660189628601,-0.002673064125701785,-0.6089425683021545,0.6391032338142395,0.5451175570487976,0.4550139605998993,0.2610933184623718,1.2204949855804443,-0.8509580492973328,0.4926322102546692,1.7641372680664062,-0.9449201822280884,1.1158206462860107,-8.8707857131958,-0.17125970125198364,-0.5148078203201294,1741504542.5855145,1741504542373,-4.47918359375,1.5834505615234375,-1.8016248001422632,-0.7043012084960938,3.003760986328125
1741504542.6203086,0.30327320098876953,-0.019973983678822887,-0.010854121735221127,-0.9997415806183891,0.11757206916809082,0.09557877480983734,-0.8320686221122742,38.305782318115234,-15.589387893676758,49.09963607788086,-0.01316070556640625,0.08831119537353516,-0.10814831405878067,-1.2348599433898926,0.004386968910694122,-0.9645609259605408,0.44804301857948303,1.2543151378631592,0.015449759550392628,0.9313725233078003,0.2462424635887146,-0.5586709380149841,0.0875486359000206,-0.03452353551983833,0.8546959757804871,-0.4835762083530426,-0.06387283653020859,-0.6639581918716431,-0.17872129380702972,-0.11501488089561462,0.8657587766647339,-0.5379637479782104,0.05253519490361214,-0.04654579609632492,-0.2512005567550659,0.03709133714437485,0.525709331035614,-0.03519792482256889,-0.7681266069412231,1.5033766031265259,-0.1270354986190796,-0.017722908407449722,-0.4448743462562561,1.872928500175476,-0.3981240689754486,-1.4571259021759033,-1.3094139099121094,2.151045560836792,-1.0380773544311523,0.8721120357513428,2.9467625617980957,-1.8720288276672363,-1.5609376430511475,-7.404660701751709,2.900484323501587,4.974264144897461,1741504542.5855145,1741504542373,-4.47918359375,1.5834505615234375,-1.8016248001422632,-0.7043012084960938,3.003760986328125
1741504542.6403587,0.2801262140274048,-0.019229422620314112,-0.0004539348008213538,-0.9998149945109275,-0.6091024875640869,0.2755340039730072,-1.2528464794158936,8.891971588134766,-10.246673583984375,7.074219226837158,-0.02689361572265625,0.08945560455322266,-0.09327077120542526,-1.2211267948150635,0.004386968910694122,-0.9721904397010803,0.4507133662700653,1.2539336681365967,0.016212711110711098,0.9145876169204712,0.27065691351890564,-0.5476081371307373,0.06694895774126053,-0.09555962681770325,0.88979172706604,-0.5072384476661682,-0.04602649435400963,-0.614366352558136,-0.1646067053079605,-0.16956588625907898,0.89131760597229,-0.45750880241394043,0.1332656592130661,-0.49204498529434204,-0.006980289705097675,1.0125646591186523,0.8074424862861633,0.001332629006356001,-0.32002905011177063,-0.16366949677467346,0.07663455605506897,0.12090210616588593,-0.9588672518730164,0.7795624136924744,0.32246437668800354,-1.9614081382751465,-2.9463703632354736,1.6474941968917847,-1.3766275644302368,1.4162098169326782,1.7706999778747559,0.7633255124092102,-1.7468608617782593,-0.3311959505081177,3.367926597595215,2.324307441711426,1741504542.6886623,1741504542573,-4.35568212890625,1.554824951171875,-1.7897238955642587,-0.5114670715332031,2.975084716796875
1741504542.6603615,0.2657442092895508,-0.02379556946913247,0.011801997491716433,-0.9996471796233136,-0.6463215351104736,-0.2713696360588074,-0.6523914337158203,-18.17266082763672,1.5758309364318848,12.262137413024902,-0.01544952392578125,0.10624122619628906,-0.0558861680328846,-1.2161675691604614,0.005149920005351305,-0.9725719094276428,0.4331654906272888,1.2539336681365967,0.01506828423589468,0.9122987985610962,0.27065691351890564,-0.5483710765838623,0.028038453310728073,-0.14591439068317413,0.9210727214813232,-0.5351694226264954,0.006661146879196167,-0.5975814461708069,-0.15850308537483215,-0.14171816408634186,0.8398184180259705,-0.42340150475502014,0.12089532613754272,0.2888980805873871,0.6089019179344177,1.7991783618927002,0.14310193061828613,-0.023479705676436424,-0.01172542478889227,-1.1813628673553467,0.03447883948683739,-0.09133891016244888,-0.06616620719432831,-0.2938912808895111,0.3924500346183777,-1.5722323656082153,-2.65273118019104,1.568264365196228,-1.330224633216858,2.5094809532165527,1.4252681732177734,0.7293112277984619,1.3932569026947021,-2.115006923675537,1.8997851610183716,-1.133714199066162,1741504542.6886623,1741504542573,-4.35568212890625,1.554824951171875,-1.7897238955642587,-0.5114670715332031,2.975084716796875
1741504542.6804214,0.25390195846557617,-0.01537704770517099,0.01819105680868224,-0.9997162756782828,-0.24413621425628662,0.4696127772331238,-0.4022432267665863,7.9867143630981445,-7.885317325592041,4.652801036834717,-0.02346038818359375,0.09136295318603516,-0.013160906732082367,-1.228756308555603,0.005531395319849253,-0.9699015617370605,0.4076066315174103,1.2478300333023071,0.014686808921396732,0.9103913903236389,0.2161058932542801,-0.536163866519928,-0.001716639962978661,-0.15812161564826965,0.9454871416091919,-0.5519854426383972,-0.006741720717400312,-0.5643930435180664,-0.09937438368797302,-0.12684062123298645,0.8306630253791809,-0.3940848112106323,0.03849289193749428,-0.22345267236232758,-0.28974393010139465,2.168273448944092,-1.147094964981079,0.06397498399019241,0.17683663964271545,-1.7557103633880615,-0.4761897027492523,-0.010835817083716393,-0.04362018406391144,-3.047645092010498,0.5752530694007874,-1.4598283767700195,-0.08373565971851349,1.0182571411132812,-0.7174884080886841,-1.3750643730163574,0.964542031288147,2.8239917755126953,0.9424523115158081,-0.547307014465332,1.4390010833740234,-3.8370327949523926,1741504542.6886623,1741504542573,-4.35568212890625,1.554824951171875,-1.7897238955642587,-0.5114670715332031,2.975084716796875
1741504542.7005117,0.2623809576034546,-0.01263863191935653,0.02138120512318086,-0.9996915069413601,-0.11882296949625015,0.13915672898292542,0.510222315788269,1.6871225833892822,3.5630197525024414,7.759833335876465,-0.02269744873046875,0.09174442291259766,0.034142062067985535,-1.2493560314178467,0.004386968910694122,-0.9649423956871033,0.3881513774394989,1.2413450479507446,0.014686808921396732,0.9107728600502014,0.13179980218410492,-0.5224307775497437,-0.027656977996230125,-0.1325627565383911,0.9588387608528137,-0.5541569590568542,-0.012241262011229992,-0.569733738899231,-0.06885633617639542,-0.07763027399778366,0.8230335116386414,-0.38376089930534363,0.02144845761358738,-0.01936640590429306,-0.00622699037194252,2.4372217655181885,-1.2555819749832153,-0.04823274537920952,0.2355254739522934,-1.3583722114562988,-0.44123145937919617,0.011753782629966736,0.0837739035487175,-4.1889262199401855,0.620107889175415,-1.2001649141311646,1.650998592376709,0.5972092151641846,-0.047187112271785736,0.24025091528892517,-0.013623655773699284,1.2976462841033936,2.497360944747925,-0.1566637009382248,0.3271814286708832,-0.1732596755027771,1741504542.6886623,1741504542573,-4.35568212890625,1.554824951171875,-1.7897238955642587,-0.5114670715332031,2.975084716796875
1741504542.7204022,0.277266263961792,-0.008701189517916768,0.02051221694100328,-0.9997517383116363,0.07788455486297607,0.1504930853843689,0.7687445282936096,0.7873985767364502,0.944210946559906,9.72547435760498,-0.02231597900390625,0.09212589263916016,0.08907453715801239,-1.2627075910568237,0.005149920005351305,-0.961509108543396,0.3526741564273834,1.2333340644836426,0.014686808921396732,0.9122987985610962,0.05741206929087639,-0.5281528830528259,-0.05092698708176613,-0.09021896868944168,0.9897382855415344,-0.5470242500305176,0.009871833957731724,-0.5663004517555237,-0.049782559275627136,-0.05664911866188049,0.8318074345588684,-0.39110618829727173,0.02853703685104847,-0.013432211242616177,0.008515553548932076,2.782813549041748,-0.8917379379272461,0.010881033726036549,0.1097077801823616,-2.6193923950195312,-0.5545815229415894,0.024506205692887306,0.05697057023644447,-3.284950017929077,-0.6153007745742798,-1.1344265937805176,1.9653316736221313,1.955086588859558,0.39886778593063354,0.7345368266105652,0.17449317872524261,0.8281341791152954,0.8496367931365967,0.4185071885585785,-0.3989906907081604,0.14170977473258972,1741504542.6886623,1741504542573,-4.35568212890625,1.554824951171875,-1.7897238955642587,-0.5114670715332031,2.975084716796875
1741504542.740471,0.2916165590286255,-0.00682633656325727,0.0238401405247777,-0.9996924771292839,-0.2545565366744995,0.11772937327623367,0.674373209476471,-1.312200903892517,0.40736567974090576,10.39521312713623,-0.01506805419921875,0.10585975646972656,0.15735866129398346,-1.2711000442504883,0.00476844422519207,-0.9637979865074158,0.30041199922561646,1.226467490196228,0.014686808921396732,0.9111543297767639,0.02841992862522602,-0.5819409489631653,-0.06504157930612564,-0.06580453366041183,1.0641260147094727,-0.5363628268241882,-0.009171225130558014,-0.5571450591087341,-0.03643091395497322,-0.05397878959774971,0.839436948299408,-0.40053093433380127,0.028728438541293144,0.2140146940946579,0.4009341299533844,3.416717529296875,-0.3926013708114624,-0.018858924508094788,-0.11379583179950714,-3.7165677547454834,-0.4211854040622711,0.004947890527546406,-0.046509988605976105,-1.0822240114212036,-3.07718563079834,-0.8616763353347778,1.0284191370010376,4.022624492645264,0.42892658710479736,-0.8591369986534119,0.5863285660743713,0.7492320537567139,0.07643924653530121,0.3863718807697296,-0.5109273195266724,0.09707512706518173,1741504542.6886623,1741504542573,-4.35568212890625,1.554824951171875,-1.7897238955642587,-0.5114670715332031,2.975084716796875
1741504542.7604449,0.301658034324646,-0.003441529539724384,0.036956770633832375,-0.9993109390869017,-0.7122270464897156,0.19282135367393494,0.5168246626853943,-0.5084170699119568,-0.00139244447927922,8.651324272155762,-0.01583099365234375,0.10547828674316406,0.23403525352478027,-1.2680482864379883,0.00476844422519207,-0.9637979865074158,0.2309834510087967,1.2218897342681885,0.014686808921396732,0.9122987985610962,0.03032730519771576,-0.6750209927558899,-0.0879301130771637,-0.0394827201962471,1.1758984327316284,-0.533541738986969,-0.000464088428998366,-0.543411910533905,-0.016212711110711098,-0.06542305648326874,0.8432517051696777,-0.41579774022102356,0.025400310754776,0.0007751527591608465,0.042355187237262726,3.801669120788574,0.19804756343364716,0.0014872071333229542,0.0756186917424202,-4.690638542175293,-0.1848582625389099,0.0019873380661010742,0.06542976945638657,0.23273099958896637,-4.831370830535889,-1.2231495380401611,1.5038893222808838,5.714229106903076,0.11620047688484192,0.6252540349960327,0.6628393530845642,1.031787633895874,-0.7384704351425171,0.19484169781208038,-0.8616031408309937,-0.14781537652015686,1741504542.6886623,1741504542573,-4.35568212890625,1.554824951171875,-1.7897238955642587,-0.5114670715332031,2.975084716796875
1741504542.780467,0.313962459564209,0.0032758693758809334,0.056766469923116805,-0.9983821095013171,-1.0000249147415161,0.31769341230392456,0.6440494060516357,1.0945234298706055,0.01105705089867115,10.082977294921875,-0.01087188720703125,0.10433387756347656,0.3110933005809784,-1.2642335891723633,0.00476844422519207,-0.961509108543396,0.16079194843769073,1.227230429649353,0.014686808921396732,0.9122987985610962,0.034142062067985535,-0.7810711860656738,-0.09250781685113907,-0.01926451548933983,1.2945373058319092,-0.5270668268203735,-0.0009270915179513395,-0.5300602912902832,0.00476844422519207,-0.08335240930318832,0.8451590538024902,-0.43957993388175964,0.015901673585176468,0.11633146554231644,-0.014342552982270718,3.7892725467681885,0.2060970813035965,5.037844312028028e-05,0.10421492159366608,-4.682400703430176,0.28231382369995117,0.012073557823896408,0.004009888973087072,-0.010195925831794739,-5.315557479858398,-0.12392722815275192,1.0133304595947266,5.8035783767700195,0.41020533442497253,-0.26755771040916443,0.5784096717834473,1.1270160675048828,-0.9153792262077332,0.08505407720804214,-1.2111239433288574,-0.37836936116218567,1741504542.6886623,1741504542573,-4.35568212890625,1.554824951171875,-1.7897238955642587,-0.5114670715332031,2.975084716796875
1741504542.8005033,0.3298417329788208,0.011539850358941907,0.07986308301826626,-0.9967390429919512,-1.171915054321289,0.33669373393058777,0.7886893153190613,1.0543104410171509,0.650662362575531,10.122721672058105,-0.00705718994140625,0.10433387756347656,0.3774700462818146,-1.2600373029708862,0.00476844422519207,-0.9611276388168335,0.09250781685113907,1.230282187461853,0.014686808921396732,0.9130617380142212,0.024223696440458298,-0.8749141693115234,-0.07839322835206985,-0.007057297509163618,1.3792248964309692,-0.5126524567604065,-0.0131756030023098,-0.5197604298591614,0.034142062067985535,-0.086785688996315,0.84592205286026,-0.46569040417671204,0.014412925578653812,0.1102031022310257,0.002601443324238062,3.417079448699951,0.32750433683395386,-0.01090229768306017,0.020245961844921112,-4.530436992645264,0.2113294005393982,0.0016941506182774901,0.03608647361397743,-0.4984338879585266,-4.358705997467041,0.8481062054634094,0.5134591460227966,3.7242276668548584,0.7720776796340942,-0.4482516646385193,0.5033531785011292,1.5714137554168701,0.09036646783351898,0.02057436853647232,-1.2817072868347168,-0.153992161154747,1741504542.6886623,1741504542573,-4.35568212890625,1.554824951171875,-1.7897238955642587,-0.5114670715332031,2.975084716796875
1741504542.8205523,0.3409862518310547,0.01573171017064816,0.10334644612984277,-0.994521002979544,-1.182397484779358,0.1228034570813179,0.4045785963535309,-1.3224385976791382,-0.4636438190937042,9.719983100891113,0.00057220458984375,0.10433387756347656,0.42553597688674927,-1.2569855451583862,0.00476844422519207,-0.9603646993637085,0.03452353551983833,1.233715534210205,0.01506828423589468,0.9122987985610962,-0.00667582219466567,-0.9332799315452576,-0.05283436179161072,-0.013160906732082367,1.409742832183838,-0.4902173578739166,-0.0031431198585778475,-0.5094605684280396,0.07038223743438721,-0.07534141838550568,0.8447775840759277,-0.49100178480148315,0.010634227655827999,0.22343608736991882,0.007728157099336386,2.266141414642334,0.09653698652982712,-0.01880660653114319,0.0676821917295456,-3.7149837017059326,0.2338028997182846,0.05365519970655441,-0.0775190219283104,-1.7151169776916504,-2.604377508163452,1.3768799304962158,-0.4736678898334503,1.0324684381484985,1.1749204397201538,0.5484233498573303,0.6548094749450684,1.7776485681533813,0.6929969191551208,-0.052332803606987,-1.2646570205688477,-0.30441606044769287,1741504542.6886623,1741504542573,-4.35568212890625,1.554824951171875,-1.7897238955642587,-0.5114670715332031,2.975084716796875
1741504542.840562,0.34549176692962646,0.019457524161925168,0.12171679400364184,-0.9923741365084859,-0.9062383770942688,0.15383143723011017,0.10874057561159134,0.1218809187412262,-1.5248032808303833,9.516514778137207,0.00972747802734375,0.11043739318847656,0.4671168029308319,-1.2596558332443237,0.005149920005351305,-0.9508277773857117,-0.00667582219466567,1.236767292022705,0.014686808921396732,0.9142061471939087,-0.03490501269698143,-0.9546425342559814,-0.01506828423589468,-0.04177157208323479,1.3803693056106567,-0.46137094497680664,-0.005489728879183531,-0.4858091175556183,0.1024261862039566,-0.06504157930612564,0.8390554785728455,-0.516585111618042,0.006470921449363232,0.286575049161911,0.19286540150642395,2.181581735610962,-0.31375131011009216,-0.024667685851454735,0.579227864742279,-2.6042702198028564,0.14596068859100342,-0.06293327361345291,0.11257598549127579,-1.3173531293869019,-0.7881782650947571,1.8407273292541504,-1.468840479850769,-1.9937721490859985,1.4429253339767456,-0.25372204184532166,1.0875099897384644,1.570061445236206,0.48750069737434387,-0.3453117311000824,-1.27187180519104,-0.13798074424266815,1741504542.6886623,1741504542573,-4.35568212890625,1.554824951171875,-1.7897238955642587,-0.5114670715332031,2.975084716796875
1741504542.8606014,0.34861302375793457,0.02409652571638996,0.13683586536667985,-0.9903006126413086,-0.732779324054718,0.24024954438209534,0.17572124302387238,5.039041996002197,-1.1267987489700317,10.619377136230469,0.00896453857421875,0.10471534729003906,0.5056458115577698,-1.2600373029708862,0.005149920005351305,-0.9332799315452576,-0.042153049260377884,1.2405821084976196,0.01430533267557621,0.918402373790741,-0.06313420087099075,-0.9458686113357544,0.029564354568719864,-0.07839322835206985,1.2872892618179321,-0.4384698271751404,-0.000695683469530195,-0.45872434973716736,0.12607766687870026,-0.06694895774126053,0.8299000263214111,-0.540145993232727,0.0016920951893553138,-0.03882744535803795,-0.14279980957508087,1.5785558223724365,0.1402069479227066,-0.005402131471782923,0.8418742418289185,-2.431771755218506,0.22569876909255981,0.0038457862101495266,0.36983370780944824,-1.4099998474121094,0.5185314416885376,2.3159964084625244,-1.6637848615646362,-5.1723222732543945,1.0348178148269653,0.3983399271965027,1.4028221368789673,1.0327461957931519,-0.16923031210899353,-0.4109284579753876,-1.143706202507019,-0.38822048902511597,1741504542.9007528,1741504542773,-4.2303427734375,1.5966411132812501,-1.7540292377548274,-0.3430703430175781,2.935830810546875
1741504542.8805983,0.3601360321044922,0.029437051449129177,0.15082319257074753,-0.988122373284174,-0.7439724206924438,0.17297668755054474,0.5657008290290833,2.8605542182922363,-0.6458701491355896,6.515903472900391,0.01049041748046875,0.10280799865722656,0.5102235674858093,-1.2546966075897217,0.005149920005351305,-0.9199283123016357,-0.06504157930612564,1.23600435256958,0.01430533267557621,0.9313725233078003,-0.09136339277029037,-0.9119172692298889,0.07610437273979187,-0.09098191559314728,1.125925064086914,-0.43391522765159607,0.008380013518035412,-0.42744335532188416,0.12798504531383514,-0.08602273464202881,0.8234149813652039,-0.5636157989501953,-0.00579523341730237,0.035221852362155914,-0.06242666393518448,0.040591027587652206,0.2711869776248932,-0.004676480311900377,0.6076106429100037,-1.24257493019104,-0.3751682639122009,0.0010319295106455684,1.0705152750015259,-1.2998708486557007,2.0524652004241943,2.3160340785980225,-0.2923685610294342,-8.739524841308594,0.047254472970962524,0.29317179322242737,1.5824875831604004,-0.045739736407995224,-1.0869059562683105,-0.25173595547676086,-1.1885650157928467,-0.2925323247909546,1741504542.9007528,1741504542773,-4.2303427734375,1.5966411132812501,-1.7540292377548274,-0.3430703430175781,2.935830810546875
1741504542.9005857,0.37716150283813477,0.032825428319206644,0.1642674209646901,-0.9858695175657222,-0.7523795962333679,0.018968114629387856,0.7655350565910339,14.134408950805664,6.696723461151123,10.626409530639648,0.01125335693359375,0.10433387756347656,0.4983977973461151,-1.2524077892303467,0.004386968910694122,-0.9100099205970764,-0.06466010212898254,1.230282187461853,0.013923857361078262,0.9454871416091919,-0.11196307092905045,-0.8428702354431152,0.10929274559020996,-0.06733043491840363,1.0168230533599854,-0.41244348883628845,-0.009841101244091988,-0.3881513774394989,0.134470134973526,-0.11654078215360641,0.8180742859840393,-0.5894619226455688,-0.0026701779570430517,0.04873473569750786,0.01036161370575428,-0.7379801273345947,0.13397161662578583,-0.07813496142625809,0.452907919883728,0.19243383407592773,-0.3540995121002197,0.011149285361170769,0.8433298468589783,-1.167150855064392,3.776735544204712,1.3097666501998901,1.674670934677124,-2.3290092945098877,2.1037046909332275,-1.3233869075775146,2.0437355041503906,0.28245899081230164,-1.4324016571044922,-0.2808522880077362,-1.3083994388580322,0.3951634168624878,1741504542.9007528,1741504542773,-4.2303427734375,1.5966411132812501,-1.7540292377548274,-0.3430703430175781,2.935830810546875
1741504542.9207149,0.3987770080566406,0.031314647082675964,0.16295437463371581,-0.986136534495007,0.0821700319647789,-0.2777751088142395,1.1582826375961304,1.5913753509521484,10.028494834899902,3.2540478706359863,0.01773834228515625,0.11768531799316406,0.4682612419128418,-1.2505004405975342,0.005531395319849253,-0.9000915288925171,-0.04749370738863945,1.23295259475708,0.01430533267557621,0.954261064529419,-0.10547798871994019,-0.8093003630638123,0.1188296303153038,-0.056267641484737396,1.036659836769104,-0.36321908235549927,-0.017063941806554794,-0.3377965986728668,0.135233074426651,-0.11692225188016891,0.8093003630638123,-0.6067955493927002,0.00339277321472764,0.23860473930835724,0.2976478934288025,-1.8008993864059448,0.07093685120344162,-0.010216757655143738,0.32219794392585754,1.5391724109649658,0.12349618971347809,0.059331733733415604,0.5651400089263916,0.5058767795562744,1.2830015420913696,0.3654231131076813,-0.3499041497707367,-0.3943474292755127,2.079097032546997,0.3598007559776306,2.100864887237549,0.648109495639801,0.255342960357666,-0.32981425523757935,-0.7884187698364258,0.08841688185930252,1741504542.9007528,1741504542773,-4.2303427734375,1.5966411132812501,-1.7540292377548274,-0.3430703430175781,2.935830810546875
1741504542.940666,0.40941572189331055,0.02362951479283612,0.15766401850418194,-0.9872100603720406,0.2746708393096924,-0.303539514541626,0.6244606375694275,-7.615118026733398,-0.6049228310585022,12.199827194213867,0.00171661376953125,0.11501502990722656,0.4064621925354004,-1.2539336681365967,0.00476844422519207,-0.9058136940002441,-0.018120087683200836,1.23295259475708,0.014686808921396732,0.9576943516731262,-0.09975585341453552,-0.7536049485206604,0.11081864684820175,-0.07839322835206985,1.0023269653320312,-0.34108638763427734,-0.010188152082264423,-0.3244449496269226,0.14171816408634186,-0.08487831056118011,0.841725766658783,-0.599056601524353,0.007873302325606346,-0.5702381730079651,-0.01628124713897705,-3.2503490447998047,-0.2711585462093353,0.030788950622081757,-0.33249717950820923,1.8188607692718506,-0.002409433014690876,0.0005643069744110107,0.27568820118904114,0.3518247604370117,3.3816328048706055,-0.8034459948539734,-0.7787561416625977,-1.2857084274291992,0.9320083856582642,0.3105366826057434,0.4689962863922119,0.35121482610702515,1.731289267539978,2.29815673828125,0.6548222899436951,0.38371601700782776,1741504542.9007528,1741504542773,-4.2303427734375,1.5966411132812501,-1.7540292377548274,-0.3430703430175781,2.935830810546875
1741504542.9607322,0.4119298458099365,0.02099033318360557,0.1499814639928164,-0.9884659662180649,0.4028843641281128,-0.3274190425872803,-0.00580717483535409,-11.894304275512695,4.716132640838623,7.079756736755371,0.01354217529296875,0.11539649963378906,0.343900203704834,-1.2546966075897217,0.00476844422519207,-0.9065766334533691,0.008201723918318748,1.2348599433898926,0.014686808921396732,0.9626535177230835,-0.0864042118191719,-0.728427529335022,0.07953765243291855,-0.0875486359000206,0.995841920375824,-0.3462543487548828,0.004506435710936785,-0.36640727519989014,0.14705882966518402,-0.04901960864663124,0.9355688095092773,-0.5697335600852966,0.012162452563643456,0.290249764919281,0.10063677281141281,-3.2614877223968506,-0.0371408648788929,-0.009749994613230228,0.025241050869226456,1.773123025894165,0.20257042348384857,0.02913476899266243,0.17993181943893433,0.7336012125015259,0.5868165493011475,-0.9792623519897461,-0.5814551711082458,-0.15490280091762543,-0.4748368561267853,0.6913623213768005,-2.6773970127105713,0.16524598002433777,1.6034430265426636,4.756512641906738,1.5904511213302612,-0.06986900418996811,1741504543.0029867,1741504542873,-4.1749619140625,1.6455705566406251,2.7609344146187262,-0.250390625,2.93458203125
1741504542.980696,0.39943957328796387,0.021799519369680026,0.14171654355918814,-0.9896672179257469,0.3515482544898987,0.2718024253845215,-0.658260703086853,-3.243321657180786,1.0495997667312622,7.06226110458374,0.00972747802734375,0.09327030181884766,0.2759975492954254,-1.2539336681365967,0.00476844422519207,-0.9084840416908264,0.035667963325977325,1.2474485635757446,0.015449759550392628,0.962272047996521,-0.06160829961299896,-0.6979095339775085,0.07381551712751389,-0.08449683338403702,0.997367799282074,-0.37459802627563477,0.01099519431591034,-0.44537270069122314,0.15926603972911835,-0.04253452271223068,1.0591669082641602,-0.5349257588386536,0.008816647343337536,-0.09767806529998779,-0.6195228099822998,-3.5463380813598633,0.10724900662899017,-0.01088731735944748,-0.1239333525300026,1.8411483764648438,0.8562794923782349,0.0006909813382662833,0.004534069448709488,1.226681113243103,1.7325695753097534,-0.3575184643268585,0.3368544280529022,-0.19267967343330383,-1.5155277252197266,0.3527696132659912,-4.08699893951416,0.6063446998596191,0.0911274179816246,6.517751693725586,1.7441047430038452,-0.19800949096679688,1741504543.0029867,1741504542873,-4.1749619140625,1.6455705566406251,2.7609344146187262,-0.250390625,2.93458203125
1741504543.0006938,0.377124547958374,0.02209558067625745,0.1362217094020836,-0.9904319417315626,0.3462117612361908,0.01211714930832386,-1.0927159786224365,-4.378480911254883,-0.8019927740097046,11.67455005645752,-0.00171661376953125,0.08831119537353516,0.20275425910949707,-1.2482116222381592,0.005149920005351305,-0.9092469811439514,0.07343403995037079,1.2615631818771362,0.015449759550392628,0.9588387608528137,-0.04100862145423889,-0.6860837936401367,0.071908138692379,-0.0707637146115303,0.9874494671821594,-0.4027276039123535,0.013136842288076878,-0.5479896068572998,0.16117341816425323,-0.04787518084049225,1.177805781364441,-0.5094120502471924,-0.0019142631208524108,-0.37324443459510803,-0.14191462099552155,-3.5191709995269775,0.3886987566947937,0.005106295924633741,-0.029911547899246216,2.7474524974823,0.8024717569351196,-0.003303518518805504,-0.3032696843147278,0.9387839436531067,0.5781682729721069,0.011445187963545322,0.6132928729057312,-0.3600037693977356,-1.3621405363082886,0.29797425866127014,-5.236001014709473,0.10445893555879593,-0.18192008137702942,5.4784135818481445,1.1956241130828857,-0.36755821108818054,1741504543.0029867,1741504542873,-4.1749619140625,1.6455705566406251,2.7609344146187262,-0.250390625,2.93458203125
1741504543.02074,0.3581979274749756,0.02681341301280557,0.1274807096012121,-0.9914785472021955,0.430022269487381,0.4404575824737549,-0.8713914752006531,2.2235569953918457,-3.907208204269409,8.452409744262695,-0.00209808349609375,0.07648563385009766,0.12951095402240753,-1.2405821084976196,0.004386968910694122,-0.9142061471939087,0.12722209095954895,1.2672853469848633,0.014686808921396732,0.9580758213996887,-0.034142062067985535,-0.6506065726280212,0.07763027399778366,-0.05703059583902359,0.9813458323478699,-0.4285123646259308,0.01269368827342987,-0.6364919543266296,0.16117341816425323,-0.0551232174038887,1.2502861022949219,-0.49511635303497314,0.003527968656271696,-0.03909643739461899,-0.3436272442340851,-3.768575668334961,0.5151820182800293,-0.0008241477189585567,-0.33871132135391235,3.6722092628479004,0.3428787291049957,-0.08155998587608337,-0.02138385735452175,0.14021141827106476,1.975087285041809,0.1765429973602295,0.8076269626617432,-0.5499953031539917,-1.3888306617736816,-0.20249319076538086,-4.338092803955078,-0.05080779269337654,-0.3961629867553711,3.3019614219665527,0.6329634785652161,0.39311036467552185,1741504543.0029867,1741504542873,-4.1749619140625,1.6455705566406251,2.7609344146187262,-0.250390625,2.93458203125
1741504543.0407574,0.3459240198135376,0.028941590433706213,0.12205972596153497,-0.9921007043850752,0.30354341864585876,0.07495249807834625,-0.5431175231933594,-2.512094497680664,-1.254190444946289,12.163334846496582,-0.01125335693359375,0.07495975494384766,0.05970092490315437,-1.233715534210205,0.005149920005351305,-0.9203097820281982,0.19207294285297394,1.2684297561645508,0.015449759550392628,0.9565499424934387,-0.04787518084049225,-0.6181811094284058,0.08182650804519653,-0.03833829239010811,0.960746169090271,-0.4546818733215332,0.00978732667863369,-0.7169833183288574,0.15812161564826965,-0.054741740226745605,1.2708858251571655,-0.48491576313972473,0.002815743675455451,-0.2750862240791321,-0.08070510625839233,-3.281240701675415,0.41743385791778564,0.011854350566864014,-0.27305537462234497,4.453400611877441,0.06497011333703995,0.05524037405848503,-0.10209700465202332,-0.7438323497772217,1.6200165748596191,0.31261298060417175,1.003764033317566,-0.9557008743286133,-1.2741351127624512,-0.07399063557386398,-4.179192066192627,-0.20446453988552094,0.11852201819419861,0.6075332164764404,0.5561659932136536,-0.03392742946743965,1741504543.0029867,1741504542873,-4.1749619140625,1.6455705566406251,2.7609344146187262,-0.250390625,2.93458203125
1741504543.0607724,0.34334850311279297,0.032749052524570305,0.11211790794254936,-0.9931551108851674,0.517518162727356,0.2503014802932739,-0.0997726172208786,2.7108495235443115,-3.03348970413208,4.623130798339844,-0.02079010009765625,0.07152652740478516,-0.001716639962978661,-1.2321895360946655,0.00476844422519207,-0.9252689480781555,0.264934778213501,1.2684297561645508,0.014686808921396732,0.9569314122200012,-0.07915617525577545,-0.5693522691726685,0.08907453715801239,-0.015449759550392628,0.9466315507888794,-0.48095542192459106,0.00736352289095521,-0.7848859429359436,0.15506981313228607,-0.0555046908557415,1.256008267402649,-0.4696637690067291,0.002269599586725235,-0.3125264346599579,-0.10941245406866074,-2.783263683319092,0.008281189948320389,-0.014816449023783207,-0.3058962821960449,4.886899948120117,-0.024586720392107964,-0.0665908083319664,0.00023084922577254474,-1.6940127611160278,2.655717372894287,0.30059418082237244,1.178093433380127,-0.8417547345161438,-1.374118685722351,-0.16365216672420502,-3.292666435241699,-0.1704133003950119,-0.06776595860719681,-0.8631344437599182,0.866024374961853,0.08460545539855957,1741504543.0955493,1741504542973,-4.1061640625,1.665959716796875,3.1384817059265373,-0.17186566162109376,2.91931982421875
1741504543.0807865,0.34273290634155273,0.03657897557111426,0.10203564021412932,-0.9941079954774836,0.508754312992096,0.13062570989131927,-0.08042707294225693,2.1482009887695312,-1.9169023036956787,9.448308944702148,-0.02307891845703125,0.06580448150634766,-0.061226826161146164,-1.231808066368103,0.00476844422519207,-0.9359502792358398,0.33474478125572205,1.2665224075317383,0.01506828423589468,0.9557870030403137,-0.10738536715507507,-0.5304417610168457,0.09098191559314728,0.01430533267557621,0.9229800701141357,-0.5100030303001404,0.005337938666343689,-0.8436331748962402,0.14057374000549316,-0.056267641484737396,1.2293049097061157,-0.4423401355743408,0.00686593959107995,-0.1037706658244133,-0.1397915780544281,-2.847032308578491,0.06087525188922882,-0.038874197751283646,-0.5345562696456909,4.552058696746826,-0.20913615822792053,0.0674053281545639,-0.06765377521514893,-1.2194639444351196,1.6527225971221924,0.09019491076469421,1.556451439857483,-1.1386754512786865,-1.3773841857910156,0.01037127710878849,-2.8192691802978516,-0.8010412454605103,-0.08261730521917343,-1.3787884712219238,1.4595756530761719,0.22802627086639404,1741504543.0955493,1741504542973,-4.1061640625,1.665959716796875,3.1384817059265373,-0.17186566162109376,2.91931982421875
1741504543.100846,0.33849263191223145,0.03869561485826582,0.09044536863964366,-0.9951493780746585,0.6075010895729065,0.20914745330810547,-0.19368751347064972,7.625109672546387,-1.1285037994384766,4.149402618408203,-0.03070831298828125,0.060463905334472656,-0.09861142933368683,-1.228756308555603,0.004386968910694122,-0.9489204287528992,0.3923476040363312,1.2653779983520508,0.01506828423589468,0.9546425342559814,-0.11615930497646332,-0.49229419231414795,0.09136339277029037,0.029564354568719864,0.9081025123596191,-0.5367931723594666,0.005791176576167345,-0.8855955004692078,0.11730372905731201,-0.06923781335353851,1.1892499923706055,-0.40453869104385376,0.006273931823670864,-0.20585647225379944,-0.13195087015628815,-1.7478238344192505,0.209481343626976,-0.023359134793281555,-0.6897478103637695,3.664583206176758,-0.012388856150209904,-0.02091798558831215,-0.09128614515066147,-0.19097207486629486,2.229404926300049,-0.03287921100854874,0.6264313459396362,-0.6727119088172913,-1.3311859369277954,-0.024261150509119034,-2.011855125427246,-1.303459644317627,-0.6007304191589355,-2.240020990371704,1.9364917278289795,-0.0713990181684494,1741504543.0955493,1741504542973,-4.1061640625,1.665959716796875,3.1384817059265373,-0.17186566162109376,2.91931982421875
1741504543.1208665,0.3320581912994385,0.041280353159021975,0.07997992480544996,-0.9959413356574678,0.48088565468788147,0.0955330953001976,-0.3414316773414612,-2.101375102996826,-1.1703689098358154,12.962750434875488,-0.034523963928222656,0.056649208068847656,-0.11463340371847153,-1.2268489599227905,0.00476844422519207,-0.9611276388168335,0.44193941354751587,1.2653779983520508,0.01583123579621315,0.9447242021560669,-0.1031891331076622,-0.45948728919029236,0.08525978773832321,0.03337911143898964,0.8909361362457275,-0.5645703077316284,4.545788760879077e-05,-0.9027618765830994,0.0864042118191719,-0.07648584991693497,1.1343175172805786,-0.36502793431282043,0.002355030970647931,-0.12998920679092407,-0.049012940376996994,-0.6517174243927002,0.07895416766405106,-0.022137358784675598,-0.5315104126930237,3.458332061767578,0.02864695154130459,0.05939211696386337,-0.8039238452911377,0.7776204347610474,1.4595667123794556,-0.4080928564071655,0.16569845378398895,-0.783087432384491,-1.3678889274597168,-0.33257952332496643,-0.5643856525421143,-1.488539457321167,-0.2622598707675934,-2.902036428451538,1.948519229888916,-0.23927834630012512,1741504543.0955493,1741504542973,-4.1061640625,1.665959716796875,3.1384817059265373,-0.17186566162109376,2.91931982421875
1741504543.140839,0.32460784912109375,0.04217934989868691,0.07383172118383234,-0.9963783314530466,0.3174281120300293,0.06334853172302246,-0.3735373616218567,3.6964306831359863,-3.694887161254883,5.252485275268555,-0.038720130920410156,0.050164222717285156,-0.11196307092905045,-1.226467490196228,0.00476844422519207,-0.968757152557373,0.4800869822502136,1.2665224075317383,0.015449759550392628,0.9309910535812378,-0.0722896158695221,-0.41676202416419983,0.07610437273979187,0.026512550190091133,0.882543683052063,-0.5930500626564026,-0.0015650582499802113,-0.8974212408065796,0.050164032727479935,-0.07953765243291855,1.043907880783081,-0.338458776473999,-0.0018766470020636916,-0.13625399768352509,-0.16960547864437103,0.256900429725647,0.04743220657110214,-0.005082184914499521,-0.3292276859283447,2.184661626815796,0.006965615786612034,0.027807138860225677,-0.8455394506454468,1.5863393545150757,2.0374703407287598,-0.422302782535553,-0.520018458366394,-0.578308641910553,-1.4976825714111328,0.030731985345482826,0.6234982013702393,-1.88962984085083,-0.07932404428720474,-4.704263687133789,1.1409677267074585,-0.16323499381542206,1741504543.0955493,1741504542973,-4.1061640625,1.665959716796875,3.1384817059265373,-0.17186566162109376,2.91931982421875
1741504543.1608756,0.31803393363952637,0.0378786286153541,0.06878632131349417,-0.9969120580544589,0.24329838156700134,-0.23428359627723694,-0.3283318281173706,-0.05482287332415581,1.9153324365615845,5.060719966888428,-0.041390419006347656,0.050545692443847656,-0.08907453715801239,-1.224560022354126,0.00476844422519207,-0.967994213104248,0.4980163276195526,1.2646150588989258,0.01506828423589468,0.9180209040641785,-0.042153049260377884,-0.3713664412498474,0.0558861680328846,0.01888304017484188,0.8684290647506714,-0.6214754581451416,0.0025200997479259968,-0.8558403849601746,0.016212711110711098,-0.08907453715801239,0.926413357257843,-0.3397831916809082,-0.005656846798956394,-0.08146888762712479,-0.011023790575563908,1.2493642568588257,0.1566893309354782,-0.009757821448147297,0.06206517294049263,1.0233031511306763,-0.12159787118434906,-0.023368515074253082,-0.7845766544342041,1.496315598487854,2.353970766067505,-1.2950743436813354,-0.372170627117157,-0.6549820303916931,-1.3875623941421509,0.3567105531692505,2.2936320304870605,-1.644950270652771,-0.626662015914917,-6.066324234008789,-0.31868964433670044,-0.1827254295349121,1741504543.1997879,1741504543073,-4.01614794921875,1.6729285888671874,-2.130554304159988,-0.09564012908935547,2.905158935546875
1741504543.1808925,0.3125876188278198,0.03073434007792604,0.060717858418749646,-0.9976816837092957,0.48318716883659363,-0.3349546492099762,-0.23669907450675964,-18.748798370361328,0.33244431018829346,9.960991859436035,-0.041008949279785156,0.057030677795410156,-0.051689937710762024,-1.219219446182251,0.00476844422519207,-0.9645609259605408,0.4980163276195526,1.2596558332443237,0.01506828423589468,0.9103913903236389,-0.02079041674733162,-0.32101166248321533,0.015449759550392628,0.023079270496964455,0.8642328381538391,-0.6253728866577148,-0.004351483192294836,-0.7963302135467529,-0.013923857361078262,-0.10433356463909149,0.7978560924530029,-0.3618486225605011,-0.00386584154330194,0.024594951421022415,0.18018434941768646,1.9454619884490967,0.3518272340297699,-0.007705459836870432,0.2023480087518692,-0.07402640581130981,-0.4051958918571472,-0.012462737038731575,-0.48262086510658264,0.9765466451644897,2.6200802326202393,-1.7482807636260986,0.16816268861293793,-0.12944252789020538,0.16271957755088806,-0.5109061002731323,2.786388397216797,-1.4630769491195679,-0.753357470035553,-5.8531012535095215,-0.6814191341400146,0.5794546008110046,1741504543.1997879,1741504543073,-4.01614794921875,1.6729285888671874,-2.130554304159988,-0.09564012908935547,2.905158935546875
1741504543.2009058,0.30343127250671387,0.01993227804526705,0.05387583966807826,-0.9983486856764954,0.20219779014587402,-0.399910032749176,-0.6476436257362366,-8.991064071655273,-21.11749267578125,7.549878120422363,-0.043297767639160156,0.060463905334472656,-0.004005493130534887,-1.219219446182251,0.004005493130534887,-0.961509108543396,0.4800869822502136,1.2493560314178467,0.015449759550392628,0.9012359976768494,-0.030708782374858856,-0.2748531401157379,0.02384222112596035,0.02193484455347061,0.8802548050880432,-0.5989260673522949,0.008752545341849327,-0.76276034116745,-0.005912871100008488,-0.11348897218704224,0.8501182794570923,-0.32207274436950684,0.009085604920983315,-0.033335667103528976,0.19581395387649536,2.5061450004577637,-0.18578551709651947,-0.08036815375089645,0.07649735361337662,-1.6470621824264526,-0.730834424495697,0.032860737293958664,-0.6633146405220032,-0.9131995439529419,2.1406733989715576,-0.2159871906042099,0.41480302810668945,0.8064606785774231,1.423380970954895,0.9298099875450134,1.8737071752548218,1.059913992881775,0.11618266254663467,3.031949043273926,2.0361411571502686,0.45681479573249817,1741504543.1997879,1741504543073,-4.01614794921875,1.6729285888671874,-2.130554304159988,-0.09564012908935547,2.905158935546875
1741504543.2209632,0.3007901906967163,0.014039400723256054,0.0591419147898914,-0.9981508549023625,-0.19548934698104858,-0.44968298077583313,-0.10852865874767303,-6.6453070640563965,11.953545570373535,12.343972206115723,-0.054360389709472656,0.061989784240722656,0.06237125024199486,-1.221508264541626,0.005912871100008488,-0.9626535177230835,0.422102689743042,1.2489745616912842,0.015449759550392628,0.9012359976768494,-0.05359731614589691,-0.27218279242515564,0.01506828423589468,0.04253452271223068,0.9485389590263367,-0.563191294670105,0.019316324964165688,-0.7433050870895386,-0.004386968910694122,-0.06313420087099075,0.8527885675430298,-0.2921048104763031,0.009211401455104351,-0.17533960938453674,0.15047553181648254,3.447803497314453,-0.09649039059877396,0.06440738588571548,-0.07712721824645996,-4.039314270019531,0.18849027156829834,-0.020583825185894966,0.09693969041109085,-1.0452228784561157,-0.254043847322464,-0.1814061403274536,0.8089735507965088,4.24887752532959,1.7738597393035889,0.610511064529419,1.2025483846664429,-0.0032846431713551283,2.706035614013672,-0.7193137407302856,1.271236777305603,0.17809820175170898,1741504543.1997879,1741504543073,-4.01614794921875,1.6729285888671874,-2.130554304159988,-0.09564012908935547,2.905158935546875
1741504543.2409484,0.3001978397369385,0.011291639266042184,0.05407666397274877,-0.9984729406930685,0.24196487665176392,-0.10065311193466187,0.06489835679531097,-2.8224873542785645,-3.4896767139434814,10.758418083190918,-0.047112464904785156,0.051690101623535156,0.12226291000843048,-1.2333340644836426,0.005912871100008488,-0.9626535177230835,0.3568703830242157,1.2470670938491821,0.01506828423589468,0.9012359976768494,-0.06771191209554672,-0.3271152675151825,0.01926451548933983,0.04406042397022247,1.099603295326233,-0.522732138633728,0.027143284678459167,-0.7070649266242981,0.02079041674733162,-0.040245670825242996,0.8554589152336121,-0.2770247459411621,0.015779469162225723,0.10943078249692917,-0.2365676313638687,3.1555230617523193,-1.1533523797988892,0.1004912257194519,0.03385913372039795,-4.3253254890441895,-0.26352253556251526,-0.05641583725810051,-0.13784918189048767,-0.6832150220870972,-3.1820054054260254,0.15640698373317719,-0.08514054864645004,7.97368049621582,2.085357666015625,0.4620678424835205,1.5583925247192383,1.2225499153137207,0.7644696235656738,0.822484016418457,0.6934528350830078,0.11951979249715805,1741504543.1997879,1741504543073,-4.01614794921875,1.6729285888671874,-2.130554304159988,-0.09564012908935547,2.905158935546875
1741504543.26096,0.31746363639831543,0.010366364042243321,0.05309340970970992,-0.9985357421454379,0.005120375659316778,-0.1033024713397026,0.9536495208740234,-5.317486763000488,0.08457796275615692,12.392682075500488,-0.06656742095947266,0.055886268615722656,0.17757686972618103,-1.2512633800506592,0.00476844422519207,-0.9626535177230835,0.290112167596817,1.2405821084976196,0.013923857361078262,0.8997100591659546,-0.08182650804519653,-0.4346913993358612,0.005912871100008488,0.05245288833975792,1.270504355430603,-0.4827639162540436,0.015709737315773964,-0.6952391862869263,0.019645990803837776,-0.02880140393972397,0.8714808821678162,-0.2810598611831665,0.013402188196778297,-0.5833508968353271,0.06179868429899216,2.8499796390533447,-0.8995162844657898,-0.057123955339193344,-0.029264120385050774,-4.601747035980225,-0.43911951780319214,-0.022780153900384903,-0.02155452035367489,-0.7008498311042786,-5.681180953979492,-0.8706609606742859,0.5077864527702332,8.692953109741211,1.873916506767273,-0.8577126264572144,0.688417911529541,-0.15840160846710205,0.5629725456237793,0.6671130061149597,-0.24674777686595917,0.1382964551448822,1741504543.3032048,1741504543173,-3.91489794921875,1.6783240966796875,-1.8486712674120576,-0.023999561309814454,2.889329833984375
1741504543.2809992,0.344460129737854,0.01324386825281819,0.05261988139974414,-0.9985267888420314,0.044508177787065506,0.10963267087936401,1.3709156513214111,3.000781536102295,0.3068276047706604,10.882711410522461,-0.050164222717285156,0.055886268615722656,0.2286945879459381,-1.2566040754318237,0.005149920005351305,-0.962272047996521,0.21763180196285248,1.235241413116455,0.01430533267557621,0.9004730582237244,-0.10090028494596481,-0.5476081371307373,0.00019073777366429567,0.07000076025724411,1.416990876197815,-0.4718867242336273,-0.0024944585748016834,-0.6692988276481628,0.013923857361078262,-0.02880140393972397,0.8821622133255005,-0.2937442660331726,0.013415766879916191,0.35528022050857544,0.08146115392446518,2.574032783508301,-0.42155230045318604,0.01865101233124733,0.05940449237823486,-4.810308933258057,-0.28777724504470825,0.002140082884579897,0.05884966254234314,-0.9313784241676331,-5.5738959312438965,-0.01013021171092987,0.7740158438682556,6.834656238555908,0.1530778408050537,-0.47225522994995117,1.3847476243972778,-0.2807847559452057,-0.038026709109544754,0.4422363340854645,-0.841657280921936,-0.10436999052762985,1741504543.3032048,1741504543173,-3.91489794921875,1.6783240966796875,-1.8486712674120576,-0.023999561309814454,2.889329833984375
1741504543.3009987,0.37505173683166504,0.01189751978812108,0.05407426430863181,-0.9984660349568089,-0.12150737643241882,-0.17697300016880035,1.5308281183242798,2.5906639099121094,-0.3088502585887909,13.17733383178711,-0.053597450256347656,0.058175086975097656,0.28400853276252747,-1.2649965286254883,0.005149920005351305,-0.9603646993637085,0.14438849687576294,1.2333340644836426,0.01430533267557621,0.9004730582237244,-0.12302586436271667,-0.6464102864265442,0.0036240178160369396,0.09594109654426575,1.4925230741500854,-0.49568620324134827,0.016214987263083458,-0.6422140598297119,0.01201647985726595,-0.027656977996230125,0.8806362748146057,-0.3222596347332001,0.01577344723045826,-0.0758955329656601,0.07369091361761093,3.0047402381896973,-0.456722617149353,-0.0198042094707489,0.08665535598993301,-4.765374660491943,-0.09714444726705551,0.0228525772690773,0.0006212960579432547,-1.0305109024047852,-4.814013957977295,0.21271127462387085,1.6819992065429688,3.18536114692688,-1.3646175861358643,0.6230131387710571,1.4254282712936401,-0.09394440054893494,0.08614832907915115,-0.14922715723514557,-1.4970568418502808,0.20300419628620148,1741504543.3032048,1741504543173,-3.91489794921875,1.6783240966796875,-1.8486712674120576,-0.023999561309814454,2.889329833984375
1741504543.3210514,0.4002354145050049,0.01215980408837134,0.058344928695286326,-0.998222424342428,-0.20290973782539368,-0.04996554180979729,1.1157386302947998,2.428046703338623,3.5325429439544678,10.365028381347656,-0.050927162170410156,0.055504798889160156,0.3397039771080017,-1.2653779983520508,0.00476844422519207,-0.9576943516731262,0.07763027399778366,1.2340970039367676,0.01430533267557621,0.9012359976768494,-0.14057374000549316,-0.7215610146522522,0.01201647985726595,0.12684062123298645,1.4940489530563354,-0.5286802053451538,-0.001806637505069375,-0.6025406122207642,0.01201647985726595,-0.021171892061829567,0.8726252913475037,-0.35353368520736694,0.02343752421438694,0.09482938796281815,-0.12787573039531708,2.835963726043701,-0.03349902480840683,-0.004776701331138611,0.17586404085159302,-4.323596477508545,0.06419117748737335,0.022504789754748344,-0.002648408291861415,-0.8735045194625854,-3.5710742473602295,0.5163882374763489,1.2953404188156128,-0.4150014817714691,-1.5718963146209717,-1.0740337371826172,2.0269813537597656,-0.06286539137363434,0.33619722723960876,-0.4344451427459717,-1.6004369258880615,0.284341961145401,1741504543.3032048,1741504543173,-3.91489794921875,1.6783240966796875,-1.8486712674120576,-0.023999561309814454,2.889329833984375
1741504543.3410795,0.4095578193664551,0.011485054970215718,0.05997772345755209,-0.9981336414534782,-0.10893674939870834,-0.07663454860448837,0.3719708323478699,4.65928316116333,-2.9034807682037354,7.428625583648682,-0.042153358459472656,0.056267738342285156,0.3908216953277588,-1.2661409378051758,0.005149920005351305,-0.9496833682060242,0.02040894143283367,1.2348599433898926,0.01506828423589468,0.9027618765830994,-0.14057374000549316,-0.7776378989219666,0.03223468363285065,0.13981078565120697,1.4429312944412231,-0.5483523011207581,-0.007898914627730846,-0.572022557258606,0.013160906732082367,-0.018120087683200836,0.8550774455070496,-0.3853757083415985,0.03188283368945122,0.24527916312217712,0.02906396985054016,2.5183544158935547,-0.07963892072439194,-0.002762430813163519,0.4379523694515228,-3.7287919521331787,0.03953893110156059,0.023538600653409958,0.09717576950788498,0.11846797168254852,-2.7618556022644043,1.0061107873916626,0.5686724781990051,-2.792722702026367,-0.7818031907081604,0.04135772958397865,1.3504284620285034,0.10384144634008408,0.15986725687980652,-0.8854001760482788,-1.5972321033477783,0.5424916744232178,1741504543.3032048,1741504543173,-3.91489794921875,1.6783240966796875,-1.8486712674120576,-0.023999561309814454,2.889329833984375
1741504543.3610752,0.4118325710296631,0.015494552643085179,0.06484364177943883,-0.9977751354684935,-0.22389473021030426,0.2958061695098877,0.1900789588689804,-0.65823894739151,-0.44360002875328064,5.438198089599609,-0.047875404357910156,0.045586585998535156,0.4365987777709961,-1.2665224075317383,0.005149920005351305,-0.9409094452857971,-0.04139009863138199,1.2440153360366821,0.01506828423589468,0.9107728600502014,-0.14362554252147675,-0.8283741474151611,0.05855649709701538,0.13866636157035828,1.3593881130218506,-0.5372048616409302,-0.00904352031648159,-0.5296788215637207,0.01583123579621315,-0.01735713705420494,0.841725766658783,-0.41545379161834717,0.040367309004068375,-0.15073689818382263,-0.2816348373889923,2.342299222946167,0.019195405766367912,-0.013020062819123268,0.5165249109268188,-4.138640880584717,0.5769939422607422,0.016189001500606537,0.6452797651290894,-0.2748824656009674,-2.442349433898926,1.4264862537384033,-0.1651572287082672,-4.3960747718811035,0.8592199087142944,-0.35426658391952515,2.142012357711792,0.08197278529405594,0.018655920401215553,-0.7336086630821228,-1.5323565006256104,0.3425274193286896,1741504543.4050481,1741504543273,-3.8542077636718752,1.6979105224609374,-2.415936204592138,0.04275499725341797,2.873843505859375
1741504543.3811703,0.4210176467895508,0.02223047941007755,0.06871419928949085,-0.997388672785691,-0.20860838890075684,0.265898197889328,0.41510769724845886,-1.1555944681167603,0.8941423892974854,7.233159065246582,-0.046730995178222656,0.041008949279785156,0.47665369510650635,-1.2646150588989258,0.00476844422519207,-0.9290837049484253,-0.0864042118191719,1.2447782754898071,0.014686808921396732,0.9313725233078003,-0.16231784224510193,-0.8592736721038818,0.09899290651082993,0.12912946939468384,1.255245327949524,-0.49787822365760803,-0.018457042053341866,-0.5014495849609375,0.018501564860343933,-0.018120087683200836,0.8234149813652039,-0.44129645824432373,0.04391631856560707,0.01866108737885952,-0.07912103086709976,1.7807449102401733,0.1872279942035675,-0.009734921157360077,0.5204781293869019,-2.727147102355957,-0.06165936216711998,-0.010550602339208126,1.4232161045074463,-0.9822224974632263,-1.3339372873306274,2.0595576763153076,-0.43502065539360046,-5.42991304397583,2.0138018131256104,-0.26750999689102173,1.4099663496017456,0.12774606049060822,-0.003632814157754183,-0.7595385909080505,-1.2050964832305908,0.22853690385818481,1741504543.4050481,1741504543273,-3.8542077636718752,1.6979105224609374,-2.415936204592138,0.04275499725341797,2.873843505859375
1741504543.4011111,0.43247389793395996,0.033581770227016396,0.07301434473794116,-0.9967653536168424,-0.24573346972465515,0.5411412715911865,0.5962443947792053,4.271578788757324,2.692286968231201,7.014756679534912,-0.045205116271972656,0.036431312561035156,0.49267566204071045,-1.2611817121505737,0.00476844422519207,-0.9210727214813232,-0.11196307092905045,1.2405821084976196,0.014686808921396732,0.9515907764434814,-0.19092851877212524,-0.8611810207366943,0.14286258816719055,0.12264438718557358,1.127450942993164,-0.4538673758506775,-0.01582084596157074,-0.4667353332042694,0.016594186425209045,-0.01583123579621315,0.8112077713012695,-0.4619137942790985,0.04323088750243187,0.04024064540863037,-0.1093137264251709,0.6605377793312073,0.23415705561637878,-0.004296854138374329,0.357684463262558,-1.4431612491607666,-0.29162824153900146,0.0015621911734342575,1.3197379112243652,-1.4561946392059326,0.013377771712839603,2.1671361923217773,-0.13602659106254578,-6.4822611808776855,2.2206170558929443,0.25592124462127686,1.7784419059753418,-0.07310185581445694,0.16229675710201263,-0.7044150829315186,-0.993127703666687,-0.06335855275392532,1741504543.4050481,1741504543273,-3.8542077636718752,1.6979105224609374,-2.415936204592138,0.04275499725341797,2.873843505859375
1741504543.4211466,0.44705820083618164,0.03953673719952704,0.07653949359564391,-0.9962823657637115,-0.21657240390777588,0.16034333407878876,0.7397537231445312,1.9830340147018433,-2.113940477371216,5.74815034866333,-0.047112464904785156,0.038720130920410156,0.49267566204071045,-1.2588928937911987,0.00476844422519207,-0.9149690866470337,-0.11043716967105865,1.2333340644836426,0.014686808921396732,0.9653238654136658,-0.22030213475227356,-0.8485923409461975,0.1832990050315857,0.14286258816719055,0.9817273020744324,-0.4123201370239258,-0.0014267683727666736,-0.4224841594696045,0.02994582988321781,-0.004005493130534887,0.7921339869499207,-0.47872355580329895,0.03902432695031166,-0.07175890356302261,0.06754904985427856,-0.11657310277223587,0.1500663161277771,-0.004781782161444426,0.2804531455039978,0.3109194040298462,-0.48691698908805847,0.011724848300218582,0.8391352891921997,-1.416999340057373,0.8803501129150391,1.801863431930542,1.2620556354522705,-7.529194355010986,1.9868487119674683,0.8215209245681763,2.276797294616699,0.8048661947250366,0.7995766997337341,-1.0159233808517456,-0.8874854445457458,-0.23423795402050018,1741504543.4050481,1741504543273,-3.8542077636718752,1.6979105224609374,-2.415936204592138,0.04275499725341797,2.873843505859375
1741504543.441159,0.46151065826416016,0.03816112532161246,0.08401855921903281,-0.9957332023292916,-0.4257199764251709,-0.16200707852840424,0.6922592520713806,32.81005859375,5.351505279541016,17.119346618652344,-0.052453041076660156,0.061989784240722656,0.47856107354164124,-1.2543151378631592,0.00476844422519207,-0.9122987985610962,-0.0879301130771637,1.2268489599227905,0.014686808921396732,0.970283031463623,-0.23861294984817505,-0.8157854676246643,0.2141985148191452,0.18673227727413177,0.8688105344772339,-0.3702945113182068,0.010474849492311478,-0.3591592311859131,0.05359731614589691,0.02079041674733162,0.778782308101654,-0.4904797673225403,0.01558933686465025,-0.17540839314460754,0.6338109374046326,-0.7638512253761292,0.34634554386138916,-0.011638397350907326,0.12071932107210159,1.727437138557434,-0.4037827253341675,0.007997289299964905,0.2559272050857544,-0.7838494181632996,1.60604989528656,1.5433309078216553,2.412202835083008,-4.251987934112549,2.3383522033691406,0.5465501546859741,3.441526412963867,0.9388159513473511,1.2624658346176147,-0.5025234818458557,-0.42627719044685364,-1.092237949371338,1741504543.4050481,1741504543273,-3.8542077636718752,1.6979105224609374,-2.415936204592138,0.04275499725341797,2.873843505859375
1741504543.4611762,0.47396206855773926,0.023645108225288595,0.08602616911219703,-0.9960122524772946,0.004195450805127621,-0.7322370409965515,0.5893851518630981,-1.1181403398513794,5.3745856285095215,3.653815746307373,-0.058556556701660156,0.08373355865478516,0.4491874575614929,-1.2527892589569092,0.005149920005351305,-0.9107728600502014,-0.04634927958250046,1.224941611289978,0.014686808921396732,0.969520092010498,-0.23594263195991516,-0.7574197053909302,0.2141985148191452,0.22220951318740845,0.8852140307426453,-0.34309548139572144,0.021567663177847862,-0.30079346895217896,0.06389715522527695,0.05397878959774971,0.768482506275177,-0.4732308089733124,0.014012893661856651,-0.1450551152229309,0.6441779732704163,-1.6971714496612549,-0.11131836473941803,-0.0055456822738051414,-0.022945798933506012,2.9816346168518066,-0.07870771735906601,0.02060563862323761,-0.07216094434261322,0.33992716670036316,3.113126516342163,-0.02693205140531063,1.1216408014297485,0.5067397356033325,0.8235219120979309,0.6096085906028748,2.693533182144165,0.7224140763282776,1.7040263414382935,-0.4618557095527649,1.139708161354065,-0.18744952976703644,1741504543.505172,1741504543373,-3.780134033203125,1.740731689453125,-2.294327788579002,0.10560373687744141,2.858794677734375
1741504543.4812307,0.4819605350494385,0.01744823274992205,0.08163176572782506,-0.9965098163079289,0.19804906845092773,-0.24692991375923157,0.3056328594684601,-0.45800814032554626,-3.773977518081665,14.373087882995605,-0.06427860260009766,0.07610416412353516,0.39463645219802856,-1.2581299543380737,0.00476844422519207,-0.9153505563735962,0.004005493130534887,1.224941611289978,0.014686808921396732,0.970283031463623,-0.22259098291397095,-0.7021057605743408,0.1974135935306549,0.20237277448177338,0.8733882904052734,-0.34846770763397217,0.027310112491250038,-0.273708701133728,0.0711451917886734,0.10585946589708328,0.804341197013855,-0.4438321888446808,-0.0020587886683642864,-0.19345350563526154,-0.11782469600439072,-2.976043462753296,-0.31781885027885437,-0.020175902172923088,-0.21927809715270996,3.213435173034668,-0.02956998348236084,0.006792882457375526,0.018736619502305984,0.5779311656951904,2.2848284244537354,-0.9917222857475281,-1.0676867961883545,-0.6123740077018738,-0.2070416361093521,0.19022993743419647,1.0243346691131592,0.16369961202144623,2.7144978046417236,2.734656810760498,1.4263049364089966,-0.8061184883117676,1741504543.505172,1741504543373,-3.780134033203125,1.740731689453125,-2.294327788579002,0.10560373687744141,2.858794677734375
1741504543.5012033,0.48484015464782715,0.015075541833719832,0.07691831109754496,-0.9969234180499128,0.23123647272586823,-0.11541163921356201,-0.011779609136283398,-4.489677906036377,0.7471193671226501,7.626857757568359,-0.07381534576416016,0.07000064849853516,0.3274967670440674,-1.2596558332443237,0.00476844422519207,-0.916113555431366,0.05245288833975792,1.2276118993759155,0.014686808921396732,0.968757152557373,-0.2004653960466385,-0.6734950542449951,0.17261768877506256,0.1806286722421646,0.8749141693115234,-0.35661575198173523,0.03631318360567093,-0.31605249643325806,0.07572289556264877,0.15774014592170715,0.9302281141281128,-0.407317578792572,-0.014246881939470768,-0.2642023265361786,-0.12130410224199295,-3.5369417667388916,-0.16982488334178925,-0.022147594019770622,-0.05351613834500313,3.297055721282959,0.3325932025909424,0.022342823445796967,-0.11917153745889664,1.0366729497909546,1.3394746780395508,-1.4576871395111084,-1.1409810781478882,0.08550842106342316,-0.5041117668151855,0.6171984672546387,-2.6005489826202393,0.37189748883247375,2.5050642490386963,6.946527004241943,1.973406195640564,-0.6425257921218872,1741504543.505172,1741504543373,-3.780134033203125,1.740731689453125,-2.294327788579002,0.10560373687744141,2.858794677734375
1741504543.5212822,0.46765708923339844,0.017998457363925375,0.07054709938443973,-0.9973460594502597,0.30413618683815,0.2370009422302246,-0.9034305214881897,1.1440315246582031,-9.390076637268066,13.8744478225708,-0.07877445220947266,0.06580448150634766,0.25463491678237915,-1.2585114240646362,0.00476844422519207,-0.9157320261001587,0.09403372555971146,1.238293170928955,0.01583123579621315,0.9676127433776855,-0.1810101419687271,-0.648699164390564,0.14476996660232544,0.17605096101760864,0.8749141693115234,-0.3694533407688141,0.03822172060608864,-0.41599908471107483,0.09937438368797302,0.1832990050315857,1.106088399887085,-0.3673037886619568,-0.008706260472536087,-0.17144788801670074,-0.12664340436458588,-3.742255210876465,0.1335485875606537,-0.036420561373233795,0.011625776067376137,2.7759435176849365,0.7060962915420532,0.021479420363903046,-0.07310706377029419,0.9622175097465515,1.1237674951553345,-1.3324296474456787,-0.07287358492612839,-0.016487888991832733,-0.5927696228027344,-0.001286572078242898,-5.155513763427734,1.2255066633224487,1.1772550344467163,9.13082504272461,1.8217166662216187,0.5614253878593445,1741504543.505172,1741504543373,-3.780134033203125,1.740731689453125,-2.294327788579002,0.10560373687744141,2.858794677734375
1741504543.541321,0.44413018226623535,0.022022828562944723,0.0653398620690123,-0.9976200165628643,0.29445603489875793,0.27917471528053284,-1.2042521238327026,1.410702109336853,-0.2891954779624939,7.695870876312256,-0.08869266510009766,0.06885623931884766,0.17681391537189484,-1.2512633800506592,0.00476844422519207,-0.9157320261001587,0.14248111844062805,1.2455412149429321,0.01506828423589468,0.9649423956871033,-0.17185473442077637,-0.619325578212738,0.1367589831352234,0.17795833945274353,0.8733882904052734,-0.380109965801239,0.03556516021490097,-0.5323491096496582,0.12378881871700287,0.18520638346672058,1.2788968086242676,-0.3614594042301178,-0.0038232069928199053,-0.308124303817749,0.03979605436325073,-3.832167148590088,0.5404976010322571,-0.0009392497595399618,0.017882874235510826,3.2915518283843994,0.4618528485298157,-0.032907672226428986,-0.23839886486530304,0.32624194025993347,1.543411374092102,-0.3334926664829254,0.19704139232635498,-0.08371780812740326,-0.4797838628292084,-0.2885536253452301,-5.722142219543457,1.2526756525039673,-0.011921466328203678,8.31491470336914,-0.06994085758924484,-0.0577634833753109,1741504543.505172,1741504543373,-3.780134033203125,1.740731689453125,-2.294327788579002,0.10560373687744141,2.858794677734375
1741504543.5613084,0.4226844310760498,0.020781483097821473,0.05931084820023919,-0.9980232227989603,0.3021954894065857,-0.029386822134256363,-1.0656964778900146,0.0634872317314148,-1.0303341150283813,13.135382652282715,-0.10128211975097656,0.08525943756103516,0.10013733059167862,-1.2432523965835571,0.00476844422519207,-0.916113555431366,0.200083926320076,1.2501189708709717,0.01506828423589468,0.9580758213996887,-0.17910276353359222,-0.5838482975959778,0.1333257108926773,0.18596932291984558,0.8680475950241089,-0.3917936086654663,0.026234440505504608,-0.6395437717437744,0.14667734503746033,0.1657511293888092,1.3918135166168213,-0.3898300528526306,-0.015320937149226665,-0.36275485157966614,0.5040064454078674,-3.86206316947937,0.5261102914810181,-0.0074633522890508175,-0.03823751211166382,3.8120179176330566,0.2749329209327698,0.012131384573876858,-0.4967891275882721,-0.4550098776817322,1.7310667037963867,-0.18479160964488983,0.33608534932136536,-0.29418548941612244,-0.6531962156295776,-0.422779381275177,-5.089802265167236,1.0470523834228516,-1.0227136611938477,5.09299898147583,-1.5819653272628784,-0.45316648483276367,1741504543.505172,1741504543373,-3.780134033203125,1.740731689453125,-2.294327788579002,0.10560373687744141,2.858794677734375
1741504543.5813394,0.40872836112976074,0.018707156400620192,0.05513153791012415,-0.9983038394331994,0.20121198892593384,-0.0293244868516922,-0.585963785648346,4.262142658233643,-6.512256145477295,10.186724662780762,-0.11844825744628906,0.09174442291259766,0.031090257689356804,-1.2379117012023926,0.00476844422519207,-0.9164950251579285,0.2634088695049286,1.2520263195037842,0.01506828423589468,0.951972246170044,-0.1840619444847107,-0.5388342142105103,0.13141833245754242,0.18673227727413177,0.8611810207366943,-0.4102991819381714,0.01960175856947899,-0.726901650428772,0.15964750945568085,0.12874799966812134,1.427672266960144,-0.4294171631336212,-0.0022022800985723734,-0.5095860958099365,0.22667637467384338,-3.399801015853882,0.2862078547477722,-0.013119736686348915,-0.03022560477256775,4.121875762939453,0.12389659881591797,-0.006979659199714661,-0.4093138575553894,-0.30624446272850037,2.280717611312866,-0.15461640059947968,0.035480186343193054,-0.35291245579719543,-0.9766645431518555,-0.2650647461414337,-4.315044403076172,0.543667197227478,-1.9272289276123047,1.2104567289352417,-1.9182665348052979,0.8921763300895691,1741504543.6116893,1741504543473,-3.7032875976562503,1.78996435546875,-2.3908782799375166,0.1677431640625,2.844005126953125
1741504543.6013255,0.4051706790924072,0.01668366869286001,0.05585183967228319,-0.9982996680376932,-0.08799303323030472,-0.12001535296440125,-0.1035868227481842,-2.2215158939361572,-2.217116117477417,11.53369426727295,-0.13294410705566406,0.09403419494628906,-0.025749599561095238,-1.233715534210205,0.00476844422519207,-0.9180209040641785,0.3240634799003601,1.2554595470428467,0.015449759550392628,0.9447242021560669,-0.18978407979011536,-0.5006866455078125,0.12874799966812134,0.18635080754756927,0.8508812189102173,-0.4386425018310547,0.02079431340098381,-0.7940413355827332,0.15926603972911835,0.08449683338403702,1.3937208652496338,-0.45734450221061707,0.008623764850199223,-0.43810296058654785,0.1201118752360344,-2.757234811782837,0.26911255717277527,-0.007087700068950653,-0.10562673211097717,3.9087910652160645,0.338753342628479,0.048193931579589844,-0.4601176679134369,-0.27334287762641907,1.7975519895553589,-0.06181631609797478,-0.0031394355464726686,-0.5098177790641785,-1.467165470123291,0.24531471729278564,-3.147036552429199,-0.1825329214334488,-2.1905429363250732,-2.131478786468506,-1.1947929859161377,0.37461626529693604,1741504543.6116893,1741504543473,-3.7032875976562503,1.78996435546875,-2.3908782799375166,0.1677431640625,2.844005126953125
1741504543.6213489,0.40189647674560547,0.017221754235393443,0.0609716623718369,-0.9979909155742204,-0.2481454610824585,0.068308986723423,-0.1965916007757187,-3.6914467811584473,-2.937854290008545,9.123826026916504,-0.14362525939941406,0.09288883209228516,-0.08449683338403702,-1.2299007177352905,0.00476844422519207,-0.9275577664375305,0.37861448526382446,1.2630890607833862,0.015449759550392628,0.9355688095092773,-0.1832990050315857,-0.4701686203479767,0.12569619715213776,0.1848248988389969,0.8398184180259705,-0.47118309140205383,0.016516869887709618,-0.8371480703353882,0.15583276748657227,0.03528648987412453,1.3151369094848633,-0.4580487310886383,0.006966916844248772,-0.3356756269931793,0.022497626021504402,-2.7942981719970703,0.2614433765411377,-0.009742164053022861,-0.6466125249862671,3.5076749324798584,0.4605543315410614,-0.030001047998666763,-0.6087473630905151,0.4891095757484436,1.6599383354187012,-0.17798113822937012,-0.15699978172779083,-0.4790307283401489,-1.6540937423706055,-0.206100195646286,-2.050820827484131,-0.1914743185043335,-2.3229260444641113,-4.133340835571289,0.21966618299484253,0.1782979518175125,1741504543.6116893,1741504543473,-3.7032875976562503,1.78996435546875,-2.3908782799375166,0.1677431640625,2.844005126953125
1741504543.6413534,0.39705657958984375,0.02258066562234498,0.06662668178741935,-0.9975224302310449,-0.2883392870426178,0.30539268255233765,-0.3161763846874237,0.6059774160385132,0.2935101091861725,8.560563087463379,-0.15354347229003906,0.07686710357666016,-0.12073700875043869,-1.2268489599227905,0.00476844422519207,-0.9431982636451721,0.42744335532188416,1.2657594680786133,0.015449759550392628,0.9267948269844055,-0.15697719156742096,-0.44117647409439087,0.1184481605887413,0.17147326469421387,0.8295185565948486,-0.5030809640884399,0.011407462880015373,-0.8638513684272766,0.14515145123004913,-0.0020981156267225742,1.2109941244125366,-0.4286614656448364,0.01456744596362114,-0.32017257809638977,-0.38263872265815735,-1.5958187580108643,0.16111966967582703,-0.008458430878818035,-0.7623487710952759,3.344372034072876,0.11003122478723526,0.0202492605894804,-0.676478922367096,1.521228313446045,1.2967209815979004,-0.4278702139854431,-0.7129163146018982,-0.6016579866409302,-1.6023083925247192,-0.3555942475795746,-1.1416265964508057,-0.5938268899917603,-1.734437108039856,-5.377084732055664,1.6869261264801025,0.38566040992736816,1741504543.6116893,1741504543473,-3.7032875976562503,1.78996435546875,-2.3908782799375166,0.1677431640625,2.844005126953125
1741504543.6614928,0.38787102699279785,0.03213212289124959,0.0696956935324499,-0.9970506692147258,-0.08424603193998337,0.5490919351577759,-0.4725039601325989,0.9949073791503906,-0.4779776930809021,8.698639869689941,-0.15926647186279297,0.06961917877197266,-0.1329442262649536,-1.2268489599227905,0.00476844422519207,-0.9588387608528137,0.46368351578712463,1.2638521194458008,0.01506828423589468,0.9203097820281982,-0.1180666834115982,-0.41409170627593994,0.10509651154279709,0.1497291475534439,0.8215075731277466,-0.5318504571914673,0.01122861448675394,-0.8676661252975464,0.12569619715213776,-0.028038453310728073,1.0851072072982788,-0.38324493169784546,0.010944236069917679,-0.1848064810037613,-0.2577947974205017,-0.40439584851264954,-0.0009265188127756119,-0.019849462434649467,-0.721696138381958,2.168355941772461,-0.22288422286510468,-0.012054545804858208,-0.37547507882118225,1.9331263303756714,1.3187803030014038,-0.5819047093391418,-1.1837385892868042,-0.3918766677379608,-1.4103890657424927,0.041382770985364914,-0.019179614260792732,-1.0138554573059082,-1.2419633865356445,-6.316454887390137,2.3180158138275146,-0.19227227568626404,1741504543.6116893,1741504543473,-3.7032875976562503,1.78996435546875,-2.3908782799375166,0.1677431640625,2.844005126953125
1741504543.6814175,0.3790159225463867,0.03946051768167456,0.06728812524032503,-0.9969529456027182,0.15940003097057343,0.33645951747894287,-0.42953193187713623,2.2495431900024414,0.18849977850914001,6.557611465454102,-0.16651439666748047,0.07305240631103516,-0.1203555315732956,-1.2268489599227905,0.00476844422519207,-0.967994213104248,0.4839017391204834,1.2585114240646362,0.01506828423589468,0.9153505563735962,-0.08297093212604523,-0.38014039397239685,0.08487831056118011,0.13103684782981873,0.8073930144309998,-0.5538577437400818,0.004080498591065407,-0.8661402463912964,0.10128175467252731,-0.0551232174038887,0.9569314122200012,-0.3360952138900757,0.0033523710444569588,-0.2248494029045105,0.08911775052547455,0.8214563727378845,-0.013376791961491108,-0.007303842809051275,-0.3863420784473419,1.2773534059524536,-0.30622991919517517,0.011957349255681038,-0.3177446126937866,1.661034345626831,1.8302717208862305,-1.035508394241333,-0.789263904094696,-0.8504405617713928,-0.9251899123191833,-0.3997146487236023,0.14335355162620544,-1.2806544303894043,-1.5375499725341797,-6.2150702476501465,2.2448642253875732,-0.4312394857406616,1741504543.6116893,1741504543473,-3.7032875976562503,1.78996435546875,-2.3908782799375166,0.1677431640625,2.844005126953125
1741504543.7014527,0.3730132579803467,0.041803792206686244,0.059003597274136906,-0.9973820824868731,0.46954604983329773,0.11230163276195526,-0.23775722086429596,4.184936046600342,0.671306312084198,4.2573699951171875,-0.16918468475341797,0.07724857330322266,-0.08983749151229858,-1.2276118993759155,0.00476844422519207,-0.9691386222839355,0.4888609051704407,1.2520263195037842,0.01506828423589468,0.9115357995033264,-0.06237125024199486,-0.3290226459503174,0.05741206929087639,0.12149996310472488,0.7909895181655884,-0.5470095276832581,-0.002310622949153185,-0.8504997491836548,0.07038223743438721,-0.08945601433515549,0.8478294014930725,-0.3065623342990875,-0.006362017244100571,-0.10386839509010315,0.13952678442001343,1.6563808917999268,-0.03340064734220505,-0.007203512359410524,0.004786078352481127,0.18125709891319275,-0.4508720338344574,0.007381003350019455,-0.2823801636695862,0.9039493799209595,2.6196200847625732,-1.4089462757110596,-0.3444753587245941,-0.7367519736289978,0.650741457939148,-0.40486112236976624,0.9550632238388062,-1.6393554210662842,-1.7024128437042236,-5.317742347717285,1.2247322797775269,-0.3528783917427063,1741504543.6116893,1741504543473,-3.7032875976562503,1.78996435546875,-2.3908782799375166,0.1677431640625,2.844005126953125
1741504543.7215245,0.3705289363861084,0.036323806415421156,0.046505477329857534,-0.9982573924924458,0.650416910648346,-0.31545311212539673,-0.04527714103460312,0.6746320128440857,0.055281687527894974,5.477690696716309,-0.17261791229248047,0.09098148345947266,-0.04177157208323479,-1.228756308555603,0.00476844422519207,-0.9649423956871033,0.4812313914299011,1.2436338663101196,0.01506828423589468,0.9096284508705139,-0.0551232174038887,-0.28286412358283997,0.016594186425209045,0.12417028844356537,0.7928969264030457,-0.5255618691444397,0.010146056301891804,-0.8199816942214966,0.03757534176111221,-0.11730372905731201,0.7547493577003479,-0.3146747946739197,-0.010691561736166477,-0.10637456178665161,0.4095638692378998,2.57859206199646,-0.13302744925022125,0.00528506888076663,0.2529977262020111,-0.6478415727615356,-0.5173519253730774,0.007859870791435242,-0.08393469452857971,0.34628671407699585,2.1887881755828857,-2.249293327331543,0.22404584288597107,0.45812320709228516,0.9351653456687927,0.5787467956542969,1.6932181119918823,-1.5337672233581543,-1.274312973022461,-4.582605838775635,-0.7381285429000854,-0.1919630616903305,1741504543.6116893,1741504543473,-3.7032875976562503,1.78996435546875,-2.3908782799375166,0.1677431640625,2.844005126953125
1741504543.7414994,0.37051916122436523,0.025284987170875295,0.026741123366915146,-0.999322561410901,1.0689120292663574,-0.611299455165863,0.041484564542770386,2.650299072265625,4.5269598960876465,26.585365295410156,-0.17071056365966797,0.10204505920410156,0.019645990803837776,-1.2402005195617676,0.005149920005351305,-0.9596017599105835,0.45757991075515747,1.2379117012023926,0.01506828423589468,0.9096284508705139,-0.04940108209848404,-0.2615014910697937,0.00019073777366429567,0.1188296303153038,0.8550774455070496,-0.5126855969429016,0.024153875187039375,-0.7913710474967957,0.01583123579621315,-0.10929274559020996,0.7372015118598938,-0.3136788308620453,-0.032272789627313614,0.02671070210635662,0.3649190068244934,2.953246593475342,-0.9414803981781006,-0.005905812606215477,0.1955791562795639,-1.6950671672821045,-0.42421141266822815,-0.001356644555926323,-0.08589525520801544,0.26433104276657104,0.7606191039085388,-0.15103599429130554,-0.5888617634773254,3.6692471504211426,0.646685004234314,0.8634551167488098,1.335654377937317,-0.7413572669029236,0.6055423021316528,0.9666905999183655,0.5938605070114136,-1.2246983051300049,1741504543.6116893,1741504543473,-3.7032875976562503,1.78996435546875,-2.3908782799375166,0.1677431640625,2.844005126953125
1741504543.7615163,0.36757946014404297,0.01979035944623857,0.016317924200780605,-0.9996709793841002,0.33882012963294983,-0.09477075934410095,-0.07165993005037308,8.794615745544434,2.0249321460723877,3.11423921585083,-0.18635082244873047,0.09899330139160156,0.09174486994743347,-1.2524077892303467,0.00476844422519207,-0.9565499424934387,0.4056992530822754,1.2333340644836426,0.015449759550392628,0.9065766334533691,-0.05359731614589691,-0.28973066806793213,-0.008201723918318748,0.10547798871994019,0.9756237268447876,-0.48076507449150085,0.03417828306555748,-0.769245445728302,0.023079270496964455,-0.07000076025724411,0.7959487438201904,-0.30814534425735474,-0.049616094678640366,-0.46188899874687195,-0.14630430936813354,3.634014368057251,-0.6078184843063354,0.020706309005618095,0.16696204245090485,-3.947283983230591,-0.15236802399158478,0.03582464158535004,-0.12923741340637207,-0.08898074179887772,-1.9165946245193481,-0.6763114929199219,-0.7354663610458374,6.250777721405029,1.8427233695983887,0.2405359447002411,0.5252198576927185,0.0630720853805542,2.2016825675964355,2.2370259761810303,0.024616673588752747,-0.46448472142219543,1741504543.6116893,1741504543473,-3.7032875976562503,1.78996435546875,-2.3908782799375166,0.1677431640625,2.844005126953125
1741504543.7815282,0.3722989559173584,0.013769577026342428,0.011381808956256713,-0.9998404138528302,0.30086395144462585,-0.22430157661437988,0.2759864926338196,-10.994985580444336,4.824895858764648,19.658103942871094,-0.18062877655029297,0.10013771057128906,0.16117341816425323,-1.2520263195037842,0.004386968910694122,-0.9493018984794617,0.3240634799003601,1.2405821084976196,0.015449759550392628,0.9111543297767639,-0.04787518084049225,-0.36793315410614014,-0.021553369238972664,0.06847485899925232,1.1320286989212036,-0.43520838022232056,0.039624445140361786,-0.7406347990036011,0.040245670825242996,-0.04558632895350456,0.8085374236106873,-0.3088536858558655,-0.0461956225335598,0.1378956437110901,-0.042304567992687225,3.554311990737915,-0.001470886985771358,-0.062230926007032394,0.3463447690010071,-5.577307224273682,0.4117077887058258,-0.03789982199668884,0.33696722984313965,0.38291463255882263,-3.7621853351593018,-0.6331809759140015,-1.920600175857544,8.097768783569336,2.2429585456848145,0.2720046043395996,1.8418489694595337,1.0883630514144897,0.7504208087921143,0.5829138159751892,0.07873831689357758,0.08022980391979218,1741504543.8184354,1741504543673,-3.511197509765625,1.8566464843750001,-2.5090082112198338,0.28491494750976565,2.8173186035156252
1741504543.8017423,0.3860013484954834,0.012312485787015676,0.014058878837404714,-0.9998253600602356,-0.25178807973861694,-0.14114399254322052,0.6343204975128174,-1.6729209423065186,2.3122947216033936,16.184940338134766,-0.17986583709716797,0.11120033264160156,0.22678720951080322,-1.2573670148849487,0.005149920005351305,-0.9485389590263367,0.24204623699188232,1.2459226846694946,0.015449759550392628,0.9107728600502014,-0.0398641936480999,-0.4690241813659668,-0.03452353551983833,0.038719769567251205,1.2869077920913696,-0.41112950444221497,0.010808190330862999,-0.7108796834945679,0.0394827201962471,-0.029182879254221916,0.8154039978981018,-0.3100266456604004,-0.0490097850561142,0.009634395129978657,0.29474008083343506,3.106626272201538,-0.24213792383670807,-0.013886917382478714,0.01235868874937296,-5.29348611831665,0.4415073096752167,0.059109047055244446,-0.06467689573764801,0.35347265005111694,-5.162563800811768,-0.7522162199020386,-1.1476234197616577,7.248001575469971,0.8165572285652161,-1.5265977382659912,1.2501581907272339,-0.30842533707618713,0.8808687329292297,0.3160305321216583,-0.072188600897789,-0.0020393349695950747,1741504543.8184354,1741504543673,-3.511197509765625,1.8566464843750001,-2.5090082112198338,0.28491494750976565,2.8173186035156252
1741504543.8217666,0.4020273685455322,0.008910234459334707,0.01799464778848454,-0.9997983798610838,-0.13087360560894012,-0.14153721928596497,0.8027822971343994,-2.1840128898620605,0.794127345085144,12.600242614746094,-0.18444347381591797,0.11081886291503906,0.2927824854850769,-1.2592743635177612,0.005149920005351305,-0.9477760195732117,0.16384375095367432,1.2516448497772217,0.01506828423589468,0.9126802682876587,-0.03185320645570755,-0.5628671646118164,-0.03643091395497322,0.03528648987412453,1.3895246982574463,-0.4348011910915375,0.00595818692818284,-0.6681544184684753,0.03299763426184654,-0.02994582988321781,0.8211261034011841,-0.3148307502269745,-0.04172973707318306,-0.07483471930027008,-0.0004710181092377752,3.3768434524536133,-0.22326743602752686,0.002121047815307975,0.0064567020162940025,-5.293319225311279,0.23307587206363678,-0.061137501150369644,0.11929413676261902,0.43669643998146057,-4.498205184936523,0.02343630976974964,-0.029729774221777916,4.758263111114502,-1.5065997838974,0.07967863976955414,2.3983874320983887,-0.34173479676246643,-0.05740758031606674,0.13158515095710754,-0.29741665720939636,0.353085458278656,1741504543.8184354,1741504543673,-3.511197509765625,1.8566464843750001,-2.5090082112198338,0.28491494750976565,2.8173186035156252
