Freshhhhh-LC/Legged_odom/data/3/segments/booster_seg_9.98s.csv
time,yaw,projected_gravity_x,projected_gravity_y,projected_gravity_z,ang_vel_x,ang_vel_y,ang_vel_z,lin_acc_x,lin_acc_y,lin_acc_z,q_0,q_1,q_2,q_3,q_4,q_5,q_6,q_7,q_8,q_9,q_10,q_11,q_12,q_13,q_14,q_15,q_16,q_17,q_18,q_19,q_20,q_21,q_22,dq_0,dq_1,dq_2,dq_3,dq_4,dq_5,dq_6,dq_7,dq_8,dq_9,dq_10,dq_11,dq_12,dq_13,dq_14,dq_15,dq_16,dq_17,dq_18,dq_19,dq_20,dq_21,dq_22,mocap_time,mocap_timestamp,robot_x,robot_y,robot_yaw,ball_x,ball_y
1741504614.8945057,0.31402623653411865,0.015497955287154155,-0.006998631171644871,-0.9998554058180816,-0.03262680396437645,-0.1706862598657608,1.0466774702072144,-6.372878551483154,3.2145848274230957,11.114813804626465,-0.10128211975097656,0.2973604202270508,0.2290760725736618,-1.2623261213302612,0.005149920005351305,-0.9428167939186096,0.22449836134910583,1.2413450479507446,0.01430533267557621,0.9119172692298889,-0.071908138692379,-0.5655375123023987,0.005149920005351305,0.0555046908557415,1.3254368305206299,-0.3753342628479004,0.0015845096204429865,-0.6418325901031494,0.011635004542768002,-0.029182879254221916,0.8478294014930725,-0.3176584243774414,-0.03233888000249863,0.11200301349163055,0.29615992307662964,3.4306387901306152,-0.5794538855552673,-0.002862711437046528,0.2936761677265167,-4.449094772338867,-0.001087173237465322,0.02147853374481201,0.069492869079113,0.4720906615257263,-4.965285778045654,-0.651790976524353,0.0588848851621151,7.331133842468262,0.12804211676120758,-0.6999256610870361,2.173973560333252,-0.47740355134010315,0.021183302626013756,0.09565551578998566,-0.22260832786560059,0.23879732191562653,1741504614.8840392,1741504614793,-0.02669268798828125,-1.4711070556640626,-2.2477068773172193,2.477427490234375,-1.0015137329101562
1741504614.896505,0.3370938301086426,0.012701089779463959,-0.009021687437409415,-0.9998786383727756,0.08090884983539581,-0.17847315967082977,1.18742835521698,6.955991744995117,2.45051646232605,10.799715995788574,-0.08907413482666016,0.3065156936645508,0.2969787120819092,-1.2695741653442383,0.005149920005351305,-0.9363317489624023,0.15583276748657227,1.23905611038208,0.01430533267557621,0.9126802682876587,-0.056267641484737396,-0.6570916175842285,-0.0024795911740511656,0.06084534898400307,1.4246203899383545,-0.40471845865249634,0.008980144746601582,-0.5945296287536621,-0.004005493130534887,-0.03299763426184654,0.8470664620399475,-0.3291904032230377,-0.02979785017669201,0.35732534527778625,0.33522167801856995,3.381192445755005,-0.380307137966156,-0.0035137233790010214,0.3216470777988434,-4.608668804168701,-0.21072904765605927,0.004056535195559263,0.03209136426448822,0.9122686982154846,-4.6106486320495605,-0.469155490398407,0.2623905837535858,4.32234001159668,-1.697430968284607,0.49434390664100647,2.2265005111694336,-0.7594732046127319,-0.2615993320941925,-0.0498475506901741,-0.6810922026634216,0.20725318789482117,1741504614.8840392,1741504614793,-0.02669268798828125,-1.4711070556640626,-2.2477068773172193,2.477427490234375,-1.0015137329101562
1741504614.9083693,0.2737133502960205,0.010824982994900268,-0.010553862502769748,-0.9998857113337668,-0.2687051296234131,-0.14655925333499908,0.7887669801712036,-4.561548709869385,-0.7958698868751526,15.923125267028809,-0.18291759490966797,0.24128341674804688,0.13981078565120697,-1.2535521984100342,0.00476844422519207,-0.9611276388168335,0.31948578357696533,1.23753023147583,0.014686808921396732,0.9100099205970764,0.02384222112596035,-0.4716945290565491,-0.004005493130534887,0.03185320645570755,1.1327916383743286,-0.4236529469490051,0.011008798144757748,-0.6639581918716431,0.004386968910694122,-0.005531395319849253,0.8577477931976318,-0.2706473767757416,-0.025943420827388763,-0.39976879954338074,0.10472974181175232,3.133837938308716,-0.7752116322517395,-0.007567083463072777,0.4043728709220886,-3.2645020484924316,0.025762395933270454,0.06951797753572464,0.13572317361831665,-0.9261664152145386,-4.13683557510376,-0.3868730664253235,-0.0725884661078453,7.795926570892334,2.2449142932891846,0.47688379883766174,1.442094087600708,0.8195134997367859,0.7395448088645935,0.14618299901485443,-1.0485299825668335,-0.5868836045265198,1741504614.8840392,1741504614793,-0.02669268798828125,-1.4711070556640626,-2.2477068773172193,2.477427490234375,-1.0015137329101562
1741504614.9284043,0.293715238571167,0.01724773427585571,-0.006606385140949783,-0.9998294211202824,-0.23184548318386078,0.3079746961593628,1.011115550994873,4.544494152069092,5.764893531799316,10.163081169128418,-0.17681407928466797,0.23022079467773438,0.1970321238040924,-1.2638521194458008,0.005149920005351305,-0.954261064529419,0.2576867341995239,1.235241413116455,0.01430533267557621,0.9130617380142212,0.01125352829694748,-0.569733738899231,-0.019645990803837776,0.032616160809993744,1.3010224103927612,-0.39304256439208984,0.0036250606644898653,-0.6284809708595276,0.012397955171763897,-0.005912871100008488,0.8676661252975464,-0.2999221682548523,-0.019673725590109825,0.15210263431072235,-0.3316817879676819,3.095130443572998,-0.6919509172439575,0.009110596962273121,0.40058383345603943,-4.1521501541137695,-0.17578744888305664,-0.019620854407548904,0.15527363121509552,-0.5693239569664001,-5.071985244750977,-0.7036610245704651,0.009934497997164726,8.348082542419434,1.2076960802078247,-0.43523505330085754,1.5762746334075928,0.18031039834022522,0.04303961247205734,0.24542926251888275,-1.5554184913635254,0.5432628989219666,1741504614.8840392,1741504614793,-0.02669268798828125,-1.4711070556640626,-2.2477068773172193,2.477427490234375,-1.0015137329101562
1741504614.9672763,0.31367993354797363,0.015639706820716505,-0.003160842407603324,-0.9998726962197919,-0.15561823546886444,-0.03180786594748497,1.0001922845840454,-0.3288082182407379,5.8404860496521,11.73105239868164,-0.17299938201904297,0.23708724975585938,0.2611200213432312,-1.2703371047973633,0.005149920005351305,-0.9439612627029419,0.18978407979011536,1.2321895360946655,0.014686808921396732,0.9130617380142212,0.005912871100008488,-0.6727321147918701,-0.02994582988321781,0.034142062067985535,1.4166094064712524,-0.39493799209594727,0.006281444337219,-0.5998703241348267,0.005149920005351305,-0.007057297509163618,0.8646143078804016,-0.3391503691673279,-0.013335982337594032,0.12214916944503784,0.1694890260696411,3.402848958969116,-0.4365534484386444,0.0004879909392911941,0.4566726088523865,-4.543120384216309,-0.20477908849716187,0.023653492331504822,0.015978340059518814,-0.25754982233047485,-4.955008029937744,-0.6505259275436401,0.18329572677612305,5.278722286224365,-0.293812096118927,0.16338525712490082,1.6973652839660645,-0.37047603726387024,-0.061101701110601425,-0.06702114641666412,-1.9976762533187866,0.20070239901542664,1741504614.9849625,1741504614893,0.08091336822509766,-1.443349365234375,-2.3232439050968816,2.630709228515625,-0.9879547119140625
1741504614.976787,0.324556827545166,0.020831283171531077,-0.0014738902134128755,-0.9997819188648424,-0.08978699892759323,0.2364606261253357,0.499012291431427,3.6242589950561523,7.649721622467041,8.147760391235352,-0.16613292694091797,0.22755050659179688,0.325970858335495,-1.2726260423660278,0.005149920005351305,-0.9363317489624023,0.1188296303153038,1.2306636571884155,0.01430533267557621,0.9126802682876587,0.0032425422687083483,-0.7555122971534729,-0.051689937710762024,0.051689937710762024,1.4604791402816772,-0.41516053676605225,0.007867716252803802,-0.5479896068572998,0.001716639962978661,-0.008964675478637218,0.8531700372695923,-0.3823869526386261,-0.01531124860048294,0.14614899456501007,-0.269757479429245,3.045919895172119,-0.0366874597966671,-0.002414340851828456,0.40427693724632263,-4.667163848876953,-0.13323523104190826,-0.0036880525294691324,-0.012882324866950512,0.014274323359131813,-3.881016254425049,-0.9907644391059875,0.7218483686447144,1.6004488468170166,-1.085508942604065,-0.042639169842004776,2.459021806716919,-0.25346916913986206,-0.023186633363366127,-0.7092252969741821,-2.1215014457702637,-0.05659078434109688,1741504614.9849625,1741504614893,0.08091336822509766,-1.443349365234375,-2.3232439050968816,2.630709228515625,-0.9879547119140625
1741504614.9884965,0.3238942623138428,0.01825692022998448,-0.0030589018543697175,-0.9998286493110513,0.0845320075750351,-0.10917918384075165,-0.08670338243246078,-3.3190970420837402,-0.3020414710044861,8.142356872558594,-0.15774059295654297,0.23250961303710938,0.387006938457489,-1.2745333909988403,0.005149920005351305,-0.9309910535812378,0.0551232174038887,1.2299007177352905,0.014686808921396732,0.9130617380142212,0.01201647985726595,-0.8257037997245789,-0.057793546468019485,0.06771191209554672,1.437972068786621,-0.43225476145744324,-0.00453136395663023,-0.501068115234375,-0.00019073777366429567,-0.009727626107633114,0.8302815556526184,-0.42093685269355774,-0.012639845721423626,0.2392878234386444,0.12621039152145386,2.791456460952759,-0.18132495880126953,-0.013880645856261253,0.2720286250114441,-4.205559730529785,-0.044268649071455,0.02528545819222927,0.053937654942274094,0.48404958844184875,-3.356114625930786,-0.18891362845897675,0.848321259021759,-1.5464740991592407,-0.7457698583602905,-0.4837477207183838,2.513087511062622,-0.11596694588661194,-0.05921626836061478,-1.1240901947021484,-1.8927980661392212,0.2785210609436035,1741504614.9849625,1741504614893,0.08091336822509766,-1.443349365234375,-2.3232439050968816,2.630709228515625,-0.9879547119140625
1741504615.0085814,0.31782078742980957,0.021459712713236302,-0.005076871653851165,-0.999756823484829,0.1213071420788765,0.16779592633247375,-0.27567416429519653,4.633047103881836,-2.0166893005371094,7.260124683380127,-0.15354347229003906,0.22449874877929688,0.4377431869506836,-1.2726260423660278,0.005531395319849253,-0.925650417804718,-0.005149920005351305,1.2356228828430176,0.01430533267557621,0.9164950251579285,0.02079041674733162,-0.8772030472755432,-0.05092698708176613,0.07839322835206985,1.3735027313232422,-0.42943519353866577,-0.008414298295974731,-0.44270238280296326,-0.0024795911740511656,-0.010490577667951584,0.805867075920105,-0.4507991075515747,-0.008704555220901966,0.12805594503879547,-0.1954212486743927,2.5066545009613037,0.1882682889699936,0.023601222783327103,0.3211640417575836,-4.143664360046387,0.4935694634914398,-0.011225377209484577,0.28311148285865784,0.35930436849594116,-2.429405450820923,0.4518355429172516,0.43503808975219727,-3.396379232406616,0.30952689051628113,-0.1473587155342102,2.689865827560425,-0.12515197694301605,-0.0695451945066452,-1.3061344623565674,-1.478163480758667,0.14020228385925293,1741504614.9849625,1741504614893,0.08091336822509766,-1.443349365234375,-2.3232439050968816,2.630709228515625,-0.9879547119140625
1741504615.0285606,0.3191021680831909,0.020526494816238222,-0.006493842291534923,-0.9997682196503607,0.034862734377384186,-0.05308564007282257,0.12733665108680725,0.39393937587738037,-1.1468781232833862,7.7393646240234375,-0.15392494201660156,0.22297286987304688,0.4846646785736084,-1.2703371047973633,0.005149920005351305,-0.9199283123016357,-0.059319447726011276,1.23905611038208,0.014686808921396732,0.9260318875312805,0.016212711110711098,-0.916113555431366,-0.03337911143898964,0.086785688996315,1.2819485664367676,-0.401646226644516,-0.008553274907171726,-0.4091325104236603,-0.004005493130534887,-0.01773861236870289,0.7784008383750916,-0.47819697856903076,-0.013902632519602776,-0.008331794291734695,-0.015068765729665756,2.180870771408081,0.26332658529281616,-0.008774812333285809,0.22514428198337555,-3.3492119312286377,0.01287560723721981,-0.004484156146645546,0.6646553874015808,-0.23183076083660126,-1.770179271697998,0.8736692667007446,0.3692668080329895,-4.702037811279297,1.5587049722671509,0.08517526090145111,1.5283739566802979,-0.04697130620479584,-0.34628090262413025,-1.3424707651138306,-1.328696370124817,-0.1909141093492508,1741504614.9849625,1741504614893,0.08091336822509766,-1.443349365234375,-2.3232439050968816,2.630709228515625,-0.9879547119140625
1741504615.048566,0.3211934566497803,0.02373106938562981,-0.005280632872088228,-0.9997044319509065,-0.0495411641895771,0.21964263916015625,0.13681283593177795,3.294471263885498,0.959926962852478,4.088699817657471,-0.15278053283691406,0.21076488494873047,0.5094605684280396,-1.2627075910568237,0.005149920005351305,-0.916876494884491,-0.09136339277029037,1.23600435256958,0.01430533267557621,0.9386205673217773,0.008201723918318748,-0.9332799315452576,-0.005531395319849253,0.09517814964056015,1.1739909648895264,-0.35615140199661255,-0.0055793775245547295,-0.3587777614593506,0.001716639962978661,-0.016212711110711098,0.7558938264846802,-0.4997308552265167,-0.005921519827097654,0.014176773838698864,-0.3709982633590698,1.0700304508209229,0.470256507396698,-0.009378371760249138,0.1462012380361557,-2.071220874786377,-0.11003752797842026,0.0027024196460843086,0.887782871723175,-0.37108907103538513,-0.5650361180305481,1.5026854276657104,0.3897912800312042,-5.5167999267578125,2.3073174953460693,0.2823318541049957,2.4936363697052,0.34343138337135315,0.12653356790542603,-1.1957896947860718,-1.0541932582855225,0.4136682450771332,1741504615.087688,1741504614993,0.1688382568359375,-1.4076431884765626,-2.2957497877310753,2.76840234375,-0.9801110839843751
1741504615.0685427,0.3255791664123535,0.027540255905723288,-0.0017187435391824212,-0.9996192176150346,-0.19215868413448334,0.13565853238105774,0.19946159422397614,-1.4519321918487549,0.2955910265445709,7.527349948883057,-0.14972877502441406,0.20809459686279297,0.5144197940826416,-1.2562226057052612,0.005149920005351305,-0.9134432077407837,-0.1024261862039566,1.2348599433898926,0.014686808921396732,0.953498125076294,-0.00476844422519207,-0.9317540526390076,0.02727550081908703,0.11310750246047974,1.0423818826675415,-0.31297826766967773,0.0021190792322158813,-0.3126192092895508,0.012779430486261845,-0.015449759550392628,0.7299534678459167,-0.5203055143356323,-0.008695653639733791,0.08284030854701996,-0.0893837958574295,0.1263100653886795,0.4935382306575775,-0.008485334925353527,0.19785161316394806,-0.5267478823661804,-0.09526865184307098,0.019854072481393814,0.9090855121612549,-0.738834798336029,-0.05200476571917534,1.573824167251587,1.102088451385498,-6.685387134552002,2.035142183303833,0.40652206540107727,2.493159770965576,0.4910992681980133,0.08931953459978104,-1.0528870820999146,-0.9693653583526611,-0.3309429883956909,1741504615.087688,1741504614993,0.1688382568359375,-1.4076431884765626,-2.2957497877310753,2.76840234375,-0.9801110839843751
1741504615.0886092,0.3304404020309448,0.03042181894829097,0.0038756123426623382,-0.9995296356591169,-0.3123593032360077,0.14842690527439117,0.21378250420093536,3.9800734519958496,-4.719451427459717,8.509743690490723,-0.15049171447753906,0.19970226287841797,0.5014495849609375,-1.2505004405975342,0.005149920005351305,-0.9149690866470337,-0.09441519528627396,1.23447847366333,0.014686808921396732,0.9637979865074158,-0.01430533267557621,-0.9042877554893494,0.04253452271223068,0.14820325374603271,0.9039062857627869,-0.29401838779449463,0.007362586911767721,-0.25463491678237915,0.029182879254221916,-0.01201647985726595,0.7101167440414429,-0.5215706825256348,-0.004968368448317051,-0.015846585854887962,-0.229265958070755,-0.7982515096664429,0.3680576682090759,-0.006718656979501247,-0.09962058067321777,0.7008852362632751,-0.025383172556757927,0.00996563769876957,0.6302258372306824,-0.34509068727493286,1.4378925561904907,0.9352274537086487,1.6796674728393555,-6.907013893127441,0.6563100814819336,0.2778598368167877,2.892120361328125,0.8432313799858093,0.15818272531032562,-1.0079518556594849,0.0912385806441307,0.14418229460716248,1741504615.087688,1741504614993,0.1688382568359375,-1.4076431884765626,-2.2957497877310753,2.76840234375,-0.9801110839843751
1741504615.108649,0.33555102348327637,0.026263321850878457,0.010201685145065847,-0.9996030029694579,-0.3045383393764496,-0.23658323287963867,0.23654331266880035,2.3483171463012695,-4.497257709503174,6.138739109039307,-0.15049171447753906,0.20542430877685547,0.4728389382362366,-1.2459226846694946,0.005149920005351305,-0.9157320261001587,-0.06694895774126053,1.2340970039367676,0.014686808921396732,0.9657053351402283,-0.013923857361078262,-0.8630884289741516,0.06656748056411743,0.16079194843769073,0.7745860815048218,-0.31737270951271057,0.011858869343996048,-0.20962081849575043,0.051689937710762024,-0.026131074875593185,0.7146944403648376,-0.5114061832427979,-0.028929108753800392,0.016244910657405853,0.11818154901266098,-1.4901677370071411,0.24698057770729065,0.0031360709108412266,-0.03054722771048546,1.9132851362228394,-0.021122774109244347,0.010512263514101505,0.06708862632513046,0.10966674983501434,2.156320095062256,1.0345700979232788,0.5608872175216675,-6.180001735687256,-1.5494929552078247,0.14267733693122864,1.995583415031433,1.1829513311386108,-0.8452550172805786,0.5302623510360718,0.5091447830200195,-1.1435329914093018,1741504615.087688,1741504614993,0.1688382568359375,-1.4076431884765626,-2.2957497877310753,2.76840234375,-0.9801110839843751
1741504615.1286738,0.33883559703826904,0.02261727959805735,0.027147755968043485,-0.999375534025865,-0.9333490133285522,-0.147269606590271,0.0908007100224495,29.29338264465332,1.500856637954712,30.18465232849121,-0.15774059295654297,0.21152782440185547,0.42782482504844666,-1.2443968057632446,0.00476844422519207,-0.9164950251579285,-0.02880140393972397,1.2340970039367676,0.014686808921396732,0.9618905782699585,-0.005912871100008488,-0.8257037997245789,0.07686731964349747,0.14095520973205566,0.7043945789337158,-0.3378926217556,0.015468561090528965,-0.19398032128810883,0.058175019919872284,-0.04482337832450867,0.7852674126625061,-0.49921533465385437,-0.0425969660282135,-0.21212847530841827,0.07932348549365997,-2.333923578262329,0.18340830504894257,-0.014298747293651104,0.005639265291392803,2.6326088905334473,0.010684613138437271,0.005321980454027653,-0.32481956481933594,0.5195675492286682,1.3369941711425781,0.41488125920295715,-1.0470651388168335,-1.8227747678756714,-0.02997930534183979,0.2934257388114929,0.44245490431785583,-0.019811337813735008,-1.00441575050354,4.0731120109558105,0.6513556838035583,-0.6037376523017883,1741504615.087688,1741504614993,0.1688382568359375,-1.4076431884765626,-2.2957497877310753,2.76840234375,-0.9801110839843751
1741504615.148695,0.3445941209793091,0.02206539642186244,0.03723053348690489,-0.9990630639038891,-0.2780787944793701,0.2366591989994049,0.24617791175842285,11.003593444824219,4.09505033493042,4.747533321380615,-0.14133644104003906,0.20618724822998047,0.36907759308815,-1.2386746406555176,0.005149920005351305,-0.9092469811439514,0.018501564860343933,1.2440153360366821,0.01430533267557621,0.9561684727668762,0.025749599561095238,-0.8241779208183289,0.05054550990462303,0.09212634712457657,0.7806897163391113,-0.29709914326667786,0.02544681914150715,-0.2313649207353592,0.061226826161146164,-0.06275273114442825,0.9111543297767639,-0.4711568057537079,-0.051036287099123,0.4038139581680298,-0.2939603328704834,-3.1379756927490234,0.3498758375644684,0.010710717178881168,0.24320389330387115,3.2240467071533203,0.7664274573326111,-0.01570456475019455,-0.24997355043888092,1.4472076892852783,-0.2995406985282898,-1.4700837135314941,-3.0269856452941895,3.386713743209839,2.235217809677124,0.425231397151947,-2.2360336780548096,0.7693169116973877,-0.9335664510726929,6.375575542449951,1.7107621431350708,-0.19096605479717255,1741504615.1910322,1741504615093,0.2645958557128906,-1.3563974609375,-2.427159613292904,2.8733686523437503,-0.9834415283203125
1741504615.1687372,0.3378021717071533,0.019302218042969062,0.04060428221908653,-0.9989888471069607,-0.2589113712310791,-0.1260993778705597,-0.22089582681655884,-3.3986270427703857,7.002917766571045,11.07339096069336,-0.14705848693847656,0.20962047576904297,0.2817196846008301,-1.2463041543960571,0.005149920005351305,-0.9122987985610962,0.06771191209554672,1.2470670938491821,0.01583123579621315,0.9546425342559814,0.04444190114736557,-0.802815318107605,0.03833829239010811,0.04139009863138199,0.7822155952453613,-0.26909884810447693,0.030402811244130135,-0.31376364827156067,0.07457847148180008,-0.059319447726011276,1.0732814073562622,-0.4252939224243164,-0.05555618554353714,-0.17721988260746002,-0.047496043145656586,-4.560020446777344,-0.5812885761260986,0.0011519163381308317,-0.24409812688827515,3.2086949348449707,0.11981511116027832,0.02970806695520878,-0.040460169315338135,0.9050707221031189,1.62419855594635,-0.5176410675048828,-2.161285400390625,-0.5149906873703003,1.1242002248764038,-0.010409321635961533,-3.7885470390319824,0.5384037494659424,0.4695603549480438,8.296431541442871,2.2640130519866943,-0.20957675576210022,1741504615.1910322,1741504615093,0.2645958557128906,-1.3563974609375,-2.427159613292904,2.8733686523437503,-0.9834415283203125
1741504615.188761,0.3177269697189331,0.015401953908875039,0.047886265545810686,-0.9987340413683038,-0.2678002715110779,-0.3013591170310974,-1.1372255086898804,-4.912115097045898,0.5907990336418152,16.455467224121094,-0.15392494201660156,0.22182846069335938,0.18863965570926666,-1.2470670938491821,0.00476844422519207,-0.9164950251579285,0.11272602528333664,1.2550780773162842,0.015449759550392628,0.9554055333137512,0.06313420087099075,-0.777256429195404,0.03147173300385475,0.031090257689356804,0.7982375621795654,-0.2496446818113327,0.025438658893108368,-0.41447317600250244,0.0864042118191719,-0.05130846053361893,1.2296863794326782,-0.39363762736320496,-0.022619906812906265,-0.07979542016983032,0.3574940264225006,-4.395989418029785,0.032569680362939835,0.026830781251192093,-0.0874725729227066,2.9123237133026123,0.6872743964195251,0.0940677598118782,0.0032463460229337215,1.0434539318084717,0.9134119749069214,-0.1625332236289978,-0.32013043761253357,1.263447642326355,0.9124270677566528,-0.1872839480638504,-5.087080478668213,0.5930013656616211,0.18174032866954803,7.425177574157715,1.3836323022842407,2.081665277481079,1741504615.1910322,1741504615093,0.2645958557128906,-1.3563974609375,-2.427159613292904,2.8733686523437503,-0.9834415283203125
1741504615.2087958,0.2923462390899658,0.007531250876275871,0.048927959278043144,-0.9987739158894393,-0.08837411552667618,-0.3612559735774994,-1.2996777296066284,1.3061246871948242,-1.7474356889724731,9.572578430175781,-0.13866615295410156,0.22411727905273438,0.11577782779932022,-1.2463041543960571,0.00476844422519207,-0.916113555431366,0.1646067053079605,1.2615631818771362,0.015449759550392628,0.9554055333137512,0.08335240930318832,-0.7501716613769531,0.04940108209848404,0.02536812424659729,0.8173113465309143,-0.25273430347442627,0.024511579424142838,-0.5109865069389343,0.09861142933368683,-0.07495994865894318,1.3361181020736694,-0.40073153376579285,0.0037601650692522526,0.30059173703193665,0.02507585473358631,-3.599144697189331,0.071522556245327,-0.017759546637535095,-0.030150869861245155,3.563816785812378,0.32376793026924133,-0.07342715561389923,-0.009514790028333664,0.917258620262146,1.4775853157043457,0.7822118401527405,-0.10985636711120605,0.6998313069343567,-0.2474978268146515,-0.16747479140758514,-4.7825822830200195,0.5502030849456787,-1.2876112461090088,4.918709754943848,-0.7349705696105957,0.7252285480499268,1741504615.1910322,1741504615093,0.2645958557128906,-1.3563974609375,-2.427159613292904,2.8733686523437503,-0.9834415283203125
1741504615.228776,0.2652524709701538,-0.003837894306978517,0.05334336958708739,-0.9985688536542605,-0.22529028356075287,-0.5158687829971313,-1.3836219310760498,-1.3694058656692505,-6.892518043518066,12.551936149597168,-0.15583229064941406,0.23212814331054688,0.049782559275627136,-1.2413450479507446,0.00476844422519207,-0.916113555431366,0.22220951318740845,1.2623261213302612,0.014686808921396732,0.955024003982544,0.09479667246341705,-0.7230868935585022,0.06427863240242004,0.027656977996230125,0.8260852694511414,-0.2619186341762543,0.012940607033669949,-0.5956740379333496,0.08525978773832321,-0.10814831405878067,1.3780803680419922,-0.43986839056015015,-0.00716227013617754,-0.46895739436149597,0.2768039405345917,-3.2302637100219727,0.33611997961997986,-0.02022288553416729,-0.0032677522394806147,3.9147515296936035,0.02353603206574917,0.007312592584639788,-0.02370709367096424,0.5382530093193054,1.4000003337860107,0.7006852030754089,0.060048963874578476,0.4697206914424896,-0.48449939489364624,-0.5491995215415955,-4.133957386016846,-0.8049135208129883,-1.61724054813385,1.5762457847595215,-2.0379879474639893,-0.33918267488479614,1741504615.1910322,1741504615093,0.2645958557128906,-1.3563974609375,-2.427159613292904,2.8733686523437503,-0.9834415283203125
1741504615.2488537,0.24655067920684814,-0.009729776675827341,0.054546729194302236,-0.9984638129547019,-0.03582758456468582,-0.20108185708522797,-0.9522554278373718,3.6450672149658203,-3.0646567344665527,10.559916496276855,-0.15354347229003906,0.22106552124023438,-0.007057297509163618,-1.2409635782241821,0.00476844422519207,-0.9172579646110535,0.28248265385627747,1.2608002424240112,0.014686808921396732,0.9557870030403137,0.10700388997793198,-0.6906614899635315,0.07648584991693497,0.029564354568719864,0.8310444951057434,-0.2796468436717987,-0.0011542699066922069,-0.6612878441810608,0.06733043491840363,-0.14171816408634186,1.362821340560913,-0.48550331592559814,0.0032720807939767838,0.06848116219043732,-0.2761470377445221,-2.7379872798919678,-0.029279176145792007,-0.01783520169556141,-0.09495725482702255,4.029712200164795,-0.1391780525445938,-0.02607889659702778,0.052905354648828506,0.41463974118232727,1.5001530647277832,0.5222766399383545,0.09239405393600464,0.10651251673698425,-0.9362779259681702,-0.7229920029640198,-3.093174457550049,-0.8801752328872681,-1.5780900716781616,-1.1104308366775513,-2.212118625640869,0.6933532357215881,1741504615.1910322,1741504615093,0.2645958557128906,-1.3563974609375,-2.427159613292904,2.8733686523437503,-0.9834415283203125
1741504615.2688208,0.23343229293823242,-0.01291061738208401,0.054840810784177206,-0.9984116392707707,-0.018403131514787674,-0.01884690299630165,-0.5830252170562744,-1.3856405019760132,-1.5213220119476318,11.224337577819824,-0.15545082092285156,0.21152782440185547,-0.06733043491840363,-1.2413450479507446,0.005149920005351305,-0.9233615398406982,0.3393225073814392,1.2577484846115112,0.01430533267557621,0.955024003982544,0.1028076633810997,-0.6624323129653931,0.0871671661734581,0.03452353551983833,0.8310444951057434,-0.29981520771980286,-0.012122206389904022,-0.7131685614585876,0.04940108209848404,-0.16002899408340454,1.3078888654708862,-0.5089425444602966,0.009804917499423027,-0.0445895716547966,-0.261186420917511,-3.2755258083343506,-0.026555867865681648,-0.000686704006511718,-0.32299232482910156,3.7180957794189453,-0.18905484676361084,-0.012728078290820122,-0.06805653125047684,-0.24148008227348328,1.6778128147125244,0.5424342155456543,0.16103549301624298,0.11360350996255875,-1.0166091918945312,-0.48884591460227966,-2.4124317169189453,-0.8882877230644226,-0.8306623697280884,-2.9492859840393066,-0.9045186638832092,0.1626628190279007,1741504615.1910322,1741504615093,0.2645958557128906,-1.3563974609375,-2.427159613292904,2.8733686523437503,-0.9834415283203125
1741504615.288841,0.22888851165771484,-0.004957272390584567,0.05534928467705671,-0.9984547471649297,-0.025829430669546127,0.3589973747730255,-0.16858436167240143,1.1840672492980957,-1.6676586866378784,8.005735397338867,-0.15697765350341797,0.19092845916748047,-0.11539635062217712,-1.2409635782241821,0.00476844422519207,-0.9390020370483398,0.3858625292778015,1.2573670148849487,0.01430533267557621,0.9523537158966064,0.09403372555971146,-0.6280995011329651,0.09670405089855194,0.03643091395497322,0.8295185565948486,-0.32683366537094116,-0.02171866036951542,-0.7543678879737854,0.031090257689356804,-0.1672770231962204,1.2235828638076782,-0.4992445111274719,0.013346970081329346,-0.07505481690168381,-0.49162551760673523,-2.3137013912200928,-0.0003897542483173311,0.0014296392910182476,-0.7974474430084229,2.9745516777038574,-0.0035036494955420494,0.004388532601296902,-0.24586248397827148,-0.35918909311294556,1.6489542722702026,0.40382131934165955,0.16606579720973969,-0.10858061909675598,-1.399617314338684,-0.4684735834598541,-2.0190577507019043,-0.9422212839126587,-0.37938451766967773,-4.488044738769531,0.7567864060401917,0.3077827990055084,1741504615.1910322,1741504615093,0.2645958557128906,-1.3563974609375,-2.427159613292904,2.8733686523437503,-0.9834415283203125
1741504615.308846,0.2257481813430786,0.0009813024251671696,0.055420256610725874,-0.9984626343548123,0.0014653090620413423,0.29385125637054443,-0.1985514760017395,-0.8128737211227417,-1.966772198677063,8.484046936035156,-0.15697765350341797,0.18863964080810547,-0.14057374000549316,-1.2405821084976196,0.00476844422519207,-0.954261064529419,0.4331654906272888,1.2604187726974487,0.015449759550392628,0.9412909150123596,0.10013733059167862,-0.5964370369911194,0.1024261862039566,0.03604944050312042,0.8291370868682861,-0.3582426607608795,-0.03332987427711487,-0.778019368648529,0.004005493130534887,-0.17261768877506256,1.11295485496521,-0.4607219994068146,0.016061177477240562,-0.0037355709355324507,-0.05358784645795822,-0.9873303174972534,0.03939437121152878,-0.008973811753094196,-0.7279186248779297,3.298853874206543,0.27517613768577576,0.03729437664151192,-0.8415044546127319,0.408239483833313,1.5484418869018555,0.22075946629047394,-0.0975726917386055,-0.011157792992889881,-1.6113637685775757,-0.6146677732467651,-0.8786740899085999,-1.4067158699035645,-0.22950059175491333,-5.653596878051758,1.9923781156539917,0.12970882654190063,1741504615.1910322,1741504615093,0.2645958557128906,-1.3563974609375,-2.427159613292904,2.8733686523437503,-0.9834415283203125
1741504615.328894,0.2206261157989502,0.005094165766871306,0.05558733593374599,-0.9984408332790323,-0.005122758448123932,0.16754357516765594,-0.24335138499736786,1.6802095174789429,-2.3578081130981445,7.8249897956848145,-0.15583229064941406,0.18444347381591797,-0.13942931592464447,-1.2394375801086426,0.00476844422519207,-0.9660868048667908,0.4663538634777069,1.2604187726974487,0.01506828423589468,0.9287022352218628,0.12073700875043869,-0.5636301040649414,0.10204470902681351,0.02841992862522602,0.8272297382354736,-0.3925803005695343,-0.044905610382556915,-0.776493489742279,-0.02994582988321781,-0.18787670135498047,0.9878309369087219,-0.4160866439342499,0.011927391402423382,0.02283036708831787,-0.11681660264730453,0.18606582283973694,0.0371147096157074,-0.00772091094404459,-0.5912672877311707,1.921027421951294,-0.10865245759487152,0.006068400572985411,-0.7794026732444763,1.0732437372207642,1.5850927829742432,-0.060581058263778687,-0.5074406862258911,-0.14703749120235443,-1.7028870582580566,-0.5452930331230164,0.22148218750953674,-1.8060753345489502,-0.8902358412742615,-6.256715774536133,2.2690374851226807,-0.2920147776603699,1741504615.1910322,1741504615093,0.2645958557128906,-1.3563974609375,-2.427159613292904,2.8733686523437503,-0.9834415283203125
1741504615.3489113,0.213525652885437,0.006579419625354237,0.05540468561355307,-0.9984423028144676,0.021610310301184654,0.08953464031219482,-0.39581185579299927,0.6877676844596863,-1.2364848852157593,5.703739643096924,-0.15163612365722656,0.18787670135498047,-0.11577782779932022,-1.23905611038208,0.00476844422519207,-0.9710460305213928,0.4800869822502136,1.2600373029708862,0.01506828423589468,0.918402373790741,0.1508735716342926,-0.5285343527793884,0.09288929402828217,0.01506828423589468,0.8257037997245789,-0.4250628650188446,-0.05120420083403587,-0.7543678879737854,-0.06656748056411743,-0.21686884760856628,0.8581292629241943,-0.37022361159324646,0.0032283547334372997,0.11656350642442703,0.0643753930926323,1.3356722593307495,0.01053537055850029,-0.00025341889704577625,-0.1740967482328415,0.6941226720809937,-0.03125661984086037,-0.00113727618008852,-0.6376315951347351,1.489008903503418,1.7678968906402588,-0.5645332336425781,-0.7195775508880615,-0.09207690507173538,-1.6335591077804565,-0.2279656082391739,1.175754427909851,-1.7626515626907349,-1.5966041088104248,-6.413197994232178,2.2005560398101807,-0.4744926989078522,1741504615.3957396,1741504615193,0.3515650329589844,-1.317876220703125,-2.469842017409883,2.99782861328125,-0.976394287109375
1741504615.3689225,0.20303523540496826,0.006973350713792873,0.05128655714853656,-0.9986596324252185,0.24823124706745148,0.020148245617747307,-0.5532485842704773,-0.35484522581100464,-2.458942413330078,10.872384071350098,-0.14629554748535156,0.18825817108154297,-0.07038223743438721,-1.23905611038208,0.00476844422519207,-0.9691386222839355,0.47436484694480896,1.2577484846115112,0.01506828423589468,0.9122987985610962,0.17795833945274353,-0.4884794354438782,0.06961929053068161,-0.0020981156267225742,0.8234149813652039,-0.45225095748901367,-0.04041820764541626,-0.725375771522522,-0.09403372555971146,-0.2588311731815338,0.7372015118598938,-0.3377683460712433,-0.007721028756350279,0.14980976283550262,0.014547993429005146,2.483480215072632,0.0020759967155754566,0.006886501796543598,0.11362630128860474,-0.4872208833694458,-0.20426510274410248,0.0032727080397307873,-0.3943161964416504,1.3438951969146729,2.052950382232666,-1.3745548725128174,-0.8517865538597107,-0.11639218777418137,-1.331343650817871,0.7226570248603821,1.3882392644882202,-1.3269915580749512,-1.9866178035736084,-5.844374656677246,1.576003074645996,-0.5134475231170654,1741504615.3957396,1741504615193,0.3515650329589844,-1.317876220703125,-2.469842017409883,2.99782861328125,-0.976394287109375
1741504615.3890657,0.19220733642578125,-0.000789228046336778,0.04593229106454413,-0.998944243567504,0.22076022624969482,-0.44496554136276245,-0.5543556809425354,0.12251841276884079,-3.230985164642334,13.643366813659668,-0.14171791076660156,0.19817638397216797,-0.007057297509163618,-1.2394375801086426,0.00476844422519207,-0.962272047996521,0.4549095928668976,1.2516448497772217,0.01506828423589468,0.9065766334533691,0.1962691694498062,-0.4339284300804138,0.05741206929087639,-0.020027466118335724,0.8196002244949341,-0.47012248635292053,-0.014928510412573814,-0.6921873688697815,-0.1035706102848053,-0.2958342730998993,0.7188906669616699,-0.3101019859313965,-0.019919920712709427,0.13932625949382782,0.30448728799819946,3.446357011795044,-0.053743086755275726,-0.007071278989315033,0.3668525218963623,-1.4297500848770142,-0.36016857624053955,0.021477872505784035,-0.39665836095809937,0.7805884480476379,2.7132363319396973,-0.4927147924900055,-0.9626621603965759,-0.3359920084476471,-0.7964489459991455,1.2970168590545654,1.9884724617004395,-0.1767224669456482,-1.7683591842651367,0.08050649613142014,1.254321575164795,-0.6819409132003784,1741504615.3957396,1741504615193,0.3515650329589844,-1.317876220703125,-2.469842017409883,2.99782861328125,-0.976394287109375
1741504615.4090016,0.17978417873382568,-0.0065392455620637575,0.045638884620991436,-0.9989365998290537,0.017233703285455704,-0.16548745334148407,-0.6208630204200745,6.508195877075195,-0.33416491746902466,10.005415916442871,-0.14743995666503906,0.19626903533935547,0.06923781335353851,-1.2424894571304321,0.005149920005351305,-0.9576943516731262,0.41371023654937744,1.2539336681365967,0.015449759550392628,0.9077210426330566,0.19283588230609894,-0.38242924213409424,0.04177157208323479,-0.04406042397022247,0.813878059387207,-0.4557991027832031,-0.014031194150447845,-0.6368734240531921,-0.086785688996315,-0.28515297174453735,0.7307164072990417,-0.31575703620910645,-0.0320948101580143,-0.19305692613124847,-0.11322658509016037,3.873350143432617,-0.2299528867006302,-0.0030956054106354713,0.20346173644065857,-2.986304521560669,0.18719813227653503,0.013623383827507496,0.10897678881883621,-0.2536979913711548,2.3656909465789795,-0.7739179134368896,-1.3727617263793945,-0.1607723832130432,0.9423704147338867,-0.006901032291352749,2.550635576248169,0.724774181842804,1.0346143245697021,0.30058717727661133,-0.41508007049560547,-0.6279420852661133,1741504615.3957396,1741504615193,0.3515650329589844,-1.317876220703125,-2.469842017409883,2.99782861328125,-0.976394287109375
1741504615.4290233,0.16990399360656738,-0.009380631402384125,0.04450782650643583,-0.9989649929472831,0.01870955526828766,-0.12367454916238785,-0.49900496006011963,-0.8899099826812744,-2.046485185623169,10.85980224609375,-0.13828468322753906,0.20008373260498047,0.14515145123004913,-1.2474485635757446,0.00476844422519207,-0.952735185623169,0.3568703830242157,1.2539336681365967,0.01506828423589468,0.9100099205970764,0.18825818598270416,-0.3694590628147125,0.039101243019104004,-0.08411535620689392,0.8730067610740662,-0.42518776655197144,-0.0023657784331589937,-0.6006332635879517,-0.06923781335353851,-0.23823148012161255,0.7280460596084595,-0.3259493410587311,-0.037463389337062836,0.24049516022205353,0.13732466101646423,3.7400174140930176,-0.3328607380390167,-0.0240319836884737,0.2550464868545532,-3.909757137298584,-0.056333914399147034,-0.02869383431971073,0.12549526989459991,-0.32689720392227173,0.15924713015556335,-0.15386609733104706,-1.970031499862671,3.69942307472229,1.542048454284668,0.6096593737602234,1.7897076606750488,1.0434695482254028,2.0390706062316895,-0.01484067551791668,-0.3740277886390686,-0.07769916951656342,1741504615.3957396,1741504615193,0.3515650329589844,-1.317876220703125,-2.469842017409883,2.99782861328125,-0.976394287109375
1741504615.44902,0.1720438003540039,-0.008429266340599635,0.04574836245706819,-0.9989174314233664,-0.06924678385257721,0.02780008688569069,0.2744709253311157,-1.7578133344650269,-2.694491386413574,7.619562149047852,-0.13904762268066406,0.19932079315185547,0.2134355753660202,-1.2516448497772217,0.005149920005351305,-0.9447242021560669,0.2912565767765045,1.2554595470428467,0.01506828423589468,0.9130617380142212,0.1802472025156021,-0.42668038606643677,0.03337911143898964,-0.12607766687870026,1.0130083560943604,-0.3842008411884308,0.007387634366750717,-0.5628671646118164,-0.03032730519771576,-0.20771344006061554,0.7299534678459167,-0.3310272693634033,-0.043588098138570786,-4.271127181709744e-05,-0.03899885341525078,3.035667657852173,-0.3309153616428375,-0.006189099047333002,0.3300893306732178,-4.416846752166748,0.09525445848703384,0.01328903716057539,0.14358581602573395,-0.4030229449272156,-3.215195417404175,-0.44780194759368896,-1.9302891492843628,7.394877910614014,2.144139051437378,0.35208725929260254,1.7463040351867676,1.7139911651611328,1.4487687349319458,-0.04848005622625351,-0.3002098798751831,-0.2774246037006378,1741504615.3957396,1741504615193,0.3515650329589844,-1.317876220703125,-2.469842017409883,2.99782861328125,-0.976394287109375
1741504615.4690936,0.1907275915145874,-0.00633711084358681,0.04934868246730931,-0.9987615073504269,-0.18450400233268738,0.09064739942550659,1.0072726011276245,1.7390605211257935,6.462219715118408,12.597224235534668,-0.13942909240722656,0.21229076385498047,0.26836803555488586,-1.2543151378631592,0.005149920005351305,-0.9390020370483398,0.22678720951080322,1.2546966075897217,0.01506828423589468,0.9130617380142212,0.17376211285591125,-0.5315861701965332,0.004005493130534887,-0.1508735716342926,1.2014572620391846,-0.35386329889297485,0.0067116497084498405,-0.536163866519928,-0.010490577667951584,-0.18825818598270416,0.7280460596084595,-0.3344901502132416,-0.03547579422593117,-0.013638150878250599,0.3206186592578888,2.6207964420318604,-0.07874699681997299,-0.0031174756586551666,0.2921852767467499,-4.20353889465332,-0.07526635378599167,-0.001360704773105681,-0.00595097616314888,-0.239425390958786,-5.457973003387451,-1.6318426132202148,-1.1016919612884521,9.496513366699219,1.2259725332260132,0.0073432219214737415,1.2841460704803467,0.8523929119110107,0.8802495002746582,0.026059644296765327,-0.16218583285808563,0.5006373524665833,1741504615.3957396,1741504615193,0.3515650329589844,-1.317876220703125,-2.469842017409883,2.99782861328125,-0.976394287109375
1741504615.4890888,0.21497797966003418,-0.0022469241823181636,0.05173847511326354,-0.9986581404688358,-0.10521753877401352,0.16651737689971924,1.2186264991760254,4.172214508056641,0.854726254940033,10.602850914001465,-0.13256263732910156,0.21152782440185547,0.31757840514183044,-1.2546966075897217,0.005149920005351305,-0.9367132186889648,0.15850308537483215,1.2489745616912842,0.01506828423589468,0.9130617380142212,0.1806286722421646,-0.649462103843689,-0.03452353551983833,-0.1497291475534439,1.3784618377685547,-0.364734947681427,0.012161471880972385,-0.5071717500686646,0.00019073777366429567,-0.17757686972618103,0.7310978770256042,-0.33831995725631714,-0.028265006840229034,0.2082076519727707,-0.005757815670222044,2.418771266937256,-0.05494130402803421,0.0036658442113548517,0.05235714837908745,-4.545058727264404,-0.4560735523700714,0.004299717955291271,0.02312222681939602,0.42588862776756287,-5.8814568519592285,-1.9203009605407715,0.35430219769477844,8.19575023651123,-0.8537217378616333,0.34847521781921387,1.5026110410690308,0.5230411887168884,0.47327786684036255,0.12735968828201294,-0.1920212060213089,0.25469136238098145,1741504615.3957396,1741504615193,0.3515650329589844,-1.317876220703125,-2.469842017409883,2.99782861328125,-0.976394287109375
1741504615.509057,0.23806452751159668,-0.00015172768267794439,0.05289363809988628,-0.9986001402099183,-0.048419199883937836,0.038353074342012405,1.0237404108047485,0.4530324339866638,2.337249755859375,12.064146041870117,-0.11882972717285156,0.21686840057373047,0.361829549074173,-1.2550780773162842,0.00476844422519207,-0.9390020370483398,0.09136339277029037,1.2402005195617676,0.01506828423589468,0.9126802682876587,0.18749523162841797,-0.7539864182472229,-0.06237125024199486,-0.12417028844356537,1.484130620956421,-0.4047626554965973,0.009968779981136322,-0.47627222537994385,0.000572213320992887,-0.16269932687282562,0.7307164072990417,-0.34193894267082214,-0.021423138678073883,0.4361918568611145,0.13842234015464783,2.0858025550842285,-0.03954629227519035,-0.0323919877409935,-0.14470434188842773,-4.441751480102539,-0.5533140897750854,0.006841802969574928,-0.07197864353656769,0.14590805768966675,-4.994744300842285,-1.2764270305633545,1.396950125694275,4.4274163246154785,-2.1237990856170654,-0.2551632225513458,1.5548001527786255,0.005268253851681948,0.664776623249054,0.03854259476065636,-0.20114818215370178,0.4718819558620453,1741504615.3957396,1741504615193,0.3515650329589844,-1.317876220703125,-2.469842017409883,2.99782861328125,-0.976394287109375
1741504615.5291548,0.24936771392822266,0.00148965281754042,0.04879003287737358,-0.9988079463171626,0.26157039403915405,0.07433059811592102,0.47664573788642883,3.263357639312744,6.298760890960693,9.009389877319336,-0.10891151428222656,0.21496105194091797,0.4011215269565582,-1.2569855451583862,0.005149920005351305,-0.9386205673217773,0.03376058489084244,1.232571005821228,0.01506828423589468,0.9134432077407837,0.18940261006355286,-0.8299000263214111,-0.07457847148180008,-0.08487831056118011,1.500152587890625,-0.4492287337779999,-0.0023859951179474592,-0.4404135048389435,0.001716639962978661,-0.14438849687576294,0.7310978770256042,-0.35040396451950073,-0.011409585364162922,0.3109797239303589,-0.022999748587608337,1.9517199993133545,-0.17775078117847443,0.0034773594234138727,0.05509447678923607,-3.727935552597046,-0.4762272834777832,-0.012863358482718468,0.06289999932050705,0.06928994506597519,-3.5405654907226562,-0.5644145011901855,1.913059949874878,0.16253623366355896,-2.1402652263641357,-0.5453896522521973,1.7441037893295288,0.12963055074214935,0.9997247457504272,-0.02045571058988571,-0.5131880044937134,0.5432815551757812,1741504615.3957396,1741504615193,0.3515650329589844,-1.317876220703125,-2.469842017409883,2.99782861328125,-0.976394287109375
1741504615.5491202,0.24891972541809082,0.002925166181088289,0.038780533989662545,-0.9992434706247971,0.5042266249656677,0.09548565745353699,-0.033980242908000946,-2.30996036529541,-0.6660499572753906,7.912761211395264,-0.09975624084472656,0.21343517303466797,0.4377431869506836,-1.2623261213302612,0.005149920005351305,-0.9367132186889648,-0.01506828423589468,1.231045126914978,0.01506828423589468,0.9142061471939087,0.18673227727413177,-0.8783474564552307,-0.08258945494890213,-0.03299763426184654,1.4368276596069336,-0.47216150164604187,-0.0083002345636487,-0.41027694940567017,0.005531395319849253,-0.1199740618467331,0.727664589881897,-0.3784363865852356,-0.005268842447549105,0.2695580720901489,-0.04140390083193779,1.8896435499191284,-0.33712777495384216,-0.01242787390947342,0.09578488022089005,-3.33882737159729,0.014783317223191261,0.004096055403351784,0.14799590408802032,-0.1925145536661148,-2.122314929962158,-0.382478266954422,2.501105546951294,-3.685905933380127,-0.9101659655570984,-0.13188378512859344,1.4194910526275635,0.1179213672876358,1.289042353630066,-0.15679417550563812,-1.5101839303970337,0.25096115469932556,1741504615.3957396,1741504615193,0.3515650329589844,-1.317876220703125,-2.469842017409883,2.99782861328125,-0.976394287109375
1741504615.5691144,0.24884140491485596,0.007205362481761776,0.028143272479767778,-0.9995779304114492,0.5242756009101868,0.22669930756092072,0.01973586529493332,-2.5221807956695557,2.817965030670166,6.973789691925049,-0.09632301330566406,0.21114635467529297,0.4682612419128418,-1.2634705305099487,0.005149920005351305,-0.9367132186889648,-0.06961929053068161,1.232571005821228,0.015449759550392628,0.9225986003875732,0.16994735598564148,-0.8978027105331421,-0.08182650804519653,0.005912871100008488,1.3155183792114258,-0.46298947930336,-0.008957416750490665,-0.3866254687309265,0.0078202486038208,-0.09708552807569504,0.7242313027381897,-0.4212884306907654,-0.007178046274930239,0.11848360300064087,-0.05489298328757286,1.3404394388198853,-0.011330735869705677,-0.005929797422140837,-0.01763421669602394,-3.3628594875335693,0.0285065695643425,0.050233300775289536,0.6305697560310364,-0.9006590843200684,-0.7976276874542236,0.10414278507232666,1.847839117050171,-6.429706573486328,0.7087075710296631,-0.05471184477210045,1.1528682708740234,0.18661350011825562,1.174505591392517,-0.17735636234283447,-2.2227370738983154,-0.11458146572113037,1741504615.6021855,1741504615393,0.556906494140625,-1.286281982421875,-2.6042501620458207,3.2371103515625,-0.9585073852539062
1741504615.589142,0.2444610595703125,0.014624569743133543,0.017886133329492664,-0.9997330684709533,0.5004204511642456,0.4170306324958801,-0.20898669958114624,1.1405577659606934,-0.68726646900177,6.831403732299805,-0.09517860412597656,0.20466136932373047,0.481612890958786,-1.2638521194458008,0.005149920005351305,-0.9370946884155273,-0.10547798871994019,1.2321895360946655,0.01506828423589468,0.9405279755592346,0.14438849687576294,-0.8947508931159973,-0.07305257022380829,0.023460745811462402,1.1614023447036743,-0.42592984437942505,-0.010332546196877956,-0.36373692750930786,0.01125352829694748,-0.0722896158695221,0.724612832069397,-0.467317670583725,-0.011676167137920856,0.014805562794208527,-0.16935457289218903,0.5458981394767761,-0.008763788267970085,0.0007136258645914495,-0.02936072275042534,-2.3182311058044434,-0.021793873980641365,-0.011754059232771397,1.186810851097107,-1.328881025314331,0.3719522953033447,0.5071233510971069,0.6656972169876099,-7.9072794914245605,1.9474354982376099,-0.011468355543911457,1.152234435081482,0.13825838267803192,1.2062312364578247,0.05699881538748741,-2.241558790206909,-0.11501547694206238,1741504615.6021855,1741504615393,0.556906494140625,-1.286281982421875,-2.6042501620458207,3.2371103515625,-0.9585073852539062
1741504615.6092513,0.2379683256149292,0.027193771682781597,0.01198131164781423,-0.9995583759605352,0.25137752294540405,0.6683505773544312,-0.35210663080215454,8.612619400024414,1.5446770191192627,2.5044000148773193,-0.09441566467285156,0.19207286834716797,0.47894254326820374,-1.2630890607833862,0.00476844422519207,-0.9382390975952148,-0.1184481605887413,1.231808066368103,0.01506828423589468,0.9569314122200012,0.11692225188016891,-0.8703364729881287,-0.05664911866188049,0.03299763426184654,0.9977492690086365,-0.3821547031402588,-0.0024340522941201925,-0.344663143157959,0.026512550190091133,-0.05283436179161072,0.726901650428772,-0.50201815366745,-0.010682947002351284,0.008513874374330044,-0.3600618839263916,-0.22920407354831696,0.04021315649151802,-0.01862337812781334,-0.053958211094141006,-0.6501309871673584,-0.00918970350176096,0.008714839816093445,1.0610872507095337,-1.3576711416244507,1.03360915184021,0.9007956981658936,0.5091818571090698,-8.440567016601562,2.1130495071411133,0.5311709642410278,1.0089294910430908,0.9333708882331848,0.8983468413352966,0.1799761950969696,-1.6241735219955444,0.06070873886346817,1741504615.6021855,1741504615393,0.556906494140625,-1.286281982421875,-2.6042501620458207,3.2371103515625,-0.9585073852539062
1741504615.629329,0.23090267181396484,0.03498925460352855,0.014394890747593142,-0.9992840132728303,-0.1918528974056244,0.36153197288513184,-0.3219734728336334,-2.4205236434936523,-0.3859752118587494,2.29949688911438,-0.09823036193847656,0.19130992889404297,0.464446485042572,-1.2596558332443237,0.00476844422519207,-0.9386205673217773,-0.10814831405878067,1.2314265966415405,0.01506828423589468,0.967994213104248,0.09784847497940063,-0.8493552803993225,-0.04177157208323479,0.053215838968753815,0.8470664620399475,-0.35549700260162354,0.008749709464609623,-0.31910428404808044,0.051689937710762024,-0.050164032727479935,0.733386754989624,-0.5078069567680359,-0.002774555003270507,-0.11088689416646957,-0.05234207212924957,-0.8536154627799988,0.27829211950302124,-0.016386473551392555,-0.04542362689971924,0.9491170644760132,0.00568495923653245,-0.002453911816701293,0.682579517364502,-0.8425067067146301,1.2160277366638184,0.6477881073951721,0.8844865560531616,-7.173735618591309,1.092639684677124,0.44404515624046326,1.2665690183639526,1.309768795967102,-0.07944652438163757,0.36399614810943604,-0.05638034641742706,0.3558935225009918,1741504615.6021855,1741504615393,0.556906494140625,-1.286281982421875,-2.6042501620458207,3.2371103515625,-0.9585073852539062
1741504615.6493087,0.22536802291870117,0.03770500147272441,0.025119862771065087,-0.9989731354537542,-0.5600606203079224,0.09211588650941849,-0.20582877099514008,-0.12351556122303009,-6.684082984924316,10.352455139160156,-0.10166358947753906,0.20466136932373047,0.4365987777709961,-1.2505004405975342,0.00476844422519207,-0.9382390975952148,-0.07610437273979187,1.23447847366333,0.01506828423589468,0.9721904397010803,0.09670405089855194,-0.8249408602714539,-0.008964675478637218,0.05130846053361893,0.7421606779098511,-0.35233989357948303,0.011632531881332397,-0.2924010157585144,0.0711451917886734,-0.06885633617639542,0.7623788714408875,-0.4902138411998749,-0.028877275064587593,-0.10882508754730225,0.28786346316337585,-1.522689700126648,0.6525065898895264,-0.01991312950849533,0.014753666706383228,2.34706974029541,0.18674364686012268,-0.0006041696178726852,0.2707885801792145,0.09509196877479553,1.101423978805542,1.659604549407959,-0.3941035568714142,-4.575103759765625,0.2773381173610687,0.15485943853855133,1.0856741666793823,0.7958505749702454,-0.9737279415130615,1.6664650440216064,0.8857046365737915,-1.2290606498718262,1741504615.6021855,1741504615393,0.556906494140625,-1.286281982421875,-2.6042501620458207,3.2371103515625,-0.9585073852539062
1741504615.6693141,0.22582828998565674,0.029607978912377885,0.042245711388692486,-0.9986684472105782,-0.7974247932434082,-0.29993462562561035,0.1457899659872055,-9.646273612976074,7.827171325683594,14.487276077270508,-0.10433387756347656,0.22564315795898438,0.39654383063316345,-1.2379117012023926,0.005149920005351305,-0.9328984618186951,-0.02384222112596035,1.2440153360366821,0.015449759550392628,0.970283031463623,0.1039520874619484,-0.7997635006904602,0.009346150793135166,0.024605173617601395,0.7932783961296082,-0.3263544738292694,0.013267667964100838,-0.2950713336467743,0.06351567804813385,-0.09822995215654373,0.8539330363273621,-0.47717180848121643,-0.04582685977220535,-0.10766220092773438,0.615689754486084,-2.130948543548584,0.8678128123283386,0.03241844102740288,0.3704589307308197,3.589864730834961,0.8198999762535095,0.004736596252769232,-0.12664362788200378,0.6222625970840454,1.3860726356506348,0.3293892443180084,-1.3977376222610474,3.155440092086792,1.1984273195266724,0.019985264167189598,-0.3254719078540802,-0.24608729779720306,-1.5583640336990356,4.944746494293213,0.7329710125923157,-0.7316321730613708,1741504615.7086256,1741504615593,0.7487449951171875,-1.2375968017578125,-1.9004984096213342,3.4977473144531253,-0.9184109497070313
1741504615.6893432,0.2246180772781372,0.02606901951773573,0.04875246374760601,-0.99847063226713,-0.34342044591903687,-0.38438665866851807,-0.2878257930278778,-2.4191319942474365,-7.92606782913208,9.369207382202148,-0.08869266510009766,0.23403549194335938,0.325970858335495,-1.227230429649353,0.005149920005351305,-0.9260318875312805,0.04177157208323479,1.2520263195037842,0.01583123579621315,0.967994213104248,0.11463340371847153,-0.7906080484390259,0.00667582219466567,-0.016975661739706993,0.8207446336746216,-0.30601581931114197,-0.027462581172585487,-0.35038527846336365,0.06618601083755493,-0.1348516047000885,0.9946975111961365,-0.4386274218559265,-0.05045901611447334,0.4384545385837555,0.3996601402759552,-3.783449649810791,0.5988719463348389,-0.006471231579780579,0.3189469277858734,4.31199836730957,0.4165186882019043,0.11040759086608887,-0.1888791173696518,0.49460509419441223,0.9192940592765808,-0.09474878758192062,-1.953119158744812,0.9334045648574829,0.8703209161758423,-1.743374228477478,-3.2487616539001465,-0.14534087479114532,-1.5624264478683472,7.28678560256958,2.0406033992767334,-0.15680372714996338,1741504615.7086256,1741504615593,0.7487449951171875,-1.2375968017578125,-1.9004984096213342,3.4977473144531253,-0.9184109497070313
1741504615.7094474,0.21054494380950928,0.02016468012603478,0.05747396410386821,-0.9981433409714268,-0.3992830216884613,-0.2565857768058777,-0.8336137533187866,1.5612684488296509,2.9414870738983154,11.4014253616333,-0.10090065002441406,0.22945785522460938,0.23670557141304016,-1.2314265966415405,0.005149920005351305,-0.924887478351593,0.09708552807569504,1.2562226057052612,0.01583123579621315,0.9630350470542908,0.12417028844356537,-0.7528420090675354,0.0013351644156500697,-0.029564354568719864,0.8363851308822632,-0.29454705119132996,-0.0016754865646362305,-0.43087664246559143,0.05741206929087639,-0.14400701224803925,1.1629282236099243,-0.4008508026599884,-0.03295263275504112,-0.253953754901886,-0.07156052440404892,-4.331399917602539,-0.2710154950618744,-0.0005987243494018912,0.08102400600910187,3.6663732528686523,0.391134113073349,-0.002337622456252575,-0.32970017194747925,0.5680571794509888,1.5604596138000488,-0.06816403567790985,-0.4860663115978241,0.8796581625938416,0.5835123658180237,1.4756861925125122,-4.017922878265381,-0.35911503434181213,-0.6066808700561523,8.30273723602295,1.7134791612625122,1.305895447731018,1741504615.7086256,1741504615593,0.7487449951171875,-1.2375968017578125,-1.9004984096213342,3.4977473144531253,-0.9184109497070313
1741504615.7293792,0.18543696403503418,0.009832155794182045,0.05526182477177611,-0.9984234870210799,0.1516238898038864,-0.4160153567790985,-1.2248810529708862,-5.126803398132324,-4.591290473937988,13.792927742004395,-0.08678531646728516,0.23670578002929688,0.1665140837430954,-1.23600435256958,0.00476844422519207,-0.9237430095672607,0.15621423721313477,1.2608002424240112,0.015449759550392628,0.9565499424934387,0.134470134973526,-0.7288090586662292,0.01201647985726595,-0.04482337832450867,0.8512626886367798,-0.29336196184158325,0.005141706205904484,-0.5258640646934509,0.05741206929087639,-0.16117341816425323,1.2991149425506592,-0.39869534969329834,0.004965671803802252,0.4329742193222046,0.17562289535999298,-3.572504758834839,-0.27856385707855225,-0.008519631810486317,-0.006060127168893814,3.9767873287200928,0.14564701914787292,-0.04979107156395912,-0.422441303730011,0.5426903367042542,1.5234559774398804,0.4444592297077179,-0.6477867960929871,0.768273115158081,-0.10178425163030624,-0.1805688738822937,-4.4329304695129395,-0.010988925583660603,-0.8840461373329163,6.42071008682251,-0.283312052488327,1.4006309509277344,1741504615.7086256,1741504615593,0.7487449951171875,-1.2375968017578125,-1.9004984096213342,3.4977473144531253,-0.9184109497070313
1741504615.7494469,0.1601243019104004,0.004724722937880717,0.05791777349461042,-0.9983101765015657,-0.15678073465824127,-0.22079750895500183,-1.2618151903152466,6.336535453796387,-1.3222461938858032,9.990440368652344,-0.10090065002441406,0.23517990112304688,0.09479667246341705,-1.2333340644836426,0.005149920005351305,-0.9283207654953003,0.21915769577026367,1.2619446516036987,0.014686808921396732,0.9500648379325867,0.14171816408634186,-0.6841763854026794,0.026512550190091133,-0.0398641936480999,0.8585107326507568,-0.3084859848022461,-0.008406117558479309,-0.6033035516738892,0.049782559275627136,-0.17986571788787842,1.3746471405029297,-0.433415949344635,-0.006279155611991882,-0.34038612246513367,-0.00011117336543975398,-3.5369725227355957,0.22193403542041779,0.00740680331364274,-0.2246542125940323,4.046610355377197,0.11910514533519745,-0.006322240922600031,-0.44801926612854004,0.2277287095785141,2.1123664379119873,0.8362672328948975,0.20763157308101654,0.25064370036125183,-0.8193144798278809,-0.5635009407997131,-3.668278455734253,-0.41383764147758484,-0.9245287775993347,3.1928982734680176,-1.9285495281219482,-0.5340604186058044,1741504615.7086256,1741504615593,0.7487449951171875,-1.2375968017578125,-1.9004984096213342,3.4977473144531253,-0.9184109497070313
1741504615.769651,0.1345508098602295,-0.006426810747546189,0.059202247198283604,-0.9982253202710741,-0.02513769455254078,-0.4219931960105896,-1.1917808055877686,0.7588247656822205,1.0338194370269775,10.482584953308105,-0.10090065002441406,0.23289108276367188,0.02994582988321781,-1.2299007177352905,0.00476844422519207,-0.9298466444015503,0.28286412358283997,1.2600373029708862,0.016212711110711098,0.9431982636451721,0.14095520973205566,-0.6498435735702515,0.04406042397022247,-0.03833829239010811,0.8588922023773193,-0.3309946358203888,-0.019169937819242477,-0.6662470698356628,0.037193864583969116,-0.1974135935306549,1.3807507753372192,-0.4791569113731384,-0.00012661959044635296,-0.004050783812999725,-0.05463090538978577,-3.0830910205841064,0.17799168825149536,-0.008176125586032867,-0.0512971431016922,4.239713668823242,-0.14837224781513214,0.054491955786943436,-0.4004506468772888,0.13981808722019196,1.7535241842269897,0.9585416913032532,0.05858287587761879,0.02276579476892948,-1.1448357105255127,-0.6340852975845337,-2.877271890640259,-0.5518780946731567,-0.9279637336730957,-0.11538621038198471,-2.2439963817596436,0.3455655872821808,1741504615.804634,1741504615693,0.8407463989257813,-1.2024760742187501,-2.2582427870009085,3.60978564453125,-0.9084960327148438
1741504615.789445,0.12044632434844971,-0.011463825938479907,0.058927914024287806,-0.998196414361221,-0.026091592386364937,-0.19955866038799286,-0.6537408828735352,2.6313047409057617,-4.07285737991333,8.744036674499512,-0.09899330139160156,0.22373580932617188,-0.025749599561095238,-1.2314265966415405,0.00476844422519207,-0.9298466444015503,0.3419928252696991,1.2596558332443237,0.013923857361078262,0.9401465058326721,0.1371404528617859,-0.6078813076019287,0.05741206929087639,-0.03643091395497322,0.8569847941398621,-0.35783126950263977,-0.03102743811905384,-0.7143129706382751,0.021171892061829567,-0.21038375794887543,1.3368810415267944,-0.508283257484436,0.010452214628458023,0.04990813508629799,-0.26175639033317566,-2.638514757156372,-0.07776625454425812,-0.03719567507505417,-0.004311360418796539,3.854351043701172,-0.057790108025074005,-0.0978073924779892,-0.2223808467388153,-0.2954677641391754,2.0946643352508545,0.7005432844161987,0.11438541859388351,-0.13214512169361115,-1.4158122539520264,-0.5954133868217468,-2.3244826793670654,-0.9614650011062622,-0.5000100135803223,-2.4512484073638916,-1.2550801038742065,0.37987932562828064,1741504615.804634,1741504615693,0.8407463989257813,-1.2024760742187501,-2.2582427870009085,3.60978564453125,-0.9084960327148438
1741504615.809509,0.11374568939208984,-0.01372305534050657,0.061748569807896614,-0.997997390717431,-0.14118970930576324,-0.032831430435180664,-0.3035293519496918,-1.9148975610733032,-3.4879891872406006,9.91887378692627,-0.10166358947753906,0.21419811248779297,-0.08297093212604523,-1.2306636571884155,0.00476844422519207,-0.9321355223655701,0.39463645219802856,1.2604187726974487,0.015449759550392628,0.9348058104515076,0.13141833245754242,-0.5682078003883362,0.06923781335353851,-0.035667963325977325,0.8520256280899048,-0.38934922218322754,-0.04365793988108635,-0.7501716613769531,-0.0009536888683214784,-0.21953918039798737,1.263256311416626,-0.5053009390830994,0.011973525397479534,-0.0696633905172348,-0.2695331871509552,-2.872389316558838,0.05522821098566055,-0.00632577296346426,-0.19080229103565216,3.5686941146850586,0.09198254346847534,0.1109054833650589,-0.38572821021080017,-0.2268034815788269,2.0280580520629883,0.5176976323127747,0.02441072091460228,-0.18961600959300995,-1.5636522769927979,-0.6635697484016418,-1.5921268463134766,-1.1428511142730713,-0.49947047233581543,-3.732992649078369,0.3927179276943207,0.21208412945270538,1741504615.804634,1741504615693,0.8407463989257813,-1.2024760742187501,-2.2582427870009085,3.60978564453125,-0.9084960327148438
1741504615.8295588,0.10925698280334473,-0.0077644677168307915,0.06388600519235534,-0.9979269970201411,-0.11178646236658096,0.3227747678756714,-0.2830199897289276,2.4101531505584717,-2.3928885459899902,10.373286247253418,-0.10128211975097656,0.19016551971435547,-0.12340734153985977,-1.2291377782821655,0.00476844422519207,-0.9431982636451721,0.4533836841583252,1.2627075910568237,0.01506828423589468,0.924887478351593,0.1359960287809372,-0.5327305793762207,0.07763027399778366,-0.03490501269698143,0.8440146446228027,-0.4209931790828705,-0.04996689409017563,-0.7639048099517822,-0.032616160809993744,-0.22755016386508942,1.1655985116958618,-0.4683448374271393,0.01726190373301506,0.0006186984828673303,-0.6434574127197266,-1.8295587301254272,0.11349920928478241,0.008244600147008896,-0.5328133702278137,3.6475906372070312,0.03320148587226868,-0.022504275664687157,-0.6305168867111206,0.34238943457603455,1.7895745038986206,0.36744171380996704,0.10197719931602478,-0.4649015963077545,-1.554043173789978,-0.09276207536458969,-0.5528149008750916,-1.6898287534713745,-0.3188219368457794,-5.080520153045654,1.954690933227539,0.2354249209165573,1741504615.804634,1741504615693,0.8407463989257813,-1.2024760742187501,-2.2582427870009085,3.60978564453125,-0.9084960327148438
1741504615.8495538,0.10652196407318115,-0.0019103896359778793,0.06486397030968563,-0.9978922866557808,-0.022973472252488136,0.24446874856948853,-0.13653701543807983,0.39677879214286804,-0.5164898633956909,8.920955657958984,-0.10013771057128906,0.18177318572998047,-0.13904783129692078,-1.2283748388290405,0.00476844422519207,-0.9531166553497314,0.4869535267353058,1.2619446516036987,0.01583123579621315,0.917639434337616,0.152399480342865,-0.4953460097312927,0.07839322835206985,-0.0394827201962471,0.8340963125228882,-0.4496585726737976,-0.049450770020484924,-0.7711527943611145,-0.0707637146115303,-0.24357213079929352,1.044670820236206,-0.4236748218536377,0.01460634171962738,0.039186958223581314,-0.23267339169979095,-0.5867931246757507,0.031732987612485886,-0.007977345958352089,-0.5198413729667664,2.0865769386291504,0.059868499636650085,0.049714960157871246,-0.4469090402126312,0.8188084363937378,1.8465901613235474,-0.00398330157622695,-0.31226304173469543,-0.5839489698410034,-1.4480066299438477,0.08547651022672653,-0.08948150277137756,-1.976877212524414,-0.7827706933021545,-6.097174167633057,2.20137357711792,-0.1729997992515564,1741504615.804634,1741504615693,0.8407463989257813,-1.2024760742187501,-2.2582427870009085,3.60978564453125,-0.9084960327148438
1741504615.8695724,0.10255730152130127,0.002382742547501227,0.06310120492218568,-0.9980042888060756,0.0951816588640213,0.203245148062706,-0.2013891637325287,2.538642168045044,0.9205487370491028,6.17881441116333,-0.09174442291259766,0.17719554901123047,-0.12951095402240753,-1.2283748388290405,0.00476844422519207,-0.9603646993637085,0.5029755234718323,1.2600373029708862,0.01506828423589468,0.9119172692298889,0.17071031033992767,-0.44804301857948303,0.0722896158695221,-0.05130846053361893,0.8188372850418091,-0.4747554659843445,-0.04260754585266113,-0.7570382356643677,-0.10624094307422638,-0.27027541399002075,0.9229800701141357,-0.3766200542449951,0.007310935761779547,0.2186506688594818,-0.11758585274219513,0.6531387567520142,-0.0024060222785919905,0.006679067853838205,-0.3101498782634735,0.8287235498428345,-0.17561885714530945,0.0026857529301196337,-0.36554601788520813,0.8663594126701355,2.3717758655548096,-0.35407277941703796,-0.5155224204063416,-0.8092094659805298,-1.2616912126541138,0.40960320830345154,0.7893072366714478,-1.6816074848175049,-1.4758576154708862,-6.001989841461182,2.3352413177490234,-0.313244104385376,1741504615.9071922,1741504615793,0.9383926391601562,-1.18920068359375,-2.5082975332082014,3.71346240234375,-0.898566650390625
1741504615.889582,0.09581875801086426,0.0010172249159172012,0.05728610530909913,-0.9983572844387852,0.3212052881717682,-0.09001481533050537,-0.39262402057647705,1.9252656698226929,-2.6779563426971436,7.249001979827881,-0.08678531646728516,0.18139171600341797,-0.09441519528627396,-1.228756308555603,0.00476844422519207,-0.9645609259605408,0.4999237060546875,1.2562226057052612,0.01506828423589468,0.9084840416908264,0.18978407979011536,-0.39654383063316345,0.059319447726011276,-0.061226826161146164,0.8016708493232727,-0.4955766499042511,-0.022025838494300842,-0.7345311641693115,-0.13752193748950958,-0.30422675609588623,0.8073930144309998,-0.33598148822784424,-0.002084258943796158,0.14773930609226227,0.1427246630191803,1.9469444751739502,-0.02383829839527607,0.0072908466681838036,-0.22245986759662628,-0.35404863953590393,-0.31372615694999695,0.01424782257527113,-0.14854608476161957,0.9494714736938477,2.600200653076172,-0.7670239210128784,-0.5261256098747253,-0.7743552327156067,-0.9970429539680481,1.1996582746505737,1.2245794534683228,-1.5593050718307495,-1.471643328666687,-5.624593257904053,1.83722722530365,-0.4727259576320648,1741504615.9071922,1741504615793,0.9383926391601562,-1.18920068359375,-2.5082975332082014,3.71346240234375,-0.898566650390625
1741504615.9095685,0.08566272258758545,-0.0017811985348216406,0.050462915410717575,-0.9987243471048607,0.3461678624153137,-0.10501767694950104,-0.4964362382888794,0.5620576739311218,5.02949857711792,9.238751411437988,-0.07953739166259766,0.18101024627685547,-0.03757534176111221,-1.228756308555603,0.00476844422519207,-0.9657053351402283,0.47665369510650635,1.2505004405975342,0.015449759550392628,0.9100099205970764,0.20466163754463196,-0.3385595381259918,0.04444190114736557,-0.06961929053068161,0.7936598658561707,-0.4896335005760193,-0.027628183364868164,-0.7055390477180481,-0.15774014592170715,-0.33398184180259705,0.7177462577819824,-0.3143656253814697,-0.012430901639163494,0.20621386170387268,0.01894523575901985,2.7766337394714355,-0.05303259938955307,-0.009964351542294025,-0.012697800993919373,-1.6461975574493408,-0.33493149280548096,0.0389522947371006,0.08788403123617172,0.6926712393760681,2.9210450649261475,-0.5230656266212463,-0.5401287078857422,-0.28116530179977417,0.5874059200286865,-0.7369138598442078,1.3362776041030884,-1.0453838109970093,-1.4134589433670044,-4.154171943664551,1.0257115364074707,-0.5120152831077576,1741504615.9071922,1741504615793,0.9383926391601562,-1.18920068359375,-2.5082975332082014,3.71346240234375,-0.898566650390625
1741504615.9296303,0.0751338005065918,-0.011774835015566178,0.04245165259180449,-0.9990291339358331,0.3190173804759979,-0.5203945636749268,-0.5059518814086914,-9.02464771270752,-0.5280945897102356,16.767208099365234,-0.07267093658447266,0.19512462615966797,0.03223468363285065,-1.2306636571884155,0.00476844422519207,-0.9630350470542908,0.44117647409439087,1.2459226846694946,0.01506828423589468,0.9088655114173889,0.2161058932542801,-0.2977416515350342,0.04482337832450867,-0.09861142933368683,0.8077744841575623,-0.4717748165130615,-0.02906637452542782,-0.6704432964324951,-0.14667734503746033,-0.35076677799224854,0.7307164072990417,-0.3011934757232666,-0.024173861369490623,0.18502500653266907,0.3646295666694641,3.602055311203003,-0.1899503469467163,0.0016183838015422225,0.11706854403018951,-2.5166335105895996,-0.2512984275817871,-0.010235064662992954,-0.09082206338644028,0.4157104194164276,1.7589116096496582,-0.04616467282176018,-1.6038877964019775,0.8368741273880005,0.8234203457832336,0.20925244688987732,2.1120758056640625,0.8291957974433899,-0.5317226052284241,1.2715517282485962,0.44491899013519287,-0.5277475714683533,1741504615.9071922,1741504615793,0.9383926391601562,-1.18920068359375,-2.5082975332082014,3.71346240234375,-0.898566650390625
1741504615.949615,0.06641256809234619,-0.013822443177174449,0.041603077224875336,-0.9990385998699123,0.07189412415027618,0.018522046506404877,-0.3146057724952698,2.9026126861572266,2.776017427444458,7.288633346557617,-0.07228946685791016,0.18368053436279297,0.10814831405878067,-1.23295259475708,0.005149920005351305,-0.9634165167808533,0.37975889444351196,1.2508819103240967,0.01583123579621315,0.9119172692298889,0.2153429538011551,-0.2965972423553467,0.04100862145423889,-0.14057374000549316,0.883306622505188,-0.4446851909160614,-0.023561621084809303,-0.6265735626220703,-0.12455176562070847,-0.31605249643325806,0.7417792081832886,-0.31220415234565735,-0.03385312855243683,-0.014583573676645756,-0.3738517761230469,3.6121675968170166,-0.18661783635616302,0.06511807441711426,-0.040387216955423355,-4.356441020965576,0.4022740125656128,0.016629576683044434,0.26698118448257446,0.006358679383993149,-0.3025416135787964,-0.13173459470272064,-2.290680170059204,4.421000957489014,1.4878833293914795,0.46542298793792725,1.6358234882354736,1.2642054557800293,1.8824262619018555,0.16686925292015076,-0.5448881983757019,-0.5012041926383972,1741504615.9071922,1741504615793,0.9383926391601562,-1.18920068359375,-2.5082975332082014,3.71346240234375,-0.898566650390625
1741504615.969683,0.06561279296875,-0.013594050328029756,0.045058636164473594,-0.9988918465493032,-0.27915993332862854,0.1027207225561142,0.06442555785179138,-1.6676409244537354,0.37705114483833313,12.195028305053711,-0.06771183013916016,0.18673229217529297,0.17948424816131592,-1.238293170928955,0.00476844422519207,-0.9630350470542908,0.3072785437107086,1.2562226057052612,0.015449759550392628,0.9122987985610962,0.2145799994468689,-0.3557259440422058,0.02841992862522602,-0.1966506391763687,1.033226490020752,-0.40283218026161194,-0.011857574805617332,-0.5952925682067871,-0.0864042118191719,-0.28858625888824463,0.7364385724067688,-0.3172405958175659,-0.03895360976457596,0.12043537199497223,0.036362554877996445,3.609816312789917,-0.295940101146698,-0.03747741878032684,0.004130013752728701,-4.754650115966797,0.40214604139328003,-0.018883269280195236,0.0007972324383445084,0.01753569394350052,-3.349458694458008,-0.8444461822509766,-2.805562973022461,7.887415885925293,2.1839842796325684,0.6292718052864075,1.6780896186828613,2.0076839923858643,1.155192255973816,-0.2311287671327591,-0.14964823424816132,-0.25946173071861267,1741504615.9071922,1741504615793,0.9383926391601562,-1.18920068359375,-2.5082975332082014,3.71346240234375,-0.898566650390625
1741504615.9896684,0.07663655281066895,-0.010725296288762832,0.059176336600501415,-0.9981899264198485,-0.7324367165565491,0.08430077135562897,0.6341889500617981,4.695963382720947,-0.8917500376701355,9.339690208435059,-0.06618595123291016,0.18749523162841797,0.24319066107273102,-1.2386746406555176,0.00476844422519207,-0.9630350470542908,0.2309834510087967,1.2619446516036987,0.01583123579621315,0.9119172692298889,0.22144655883312225,-0.45834288001060486,-0.0078202486038208,-0.2462424635887146,1.2190051078796387,-0.36539894342422485,0.005197062157094479,-0.5575265288352966,-0.05092698708176613,-0.26951247453689575,0.7291905283927917,-0.31874358654022217,-0.03826744854450226,0.07742604613304138,0.0561102069914341,2.869821310043335,-0.020501015707850456,0.007656218949705362,-0.01130685769021511,-5.023409843444824,0.37912625074386597,0.018636470660567284,-0.00043536254088394344,0.3791755437850952,-5.288273334503174,-1.8744150400161743,-2.268159866333008,9.325639724731445,1.5704330205917358,0.9874013662338257,1.7833679914474487,1.5643107891082764,0.7846137881278992,-0.4493768513202667,-0.0878184363245964,0.1670021414756775,1741504615.9071922,1741504615793,0.9383926391601562,-1.18920068359375,-2.5082975332082014,3.71346240234375,-0.898566650390625
1741504616.0097342,0.09691393375396729,-0.011585444864010912,0.07446671926822063,-0.9971561989922797,-0.7243553400039673,-0.0956568792462349,1.0839060544967651,2.180583953857422,3.201059579849243,10.548568725585938,-0.057793617248535156,0.20275402069091797,0.29964902997016907,-1.2405821084976196,0.005149920005351305,-0.9618905782699585,0.15583276748657227,1.2615631818771362,0.015449759550392628,0.9134432077407837,0.22449836134910583,-0.5758373141288757,-0.056267641484737396,-0.2630273997783661,1.3986800909042358,-0.3691774606704712,0.016473272815346718,-0.5209048390388489,-0.03299763426184654,-0.2660791873931885,0.7188906669616699,-0.32213500142097473,-0.029343049973249435,0.23856736719608307,0.392198771238327,2.715315341949463,-0.2099238783121109,-0.003514267271384597,0.052956558763980865,-4.9525251388549805,-0.0973648652434349,-0.00992546882480383,0.13357038795948029,0.15829578042030334,-5.8372883796691895,-2.447627067565918,-0.4560038149356842,8.597436904907227,-0.5425739884376526,0.4302448630332947,1.9417095184326172,0.7346527576446533,0.12164898961782455,-0.4346427619457245,-0.14692045748233795,0.404948890209198,1741504615.9071922,1741504615793,0.9383926391601562,-1.18920068359375,-2.5082975332082014,3.71346240234375,-0.898566650390625
1741504616.0297196,0.12460529804229736,-0.011054120270466452,0.08587900178194394,-0.9962442489058508,-0.502974271774292,-0.06880918890237808,1.398824691772461,2.595438241958618,7.044450283050537,10.197901725769043,-0.046349525451660156,0.20733165740966797,0.34962233901023865,-1.2443968057632446,0.005149920005351305,-0.9603646993637085,0.08869306743144989,1.2554595470428467,0.014686808921396732,0.9142061471939087,0.2302204966545105,-0.6857023239135742,-0.09594109654426575,-0.23517967760562897,1.514648675918579,-0.4104187488555908,0.012692376971244812,-0.4819943606853485,-0.026131074875593185,-0.2630273997783661,0.7146944403648376,-0.32083308696746826,-0.023823266848921776,0.3238600194454193,0.12825001776218414,2.417360305786133,-0.20030395686626434,-0.0058315531350672245,0.0754474475979805,-4.426225662231445,-0.435030460357666,-0.02859419584274292,0.056583914905786514,0.30145585536956787,-5.327756881713867,-1.7283984422683716,1.8031233549118042,5.18684720993042,-2.208204984664917,-0.1422310173511505,1.8796757459640503,0.43951183557510376,0.19425590336322784,-0.17694324254989624,0.08174494653940201,0.34626397490501404,1741504615.9071922,1741504615793,0.9383926391601562,-1.18920068359375,-2.5082975332082014,3.71346240234375,-0.898566650390625
1741504616.0497468,0.14684247970581055,-0.00869763758802948,0.08497371695900699,-0.9963452305935718,0.10776989161968231,0.05560833588242531,0.9999447464942932,1.1408132314682007,7.367971420288086,8.190665245056152,-0.02727508544921875,0.20313549041748047,0.3892957866191864,-1.2527892589569092,0.005149920005351305,-0.9561684727668762,0.03185320645570755,1.2443968057632446,0.01506828423589468,0.9145876169204712,0.21953918039798737,-0.778782308101654,-0.10585946589708328,-0.18787670135498047,1.5463111400604248,-0.46099618077278137,0.006524842698127031,-0.4510948359966278,-0.010109102353453636,-0.24319066107273102,0.7127870321273804,-0.3269802927970886,-0.014684031717479229,0.5487093329429626,-0.1504698097705841,1.8423885107040405,-0.6480382084846497,-0.0004647382302209735,0.23085086047649384,-3.6098639965057373,-0.7882620692253113,0.02543734386563301,-0.018929045647382736,-0.5881631374359131,-4.620126724243164,-0.5414217710494995,2.497034788131714,0.8727846741676331,-2.545107841491699,-0.4583926498889923,1.542940616607666,0.8865952491760254,1.2393721342086792,-0.08253154903650284,-0.43755820393562317,0.4823090434074402,1741504615.9071922,1741504615793,0.9383926391601562,-1.18920068359375,-2.5082975332082014,3.71346240234375,-0.898566650390625
1741504616.0697854,0.1567631959915161,-0.005358668940577778,0.0792652932439107,-0.9968391535017784,0.27769735455513,0.14481574296951294,0.353986531496048,-0.039794888347387314,-1.1966806650161743,10.453621864318848,-0.02002716064453125,0.20237255096435547,0.4175249934196472,-1.2577484846115112,0.00476844422519207,-0.9477760195732117,-0.010109102353453636,1.2321895360946655,0.01506828423589468,0.9138246774673462,0.21152819693088531,-0.8455405235290527,-0.10852979123592377,-0.12684062123298645,1.4932860136032104,-0.5011817216873169,-0.008689602836966515,-0.42744335532188416,0.010109102353453636,-0.20923933386802673,0.7131685614585876,-0.352996826171875,-0.008930867537856102,0.23788511753082275,-0.060284581035375595,1.327913522720337,-0.3574819266796112,-0.01774410903453827,0.42039185762405396,-2.7396669387817383,-0.7842875123023987,-0.012189080938696861,-0.04945260286331177,-0.46382057666778564,-3.066636085510254,-0.06953742355108261,2.8525261878967285,-3.2550432682037354,-1.8511801958084106,-0.7721627354621887,1.1209330558776855,0.908920407295227,1.6857597827911377,0.08034774661064148,-1.4633227586746216,0.23532861471176147,1741504615.9071922,1741504615793,0.9383926391601562,-1.18920068359375,-2.5082975332082014,3.71346240234375,-0.898566650390625
1741504616.0898268,0.16191673278808594,0.0004657387739708087,0.07333467981373716,-0.9973072785375683,0.30721142888069153,0.29149889945983887,0.3577716648578644,-5.591068267822266,0.27844399213790894,9.373321533203125,-0.01621246337890625,0.19321727752685547,0.4484245181083679,-1.2600373029708862,0.00476844422519207,-0.9348058104515076,-0.06542305648326874,1.223797082901001,0.01506828423589468,0.9195467829704285,0.1962691694498062,-0.8852140307426453,-0.10776684433221817,-0.08564125746488571,1.3788433074951172,-0.5063049793243408,-0.012387851253151894,-0.41485464572906494,0.018120087683200836,-0.1974135935306549,0.7154573798179626,-0.3989808261394501,-0.013128752820193768,0.10712914168834686,-0.24202507734298706,1.544372797012329,-0.16404321789741516,-0.07508589327335358,0.6908881664276123,-3.628355026245117,-0.5471041202545166,0.023055296391248703,0.44913947582244873,-0.9487118124961853,-1.8871393203735352,0.05574621260166168,1.7691272497177124,-6.0591230392456055,0.04272986575961113,-0.12131364643573761,0.734306275844574,0.3315852880477905,0.49589645862579346,0.19042763113975525,-2.413644790649414,-0.29185736179351807,1741504616.119981,1741504615993,1.1474588623046875,-1.1784429931640625,-2.6535772287482424,3.910715087890625,-0.8832969360351562
1741504616.1098776,0.16525745391845703,0.01450679321624514,0.06658638297341561,-0.9976752009311943,0.31537485122680664,0.7047166228294373,0.05959288775920868,0.7307956218719482,-0.6275232434272766,7.094654083251953,-0.00705718994140625,0.18291759490966797,0.4655908942222595,-1.2596558332443237,0.00476844422519207,-0.9245060086250305,-0.10090028494596481,1.2188379764556885,0.014686808921396732,0.9370946884155273,0.17605096101760864,-0.9000915288925171,-0.09975585341453552,-0.06923781335353851,1.2304493188858032,-0.4735717177391052,-0.015034754760563374,-0.39845120906829834,0.01926451548933983,-0.1806286722421646,0.7265201807022095,-0.44587624073028564,-0.020889466628432274,0.26867911219596863,-0.2635350823402405,0.7201575040817261,0.009783460758626461,0.002629952970892191,0.48157617449760437,-2.2232232093811035,-0.2738563120365143,-0.018999729305505753,1.1637312173843384,-1.0700587034225464,-0.4552626609802246,0.4799652099609375,0.7360587120056152,-7.730504989624023,1.8335734605789185,-0.1486539989709854,0.6540720462799072,0.13177506625652313,0.802543580532074,0.48581358790397644,-2.283210277557373,-0.2218976467847824,1741504616.119981,1741504615993,1.1474588623046875,-1.1784429931640625,-2.6535772287482424,3.910715087890625,-0.8832969360351562
1741504616.129862,0.1653742790222168,0.032722531503595,0.0620454217718879,-0.997536767026231,0.19644412398338318,0.9263943433761597,0.014926163479685783,1.8042289018630981,-0.14611385762691498,5.067569732666016,-0.00514984130859375,0.17757701873779297,0.4678797721862793,-1.2581299543380737,0.00476844422519207,-0.9195467829704285,-0.1199740618467331,1.218456506729126,0.014686808921396732,0.9557870030403137,0.14629587531089783,-0.8958953022956848,-0.08030059933662415,-0.06656748056411743,1.0610742568969727,-0.4292527437210083,-0.011469041928648949,-0.3881513774394989,0.03032730519771576,-0.16308079659938812,0.7387273907661438,-0.4847091734409332,-0.023577280342578888,0.07850281149148941,-0.1562657356262207,0.04349793121218681,0.1688433587551117,0.008460070937871933,0.22036147117614746,-0.8966622948646545,-0.022939857095479965,0.0021613030694425106,1.2181925773620605,-1.4537129402160645,0.018912937492132187,1.1502301692962646,0.14983205497264862,-8.792058944702148,2.1866660118103027,0.27423095703125,0.6953407526016235,0.5548071265220642,1.0003036260604858,0.64747554063797,-1.9171470403671265,-0.19918695092201233,1741504616.119981,1741504615993,1.1474588623046875,-1.1784429931640625,-2.6535772287482424,3.910715087890625,-0.8832969360351562
1741504616.1498468,0.1650848388671875,0.047623748706555266,0.06075812319422865,-0.9970157616733297,0.011024042963981628,0.7220740914344788,0.007172685582190752,4.061598777770996,-4.469215393066406,1.8060979843139648,-0.00514984130859375,0.17643260955810547,0.45910581946372986,-1.2550780773162842,0.005149920005351305,-0.916876494884491,-0.11310750246047974,1.218456506729126,0.014686808921396732,0.9683756828308105,0.1180666834115982,-0.8802548050880432,-0.05130846053361893,-0.04291599988937378,0.9061951637268066,-0.3905456066131592,0.004779065027832985,-0.36602577567100525,0.0558861680328846,-0.1493476778268814,0.7505531311035156,-0.5059651732444763,-0.003040001727640629,-0.00660975044593215,-0.07446923106908798,-0.5585024952888489,0.22833910584449768,0.003623493015766144,0.0960574597120285,0.6094322204589844,-0.0049176327884197235,0.0032394141890108585,0.7891403436660767,-1.32503342628479,0.9186901450157166,1.4722849130630493,1.3026102781295776,-7.435413360595703,1.7845473289489746,0.8386862277984619,1.183166265487671,1.3042646646499634,0.6610953211784363,0.6081459522247314,-0.8057740926742554,1.1639238595962524,1741504616.119981,1741504615993,1.1474588623046875,-1.1784429931640625,-2.6535772287482424,3.910715087890625,-0.8832969360351562
1741504616.1698885,0.16350865364074707,0.04947951231217885,0.06691604576090085,-0.9965309933369227,-0.330972284078598,-0.0535716749727726,-0.10303495824337006,-0.23029828071594238,-1.6875550746917725,19.013431549072266,-0.01049041748046875,0.21572399139404297,0.44079500436782837,-1.2485930919647217,0.00476844422519207,-0.9130617380142212,-0.08373387902975082,1.218456506729126,0.014686808921396732,0.9710460305213928,0.09708552807569504,-0.8623254895210266,-0.01926451548933983,-0.008964675478637218,0.837911069393158,-0.34474214911460876,0.00939149223268032,-0.33398184180259705,0.08335240930318832,-0.15354390442371368,0.776493489742279,-0.49911192059516907,-0.025018565356731415,-0.13028506934642792,1.090509057044983,-0.8797311186790466,0.44505903124809265,-0.015966473147273064,0.2509152591228485,2.1876885890960693,-0.0011565752793103456,0.010298863984644413,0.11909394711256027,-0.9606999158859253,0.9770756959915161,1.7040138244628906,1.6607061624526978,-1.4755312204360962,2.6760406494140625,0.3157218098640442,1.644972562789917,0.832526445388794,-0.23016910254955292,1.5707935094833374,0.45990538597106934,-1.582370638847351,1741504616.119981,1741504615993,1.1474588623046875,-1.1784429931640625,-2.6535772287482424,3.910715087890625,-0.8832969360351562
1741504616.18989,0.1677631139755249,0.04536125544055273,0.07039672502189416,-0.9964871587788018,-0.11669151484966278,0.02753416635096073,0.18146643042564392,10.995503425598145,3.0544681549072266,1.2270653247833252,0.00019073486328125,0.22144699096679688,0.404173344373703,-1.2402005195617676,0.00476844422519207,-0.9100099205970764,-0.03376058489084244,1.2283748388290405,0.01430533267557621,0.9706645011901855,0.09899290651082993,-0.813878059387207,0.016212711110711098,-0.024223696440458298,0.881017804145813,-0.3129020929336548,0.01890895701944828,-0.31681543588638306,0.08373387902975082,-0.17185473442077637,0.8470664620399475,-0.4812679588794708,-0.046633828431367874,0.338206946849823,0.2187376469373703,-2.0960068702697754,0.5451621413230896,-0.03129037097096443,0.0413876548409462,3.555935859680176,0.7724741697311401,-0.021401721984148026,0.0020249192602932453,0.14095622301101685,1.89637291431427,1.7013604640960693,-1.1572678089141846,1.4436434507369995,1.1714986562728882,0.29399266839027405,0.5648940205574036,0.15120656788349152,-1.3020919561386108,4.214377403259277,1.0424106121063232,-0.7170090675354004,1741504616.2142453,1741504616093,1.25652880859375,-1.16521826171875,-1.6000448585722777,4.00447900390625,-0.876598388671875
1741504616.2099164,0.16629528999328613,0.03557220485389105,0.07190956528351748,-0.9967766212459882,-0.16216665506362915,-0.4877486824989319,-0.06474193185567856,-7.445765495300293,-7.992295742034912,16.983020782470703,-0.00667572021484375,0.23594284057617188,0.3412298858165741,-1.2417265176773071,0.005149920005351305,-0.9134432077407837,0.026512550190091133,1.238293170928955,0.016212711110711098,0.9676127433776855,0.10509651154279709,-0.7822155952453613,0.005149920005351305,-0.04787518084049225,0.8894102573394775,-0.3047236502170563,0.003122759982943535,-0.361829549074173,0.071908138692379,-0.1825360506772995,0.9740977883338928,-0.4434610605239868,-0.051376212388277054,-0.19576551020145416,0.3470901846885681,-3.1602115631103516,-0.1200442761182785,-0.047128066420555115,-0.18682324886322021,3.9334423542022705,0.6113001704216003,0.09498044848442078,-0.21776637434959412,0.2225470393896103,2.1201860904693604,-0.9173597097396851,-1.0062470436096191,0.7337552905082703,0.4535920023918152,-0.7333582639694214,-2.468787431716919,-0.808609127998352,-0.27384835481643677,6.6810126304626465,1.9578723907470703,-0.25800013542175293,1741504616.2142453,1741504616093,1.25652880859375,-1.16521826171875,-1.6000448585722777,4.00447900390625,-0.876598388671875
1741504616.229973,0.15750539302825928,0.031231010539882916,0.07167114685038473,-0.9969392512534595,0.20705381035804749,-0.23110753297805786,-0.5996391773223877,-1.562552809715271,-3.7701094150543213,11.858620643615723,-0.00705718994140625,0.24052047729492188,0.26951247453689575,-1.2424894571304321,0.005149920005351305,-0.9157320261001587,0.08487831056118011,1.2524077892303467,0.01583123579621315,0.9630350470542908,0.11272602528333664,-0.7391088604927063,-0.0032425422687083483,-0.07419699430465698,0.9096284508705139,-0.3037450313568115,0.006532991770654917,-0.438506156206131,0.06466010212898254,-0.1840619444847107,1.1507209539413452,-0.39734458923339844,-0.05582654848694801,0.020600829273462296,0.12969914078712463,-3.528940200805664,-0.06146697327494621,0.10106004029512405,-0.03640691190958023,3.9645700454711914,0.8786904811859131,0.05645754560828209,-0.36254557967185974,0.49709245562553406,1.7879321575164795,-0.17699690163135529,-1.2897446155548096,0.8468169569969177,0.011224697344005108,0.2671510577201843,-4.307636737823486,-0.04014739394187927,-0.11594260483980179,8.939031600952148,2.2723355293273926,-0.0749971941113472,1741504616.2142453,1741504616093,1.25652880859375,-1.16521826171875,-1.6000448585722777,4.00447900390625,-0.876598388671875
1741504616.249968,0.1348174810409546,0.019343013529699565,0.06974755387385623,-0.9973771235376333,0.05889933556318283,-0.48017674684524536,-1.1209696531295776,-2.5718512535095215,-2.0229976177215576,15.95082950592041,-0.00286102294921875,0.23937606811523438,0.20084688067436218,-1.2424894571304321,0.005149920005351305,-0.916113555431366,0.14019227027893066,1.2619446516036987,0.01583123579621315,0.9561684727668762,0.1203555315732956,-0.7051575779914856,0.002861066721379757,-0.07419699430465698,0.918402373790741,-0.3120904266834259,0.0033620717003941536,-0.5403600931167603,0.06084534898400307,-0.17910276353359222,1.3124666213989258,-0.3715166747570038,-0.007311132736504078,0.017873454838991165,-0.04268794134259224,-3.4492311477661133,0.10731039941310883,-0.024524139240384102,-0.022304074838757515,3.67201828956604,0.6899415254592896,-0.013351647183299065,-0.41602304577827454,0.4618357717990875,1.9583808183670044,0.4930243492126465,-0.017211586236953735,0.3340814411640167,-0.5072354078292847,-0.20692896842956543,-4.790903568267822,-0.2048749178647995,0.2923565208911896,7.759772300720215,1.041352391242981,2.740586519241333,1741504616.2142453,1741504616093,1.25652880859375,-1.16521826171875,-1.6000448585722777,4.00447900390625,-0.876598388671875
1741504616.2699673,0.11078691482543945,0.01624184209644152,0.06781228178852866,-0.9975658860466047,0.17111651599407196,-0.13263072073459625,-1.1959866285324097,1.444029450416565,0.4852856397628784,13.848291397094727,-0.01392364501953125,0.23441696166992188,0.12645913660526276,-1.238293170928955,0.005149920005351305,-0.9153505563735962,0.1997024416923523,1.2699556350708008,0.015449759550392628,0.953498125076294,0.12989242374897003,-0.6593804955482483,0.016594186425209045,-0.0715266615152359,0.919165313243866,-0.3378738462924957,-0.005915557965636253,-0.6326771974563599,0.054741740226745605,-0.182917520403862,1.404402256011963,-0.38853245973587036,0.007519039325416088,-0.301604300737381,-0.16967512667179108,-3.7193546295166016,0.24280892312526703,0.019704917445778847,0.046127673238515854,3.9625542163848877,0.40642672777175903,-0.0025325468741357327,-0.1908705234527588,0.3619196116924286,2.0855278968811035,0.5260185599327087,0.20328359305858612,-0.02930871769785881,-1.5496892929077148,-0.37072157859802246,-4.442846298217773,-0.2795366942882538,-0.3267768323421478,3.9545133113861084,-1.206512212753296,0.08469980210065842,1741504616.3174326,1741504616193,1.3586845703125001,-1.1442562255859374,-2.0855169236222015,4.1000615234375,-0.856088623046875
1741504616.2900324,0.09057474136352539,0.010686926135244114,0.06229160536356536,-0.9980007743038127,0.28493741154670715,-0.1684453785419464,-0.8138823509216309,-2.2967281341552734,-3.1461081504821777,11.764451026916504,-0.01735687255859375,0.23136520385742188,0.0558861680328846,-1.23600435256958,0.005149920005351305,-0.9157320261001587,0.2622644305229187,1.2703371047973633,0.01506828423589468,0.9485389590263367,0.13218127191066742,-0.6189440488815308,0.02994582988321781,-0.06656748056411743,0.9077210426330566,-0.3833464980125427,-0.01572904735803604,-0.7074463963508606,0.04634927958250046,-0.18863965570926666,1.4143205881118774,-0.42574578523635864,-0.013312120921909809,-0.16242316365242004,-0.07926022261381149,-3.526624917984009,0.12453640252351761,0.01720481365919113,-0.023806000128388405,4.085292816162109,0.021278303116559982,-0.04911641776561737,-0.38286247849464417,0.16921162605285645,2.13419508934021,0.6997097134590149,0.20987609028816223,-0.7146446704864502,-2.3269643783569336,-0.7020498514175415,-3.56382155418396,-0.4360262155532837,-0.04483460262417793,-0.05908133089542389,-1.898827075958252,-0.9534362554550171,1741504616.3174326,1741504616193,1.3586845703125001,-1.1442562255859374,-2.0855169236222015,4.1000615234375,-0.856088623046875
1741504616.3100278,0.08649516105651855,0.010556039856417171,0.05966411702038591,-0.9981626937342065,0.1021953821182251,0.0017463539261370897,-0.10886617749929428,0.023639611899852753,-0.27024126052856445,8.512907981872559,-0.02079010009765625,0.22144699096679688,-0.006294346414506435,-1.2363858222961426,0.005149920005351305,-0.9187838435173035,0.3229190409183502,1.2711000442504883,0.01430533267557621,0.9409094452857971,0.1188296303153038,-0.5670633912086487,0.04406042397022247,-0.05703059583902359,0.8848325610160828,-0.4267348647117615,-0.03091241419315338,-0.7661936283111572,0.02841992862522602,-0.1817730963230133,1.3651102781295776,-0.452353298664093,0.007688119076192379,-0.14669016003608704,-0.27200308442115784,-2.923537254333496,-0.03955770656466484,-0.006706093903630972,-0.17044833302497864,4.09078311920166,0.09788721054792404,-0.005322808399796486,-0.49870240688323975,-0.7557278275489807,2.5865635871887207,0.7735998034477234,0.5754967927932739,-1.1806310415267944,-2.136653184890747,-0.7326884269714355,-2.7622547149658203,-0.8834850788116455,0.33919021487236023,-2.7774505615234375,-1.150814175605774,1.371862769126892,1741504616.3174326,1741504616193,1.3586845703125001,-1.1442562255859374,-2.0855169236222015,4.1000615234375,-0.856088623046875
1741504616.3301215,0.08801901340484619,0.014697254451263743,0.05727430978701192,-0.9982502913348015,0.13459937274456024,0.2427268922328949,0.04270016402006149,-0.8245823979377747,-1.8132898807525635,8.167608261108398,-0.02384185791015625,0.20618724822998047,-0.0715266615152359,-1.2363858222961426,0.005149920005351305,-0.926413357257843,0.38166627287864685,1.2733889818191528,0.01583123579621315,0.9336614012718201,0.10624094307422638,-0.5151827335357666,0.05970092490315437,-0.04711223021149635,0.8611810207366943,-0.4625163674354553,-0.038446638733148575,-0.8127336502075195,0.0009536888683214784,-0.17681391537189484,1.28385591506958,-0.4529859125614166,0.01696261204779148,-0.1092841699719429,-0.45338118076324463,-3.1911814212799072,0.012997487559914589,-0.010987580753862858,-0.48817381262779236,3.937742233276367,0.1603321135044098,0.09508245438337326,-0.54413902759552,-0.5504011511802673,2.5622904300689697,0.807405412197113,0.46188032627105713,-1.1851139068603516,-1.7670482397079468,-0.2810126543045044,-2.2617783546447754,-1.3867939710617065,0.17682965099811554,-4.115110397338867,0.16843031346797943,0.09978275746107101,1741504616.3174326,1741504616193,1.3586845703125001,-1.1442562255859374,-2.0855169236222015,4.1000615234375,-0.856088623046875
1741504616.3500593,0.08783996105194092,0.022772357008524848,0.054565834120648554,-0.9982504643139386,0.10048308968544006,0.3987942039966583,-0.0436244010925293,1.5397449731826782,0.0023641895968466997,6.353776931762695,-0.02422332763671875,0.18711376190185547,-0.1180666834115982,-1.233715534210205,0.00476844422519207,-0.9443427324295044,0.44270238280296326,1.2718631029129028,0.01506828423589468,0.924887478351593,0.1024261862039566,-0.465209424495697,0.06542305648326874,-0.03604944050312042,0.8337147831916809,-0.4918249547481537,-0.038795266300439835,-0.8451590538024902,-0.03299763426184654,-0.17872129380702972,1.186579704284668,-0.4241023361682892,0.007524138316512108,-0.023599853739142418,-0.6234621405601501,-2.0759549140930176,0.17491234838962555,0.012725332751870155,-0.8274092078208923,3.779994249343872,-0.22281388938426971,-0.04334592446684837,-0.6169912815093994,-0.08005870133638382,2.458470582962036,0.1430887132883072,0.4140208065509796,-1.4621437788009644,-1.4345530271530151,0.057864878326654434,-1.4247732162475586,-1.8525564670562744,-0.008799869567155838,-5.0370683670043945,1.6298658847808838,-0.39575710892677307,1741504616.3174326,1741504616193,1.3586845703125001,-1.1442562255859374,-2.0855169236222015,4.1000615234375,-0.856088623046875
1741504616.3700602,0.08428692817687988,0.03160683707813446,0.05127400090668061,-0.9981843440371813,0.1959511637687683,0.4310915768146515,-0.21223057806491852,3.2224671840667725,0.38343939185142517,5.953232765197754,-0.02002716064453125,0.17452526092529297,-0.13942931592464447,-1.227993369102478,0.00476844422519207,-0.9596017599105835,0.4797055125236511,1.2672853469848633,0.01506828423589468,0.918402373790741,0.11120012402534485,-0.41103988885879517,0.06313420087099075,-0.03833829239010811,0.8062485456466675,-0.5158821940422058,-0.028938718140125275,-0.8539330363273621,-0.07953765243291855,-0.18902114033699036,1.0763332843780518,-0.3787902593612671,0.0032744533382356167,0.11132659763097763,-0.4007798433303833,-0.8209395408630371,0.36637717485427856,-0.0002460030373185873,-0.7379547953605652,2.3385121822357178,-0.30310237407684326,-0.0051480610854923725,-0.41500309109687805,0.5264905691146851,2.7722930908203125,-0.19453342258930206,-0.16974203288555145,-1.2961242198944092,-1.1936436891555786,0.6488038897514343,-0.3476625680923462,-2.2886903285980225,-0.7384684681892395,-5.541584491729736,2.274783134460449,-0.13878124952316284,1741504616.3174326,1741504616193,1.3586845703125001,-1.1442562255859374,-2.0855169236222015,4.1000615234375,-0.856088623046875
1741504616.3900976,0.07546615600585938,0.03227380039312896,0.04398299900578161,-0.9985108400045749,0.36083295941352844,0.0059035541489720345,-0.39925140142440796,0.9716041684150696,-1.475337028503418,6.164468765258789,-0.01506805419921875,0.17490673065185547,-0.13141833245754242,-1.224560022354126,0.00476844422519207,-0.967994213104248,0.50030517578125,1.2611817121505737,0.01506828423589468,0.9130617380142212,0.12836651504039764,-0.34885939955711365,0.05436026677489281,-0.04596780240535736,0.7768749594688416,-0.532280683517456,-0.014345343224704266,-0.8478294014930725,-0.11768520623445511,-0.22411687672138214,0.9576943516731262,-0.33371439576148987,0.0013093146262690425,0.12768232822418213,-0.05347349867224693,0.6178850531578064,0.16156771779060364,-0.0025105010718107224,-0.35888680815696716,1.1783199310302734,-0.4788837432861328,-0.00869471300393343,-0.35777848958969116,0.7933771014213562,3.1270434856414795,-0.4211728274822235,-0.4233807623386383,-1.5420784950256348,-0.6690073609352112,0.5169762372970581,0.5038787126541138,-1.8627591133117676,-1.8632744550704956,-5.85696268081665,2.1079418659210205,-0.09191612899303436,1741504616.4270113,1741504616293,1.4668720703125,-1.1456773681640626,-1.5088049840037783,4.18253759765625,-0.8451318969726562
1741504616.4110518,0.06452763080596924,0.026896918793954467,0.03560330205132422,-0.9990039842975771,0.4291294515132904,-0.2886812388896942,-0.5526520609855652,3.2329864501953125,-2.104675769805908,6.113706111907959,-0.01468658447265625,0.18520641326904297,-0.10166323184967041,-1.2226526737213135,0.00476844422519207,-0.9691386222839355,0.5006866455078125,1.2520263195037842,0.01506828423589468,0.9092469811439514,0.14019227027893066,-0.2763790488243103,0.031090257689356804,-0.05207141116261482,0.7574197053909302,-0.5183780193328857,-0.04153285548090935,-0.8169298768043518,-0.14782176911830902,-0.25387197732925415,0.837911069393158,-0.31287336349487305,-0.008295256644487381,0.03223876655101776,0.31154462695121765,1.6791489124298096,0.1437685638666153,-0.009313148446381092,-0.004812282044440508,-0.11339830607175827,-0.5859710574150085,0.007520557381212711,-0.22954680025577545,0.5613519549369812,3.5332415103912354,-1.0999590158462524,-0.36006638407707214,-0.8589070439338684,0.7705181837081909,-1.3090062141418457,1.6383227109909058,-1.4053508043289185,-1.4472275972366333,-5.927936553955078,0.7756916880607605,-0.5184305310249329,1741504616.4270113,1741504616293,1.4668720703125,-1.1456773681640626,-1.5088049840037783,4.18253759765625,-0.8451318969726562
