Freshhhhh-LC/Legged_odom/data/3/segments/booster_seg_9.9s.csv
time,yaw,projected_gravity_x,projected_gravity_y,projected_gravity_z,ang_vel_x,ang_vel_y,ang_vel_z,lin_acc_x,lin_acc_y,lin_acc_z,q_0,q_1,q_2,q_3,q_4,q_5,q_6,q_7,q_8,q_9,q_10,q_11,q_12,q_13,q_14,q_15,q_16,q_17,q_18,q_19,q_20,q_21,q_22,dq_0,dq_1,dq_2,dq_3,dq_4,dq_5,dq_6,dq_7,dq_8,dq_9,dq_10,dq_11,dq_12,dq_13,dq_14,dq_15,dq_16,dq_17,dq_18,dq_19,dq_20,dq_21,dq_22,mocap_time,mocap_timestamp,robot_x,robot_y,robot_yaw,ball_x,ball_y
1741504896.2140682,-3.453184485435486,-0.020339144385583253,-0.06800492976575974,-0.9974776432247574,-0.0895904004573822,-0.3084355592727661,0.40651705861091614,-1.406622290611267,2.1284608840942383,9.445568084716797,-0.060082435607910156,0.08602237701416016,0.34695202112197876,-1.2539336681365967,0.005149920005351305,-0.9473945498466492,0.045204851776361465,1.2474485635757446,0.00476844422519207,0.9134432077407837,0.15926603972911835,-0.6250476837158203,-0.19016556441783905,-0.12188144028186798,1.3536659479141235,-0.41715797781944275,0.0081308139488101,-0.6513695120811462,-0.17795833945274353,-0.1997024416923523,0.8207446336746216,-0.3277794420719147,-0.01567237079143524,0.16942857205867767,-0.12896516919136047,3.0467631816864014,-0.42129096388816833,-0.0017864602850750089,0.4094063937664032,-3.9572298526763916,-0.5447404384613037,-0.04832994192838669,-0.01890220306813717,-0.24263480305671692,-4.35060453414917,0.6680930852890015,1.4430304765701294,-0.7376169562339783,-2.7375876903533936,-0.1526704877614975,0.584301233291626,-0.08455111086368561,-0.2308143824338913,0.33023324608802795,-0.5637061595916748,0.7507529854774475,1741504896.185412,1741504896073,0.1659628143310547,-1.497828125,1.183044940463614,-3.947285888671875,-1.20118701171875
1741504896.2163117,-3.4355403184890747,0.021956366831943328,-0.07023874945446575,-0.9972885420130996,-0.11366581171751022,0.3539140820503235,0.47428712248802185,6.3050103187561035,-33.17797088623047,23.805490493774414,-0.039483070373535156,0.061608314514160156,0.47665369510650635,-1.2558410167694092,0.005149920005351305,-0.9222171306610107,-0.11577782779932022,1.223034143447876,0.0032425422687083483,0.9660868048667908,0.08602273464202881,-0.8100633025169373,-0.12645913660526276,-0.049782559275627136,0.8604180812835693,-0.42151355743408203,-0.00030798715306445956,-0.6342030763626099,-0.1844434291124344,-0.1981765478849411,0.9401465058326721,-0.4277857840061188,0.03283713385462761,0.04904939606785774,0.31077343225479126,-0.12285929918289185,0.1374908983707428,-0.015536980703473091,0.07838840037584305,0.567386269569397,-0.61947101354599,0.0005843494436703622,0.5706248879432678,-1.8215975761413574,0.4767668545246124,0.9980116486549377,1.306566596031189,-6.637338638305664,2.0531060695648193,0.267130970954895,0.49411383271217346,1.0512319803237915,0.36722713708877563,1.6410807371139526,-1.347813367843628,0.5830256342887878,1741504896.185412,1741504896073,0.1659628143310547,-1.497828125,1.183044940463614,-3.947285888671875,-1.20118701171875
1741504896.2182345,-3.0909937620162964,0.028823763974869288,-0.05702956343481467,-0.9979563214513727,-0.08284622430801392,0.07583152502775192,-0.8649632334709167,-0.7870408296585083,-6.504674911499023,12.357479095458984,-0.11539649963378906,0.032235145568847656,0.17719538509845734,-1.2516448497772217,0.00476844422519207,-0.9164950251579285,0.10662241280078888,1.2455412149429321,0.00476844422519207,0.9569314122200012,-0.010490577667951584,-0.6628137826919556,-0.008201723918318748,0.12874799966812134,0.7856488823890686,-0.2574790418148041,0.0769151821732521,-0.45719844102859497,0.01125352829694748,0.07038223743438721,1.2602044343948364,-0.38866424560546875,-0.00648410152643919,0.07110389322042465,-0.08565421402454376,-3.775569438934326,0.3518165349960327,-0.008496701717376709,0.062478747218847275,3.0972280502319336,0.7714917063713074,0.026613425463438034,0.002546577015891671,1.79794180393219,1.2933942079544067,-0.34940093755722046,-0.7520888447761536,0.24561478197574615,0.004506249912083149,-0.1268889307975769,-4.551461219787598,2.228449583053589,-0.9722436666488647,8.039246559143066,0.8760366439819336,-0.5555996894836426,1741504896.185412,1741504896073,0.1659628143310547,-1.497828125,1.183044940463614,-3.947285888671875,-1.20118701171875
1741504896.238033,-3.1138421297073364,0.026893546763836228,-0.05178132907149611,-0.9982962641931755,-0.25667619705200195,-0.1380845606327057,-1.2149602174758911,5.265813827514648,-1.9421743154525757,11.533202171325684,-0.12645912170410156,0.044060707092285156,0.1035706102848053,-1.2443968057632446,0.00476844422519207,-0.916113555431366,0.15812161564826965,1.2543151378631592,0.00476844422519207,0.9569314122200012,0.02994582988321781,-0.6406881809234619,-0.010109102353453636,0.11425192654132843,0.7898451089859009,-0.26506802439689636,0.07354029268026352,-0.5483710765838623,0.03795681521296501,0.03376058489084244,1.3830395936965942,-0.40551328659057617,-0.009082965552806854,-0.3268050253391266,0.3828103542327881,-3.4985640048980713,0.5270290970802307,-0.019924961030483246,-0.0013613349292427301,3.414579153060913,0.5956569910049438,0.0043784938752651215,0.0002839852240867913,2.039325714111328,1.112491488456726,-0.14684440195560455,-0.6472079753875732,0.33516666293144226,-0.432189017534256,-0.2496224194765091,-4.395481109619141,1.109302043914795,-1.8468741178512573,5.569270610809326,-1.1735353469848633,-0.0910516157746315,1741504896.2867224,1741504896173,0.07965187835693359,-1.525965087890625,1.2919328757651891,-3.992300537109375,-1.2332821044921876
1741504896.2580662,-3.137710928916931,0.025173435344389813,-0.04557153186442359,-0.9986438472430959,-0.2858337163925171,-0.10194307565689087,-1.1956143379211426,2.2364354133605957,-0.1492428481578827,8.25683879852295,-0.12684059143066406,0.039483070373535156,0.0394827201962471,-1.2379117012023926,0.00476844422519207,-0.916876494884491,0.2157244235277176,1.2604187726974487,0.00476844422519207,0.9569314122200012,0.0722896158695221,-0.613603413105011,-0.013542382046580315,0.08907453715801239,0.7970931529998779,-0.28268861770629883,0.055465079843997955,-0.6288624405860901,0.04711223021149635,-0.01201647985726595,1.4414052963256836,-0.4499101936817169,-0.0028809679206460714,-0.026622505858540535,-0.0795762836933136,-3.2902579307556152,0.3575418293476105,-0.014910855330526829,-0.044982533901929855,3.9442098140716553,0.34386998414993286,-0.0030983013566583395,-0.006150759756565094,2.0363550186157227,1.3405072689056396,-0.2047058343887329,-1.3532483577728271,0.3137041926383972,-0.9985709190368652,-1.1061164140701294,-3.589287042617798,0.34704452753067017,-2.434847354888916,2.442922353744507,-2.303987741470337,0.4475078880786896,1741504896.2867224,1741504896173,0.07965187835693359,-1.525965087890625,1.2919328757651891,-3.992300537109375,-1.2332821044921876
1741504896.2780788,-3.1620477437973022,0.023679989524816814,-0.03741363631358964,-0.9990192580295432,-0.39997193217277527,-0.14853739738464355,-1.2145848274230957,-4.145542621612549,-9.309947967529297,10.531002044677734,-0.13141822814941406,0.039864540100097656,-0.008964675478637218,-1.23295259475708,0.00476844422519207,-0.9195467829704285,0.2756160795688629,1.2611817121505737,0.00476844422519207,0.9569314122200012,0.09403372555971146,-0.5910963416099548,-0.02040894143283367,0.06694895774126053,0.8001449704170227,-0.3136214315891266,0.04909340664744377,-0.7024872303009033,0.04406042397022247,-0.0555046908557415,1.4391164779663086,-0.4969286322593689,0.007640783209353685,-0.14393284916877747,0.03322862461209297,-2.2838780879974365,0.36713680624961853,-0.001600883319042623,-0.15816879272460938,3.94771409034729,-0.036769770085811615,0.013078941963613033,-0.005419624969363213,0.9863353967666626,1.1288626194000244,-0.2712503969669342,-1.0335158109664917,0.13295306265354156,-1.6496139764785767,-0.021569611504673958,-3.549370050430298,-0.27603793144226074,-2.0231070518493652,-0.4846401810646057,-2.2817554473876953,0.48901495337486267,1741504896.2867224,1741504896173,0.07965187835693359,-1.525965087890625,1.2919328757651891,-3.992300537109375,-1.2332821044921876
1741504896.2980957,-3.1772745847702026,0.02580813397674459,-0.027848501197969548,-0.9992789406375303,-0.4440233111381531,0.12409921735525131,-0.819373369216919,0.576404333114624,-1.5597138404846191,9.016798973083496,-0.13790321350097656,0.036431312561035156,-0.05893797054886818,-1.2306636571884155,0.005149920005351305,-0.9229800701141357,0.33054855465888977,1.2600373029708862,0.004005493130534887,0.9561684727668762,0.11425192654132843,-0.5624856948852539,-0.02231631986796856,0.05130846053361893,0.804341197013855,-0.3505643308162689,0.055318042635917664,-0.768482506275177,0.030708782374858856,-0.08144503086805344,1.3956283330917358,-0.5246649384498596,0.0029995767399668694,-0.17103172838687897,-0.045677103102207184,-2.7246901988983154,0.09228913486003876,-0.011939842253923416,-0.24112921953201294,3.5544447898864746,-0.11012168228626251,-0.04060017317533493,-0.0762268453836441,0.8539786338806152,1.4011690616607666,-0.10379164665937424,-0.6668632626533508,0.218917116522789,-1.819096326828003,0.2749340534210205,-3.172828197479248,-0.7002632021903992,-1.2658618688583374,-2.412703275680542,-1.152891755104065,-0.22777627408504486,1741504896.2867224,1741504896173,0.07965187835693359,-1.525965087890625,1.2919328757651891,-3.992300537109375,-1.2332821044921876
1741504896.3181489,-3.183971643447876,0.028956840965695736,-0.021083590838082925,-0.9993582858808244,-0.30940207839012146,0.11263660341501236,-0.23765341937541962,6.355309009552002,1.6634005308151245,6.616671562194824,-0.14400672912597656,0.02918243408203125,-0.1035706102848053,-1.231045126914978,0.005149920005351305,-0.9386205673217773,0.3763256371021271,1.2569855451583862,0.004005493130534887,0.9546425342559814,0.11310750246047974,-0.5495155453681946,-0.02231631986796856,0.04558632895350456,0.8047226667404175,-0.3849881887435913,0.05795926973223686,-0.8184558153152466,0.010109102353453636,-0.09975585341453552,1.3216220140457153,-0.5181788206100464,0.014082731679081917,-0.17367762327194214,-0.13218839466571808,-2.178351879119873,-0.03950008377432823,0.014579345472157001,-0.7277104258537292,2.9658544063568115,-0.20737212896347046,-0.025340979918837547,-0.10247049480676651,-0.08970721065998077,0.49900367856025696,-0.007684459909796715,-0.24215252697467804,0.010900345630943775,-1.6748789548873901,0.20860309898853302,-2.3013927936553955,-1.1440556049346924,-0.8763649463653564,-3.9651782512664795,0.5993180871009827,0.6974480152130127,1741504896.2867224,1741504896173,0.07965187835693359,-1.525965087890625,1.2919328757651891,-3.992300537109375,-1.2332821044921876
1741504896.338206,-3.1842899322509766,0.03437097524536031,-0.015301991118650023,-0.9992919919265277,-0.3096495270729065,0.3606031537055969,-0.07936698943376541,4.458961009979248,-0.14364194869995117,5.010107040405273,-0.14629554748535156,0.02307891845703125,-0.12684062123298645,-1.231808066368103,0.00476844422519207,-0.9531166553497314,0.42896926403045654,1.2581299543380737,0.004386968910694122,0.9458686113357544,0.11425192654132843,-0.5151827335357666,-0.02231631986796856,0.04406042397022247,0.8062485456466675,-0.4137401878833771,0.05439237505197525,-0.8432517051696777,-0.02384222112596035,-0.11959258466959,1.2251087427139282,-0.48021364212036133,0.022248169407248497,-0.07342049479484558,-0.18903985619544983,-0.927416205406189,0.002497265348210931,-0.014858291484415531,-0.7391762733459473,3.8309550285339355,0.10883454978466034,0.03776685148477554,-0.8096017241477966,0.11965521425008774,1.710404396057129,-0.007411496713757515,-0.043074388056993484,-0.05730520188808441,-1.4583625793457031,-0.24124132096767426,-1.020442008972168,-1.7074390649795532,-0.9703723788261414,-5.013608455657959,2.0074362754821777,0.2759428024291992,1741504896.2867224,1741504896173,0.07965187835693359,-1.525965087890625,1.2919328757651891,-3.992300537109375,-1.2332821044921876
1741504896.358179,-3.1871668100357056,0.036954204882395245,-0.011952870912567722,-0.9992454731538479,-0.13489708304405212,0.0804671049118042,-0.11057890951633453,2.354947090148926,-2.8903610706329346,9.910651206970215,-0.14743995666503906,0.02574920654296875,-0.12569619715213776,-1.231045126914978,0.005149920005351305,-0.9634165167808533,0.4671168029308319,1.2566040754318237,0.004005493130534887,0.9336614012718201,0.12111848592758179,-0.4812313914299011,-0.022697795182466507,0.04291599988937378,0.7982375621795654,-0.44087865948677063,0.05345079302787781,-0.8493552803993225,-0.06198977679014206,-0.1493476778268814,1.1007477045059204,-0.43598049879074097,0.018848372623324394,-0.0629819929599762,0.04800703376531601,0.18803486227989197,0.005224901717156172,0.005014351103454828,-0.4796004295349121,2.252830743789673,-0.18878783285617828,-0.004671189002692699,-0.8415655493736267,0.43218833208084106,1.8180209398269653,-0.0511905774474144,-0.08332895487546921,-0.3058868944644928,-1.300814151763916,0.08346498012542725,-0.3237680196762085,-1.9102287292480469,-1.5619838237762451,-6.390477657318115,2.197726249694824,-0.11778154969215393,1741504896.3900352,1741504896273,-0.007695720672607422,-1.5435339355468751,0.3854959808192029,-4.029577392578125,-1.2648658447265626
1741504896.3781488,-3.18899929523468,0.03765068063526297,-0.011090611852315017,-0.9992294153878991,-0.02759375236928463,0.05316394194960594,-0.11135437339544296,3.5775203704833984,1.9840863943099976,5.855870246887207,-0.14400672912597656,0.02765655517578125,-0.1039520874619484,-1.231045126914978,0.005149920005351305,-0.9683756828308105,0.4858091175556183,1.2562226057052612,0.004005493130534887,0.9218356609344482,0.12836651504039764,-0.42935073375701904,-0.03223468363285065,0.03490501269698143,0.7890821695327759,-0.4578903913497925,0.030124856159090996,-0.8337147831916809,-0.09670405089855194,-0.18863965570926666,0.9744792580604553,-0.38988569378852844,0.011241376399993896,0.08009546995162964,0.06291176378726959,1.2258737087249756,0.013205239549279213,-0.0024365605786442757,-0.1674560159444809,1.0343923568725586,-0.023373868316411972,-0.005318592302501202,-0.8065385222434998,0.27996742725372314,2.7149593830108643,-0.5707821846008301,-0.4682103395462036,-0.568307101726532,-0.7754403352737427,-1.4563922882080078,0.9677258729934692,-1.6405850648880005,-1.9754981994628906,-6.028091907501221,2.3293066024780273,-0.5096927881240845,1741504896.3900352,1741504896273,-0.007695720672607422,-1.5435339355468751,0.3854959808192029,-4.029577392578125,-1.2648658447265626
1741504896.3982239,-3.1934378147125244,0.031282081655799585,-0.014233182258740032,-0.9994092494519297,0.18986190855503082,-0.41621214151382446,-0.24159055948257446,0.8701367974281311,-0.6971999406814575,8.948365211486816,-0.14133644104003906,0.045968055725097656,-0.059319447726011276,-1.231045126914978,0.005149920005351305,-0.9649423956871033,0.4858091175556183,1.2531707286834717,0.004005493130534887,0.9126802682876587,0.1325627565383911,-0.3702220320701599,-0.04177157208323479,0.03185320645570755,0.7669565677642822,-0.4572969079017639,0.03054598718881607,-0.812352180480957,-0.12798504531383514,-0.22640573978424072,0.8649957776069641,-0.34538534283638,0.001550487708300352,0.08154389262199402,0.5359277725219727,2.4924893379211426,0.004301819484680891,-0.00378277781419456,0.21229875087738037,-0.06868191063404083,-0.2536449134349823,-0.0008903511334210634,-0.6151896119117737,0.24474968016147614,2.9685006141662598,-0.4339604079723358,-0.07132472842931747,-1.1046422719955444,0.19047945737838745,0.5425930619239807,1.1751956939697266,-1.5570465326309204,-1.7616174221038818,-5.356959819793701,2.12125825881958,-0.5415817499160767,1741504896.3900352,1741504896273,-0.007695720672607422,-1.5435339355468751,0.3854959808192029,-4.029577392578125,-1.2648658447265626
1741504896.4182549,-3.1998425722122192,0.02137684401836379,-0.021837358793774422,-0.9995329710923629,0.4271652102470398,-0.4792860448360443,-0.30043643712997437,3.679159164428711,0.7256671190261841,5.697807788848877,-0.13599586486816406,0.050164222717285156,0.004005493130534887,-1.2314265966415405,0.005149920005351305,-0.960746169090271,0.4667353332042694,1.2497375011444092,0.004386968910694122,0.9084840416908264,0.1359960287809372,-0.30384528636932373,-0.05703059583902359,0.03223468363285065,0.7597085237503052,-0.44019779562950134,0.07179439812898636,-0.7745860815048218,-0.1527809500694275,-0.25158312916755676,0.7730602025985718,-0.3232085406780243,-0.006215448956936598,0.13900090754032135,0.13829682767391205,3.2234585285186768,-0.03410039842128754,0.019021205604076385,0.13714392483234406,-1.4362382888793945,-0.2036004215478897,0.02774881012737751,-0.20820751786231995,0.17971310019493103,3.1752872467041016,-0.7673244476318359,-0.05268939957022667,-0.20547237992286682,0.8824185729026794,2.030754804611206,1.8655214309692383,-1.0906801223754883,-1.1488784551620483,-4.657042980194092,0.8427075743675232,-0.27663135528564453,1741504896.3900352,1741504896273,-0.007695720672607422,-1.5435339355468751,0.3854959808192029,-4.029577392578125,-1.2648658447265626
1741504896.4382153,-3.207598090171814,0.006564204937014965,-0.035045212094997044,-0.9993641700215,0.6755392551422119,-0.7709555625915527,-0.40114888548851013,-5.0166168212890625,0.408487468957901,7.329653263092041,-0.12569618225097656,0.057793617248535156,0.07839322835206985,-1.233715534210205,0.005149920005351305,-0.960746169090271,0.4335469603538513,1.2466856241226196,0.004005493130534887,0.9088655114173889,0.14324407279491425,-0.26722362637519836,-0.09670405089855194,0.023460745811462402,0.7845044732093811,-0.43000566959381104,0.09301093965768814,-0.7352941036224365,-0.15964750945568085,-0.2508201599121094,0.6879911422729492,-0.33732712268829346,-0.010856608860194683,0.2897924482822418,0.18384099006652832,3.7740044593811035,-0.11595660448074341,-0.016789289191365242,-0.011018623597919941,-2.4610486030578613,-0.22582484781742096,-0.011840108782052994,0.034016165882349014,0.3744340240955353,1.6240456104278564,-2.0732858180999756,-0.39154335856437683,1.663644790649414,0.4863862097263336,0.8443365097045898,2.000323534011841,-0.18102872371673584,0.23846392333507538,-4.048252105712891,-0.9992486834526062,-0.3809622526168823,1741504896.3900352,1741504896273,-0.007695720672607422,-1.5435339355468751,0.3854959808192029,-4.029577392578125,-1.2648658447265626
1741504896.4582288,-3.2107326984405518,-0.002992128446769753,-0.05006159220316314,-0.9987416503548063,0.7569608092308044,-0.49100688099861145,-0.032893355935811996,-28.32918930053711,-14.885574340820312,16.547143936157227,-0.12340736389160156,0.058938026428222656,0.15392538905143738,-1.23600435256958,0.005531395319849253,-0.9576943516731262,0.38166627287864685,1.2436338663101196,0.004005493130534887,0.9100099205970764,0.15468832850456238,-0.26913100481033325,-0.10662241280078888,-0.012779430486261845,0.8772030472755432,-0.4110161066055298,0.10557597130537033,-0.6994354128837585,-0.15316243469715118,-0.20695048570632935,0.6792172193527222,-0.3399541974067688,-0.0011145758908241987,0.07250071316957474,0.05950739234685898,3.659344434738159,-0.2634567618370056,0.022568553686141968,0.22938251495361328,-3.4975826740264893,-0.21936653554439545,0.004529496654868126,-0.04279148951172829,0.5679230093955994,-0.4749579131603241,-0.1292910873889923,-2.2051737308502197,5.160599231719971,1.1038614511489868,0.596025288105011,1.8176872730255127,0.6854172348976135,2.3658721446990967,0.9843025207519531,0.21292917430400848,0.6159852743148804,1741504896.4908226,1741504896373,-0.1013909912109375,-1.5525986328125,0.5065913766553238,-4.0596181640625,-1.2980982666015626
1741504896.478322,-3.20975923538208,-0.006112970523366098,-0.048488113378622424,-0.9988050532773463,-0.15610922873020172,-0.14062325656414032,0.21301640570163727,8.310076713562012,2.5638911724090576,7.495901107788086,-0.12912940979003906,0.058175086975097656,0.22449836134910583,-1.2356228828430176,0.004005493130534887,-0.9523537158966064,0.31414511799812317,1.2516448497772217,0.005149920005351305,0.9100099205970764,0.15583276748657227,-0.3278782367706299,-0.11959258466959,-0.06618601083755493,1.0145342350006104,-0.37145888805389404,0.10639733076095581,-0.6853207945823669,-0.14057374000549316,-0.16079194843769073,0.7234683632850647,-0.34252268075942993,0.01189263816922903,-0.2526552677154541,-0.04542269557714462,3.560913324356079,0.11179794371128082,-0.026196762919425964,0.26740992069244385,-4.770977973937988,0.8183640837669373,0.09696105867624283,0.09118211269378662,0.2227114886045456,-3.347479820251465,-0.9418163299560547,-2.5374040603637695,7.20543098449707,2.093438148498535,-0.10587283223867416,0.2941737473011017,0.44623661041259766,2.036626100540161,1.6695351600646973,-0.2781665027141571,0.5951090455055237,1741504896.4908226,1741504896373,-0.1013909912109375,-1.5525986328125,0.5065913766553238,-4.0596181640625,-1.2980982666015626
1741504896.498326,-3.1936153173446655,-0.010233038318362671,-0.040354829192298235,-0.9991330105084284,-0.4351610243320465,-0.02029544673860073,0.7547052502632141,-1.0224676132202148,2.2646749019622803,12.192545890808105,-0.10929298400878906,0.06694889068603516,0.2782863974571228,-1.231045126914978,0.004386968910694122,-0.9504463076591492,0.2313649207353592,1.2653779983520508,0.005912871100008488,0.9134432077407837,0.1844434291124344,-0.4175249934196472,-0.14820325374603271,-0.11615930497646332,1.1751353740692139,-0.34495729207992554,0.05301825702190399,-0.6536583304405212,-0.1192111074924469,-0.152399480342865,0.732623815536499,-0.349185585975647,0.027912689372897148,0.48426327109336853,0.18426215648651123,2.5439741611480713,0.30807241797447205,-0.09984704107046127,-0.0012588852550834417,-5.5240936279296875,0.673623263835907,0.03370976075530052,0.20378495752811432,1.5799845457077026,-4.668829441070557,-1.1464732885360718,-2.694141387939453,7.693543910980225,1.1819932460784912,-3.182892084121704,1.7730058431625366,1.1889586448669434,0.2660219669342041,0.37143275141716003,-0.22548972070217133,0.7125648856163025,1741504896.4908226,1741504896373,-0.1013909912109375,-1.5525986328125,0.5065913766553238,-4.0596181640625,-1.2980982666015626
1741504896.5183718,-3.178343892097473,-0.011511030633562331,-0.026335295389101416,-0.9995868888648559,-0.7483377456665039,-0.08969558775424957,0.7608708739280701,3.427635669708252,5.440047264099121,7.976768970489502,-0.10624122619628906,0.08525943756103516,0.3240634799003601,-1.2291377782821655,0.00476844422519207,-0.951209306716919,0.1489662081003189,1.2642335891723633,0.005531395319849253,0.9122987985610962,0.20885786414146423,-0.5281528830528259,-0.16079194843769073,-0.14438849687576294,1.3078888654708862,-0.3551630973815918,0.01985129341483116,-0.6261920928955078,-0.12226291000843048,-0.14820325374603271,0.7352941036224365,-0.3482826352119446,0.029818791896104813,0.11434545367956161,0.5760346055030823,2.238786458969116,0.03307601809501648,0.0024653421714901924,0.06666959077119827,-5.444469451904297,-0.06869089603424072,-0.016816534101963043,-0.09152742475271225,0.9809094071388245,-5.442906856536865,-0.6469640135765076,-0.999051034450531,6.146643161773682,-0.9408153891563416,-0.9765637516975403,1.2372491359710693,-0.18711408972740173,0.007400075905025005,0.21919529139995575,0.025071680545806885,0.1018744483590126,1741504896.4908226,1741504896373,-0.1013909912109375,-1.5525986328125,0.5065913766553238,-4.0596181640625,-1.2980982666015626
1741504896.5383718,-3.1607134342193604,-0.013729590746573914,-0.012213480339331008,-0.9998311503628661,-0.6101739406585693,-0.08800256997346878,0.933445155620575,0.026386473327875137,4.019880294799805,9.549875259399414,-0.10318946838378906,0.08678531646728516,0.36488136649131775,-1.231808066368103,0.005149920005351305,-0.9477760195732117,0.07419699430465698,1.2634705305099487,0.005531395319849253,0.9130617380142212,0.22564278542995453,-0.6277180314064026,-0.16193637251853943,-0.12264438718557358,1.3811322450637817,-0.40186524391174316,0.027229979634284973,-0.5930037498474121,-0.12149996310472488,-0.14629587531089783,0.7429236173629761,-0.34892281889915466,0.031620074063539505,0.10570639371871948,0.08500288426876068,1.9932390451431274,-0.21700385212898254,0.022904474288225174,0.13251164555549622,-4.770097732543945,-0.14937977492809296,0.003569173626601696,0.044219229370355606,0.8820151686668396,-4.557647705078125,0.08762619644403458,1.2827246189117432,3.130312442779541,-2.4887654781341553,0.16693708300590515,1.6245859861373901,0.12787078320980072,0.22446833550930023,0.31839174032211304,-0.08242928236722946,0.09893903881311417,1741504896.4908226,1741504896373,-0.1013909912109375,-1.5525986328125,0.5065913766553238,-4.0596181640625,-1.2980982666015626
1741504896.5584486,-3.141873002052307,-0.016400376782614103,-0.008662778347842877,-0.9998279771604135,-0.11515200138092041,-0.14990736544132233,0.8722419738769531,-1.7950458526611328,-3.183168888092041,10.969600677490234,-0.08373355865478516,0.09060001373291016,0.3999771177768707,-1.2424894571304321,0.005149920005351305,-0.9435797929763794,0.01430533267557621,1.2543151378631592,0.00476844422519207,0.9142061471939087,0.22373540699481964,-0.7104982137680054,-0.14591439068317413,-0.09403372555971146,1.3895246982574463,-0.454128235578537,0.02063552662730217,-0.5693522691726685,-0.11463340371847153,-0.12874799966812134,0.7448310256004333,-0.35371941328048706,0.04197189211845398,0.5769613981246948,0.019605180248618126,1.6757301092147827,-0.8232572674751282,-0.04756158962845802,0.20205335319042206,-3.840139865875244,-0.7014568448066711,-0.04635271057486534,0.04030673950910568,-0.35341373085975647,-4.115124225616455,0.8258975148200989,1.5499365329742432,0.014631553553044796,-2.6152760982513428,-0.5266374945640564,1.0725785493850708,0.39817488193511963,0.9639706611633301,0.10049252212047577,-0.23686064779758453,0.6472679376602173,1741504896.5949233,1741504896473,-0.1853014373779297,-1.568632568359375,-0.059022958065549136,-4.086316162109375,-1.3283337402343751
1741504896.578426,-3.122792601585388,-0.015427515676088719,-0.00913914789935905,-0.9998392209429162,0.033256545662879944,0.09082397073507309,0.8208653926849365,3.4875576496124268,-0.4115106761455536,6.477285861968994,-0.08220767974853516,0.09136295318603516,0.4209582805633545,-1.2485930919647217,0.00476844422519207,-0.9382390975952148,-0.028038453310728073,1.2409635782241821,0.0032425422687083483,0.9149690866470337,0.21763180196285248,-0.767719566822052,-0.13218127191066742,-0.06580453366041183,1.3391698598861694,-0.49479156732559204,-0.009029810316860676,-0.5510414242744446,-0.10204470902681351,-0.09975585341453552,0.7539864182472229,-0.36198535561561584,0.056034937500953674,0.10482750087976456,0.039322514086961746,0.9144377708435059,-0.30275222659111023,-0.04070807620882988,0.25676095485687256,-2.746683120727539,-0.8937032222747803,-0.11544802039861679,0.07088124752044678,-0.30948537588119507,-2.6870856285095215,0.7808043956756592,1.1933103799819946,-2.8840584754943848,-1.8643803596496582,-1.6294511556625366,0.7944663763046265,0.5357954502105713,1.6577203273773193,0.5253397822380066,-0.41660934686660767,0.5800933837890625,1741504896.5949233,1741504896473,-0.1853014373779297,-1.568632568359375,-0.059022958065549136,-4.086316162109375,-1.3283337402343751
1741504896.5984051,-3.1090575456619263,-0.01342245769432194,-0.013389525009827458,-0.9998202629720281,0.2495860755443573,0.17556725442409515,0.7302791476249695,-3.4693868160247803,2.1057419776916504,7.10056734085083,-0.07877445220947266,0.08030033111572266,0.43049514293670654,-1.2512633800506592,0.005912871100008488,-0.9359502792358398,-0.07839322835206985,1.229519248008728,0.0036240178160369396,0.9222171306610107,0.20542457699775696,-0.7982375621795654,-0.12417028844356537,-0.05664911866188049,1.2380788326263428,-0.5046093463897705,-0.009861492551863194,-0.5506599545478821,-0.09365224838256836,-0.07419699430465698,0.7742046117782593,-0.37227120995521545,0.06223735213279724,0.11344420909881592,-0.2902415990829468,0.471646249294281,-0.235270157456398,0.04100363701581955,0.09930960834026337,-3.2803707122802734,-0.745917558670044,0.04797665774822235,0.580344021320343,-0.6100536584854126,-1.2274062633514404,0.38267770409584045,0.2613159120082855,-5.353679656982422,-0.22962646186351776,0.326848566532135,0.13191145658493042,0.3094952404499054,1.2445893287658691,1.2510437965393066,-0.5441074967384338,0.17919550836086273,1741504896.5949233,1741504896473,-0.1853014373779297,-1.568632568359375,-0.059022958065549136,-4.086316162109375,-1.3283337402343751
1741504896.6184475,-3.0984630584716797,-0.00029079804834843283,-0.020743105103875868,-0.9997847963572685,0.3392122983932495,0.5531116127967834,0.3719457685947418,3.6266303062438965,0.29184895753860474,5.648829936981201,-0.07038211822509766,0.07457828521728516,0.4381246566772461,-1.2573670148849487,0.005149920005351305,-0.9348058104515076,-0.10929274559020996,1.220745325088501,0.002861066721379757,0.9409094452857971,0.1970321238040924,-0.7997635006904602,-0.11310750246047974,-0.06046387553215027,1.0927367210388184,-0.4847918152809143,-0.004990077577531338,-0.5556191205978394,-0.086785688996315,-0.05130846053361893,0.8119707107543945,-0.3887304365634918,0.06157822906970978,0.24266478419303894,-0.18336860835552216,0.32694530487060547,-0.2792169749736786,-0.0022295014932751656,0.062399253249168396,-1.935980200767517,-0.549211323261261,-0.048863258212804794,1.252633810043335,-0.3800828754901886,-0.03532508760690689,0.590847373008728,-0.20051264762878418,-7.499549388885498,1.1417858600616455,0.06352346390485764,-0.26830023527145386,0.24863450229167938,1.2217077016830444,1.8314133882522583,-0.9517187476158142,-0.1866348683834076,1741504896.5949233,1741504896473,-0.1853014373779297,-1.568632568359375,-0.059022958065549136,-4.086316162109375,-1.3283337402343751
1741504896.638598,-3.0962530374526978,0.010361268118810293,-0.026719144181459695,-0.9995892813836994,0.24241839349269867,0.5553839802742004,0.057429928332567215,9.334259033203125,-11.900278091430664,0.6263599991798401,-0.06733036041259766,0.07763004302978516,0.4388876259326935,-1.2569855451583862,0.005149920005351305,-0.9340428709983826,-0.12378881871700287,1.2154046297073364,0.0032425422687083483,0.9588387608528137,0.19016556441783905,-0.7803082466125488,-0.09403372555971146,-0.054741740226745605,0.9111543297767639,-0.44760438799858093,-0.006212085019797087,-0.5582894682884216,-0.06466010212898254,-0.03528648987412453,0.8524070978164673,-0.41107985377311707,0.05854063481092453,0.10190605372190475,0.09341734647750854,-0.06993158906698227,0.03858255594968796,-0.010302207432687283,0.023598289117217064,-0.7172985076904297,-0.339546263217926,0.005196817219257355,1.121618628501892,-0.29507631063461304,1.0730232000350952,0.9703894257545471,0.4522930979728699,-9.0057954788208,2.3370118141174316,0.2192138284444809,0.00482639204710722,1.2639185190200806,0.7029755711555481,2.16125226020813,-1.0935322046279907,-0.13311275839805603,1741504896.5949233,1741504896473,-0.1853014373779297,-1.568632568359375,-0.059022958065549136,-4.086316162109375,-1.3283337402343751
1741504896.6584969,-3.1007694005966187,0.014115555804913684,-0.03035508783391588,-0.9994395027848927,0.33215659856796265,0.3746788799762726,-0.1565580517053604,-3.3204360008239746,7.253602981567383,8.231369018554688,-0.07114505767822266,0.08945560455322266,0.4346913993358612,-1.2531707286834717,0.005531395319849253,-0.924124538898468,-0.11539635062217712,1.2077751159667969,0.0020981156267225742,0.9683756828308105,0.18902114033699036,-0.732623815536499,-0.086785688996315,0.018501564860343933,0.9218356609344482,-0.36888501048088074,0.04946519806981087,-0.5521858334541321,-0.06275273114442825,-0.01735713705420494,0.890554666519165,-0.4366982579231262,0.043769095093011856,-0.2038690447807312,0.525769054889679,-0.3260754942893982,0.20767274498939514,0.04581521824002266,0.5886074304580688,0.7537175416946411,-0.43106985092163086,-0.08488430082798004,0.5609079003334045,0.44915029406547546,2.8138442039489746,0.26192185282707214,3.36293363571167,1.1189384460449219,3.5530846118927,3.0987799167633057,0.41959238052368164,0.0033819519449025393,0.9372115135192871,1.6138817071914673,-1.403818130493164,-1.1980342864990234,1741504896.7052054,1741504896573,-0.27318777465820315,-1.6014837646484374,0.6027250026578737,-4.11211279296875,-1.3548447265625
1741504896.6785052,-3.107930064201355,0.026021813757405345,-0.04004309817767785,-0.9988590568729443,0.4849337935447693,0.45722949504852295,-0.45047709345817566,8.752458572387695,-14.72743034362793,18.030948638916016,-0.060463905334472656,0.09212589263916016,0.4011215269565582,-1.2581299543380737,0.005531395319849253,-0.9233615398406982,-0.08106355369091034,1.2073936462402344,0.0020981156267225742,0.9729533791542053,0.20351719856262207,-0.7112611532211304,-0.06961929053068161,0.016212711110711098,0.8932250142097473,-0.32560256123542786,0.09681495279073715,-0.5392156839370728,-0.04940108209848404,-0.016975661739706993,0.9050507545471191,-0.46300679445266724,0.0015951594104990363,0.37022915482521057,0.29870766401290894,-1.866005778312683,-0.33971908688545227,0.009156574495136738,-0.03310101851820946,2.398409366607666,0.019988862797617912,0.05859500169754028,0.20895670354366302,0.6558974385261536,0.7946447730064392,0.9605270624160767,-0.5975018739700317,-2.0018529891967773,1.9805617332458496,1.9606373310089111,0.572447657585144,0.6552299857139587,-0.017041794955730438,0.6213306784629822,-1.2365124225616455,-1.9879696369171143,1741504896.7052054,1741504896573,-0.27318777465820315,-1.6014837646484374,0.6027250026578737,-4.11211279296875,-1.3548447265625
1741504896.6985185,-3.109442353248596,0.03266581077016653,-0.0388489459608882,-0.9987110213692725,-0.1310388147830963,0.4096720516681671,-0.11993405967950821,17.403623580932617,-0.9920183420181274,10.739542007446289,-0.07457828521728516,0.09288883209228516,0.35191118717193604,-1.2546966075897217,0.004005493130534887,-0.9233615398406982,-0.031090257689356804,1.2138787508010864,0.0032425422687083483,0.970283031463623,0.21229113638401031,-0.654421329498291,-0.0558861680328846,0.0078202486038208,0.8813992738723755,-0.28887900710105896,0.04259070008993149,-0.5178530812263489,-0.05703059583902359,-0.016594186425209045,0.9576943516731262,-0.46446266770362854,0.004556579515337944,-0.3645189702510834,-0.05194802209734917,-2.6656060218811035,0.3018142282962799,-0.08817398548126221,0.0015477132983505726,3.4378514289855957,0.6276227831840515,-0.0005647118086926639,-0.17132724821567535,0.32414156198501587,2.6362082958221436,0.01195559836924076,-0.14426644146442413,-0.2976272404193878,1.7012594938278198,-2.7669873237609863,1.055017113685608,-0.24335621297359467,-0.19770283997058868,3.1049916744232178,0.1862134039402008,0.39248818159103394,1741504896.7052054,1741504896573,-0.27318777465820315,-1.6014837646484374,0.6027250026578737,-4.11211279296875,-1.3548447265625
1741504896.7185285,-3.114134430885315,0.023850822190122904,-0.039003807989289443,-0.9989543739546815,0.026133308187127113,-0.31122109293937683,-0.24275435507297516,-11.794283866882324,0.2907736897468567,11.985245704650879,-0.06733036041259766,0.12951087951660156,0.30117493867874146,-1.2474485635757446,0.00476844422519207,-0.9199283123016357,0.03452353551983833,1.23753023147583,0.00476844422519207,0.9641794562339783,0.2134355753660202,-0.6258106231689453,-0.06046387553215027,0.0013351644156500697,0.8813992738723755,-0.3011719584465027,0.0381334014236927,-0.5472266674041748,-0.07267109304666519,-0.0398641936480999,1.0465781688690186,-0.43775662779808044,0.013040938414633274,0.17905309796333313,0.9652509689331055,-2.713340997695923,0.42505162954330444,-0.03806526958942413,0.12486282736063004,4.53787088394165,1.5736260414123535,0.1604572981595993,-0.4488871395587921,0.053897056728601456,1.9526866674423218,-0.22459986805915833,-0.5512127876281738,0.12773707509040833,-1.0664571523666382,0.32841071486473083,-1.7688592672348022,-0.7063913941383362,-1.1651829481124878,4.597358703613281,1.4797741174697876,0.01003329362720251,1741504896.7052054,1741504896573,-0.27318777465820315,-1.6014837646484374,0.6027250026578737,-4.11211279296875,-1.3548447265625
1741504896.7386286,-3.1217782497406006,0.030724629109117354,-0.03931161334087833,-0.998754521502979,0.02900347113609314,0.2785322666168213,-0.44999074935913086,2.0537755489349365,0.11150135844945908,9.240800857543945,-0.07457828521728516,0.12264442443847656,0.23289081454277039,-1.239819049835205,0.005149920005351305,-0.9199283123016357,0.10433356463909149,1.2596558332443237,0.005149920005351305,0.9573128819465637,0.20618753135204315,-0.5754558444023132,-0.061226826161146164,-0.000572213320992887,0.8688105344772339,-0.34274473786354065,0.036172132939100266,-0.6090257167816162,-0.07724879682064056,-0.07572289556264877,1.177042841911316,-0.41028013825416565,-0.005254422314465046,-0.19985567033290863,-0.06402542442083359,-3.5299618244171143,0.5080031156539917,0.0324106439948082,0.05450427532196045,4.469237327575684,1.400970458984375,0.0044625685550272465,-0.48306262493133545,-0.3405046761035919,2.2069389820098877,-0.012766629457473755,0.07664631307125092,-0.8565272092819214,-2.1101837158203125,-0.5172858834266663,-3.509814977645874,-0.10965441912412643,-1.596022605895996,6.731385231018066,1.232893466949463,-0.7791759371757507,1741504896.7052054,1741504896573,-0.27318777465820315,-1.6014837646484374,0.6027250026578737,-4.11211279296875,-1.3548447265625
1741504896.758582,-3.1339797973632812,0.031278562979171476,-0.041765904941110994,-0.9986377024138474,0.16179202497005463,0.06759100407361984,-0.6145962476730347,-1.2191749811172485,-2.1828322410583496,8.964534759521484,-0.07953739166259766,0.12607765197753906,0.16002899408340454,-1.236767292022705,0.004386968910694122,-0.9172579646110535,0.17261768877506256,1.2733889818191528,0.005149920005351305,0.951972246170044,0.20237277448177338,-0.5323491096496582,-0.05054550990462303,0.015449759550392628,0.84897381067276,-0.38181647658348083,0.015716208145022392,-0.6948577165603638,-0.0883115902543068,-0.0879301130771637,1.3063629865646362,-0.3999461531639099,-0.0039704907685518265,-0.1712401956319809,0.06488868594169617,-3.723989963531494,0.12629474699497223,-0.07878588140010834,0.07739070057868958,4.599370956420898,0.8369194269180298,-0.0040741972625255585,-0.3386002779006958,-0.16180168092250824,2.231623411178589,0.648379385471344,0.8067336082458496,-0.9662795066833496,-1.8471111059188843,-0.6201494932174683,-4.317584991455078,-0.5374694466590881,-0.5107661485671997,6.2567524909973145,0.4019668698310852,0.3625127375125885,1741504896.8077364,1741504896673,-0.3701507263183594,-1.6266483154296876,0.45108621141103805,-4.1278896484375,-1.3736895751953124
1741504896.7786307,-3.1479138135910034,0.037090542656623135,-0.04751544515124513,-0.9981816338309958,0.3423030972480774,0.23170650005340576,-0.7049054503440857,0.01110197976231575,-1.4295552968978882,8.410950660705566,-0.07915592193603516,0.12607765197753906,0.0875486359000206,-1.235241413116455,0.00476844422519207,-0.9180209040641785,0.24204623699188232,1.2806370258331299,0.005531395319849253,0.9462500810623169,0.1974135935306549,-0.4812313914299011,-0.04253452271223068,0.02727550081908703,0.8230335116386414,-0.4098840057849884,0.0141033586114645,-0.7753490209579468,-0.08983749151229858,-0.10013733059167862,1.3918135166168213,-0.40686237812042236,0.0035504805855453014,-0.00136550550814718,0.017392871901392937,-3.6761770248413086,0.1282757818698883,0.00632423534989357,-0.017213249579072,4.613369464874268,0.33431491255760193,0.014701586216688156,-0.3926679790019989,-0.24226883053779602,2.5067312717437744,0.25002384185791016,0.5107002854347229,-1.3782671689987183,-1.3239816427230835,-0.16988100111484528,-4.149406909942627,-0.08423962444067001,-0.5259408950805664,3.6790449619293213,-0.44446590542793274,0.24111883342266083,1741504896.8077364,1741504896673,-0.3701507263183594,-1.6266483154296876,0.45108621141103805,-4.1278896484375,-1.3736895751953124
1741504896.79862,-3.1631269454956055,0.0395633037941906,-0.05196942805026479,-0.997864681978983,0.2117069512605667,0.052443839609622955,-0.7889822125434875,-1.4931750297546387,-2.355654239654541,8.926711082458496,-0.08487796783447266,0.12684059143066406,0.026131074875593185,-1.2340970039367676,0.00476844422519207,-0.9195467829704285,0.3084229826927185,1.2794926166534424,0.005149920005351305,0.9424353241920471,0.2004653960466385,-0.43087664246559143,-0.040627144277095795,0.03643091395497322,0.7898451089859009,-0.4350346028804779,0.015660854056477547,-0.8432517051696777,-0.09746700525283813,-0.10547798871994019,1.41470205783844,-0.4182412326335907,-0.001785116153769195,-0.17336790263652802,0.018933843821287155,-2.9579367637634277,0.08850391209125519,-0.0022068603429943323,-0.08226394653320312,4.33313512802124,-0.06275419145822525,0.0035849888809025288,-0.2504955232143402,0.2437562495470047,2.552765130996704,0.08098381012678146,0.4566902816295624,-1.5922017097473145,-1.26427161693573,0.08456729352474213,-3.1992509365081787,-0.5340844988822937,-0.2271147519350052,0.659243106842041,-0.5811812281608582,-0.33351635932922363,1741504896.8077364,1741504896673,-0.3701507263183594,-1.6266483154296876,0.45108621141103805,-4.1278896484375,-1.3736895751953124
1741504896.818919,-3.1802117824554443,0.04346618741004485,-0.05401916342451978,-0.9975934144404472,0.1633354127407074,0.14929524064064026,-0.8173588514328003,1.0866347551345825,-1.388880968093872,6.454017639160156,-0.09556007385253906,0.12684059143066406,-0.01735713705420494,-1.2314265966415405,0.00476844422519207,-0.9218356609344482,0.36335545778274536,1.2779666185379028,0.005149920005351305,0.9370946884155273,0.20428015291690826,-0.3770885765552521,-0.04139009863138199,0.038719769567251205,0.7562752962112427,-0.45843788981437683,0.012432418763637543,-0.8894102573394775,-0.12531471252441406,-0.10929274559020996,1.3845654726028442,-0.42123329639434814,0.0018451379146426916,-0.3421359062194824,0.011110981926321983,-2.0620744228363037,0.18015271425247192,-0.01662752777338028,-0.11822080612182617,3.5569286346435547,-0.0989832952618599,0.009365804493427277,-0.32908713817596436,0.24293917417526245,2.6452221870422363,-0.08715502917766571,0.043001677840948105,-1.7117342948913574,-1.1698437929153442,-0.23566845059394836,-2.2283833026885986,-1.4041751623153687,-0.23641762137413025,-1.861377239227295,-0.04570542275905609,0.23678481578826904,1741504896.8077364,1741504896673,-0.3701507263183594,-1.6266483154296876,0.45108621141103805,-4.1278896484375,-1.3736895751953124
1741504896.8390753,-3.190147876739502,0.04513056119638239,-0.05722388708032666,-0.9973407939082396,0.171127587556839,0.051463089883327484,-0.5423027276992798,1.4418854713439941,0.09967079758644104,7.467044830322266,-0.09556007385253906,0.12607765197753906,-0.048638131469488144,-1.2314265966415405,0.00476844422519207,-0.926413357257843,0.4076066315174103,1.2730075120925903,0.005149920005351305,0.9321355223655701,0.21190966665744781,-0.3248264193534851,-0.043678950518369675,0.04253452271223068,0.7211795449256897,-0.4776906967163086,0.011682889424264431,-0.9203097820281982,-0.15964750945568085,-0.11768520623445511,1.3143739700317383,-0.41033685207366943,0.005125355441123247,0.0009246960980817676,-0.010057893581688404,-1.6693991422653198,-0.023756753653287888,-0.0787416622042656,-0.3205602765083313,2.858030319213867,-0.4756375551223755,-0.0030233561992645264,-0.3425139784812927,0.3389015793800354,2.51084566116333,-0.1000884473323822,0.19852401316165924,-1.6576851606369019,-0.9086921215057373,0.12646150588989258,-1.3950135707855225,-1.7594051361083984,-0.3950573205947876,-3.708345651626587,0.6200577616691589,0.09566192328929901,1741504896.8077364,1741504896673,-0.3701507263183594,-1.6266483154296876,0.45108621141103805,-4.1278896484375,-1.3736895751953124
1741504896.859099,-3.2049983739852905,0.04518739951016936,-0.059065556713838854,-0.9972308453590837,0.13472208380699158,-0.07385576516389847,-0.7389377355575562,3.5353400707244873,-1.8811185359954834,8.176509857177734,-0.09708595275878906,0.12645912170410156,-0.07343403995037079,-1.2299007177352905,0.00476844422519207,-0.9405279755592346,0.45719844102859497,1.2665224075317383,0.005149920005351305,0.924124538898468,0.2161058932542801,-0.27180132269859314,-0.04291599988937378,0.05130846053361893,0.6853207945823669,-0.487246572971344,0.015362061560153961,-0.9317540526390076,-0.18863965570926666,-0.1356145590543747,1.2243458032608032,-0.3886938691139221,0.004607625771313906,-0.05676048621535301,0.010685297660529613,-1.0820870399475098,0.10432060062885284,-0.011535583063960075,-0.7842003107070923,3.2969141006469727,-0.4647262692451477,-0.02038140594959259,-0.5699259638786316,0.10395732522010803,2.741189956665039,0.04179883003234863,0.35169073939323425,-1.8351136445999146,-0.38547319173812866,0.23697982728481293,-0.3910728394985199,-1.3952537775039673,-1.0549899339675903,-4.5039167404174805,1.1220651865005493,0.00790016632527113,1741504896.903748,1741504896773,-0.46012908935546876,-1.63057373046875,0.7193080133249802,-4.1535791015625,-1.4005367431640625
1741504896.8791223,-3.2187602519989014,0.04166313241367961,-0.059561283811051066,-0.9973548199453691,0.05060289427638054,-0.2055855542421341,-0.7019273638725281,0.1768541783094406,-0.988459050655365,11.019665718078613,-0.09784889221191406,0.12417030334472656,-0.07991912961006165,-1.2283748388290405,0.00476844422519207,-0.9538795948028564,0.4865720570087433,1.2581299543380737,0.00476844422519207,0.917639434337616,0.21648737788200378,-0.20580606162548065,-0.045204851776361465,0.056267641484737396,0.6464102864265442,-0.4867861866950989,0.0190705768764019,-0.9164950251579285,-0.21686884760856628,-0.17223620414733887,1.1144808530807495,-0.36147305369377136,0.0036549922078847885,-0.026094140484929085,-0.06692640483379364,-0.18326932191848755,0.07033596932888031,-0.003941270988434553,-0.6542339324951172,1.7424099445343018,-0.5123805403709412,0.016494711861014366,-0.37823542952537537,0.04306037724018097,3.3397719860076904,-0.12288925051689148,0.22543832659721375,-1.8837696313858032,0.055804651230573654,0.2351776510477066,1.0508289337158203,-1.3656363487243652,-1.9795950651168823,-5.653558731079102,1.3147214651107788,-0.0017569765914231539,1741504896.903748,1741504896773,-0.46012908935546876,-1.63057373046875,0.7193080133249802,-4.1535791015625,-1.4005367431640625
1741504896.8991296,-3.23256516456604,0.037423951735319844,-0.061720071776108644,-0.9973916385134098,0.13451331853866577,-0.29215118288993835,-0.6709073781967163,2.2001302242279053,-2.287004232406616,7.954310417175293,-0.09746742248535156,0.11882972717285156,-0.06885633617639542,-1.2283748388290405,0.00476844422519207,-0.960746169090271,0.4972533881664276,1.2527892589569092,0.00476844422519207,0.9119172692298889,0.21953918039798737,-0.14057374000549316,-0.04749370738863945,0.05207141116261482,0.620851457118988,-0.48152223229408264,0.03216608241200447,-0.881780743598938,-0.23403525352478027,-0.22030213475227356,0.9855420589447021,-0.3438079357147217,-0.001501446240581572,0.0072858515195548534,-0.1577172726392746,0.6898582577705383,-0.017595522105693817,0.003510863520205021,-0.278253972530365,0.46522682905197144,-0.3340182900428772,-0.009788471274077892,-0.3730846345424652,0.1547604203224182,3.1651110649108887,-0.10972736775875092,-0.21986959874629974,-1.1340663433074951,0.2798433005809784,0.6533169746398926,1.7377043962478638,-0.8070999979972839,-2.4134840965270996,-6.665103912353516,0.7456988096237183,-0.2629975974559784,1741504896.903748,1741504896773,-0.46012908935546876,-1.63057373046875,0.7193080133249802,-4.1535791015625,-1.4005367431640625
1741504896.919151,-3.244844913482666,0.029643193519052532,-0.06384974744132184,-0.9975191681515055,0.13392657041549683,-0.40420597791671753,-0.6039866209030151,2.6630139350891113,-1.2503516674041748,3.6507842540740967,-0.09403419494628906,0.11654090881347656,-0.04253452271223068,-1.2283748388290405,0.00476844422519207,-0.9657053351402283,0.4892423748970032,1.2489745616912842,0.00476844422519207,0.9092469811439514,0.2157244235277176,-0.08983749151229858,-0.059319447726011276,0.045204851776361465,0.6239032745361328,-0.47154518961906433,0.03995005413889885,-0.8348592519760132,-0.2309834510087967,-0.2615014910697937,0.8447775840759277,-0.3498586118221283,-0.0076569123193621635,0.10876121371984482,-0.10041739046573639,1.3628708124160767,-0.008991103619337082,0.009357298724353313,-0.23354694247245789,-0.6926268935203552,-0.23368161916732788,-0.004346036352217197,-0.1120048388838768,-0.2694586515426636,2.3388187885284424,-0.6793287992477417,-0.46282488107681274,0.46807631850242615,0.5491793155670166,0.31438350677490234,2.46814227104187,0.35911762714385986,-1.8222463130950928,-7.015663146972656,-0.5050878524780273,-0.20186501741409302,1741504896.903748,1741504896773,-0.46012908935546876,-1.63057373046875,0.7193080133249802,-4.1535791015625,-1.4005367431640625
1741504896.9392254,-3.2548919916152954,0.023173606408806065,-0.06796661692707473,-0.9974184292209053,0.21788613498210907,-0.29506468772888184,-0.4776763916015625,-4.443522930145264,6.122537612915039,14.833368301391602,-0.09327030181884766,0.10814857482910156,-0.005149920005351305,-1.2291377782821655,0.00476844422519207,-0.9660868048667908,0.4640650153160095,1.2470670938491821,0.00476844422519207,0.9111543297767639,0.20847637951374054,-0.07495994865894318,-0.08564125746488571,0.03490501269698143,0.6860837936401367,-0.4583277404308319,0.04799451678991318,-0.7925154566764832,-0.2149614691734314,-0.2584496736526489,0.7257572412490845,-0.3707772493362427,-0.008170096203684807,0.0256673414260149,-0.24714680016040802,1.9306296110153198,-0.015508989803493023,-0.0035742525942623615,0.014983776956796646,-1.8031175136566162,-0.11019918322563171,0.0027100045699626207,0.12724615633487701,-0.3154243230819702,0.41158178448677063,-1.0730162858963013,-0.7513907551765442,3.642688274383545,0.7048486471176147,0.47817209362983704,1.7339571714401245,0.7550267577171326,0.4948628544807434,-5.245415210723877,-0.5773209929466248,-0.0013712302315980196,1741504896.903748,1741504896773,-0.46012908935546876,-1.63057373046875,0.7193080133249802,-4.1535791015625,-1.4005367431640625
1741504896.959224,-3.263826012611389,0.021632686205871065,-0.07096815908340932,-0.9972439758072396,-0.036142412573099136,0.0602843277156353,-0.5241222381591797,2.596982717514038,-5.0087504386901855,1.193182349205017,-0.08792972564697266,0.10357093811035156,0.03681239113211632,-1.2356228828430176,0.00476844422519207,-0.9630350470542908,0.421339750289917,1.2440153360366821,0.00476844422519207,0.9088655114173889,0.19207294285297394,-0.10814831405878067,-0.07534141838550568,-0.020027466118335724,0.8176928162574768,-0.4319552481174469,0.06344100832939148,-0.7673380374908447,-0.17299915850162506,-0.20962081849575043,0.7784008383750916,-0.3554793894290924,-0.012926424853503704,0.18706636130809784,-0.030997823923826218,2.140467643737793,-0.5519739985466003,-0.031294722110033035,0.13812127709388733,-3.0693652629852295,-0.21734602749347687,0.00808202289044857,-0.22740022838115692,-1.0015032291412354,-2.027287244796753,-0.03133934363722801,-2.8214545249938965,6.865583419799805,1.4750889539718628,0.6591687202453613,1.3330694437026978,2.305748701095581,2.479219913482666,3.2746422290802,0.40964484214782715,-0.2947829067707062,1741504897.0124311,1741504896873,-0.5628759765625,-1.6344188232421875,0.6559764896023589,-4.1700126953125,-1.4165802001953125
1741504896.979454,-3.264616012573242,0.019518845693439136,-0.06085553639249557,-0.9979557196354844,-0.4197682738304138,-0.2836935818195343,-0.08732163161039352,-18.42325782775879,-1.4088596105575562,9.05479621887207,-0.09441566467285156,0.10738563537597656,0.08297093212604523,-1.2363858222961426,0.004386968910694122,-0.9634165167808533,0.3530556261539459,1.2524077892303467,0.005912871100008488,0.9115357995033264,0.18673227727413177,-0.19245441257953644,-0.10776684433221817,-0.08258945494890213,0.9824903011322021,-0.3848455250263214,0.06997128576040268,-0.7665750980377197,-0.14629587531089783,-0.17032882571220398,0.7993820309638977,-0.3703851103782654,-0.0038732020184397697,-0.11495547741651535,0.2603974938392639,2.3518924713134766,0.025922438129782677,-0.1041417121887207,-0.07041821628808975,-4.786964416503906,0.6249768733978271,0.08795582503080368,0.29166728258132935,-0.2571297883987427,-4.341470718383789,-1.6809313297271729,-3.5696096420288086,8.297707557678223,2.3792953491210938,0.2142479419708252,0.36707863211631775,1.1930344104766846,1.8690310716629028,0.5088155269622803,-0.8107688426971436,0.5603188276290894,1741504897.0124311,1741504896873,-0.5628759765625,-1.6344188232421875,0.6559764896023589,-4.1700126953125,-1.4165802001953125
1741504896.9994843,-3.260354161262512,0.019752575626028075,-0.052165218081110465,-0.9984431009219745,-0.48464837670326233,-0.03971412032842636,0.335773229598999,4.580049991607666,-2.526810646057129,6.5728936195373535,-0.07648563385009766,0.10471534729003906,0.1340886503458023,-1.2409635782241821,0.006294346414506435,-0.9637979865074158,0.27141985297203064,1.2550780773162842,0.005531395319849253,0.9134432077407837,0.18863965570926666,-0.2935454249382019,-0.1371404528617859,-0.14782176911830902,1.1663614511489868,-0.3341093361377716,0.07082373648881912,-0.7249943017959595,-0.10814831405878067,-0.15659570693969727,0.8070115447044373,-0.3726198971271515,0.002030590083450079,0.49155330657958984,-0.13064078986644745,2.4981369972229004,-0.5014194846153259,0.13379159569740295,0.0019284908194094896,-5.354507923126221,0.13314411044120789,-0.04979173094034195,0.013135747984051704,0.19818837940692902,-5.159131050109863,-1.557751178741455,-2.9583351612091064,8.842889785766602,2.3446829319000244,-0.21708214282989502,1.7895946502685547,1.8783667087554932,0.24590222537517548,0.329450398683548,-0.03474355861544609,0.14163696765899658,1741504897.0124311,1741504896873,-0.5628759765625,-1.6344188232421875,0.6559764896023589,-4.1700126953125,-1.4165802001953125
1741504897.0195024,-3.2510437965393066,0.005984805652498705,-0.03514360248679212,-0.9993643526289859,-0.8274821639060974,-0.6559961438179016,0.4996863305568695,1.5565272569656372,5.0175886154174805,10.650605201721191,-0.09098148345947266,0.12378883361816406,0.19016556441783905,-1.2447782754898071,0.004386968910694122,-0.9618905782699585,0.1985580176115036,1.2577484846115112,0.005531395319849253,0.9111543297767639,0.19321736693382263,-0.41142138838768005,-0.1676585078239441,-0.1806286722421646,1.3151369094848633,-0.3135170340538025,0.02030489407479763,-0.6956206560134888,-0.10738536715507507,-0.14782176911830902,0.8001449704170227,-0.3718108832836151,-0.0011954306391999125,-0.4277457892894745,0.40618884563446045,3.052746295928955,-0.1571960151195526,-0.04651380330324173,0.1331619769334793,-4.86410665512085,0.17692847549915314,0.022001076489686966,-0.06046793982386589,0.30686071515083313,-5.741340637207031,-1.4412908554077148,-1.3939788341522217,7.046795845031738,0.7361084222793579,-2.542870044708252,1.5945227146148682,-0.04321964830160141,0.37710702419281006,-0.30617067217826843,0.07951268553733826,0.06549052894115448,1741504897.0124311,1741504896873,-0.5628759765625,-1.6344188232421875,0.6559764896023589,-4.1700126953125,-1.4165802001953125
1741504897.0394783,-3.2402044534683228,-0.0031851483203295646,-0.022031435594420175,-0.9997522046366423,-0.6089009642601013,-0.4041357934474945,0.5192329287528992,2.309455394744873,5.1393351554870605,8.242859840393066,-0.07038211822509766,0.12073707580566406,0.2508201599121094,-1.2482116222381592,0.005149920005351305,-0.9618905782699585,0.12760357558727264,1.2577484846115112,0.00476844422519207,0.9134432077407837,0.20275425910949707,-0.5292973518371582,-0.18749523162841797,-0.17185473442077637,1.408216953277588,-0.3426525592803955,0.014650893397629261,-0.6448844075202942,-0.10891126841306686,-0.15659570693969727,0.7982375621795654,-0.3684556782245636,0.007181866094470024,0.5168719291687012,-0.02081664465367794,2.8663737773895264,-0.30440032482147217,0.021664708852767944,-0.00213255500420928,-4.662204742431641,-0.06707873940467834,-0.0536741204559803,0.12484071403741837,0.4780239462852478,-5.7384419441223145,-0.7450265884399414,0.6253986954689026,4.122990131378174,-1.7755447626113892,0.13043822348117828,2.4385204315185547,-0.025275396183133125,-0.3478732109069824,-0.2022038698196411,0.12263305485248566,0.3276073634624481,1741504897.0124311,1741504896873,-0.5628759765625,-1.6344188232421875,0.6559764896023589,-4.1700126953125,-1.4165802001953125
1741504897.0595882,-3.229307174682617,-0.013598217611326464,-0.01611562502761608,-0.9997776628369751,-0.24531662464141846,-0.5110145807266235,0.5547552704811096,-1.7832372188568115,1.5379068851470947,7.574889183044434,-0.06427860260009766,0.11501502990722656,0.3130006790161133,-1.2554595470428467,0.005149920005351305,-0.9611276388168335,0.06275273114442825,1.2516448497772217,0.004386968910694122,0.9149690866470337,0.20656901597976685,-0.6448844075202942,-0.1802472025156021,-0.16117341816425323,1.440260887145996,-0.395894318819046,0.014669121243059635,-0.6147478222846985,-0.10433356463909149,-0.15697719156742096,0.7959487438201904,-0.3735460042953491,0.009990944527089596,0.20455670356750488,-0.10543235391378403,2.8498246669769287,-0.47060009837150574,-0.01618112437427044,0.008730131201446056,-4.209860324859619,-0.4664597511291504,-0.006366920657455921,0.07670039683580399,0.05383448302745819,-5.590762615203857,0.2211543470621109,0.5677383542060852,1.2002543210983276,-2.663050413131714,-0.2472129464149475,1.4735448360443115,0.30196279287338257,0.008794615976512432,-0.04811043292284012,-0.36392083764076233,0.2189464420080185,1741504897.1060104,1741504896973,-0.6501712646484376,-1.6508836669921876,0.6339489034516366,-4.18462158203125,-1.4302296142578126
1741504897.0795224,-3.2240560054779053,-0.01706436336381433,-0.011781225939152979,-0.9997849819928074,-0.255610853433609,-0.13958044350147247,0.21921010315418243,1.1534819602966309,-1.0433495044708252,7.6626057624816895,-0.058556556701660156,0.09708595275878906,0.36793315410614014,-1.2573670148849487,0.005149920005351305,-0.9630350470542908,0.0078202486038208,1.2432523965835571,0.004386968910694122,0.9164950251579285,0.20809490978717804,-0.7478827834129333,-0.17605096101760864,-0.14400701224803925,1.4150835275650024,-0.4502624273300171,0.0018931061495095491,-0.5910963416099548,-0.09746700525283813,-0.15354390442371368,0.8039597272872925,-0.3915926516056061,0.02995014376938343,0.1703135371208191,-0.586740255355835,2.6258206367492676,0.010014213621616364,-0.011022001504898071,-0.11156493425369263,-3.6341195106506348,-0.4567192494869232,-0.013796008192002773,0.13306671380996704,0.08089999854564667,-5.1556077003479,0.31116199493408203,0.5849147439002991,-1.5872300863265991,-2.6124930381774902,-0.5548354387283325,1.0490802526474,0.1290433257818222,0.20573551952838898,0.5192691683769226,-0.9163046479225159,1.1806535720825195,1741504897.1060104,1741504896973,-0.6501712646484376,-1.6508836669921876,0.6339489034516366,-4.18462158203125,-1.4302296142578126
1741504897.099679,-3.221432089805603,-0.017255565533080882,-0.008636816122288012,-0.9998138080989897,-0.13674789667129517,0.0783684253692627,0.1316569298505783,-1.8249216079711914,1.0220446586608887,8.150186538696289,-0.050927162170410156,0.08411502838134766,0.41103988885879517,-1.2554595470428467,0.005531395319849253,-0.9626535177230835,-0.05092698708176613,1.2421079874038696,0.004386968910694122,0.9245060086250305,0.20847637951374054,-0.8279926776885986,-0.1680399775505066,-0.14248111844062805,1.3464179039001465,-0.4788084030151367,-0.012774142436683178,-0.5903334021568298,-0.10166323184967041,-0.15659570693969727,0.8249408602714539,-0.40999576449394226,0.04869416356086731,0.22923946380615234,-0.4127662181854248,2.0051679611206055,0.023129407316446304,0.010553578846156597,0.0216366034001112,-3.915015459060669,-0.09840216487646103,0.012487327679991722,0.6125091910362244,-0.03714679554104805,-3.583806276321411,0.4149441421031952,-0.12677578628063202,-3.6884520053863525,-1.1045730113983154,-0.624064564704895,0.13386954367160797,-0.4098721444606781,-0.15324918925762177,1.3335058689117432,-0.8762720227241516,0.842820405960083,1741504897.1060104,1741504896973,-0.6501712646484376,-1.6508836669921876,0.6339489034516366,-4.18462158203125,-1.4302296142578126
1741504897.1196299,-3.220234990119934,-0.004103763151932526,-0.005277538650597624,-0.9999776531072002,-0.14584434032440186,0.6380953788757324,0.005118527915328741,3.131234884262085,1.399160385131836,4.581668376922607,-0.041390419006347656,0.06961917877197266,0.44270238280296326,-1.2566040754318237,0.005531395319849253,-0.960746169090271,-0.09479667246341705,1.2371487617492676,0.004005493130534887,0.9405279755592346,0.1997024416923523,-0.8791103959083557,-0.1520180106163025,-0.15354390442371368,1.2205309867858887,-0.4736052453517914,-0.011305014602839947,-0.5930037498474121,-0.11501488089561462,-0.15926603972911835,0.8657587766647339,-0.4303101897239685,0.05490535497665405,0.27834391593933105,-0.4133656919002533,1.67818284034729,-0.04819266125559807,0.0280692707747221,0.1334427446126938,-2.7619810104370117,-0.41358715295791626,-0.04525059089064598,1.1230212450027466,-0.5592275857925415,-2.4838783740997314,0.9688237309455872,-0.6955591440200806,-6.776527404785156,0.4436863660812378,0.1653408706188202,-0.26873478293418884,-0.5957084894180298,-0.08370772749185562,2.000873327255249,-1.05817449092865,0.20533044636249542,1741504897.1060104,1741504896973,-0.6501712646484376,-1.6508836669921876,0.6339489034516366,-4.18462158203125,-1.4302296142578126
1741504897.1396363,-3.2200647592544556,0.006489760321484591,-0.005434453386156665,-0.9999641742219385,0.026699557900428772,0.562812089920044,0.004857026971876621,1.1896545886993408,3.4716053009033203,4.640474796295166,-0.037575721740722656,0.07038211822509766,0.47398337721824646,-1.2562226057052612,0.005149920005351305,-0.951209306716919,-0.12073700875043869,1.229519248008728,0.004005493130534887,0.9576943516731262,0.17261768877506256,-0.8798733353614807,-0.1188296303153038,-0.16346226632595062,1.0255969762802124,-0.45839348435401917,0.003012578934431076,-0.6044480204582214,-0.11348897218704224,-0.15545128285884857,0.9096284508705139,-0.4533483684062958,0.05749425292015076,0.12984809279441833,-0.005571841262280941,1.3521274328231812,0.07954984903335571,-0.0032191481441259384,0.48485681414604187,-1.4676623344421387,-0.4896058738231659,0.0074751717038452625,1.0690439939498901,-1.4054012298583984,0.4517103433609009,1.8217164278030396,-0.3564678132534027,-10.09560775756836,0.752325177192688,0.6841016411781311,-0.5584457516670227,0.14205817878246307,0.2939349114894867,2.2213053703308105,-1.170670986175537,0.21097974479198456,1741504897.1060104,1741504896973,-0.6501712646484376,-1.6508836669921876,0.6339489034516366,-4.18462158203125,-1.4302296142578126
1741504897.1596768,-3.225909471511841,0.011392196077891414,-0.004298629463500796,-0.9999258670787842,-0.13695839047431946,0.007659615017473698,-0.37499862909317017,-49.357810974121094,-10.569503784179688,31.35232162475586,-0.03108978271484375,0.08449649810791016,0.4865720570087433,-1.2543151378631592,0.005149920005351305,-0.9351872801780701,-0.12607766687870026,1.223034143447876,0.004005493130534887,0.9691386222839355,0.13141833245754242,-0.8504997491836548,-0.08373387902975082,-0.1180666834115982,0.9195467829704285,-0.383760005235672,-0.04016619175672531,-0.6071183085441589,-0.10204470902681351,-0.14400701224803925,0.960746169090271,-0.4757073223590851,0.045722782611846924,0.23257951438426971,0.24744385480880737,0.6004407405853271,0.17145827412605286,0.009833626449108124,1.0174449682235718,-0.17605279386043549,-0.44016334414482117,0.046001993119716644,0.5947325229644775,-2.173016309738159,1.7473918199539185,1.5317469835281372,2.84704327583313,-1.4010428190231323,4.849804401397705,-2.2230942249298096,0.04096328839659691,-0.1209985762834549,0.7938522100448608,2.477275848388672,-1.0674952268600464,-0.8175939917564392,1741504897.2072873,1741504897073,-0.7317944946289062,-1.6827213134765626,0.5411269878709202,-4.183146484375,-1.4464664306640624
1741504897.1797397,-3.2202433347702026,0.024077027617628387,-0.015237036248090358,-0.9995939823085543,0.5674548745155334,0.6576504707336426,0.31881120800971985,2.172560453414917,5.619324207305908,-4.043140411376953,-0.02079010009765625,0.08030033111572266,0.4720759987831116,-1.2520263195037842,0.00476844422519207,-0.916113555431366,-0.10547798871994019,1.223034143447876,0.0013351644156500697,0.9752422571182251,0.12569619715213776,-0.8169298768043518,-0.06923781335353851,-0.09555962681770325,0.9428167939186096,-0.3025064170360565,-0.03465162217617035,-0.5960555672645569,-0.09746700525283813,-0.13218127191066742,0.9779125452041626,-0.5027363896369934,0.013426242396235466,0.4047265648841858,-0.2193066030740738,-1.1674940586090088,0.020381417125463486,-0.03752557188272476,0.7030773162841797,1.846362829208374,0.03460005298256874,-0.16127993166446686,0.3837721049785614,-0.11821838468313217,1.1009531021118164,0.6375181078910828,-0.008771263062953949,-0.4484972059726715,3.2737197875976562,0.8104888200759888,0.34409254789352417,0.7459142208099365,0.1319279819726944,0.7345616817474365,-1.4453349113464355,-1.7304844856262207,1741504897.2072873,1741504897073,-0.7317944946289062,-1.6827213134765626,0.5411269878709202,-4.183146484375,-1.4464664306640624
1741504897.1997223,-3.220592737197876,0.02931918386989327,-0.02358220627918182,-0.9992918817864026,0.26258745789527893,0.29321369528770447,0.009586806409060955,-2.663370132446289,-15.150917053222656,22.46234130859375,-0.02346038818359375,0.08678531646728516,0.4201953113079071,-1.2550780773162842,0.005149920005351305,-0.9134432077407837,-0.058175019919872284,1.2234156131744385,0.0020981156267225742,0.9699015617370605,0.11081864684820175,-0.7654306888580322,-0.06198977679014206,-0.11768520623445511,0.8970397710800171,-0.2587084174156189,-0.016409017145633698,-0.5788891315460205,-0.08907453715801239,-0.1363775134086609,0.9985122680664062,-0.5270131230354309,-0.005862027872353792,-0.06923512369394302,0.038511723279953,-2.859528064727783,-0.10900561511516571,-0.008090938441455364,0.10144897550344467,3.0995235443115234,0.016593849286437035,0.06060655415058136,-0.41817963123321533,-0.5661351084709167,2.970898389816284,-0.3593374490737915,-0.39307236671447754,-1.6917413473129272,2.225529193878174,0.7938776612281799,0.9353680610656738,0.3807162344455719,-0.1331101804971695,1.4228146076202393,-1.0446325540542603,-0.510739266872406,1741504897.2072873,1741504897073,-0.7317944946289062,-1.6827213134765626,0.5411269878709202,-4.183146484375,-1.4464664306640624
1741504897.2197473,-3.2152384519577026,0.02730636028407146,-0.01868896815603144,-0.9994523926417402,-0.22936837375164032,-0.22114239633083344,0.02887609414756298,2.6059446334838867,-4.397252559661865,8.830557823181152,-0.02040863037109375,0.12073707580566406,0.3702220320701599,-1.2501189708709717,0.004386968910694122,-0.9111543297767639,-0.010490577667951584,1.2421079874038696,0.0032425422687083483,0.9626535177230835,0.1325627565383911,-0.7307164072990417,-0.07839322835206985,-0.12989242374897003,0.8981841802597046,-0.2430819422006607,0.014189724810421467,-0.5701152086257935,-0.08983749151229858,-0.15964750945568085,1.0400930643081665,-0.5186176896095276,0.01682593859732151,0.23225468397140503,0.7929652333259583,-2.5669569969177246,0.3461242616176605,-0.05805573612451553,0.030009571462869644,3.240510940551758,1.5589159727096558,0.12017662078142166,-0.5306594371795654,1.2393165826797485,1.302328109741211,-0.5894623398780823,-1.022837519645691,0.029470523819327354,0.3095906674861908,1.375946283340454,0.1350012719631195,0.007340948563069105,-1.5126925706863403,2.0130317211151123,0.7121206521987915,1.1718639135360718,1741504897.2072873,1741504897073,-0.7317944946289062,-1.6827213134765626,0.5411269878709202,-4.183146484375,-1.4464664306640624
1741504897.2397292,-3.2242767810821533,0.024408335767255516,-0.010728224987005321,-0.999644505978851,-0.4265207052230835,-0.022034769877791405,-0.4780423939228058,2.32456374168396,-0.5937609076499939,12.149373054504395,-0.01125335693359375,0.12302589416503906,0.31910428404808044,-1.2402005195617676,0.00476844422519207,-0.916113555431366,0.04634927958250046,1.2661409378051758,0.0078202486038208,0.9531166553497314,0.16308079659938812,-0.691805899143219,-0.08907453715801239,-0.15774014592170715,0.8993285894393921,-0.26884472370147705,0.015667704865336418,-0.5876630544662476,-0.08068207651376724,-0.20847637951374054,1.1175326108932495,-0.4863225221633911,0.01341903954744339,0.14745165407657623,0.021231861785054207,-2.715022087097168,0.7854926586151123,0.02046211063861847,-0.2417125701904297,3.8265955448150635,1.5789995193481445,0.2277076542377472,-0.6128816604614258,1.4282894134521484,1.8612325191497803,-0.6640908718109131,-1.2020286321640015,-0.03338581696152687,-1.5082662105560303,-0.10125342756509781,-1.080525279045105,0.4441106617450714,-2.3631627559661865,4.041853904724121,1.685447335243225,-0.402637779712677,1741504897.2072873,1741504897073,-0.7317944946289062,-1.6827213134765626,0.5411269878709202,-4.183146484375,-1.4464664306640624
1741504897.259846,-3.234237551689148,0.020314949899800372,-0.004044521367466895,-0.9997854493127396,-0.29665642976760864,-0.18962323665618896,-0.563987135887146,-8.910308837890625,1.4285775423049927,11.494778633117676,-0.01392364501953125,0.13866615295410156,0.25387197732925415,-1.223034143447876,0.00476844422519207,-0.9164950251579285,0.11005569249391556,1.2840702533721924,0.0078202486038208,0.9454871416091919,0.19398032128810883,-0.6696802973747253,-0.09098191559314728,-0.17185473442077637,0.8985656499862671,-0.31079959869384766,0.01823410391807556,-0.6418325901031494,-0.08030059933662415,-0.23823148012161255,1.2144273519515991,-0.4498022794723511,-0.0007952161249704659,-0.003926434554159641,0.4236379861831665,-3.520033597946167,1.0500353574752808,-0.011489723809063435,-0.04036037623882294,4.248939514160156,1.096662998199463,0.01782744936645031,-0.4841547906398773,1.4747065305709839,1.3351842164993286,0.013048382475972176,-0.4334450364112854,-0.02854209579527378,-2.109541177749634,0.2355775535106659,-2.8752410411834717,0.07622241973876953,-1.3391114473342896,4.856958866119385,1.776267170906067,-0.49210625886917114,1741504897.2072873,1741504897073,-0.7317944946289062,-1.6827213134765626,0.5411269878709202,-4.183146484375,-1.4464664306640624
1741504897.2797797,-3.249090790748596,0.025550890684689437,-0.002401106322118224,-0.9996706390975223,-0.02917199395596981,0.22853954136371613,-0.7191503643989563,0.6404561996459961,-0.7774596810340881,11.21290111541748,-0.00972747802734375,0.13408851623535156,0.17605096101760864,-1.213497281074524,0.005149920005351305,-0.9164950251579285,0.17223620414733887,1.293225646018982,0.0078202486038208,0.9439612627029419,0.21038375794887543,-0.6303883194923401,-0.08182650804519653,-0.17414358258247375,0.8909361362457275,-0.35072439908981323,0.01975838467478752,-0.7036316394805908,-0.06733043491840363,-0.2481498420238495,1.2994964122772217,-0.4235832989215851,0.002561901230365038,0.13192324340343475,-0.020291930064558983,-3.8622751235961914,0.5509753227233887,0.010001123882830143,0.02632206678390503,4.121779441833496,0.48220306634902954,-0.00991300493478775,-0.07143179327249527,0.6604916453361511,1.8629523515701294,0.48553067445755005,-0.08765719085931778,-0.49263256788253784,-1.945501685142517,0.04302103444933891,-3.0361146926879883,0.5794214010238647,-0.20255142450332642,3.9971823692321777,1.1605300903320312,0.23157666623592377,1741504897.312671,1741504897173,-0.826253173828125,-1.7023275146484376,0.8601810596538516,-4.19741748046875,-1.447904052734375
1741504897.2998059,-3.2615307569503784,0.023926397932656034,-0.0029890403701212324,-0.999709254293284,0.04776785150170326,-0.11914776265621185,-0.6030775308609009,-3.350372791290283,2.16703462600708,9.62652587890625,-0.00934600830078125,0.13523292541503906,0.10051880776882172,-1.2169305086135864,0.005149920005351305,-0.9164950251579285,0.23632410168647766,1.292462706565857,0.007438773289322853,0.9431982636451721,0.21839475631713867,-0.5903334021568298,-0.07305257022380829,-0.17032882571220398,0.8752956390380859,-0.3864686191082001,0.01969325542449951,-0.76276034116745,-0.058175019919872284,-0.24128328263759613,1.338025450706482,-0.4104995131492615,0.0021384097635746002,-0.0009945083875209093,0.0018345017451792955,-3.7532787322998047,-0.3281078040599823,-0.005186211783438921,-0.042008768767118454,4.370737075805664,-0.06396154314279556,-0.023338425904512405,-0.018412195146083832,0.32354387640953064,2.0599277019500732,0.49538862705230713,0.2499832808971405,-0.8627708554267883,-1.8192921876907349,0.0022261866834014654,-2.7465760707855225,0.38585364818573,0.32719865441322327,1.5692055225372314,0.5880619287490845,-0.12179055064916611,1741504897.312671,1741504897173,-0.826253173828125,-1.7023275146484376,0.8601810596538516,-4.19741748046875,-1.447904052734375
1741504897.3198283,-3.2765763998031616,0.024990391205118114,-0.0059525295922665785,-0.9996699694093387,0.1827855110168457,0.05642623081803322,-0.7543377876281738,2.069648265838623,-1.8382614850997925,7.455870628356934,-0.00972747802734375,0.13332557678222656,0.03452353551983833,-1.2226526737213135,0.005149920005351305,-0.9187838435173035,0.30003052949905396,1.2871220111846924,0.007438773289322853,0.9435797929763794,0.20962081849575043,-0.536926805973053,-0.061226826161146164,-0.16308079659938812,0.8577477931976318,-0.42002102732658386,0.01951690949499607,-0.8089188933372498,-0.05893797054886818,-0.2313649207353592,1.337262511253357,-0.4038175940513611,-0.002481041243299842,-0.020016875118017197,-0.019770823419094086,-3.164658784866333,-0.2885461747646332,-0.0024295696057379246,-0.11962168663740158,4.0323638916015625,-0.41751828789711,-0.0057656122371554375,-0.00991767831146717,-0.6180574893951416,2.571305751800537,0.5039729475975037,0.3154071867465973,-0.9433647990226746,-1.6398591995239258,-0.08883581310510635,-2.253293752670288,-0.20405332744121552,0.49841880798339844,-0.20918679237365723,0.34616607427597046,-0.12882916629314423,1741504897.312671,1741504897173,-0.826253173828125,-1.7023275146484376,0.8601810596538516,-4.19741748046875,-1.447904052734375
1741504897.3398807,-3.2858303785324097,0.02270892613440022,-0.01092776248786465,-0.9996823939035994,0.2722371816635132,-0.14867374300956726,-0.39744266867637634,-2.6695380210876465,-0.4220069646835327,7.874120712280273,-0.01087188720703125,0.13942909240722656,-0.014686808921396732,-1.2268489599227905,0.005531395319849253,-0.9203097820281982,0.3564889132976532,1.2794926166534424,0.007057297509163618,0.9435797929763794,0.200083926320076,-0.4888609051704407,-0.05397878959774971,-0.1493476778268814,0.8344777822494507,-0.45183464884757996,0.018715444952249527,-0.8520256280899048,-0.07572289556264877,-0.21801327168941498,1.3132295608520508,-0.3971715569496155,0.0075703151524066925,-0.026410313323140144,0.2016550451517105,-2.3871142864227295,-0.3732122480869293,0.01790490932762623,-0.0963229164481163,3.688314199447632,-0.48065653443336487,-0.02391028217971325,-0.007276936899870634,-0.5211718082427979,2.474027395248413,0.3540986478328705,0.7747957706451416,-1.176024079322815,-1.5719331502914429,-0.06994178891181946,-2.096003770828247,-0.9279690384864807,0.6375202536582947,-1.3182650804519653,0.33412545919418335,0.5292648077011108,1741504897.312671,1741504897173,-0.826253173828125,-1.7023275146484376,0.8601810596538516,-4.19741748046875,-1.447904052734375
1741504897.3599386,-3.2897138595581055,0.023169245265119914,-0.017341673319372482,-0.9995811384976854,0.32602232694625854,0.003786049084737897,-0.08349449187517166,2.4960501194000244,2.6448521614074707,8.444567680358887,-0.01316070556640625,0.13179969787597656,-0.0551232174038887,-1.23295259475708,0.00476844422519207,-0.9252689480781555,0.41065841913223267,1.2707185745239258,0.00667582219466567,0.9424353241920471,0.17566949129104614,-0.43163958191871643,-0.043678950518369675,-0.1325627565383911,0.8089188933372498,-0.47568729519844055,0.012438285164535046,-0.8871213793754578,-0.09746700525283813,-0.2145799994468689,1.2769893407821655,-0.3862219750881195,0.0067982664331793785,-0.0776158794760704,-0.17854376137256622,-2.0527732372283936,-0.3693450093269348,0.009003599174320698,-0.2994392216205597,3.8628060817718506,-0.5910578966140747,0.0005457393126562238,-0.13502958416938782,-1.254447102546692,2.792388916015625,0.48378169536590576,0.9319470524787903,-1.2929191589355469,-1.1316217184066772,-0.30702951550483704,-1.666029930114746,-1.1305797100067139,0.19604656100273132,-1.8942095041275024,0.5980868935585022,-0.20925484597682953,1741504897.312671,1741504897173,-0.826253173828125,-1.7023275146484376,0.8601810596538516,-4.19741748046875,-1.447904052734375
1741504897.3798964,-3.2938674688339233,0.020155603438664904,-0.022456560583308482,-0.9995446235845559,0.2536800801753998,-0.20630702376365662,-0.20717376470565796,0.7810304760932922,-0.6784346103668213,7.144411563873291,-0.01316070556640625,0.13027381896972656,-0.0879301130771637,-1.233715534210205,0.00476844422519207,-0.9386205673217773,0.464446485042572,1.2611817121505737,0.00667582219466567,0.9336614012718201,0.15506981313228607,-0.3847180902957916,-0.03833829239010811,-0.10891126841306686,0.7776378989219666,-0.49729111790657043,0.020315174013376236,-0.9088655114173889,-0.12569619715213776,-0.21763180196285248,1.2254902124404907,-0.36668461561203003,0.00030183716444298625,-0.015403788536787033,-0.06377784162759781,-1.3704253435134888,0.005820452701300383,-0.04255490377545357,-0.7355080842971802,3.2866339683532715,-0.6340906620025635,-0.007755817845463753,-0.5947000980377197,-1.0436365604400635,2.2899861335754395,0.2701803147792816,1.0944958925247192,-1.6626275777816772,-1.0791093111038208,0.5648396611213684,-0.9279721975326538,-1.4678528308868408,-0.2210247963666916,-2.7971692085266113,1.0491697788238525,-0.11138689517974854,1741504897.4141278,1741504897273,-0.9148385620117188,-1.7015543212890625,0.38169009350017236,-4.20489599609375,-1.45600830078125
1741504897.399919,-3.298586130142212,0.018081309236460633,-0.02718579262309941,-0.9994668573473305,0.24126547574996948,-0.04376916587352753,-0.2970840632915497,3.5844039916992188,-2.303987979888916,8.787192344665527,-0.01163482666015625,0.12684059143066406,-0.09899290651082993,-1.231045126914978,0.00476844422519207,-0.9538795948028564,0.49343863129615784,1.2558410167694092,0.00667582219466567,0.925650417804718,0.152399480342865,-0.31872281432151794,-0.02994582988321781,-0.10051880776882172,0.7482643127441406,-0.5128253102302551,0.012476439587771893,-0.9054322242736816,-0.16002899408340454,-0.23327229917049408,1.1518653631210327,-0.342157244682312,0.004608386196196079,0.027996450662612915,-0.13993291556835175,-0.386161744594574,0.1991661936044693,-0.005175739526748657,-0.7746270895004272,1.746575117111206,-0.31244373321533203,0.006069322116672993,-0.5842770338058472,-0.04412156715989113,3.2199487686157227,0.387312114238739,0.270160049200058,-1.5566843748092651,-0.7233762741088867,-0.6241773366928101,0.4410724341869354,-1.668009877204895,-0.7853678464889526,-3.9061594009399414,1.210932970046997,0.20716537535190582,1741504897.4141278,1741504897273,-0.9148385620117188,-1.7015543212890625,0.38169009350017236,-4.20489599609375,-1.45600830078125
1741504897.419941,-3.3049023151397705,0.012363083485002833,-0.029699619421496543,-0.9994824094364848,0.08770349621772766,-0.3226017951965332,-0.2690557837486267,1.4272149801254272,-0.8348456621170044,7.839775562286377,-0.01125335693359375,0.12722206115722656,-0.08907453715801239,-1.2283748388290405,0.00476844422519207,-0.9630350470542908,0.5029755234718323,1.2516448497772217,0.006294346414506435,0.9172579646110535,0.15506981313228607,-0.25577935576438904,-0.02994582988321781,-0.09937438368797302,0.7135500311851501,-0.5215041637420654,0.007770356256514788,-0.882543683052063,-0.182154580950737,-0.2599755823612213,1.0545891523361206,-0.32461443543434143,0.0003626091929618269,0.0008466815343126655,0.016071725636720657,0.6039022207260132,0.11038552224636078,0.004135302267968655,-0.4239697754383087,0.4649336338043213,-0.24627076089382172,-0.014714268036186695,-0.5310366749763489,0.16156217455863953,3.3004348278045654,0.08261218667030334,0.008572599850594997,-1.6176502704620361,-0.3677300214767456,0.23326674103736877,1.2030062675476074,-0.9827325344085693,-1.3712748289108276,-5.121556758880615,0.7647579908370972,-0.3175108730792999,1741504897.4141278,1741504897273,-0.9148385620117188,-1.7015543212890625,0.38169009350017236,-4.20489599609375,-1.45600830078125
1741504897.4399908,-3.3086520433425903,0.006900819194338074,-0.0305391937575909,-0.999509747996028,0.05609603226184845,-0.28049513697624207,-0.21311649680137634,4.960906028747559,-2.49216365814209,5.081460952758789,-0.00972747802734375,0.12340736389160156,-0.06542305648326874,-1.2283748388290405,0.00476844422519207,-0.9683756828308105,0.4961089491844177,1.2508819103240967,0.006294346414506435,0.9119172692298889,0.15468832850456238,-0.18596932291984558,-0.028038453310728073,-0.10051880776882172,0.6857023239135742,-0.5101480484008789,0.022581394761800766,-0.8428702354431152,-0.18978407979011536,-0.28782328963279724,0.9393835067749023,-0.3249469995498657,-0.006839361507445574,0.03896770253777504,-0.09644529223442078,1.398777961730957,-0.020472479984164238,0.0030136890709400177,-0.19540345668792725,-0.676195502281189,-0.08691373467445374,-0.0033953164238482714,-0.3194967806339264,-0.10194604098796844,3.3391711711883545,0.018680725246667862,-0.07654869556427002,-1.3767402172088623,0.675987184047699,0.7661152482032776,2.094797372817993,-0.28548482060432434,-1.303897500038147,-5.756523609161377,-0.17565129697322845,-0.32318025827407837,1741504897.4141278,1741504897273,-0.9148385620117188,-1.7015543212890625,0.38169009350017236,-4.20489599609375,-1.45600830078125
1741504897.4600868,-3.312235474586487,-0.0017623357898329485,-0.0333368246866362,-0.9994426198098499,0.16447784006595612,-0.43412527441978455,-0.20296525955200195,-2.455747365951538,1.4555085897445679,9.14166259765625,-0.00400543212890625,0.12760353088378906,-0.024605173617601395,-1.228756308555603,0.00476844422519207,-0.9657053351402283,0.4724574685096741,1.2489745616912842,0.006294346414506435,0.9107728600502014,0.14744029939174652,-0.1333257108926773,-0.05130846053361893,-0.09098191559314728,0.6818875670433044,-0.49602413177490234,0.03813538700342178,-0.7944228053092957,-0.18825818598270416,-0.30003052949905396,0.8260852694511414,-0.3544522523880005,-0.011413986794650555,0.15424752235412598,0.1408407837152481,2.1245498657226562,-0.011746227741241455,-0.0052620950154960155,0.14775392413139343,-1.673575520515442,-0.12134801596403122,-0.007211609743535519,-0.026368094608187675,-0.44372257590293884,2.451479434967041,-1.2864701747894287,0.6105850338935852,0.17022019624710083,0.6067843437194824,0.7126821279525757,2.3865151405334473,0.21385326981544495,-0.5479153990745544,-5.416777610778809,-1.7032934427261353,-0.17584721744060516,1741504897.4141278,1741504897273,-0.9148385620117188,-1.7015543212890625,0.38169009350017236,-4.20489599609375,-1.45600830078125
1741504897.4800098,-3.3155031204223633,-0.005404077709152371,-0.04360845868507781,-0.9990340826394389,0.585655152797699,-0.13312532007694244,-0.16319115459918976,-2.865267515182495,1.4896210432052612,7.242598056793213,0.00591278076171875,0.12150001525878906,0.02727550081908703,-1.228756308555603,0.005149920005351305,-0.9618905782699585,0.4346913993358612,1.2470670938491821,0.006294346414506435,0.9138246774673462,0.12722209095954895,-0.11348897218704224,-0.06351567804813385,-0.07267109304666519,0.733386754989624,-0.4826219975948334,0.05444362759590149,-0.7543678879737854,-0.17719538509845734,-0.28362706303596497,0.7375829815864563,-0.4029971957206726,-0.010229880921542645,0.2825712263584137,-0.1428590714931488,2.7418549060821533,-0.012068250216543674,-0.00018302594253327698,0.12318380177021027,-2.6083288192749023,-0.18451185524463654,-0.005039129871875048,0.1869945377111435,-1.0902179479599,0.6219114661216736,-0.5466279983520508,0.7779852151870728,3.1011977195739746,0.7440050840377808,0.7437989711761475,1.8223549127578735,0.7102274894714355,1.1491799354553223,-4.117764949798584,-2.2574307918548584,0.10930229723453522,1741504897.514674,1741504897373,-1.0096959228515625,-1.6912956542968751,0.6226855863007502,-4.21719873046875,-1.437688720703125
1741504897.5000193,-3.3140790462493896,-0.00474644439638521,-0.06042015778118831,-0.9981617483150156,0.8177894353866577,-0.016558945178985596,0.11897774785757065,-15.652066230773926,-8.019150733947754,15.729029655456543,0.00782012939453125,0.11463356018066406,0.08258945494890213,-1.236767292022705,0.005149920005351305,-0.9634165167808533,0.3866254687309265,1.2421079874038696,0.006294346414506435,0.9103913903236389,0.09632257372140884,-0.13752193748950958,-0.06618601083755493,-0.06313420087099075,0.8501182794570923,-0.4591218829154968,0.06335209310054779,-0.7475013136863708,-0.15583276748657227,-0.22526131570339203,0.7669565677642822,-0.39729923009872437,-0.015343631617724895,0.05634994059801102,-0.16187912225723267,2.7149176597595215,-0.7639451026916504,0.00541126262396574,-0.08999024331569672,-3.2437331676483154,-0.33291956782341003,-0.005000214092433453,-0.39029818773269653,-1.7262316942214966,-1.5391286611557007,-0.2009756863117218,0.3348146080970764,6.233151912689209,1.2917208671569824,0.5246683359146118,0.2619621455669403,1.3796926736831665,2.9879839420318604,2.571476459503174,0.3282232880592346,-0.31021323800086975,1741504897.514674,1741504897373,-1.0096959228515625,-1.6912956542968751,0.6226855863007502,-4.21719873046875,-1.437688720703125
1741504897.5200496,-3.3106114864349365,-0.0021488102845900635,-0.0631802500816862,-0.9979998189448616,0.12874619662761688,-0.054374296218156815,0.3872927725315094,-5.52834939956665,7.179871559143066,8.789043426513672,-0.00286102294921875,0.12188148498535156,0.14171816408634186,-1.2443968057632446,0.005149920005351305,-0.9626535177230835,0.31834134459495544,1.2409635782241821,0.007057297509163618,0.9073395729064941,0.06847485899925232,-0.20923933386802673,-0.09098191559314728,-0.06351567804813385,1.0057603120803833,-0.4150313436985016,0.06958585977554321,-0.7539864182472229,-0.12989242374897003,-0.17338064312934875,0.8096818327903748,-0.40149497985839844,-0.01199099887162447,-0.3480079174041748,0.36437517404556274,2.866194248199463,-0.31547513604164124,-0.003431064775213599,0.12288357317447662,-4.7647175788879395,0.021758314222097397,0.06491652876138687,-0.043607890605926514,-1.1745471954345703,-3.8035953044891357,-1.1369882822036743,-0.4530225694179535,8.197250366210938,2.2745234966278076,0.33551913499832153,-0.10570554435253143,0.971886157989502,2.3618035316467285,1.4226596355438232,-0.2808881402015686,0.34344974160194397,1741504897.514674,1741504897373,-1.0096959228515625,-1.6912956542968751,0.6226855863007502,-4.21719873046875,-1.437688720703125
1741504897.5401099,-3.299903154373169,-0.005273765652228035,-0.06294526471028061,-0.9980030466117816,-0.08430575579404831,-0.0776587426662445,0.6473735570907593,2.0901145935058594,1.1045382022857666,14.473103523254395,0.01773834228515625,0.13675880432128906,0.200083926320076,-1.2459226846694946,0.005531395319849253,-0.9611276388168335,0.23403525352478027,1.2463041543960571,0.00667582219466567,0.9088655114173889,0.056267641484737396,-0.3057526648044586,-0.11081864684820175,-0.07534141838550568,1.1758984327316284,-0.37478771805763245,0.05425069108605385,-0.7272831201553345,-0.10585946589708328,-0.14705882966518402,0.8173113465309143,-0.3993833363056183,-0.008786918595433235,0.4972424805164337,0.45998719334602356,2.703035593032837,-0.20364876091480255,0.06740891933441162,0.027389666065573692,-5.647232532501221,0.35207751393318176,0.0011925447033718228,0.07001402229070663,-0.4710930585861206,-4.918069839477539,-1.0403655767440796,-0.3932199776172638,8.096161842346191,1.7940287590026855,-1.289603352546692,1.3955153226852417,1.1784191131591797,1.0176937580108643,0.39202234148979187,0.21227894723415375,0.19256038963794708,1741504897.514674,1741504897373,-1.0096959228515625,-1.6912956542968751,0.6226855863007502,-4.21719873046875,-1.437688720703125
1741504897.5601053,-3.2807774543762207,-0.013312197091200866,-0.05277185749682295,-0.9985178598627769,-0.5033708214759827,-0.3636895716190338,0.9706517457962036,2.33793044090271,5.645125389099121,11.080442428588867,0.00286102294921875,0.15163612365722656,0.2569237947463989,-1.2482116222381592,0.005149920005351305,-0.959983229637146,0.152399480342865,1.2527892589569092,0.00667582219466567,0.9107728600502014,0.045204851776361465,-0.41485464572906494,-0.12340734153985977,-0.06694895774126053,1.3105592727661133,-0.37094101309776306,0.011970401741564274,-0.699816882610321,-0.10700388997793198,-0.13790340721607208,0.8180742859840393,-0.3976660370826721,-0.010030624456703663,-0.41093283891677856,0.35868513584136963,2.786505937576294,-0.10091281682252884,-0.01100978348404169,0.06297384202480316,-5.270444393157959,0.3578842282295227,-0.00030760944355279207,0.16420839726924896,-0.5143629908561707,-5.4485554695129395,-0.5215126872062683,0.7336120009422302,6.247619152069092,-0.18024490773677826,-1.5527760982513428,1.488114595413208,-0.06271205842494965,0.34495317935943604,0.0658809095621109,0.07046878337860107,0.04274798184633255,1741504897.514674,1741504897373,-1.0096959228515625,-1.6912956542968751,0.6226855863007502,-4.21719873046875,-1.437688720703125
1741504897.5801105,-3.2592360973358154,-0.0212834349943445,-0.04476751355547292,-0.9987706869571724,-0.3445589244365692,-0.32447680830955505,1.099456548690796,1.0772960186004639,2.6977241039276123,10.27352523803711,0.01964569091796875,0.15774059295654297,0.3130006790161133,-1.2505004405975342,0.005149920005351305,-0.9554055333137512,0.08297093212604523,1.2516448497772217,0.005912871100008488,0.9145876169204712,0.031090257689356804,-0.5144197940826416,-0.11158160120248795,-0.022697795182466507,1.3845654726028442,-0.4104415774345398,0.018137769773602486,-0.6589990258216858,-0.10891126841306686,-0.1367589831352234,0.8161669373512268,-0.3987570106983185,-0.0038261297158896923,0.3962733745574951,0.18658952414989471,2.8334898948669434,-0.17617075145244598,0.006930486299097538,0.28223100304603577,-4.418888568878174,-0.15751133859157562,-0.049635451287031174,0.22567957639694214,-0.7723054885864258,-4.898604869842529,0.6476402282714844,2.367734670639038,3.1655006408691406,-2.1854264736175537,0.34544500708580017,1.9789382219314575,-0.04815924912691116,0.134053573012352,-0.16069383919239044,-0.08940600603818893,0.26022905111312866,1741504897.6207345,1741504897473,-1.1078140869140625,-1.6691163330078125,0.773416204470272,-4.21906689453125,-1.4317249755859376
1741504897.6001248,-3.2378698587417603,-0.029262591200590174,-0.04178736711022955,-0.9986979106347535,-0.08319935202598572,-0.36525678634643555,0.991020917892456,0.893405020236969,1.0158125162124634,9.445684432983398,0.02956390380859375,0.15850353240966797,0.36449989676475525,-1.2535521984100342,0.005149920005351305,-0.9470130205154419,0.027656977996230125,1.2440153360366821,0.005149920005351305,0.916113555431366,0.011635004542768002,-0.5983443856239319,-0.09098191559314728,0.026512550190091133,1.3941023349761963,-0.4608350396156311,0.011746019124984741,-0.6265735626220703,-0.10433356463909149,-0.12493324279785156,0.8073930144309998,-0.4061289131641388,0.009541704319417477,0.31261178851127625,0.03386956453323364,2.5189502239227295,-0.25213804841041565,-0.0052557229064404964,0.40141215920448303,-3.5437872409820557,-0.49799737334251404,-0.05063389614224434,0.0884353518486023,-1.1420739889144897,-4.023256301879883,1.0974102020263672,2.6687233448028564,0.05654240772128105,-2.489518404006958,-0.36199331283569336,1.5041170120239258,0.17266471683979034,0.4862980246543884,-0.42722275853157043,-0.43580561876296997,0.9453966021537781,1741504897.6207345,1741504897473,-1.1078140869140625,-1.6691163330078125,0.773416204470272,-4.21906689453125,-1.4317249755859376
1741504897.6201994,-3.225978374481201,-0.03376103007317714,-0.041809396928855574,-0.9985550396331909,0.011551661416888237,-0.1770239919424057,0.4906238317489624,-2.534865379333496,-0.6293580532073975,8.518102645874023,0.031472206115722656,0.16079235076904297,0.403410404920578,-1.2550780773162842,0.005149920005351305,-0.9409094452857971,-0.01430533267557621,1.2379117012023926,0.005149920005351305,0.9187838435173035,-0.000572213320992887,-0.6681544184684753,-0.07343403995037079,0.06923781335353851,1.3498512506484985,-0.5055339336395264,-0.004760574549436569,-0.6006332635879517,-0.09822995215654373,-0.11234454810619354,0.8031967878341675,-0.4187951683998108,0.03061584196984768,0.08085693418979645,0.07190348953008652,1.8439079523086548,-0.0546363927423954,0.0062096319161355495,0.2888419032096863,-2.728391408920288,-0.3244500756263733,0.007800145074725151,0.17732861638069153,-0.5011063814163208,-3.441765069961548,0.8316993713378906,1.9016990661621094,-2.512056589126587,-2.083974599838257,-0.953991174697876,1.3811091184616089,0.10703113675117493,0.7817409038543701,-0.12745314836502075,-0.6196324229240417,0.9512768983840942,1741504897.6207345,1741504897473,-1.1078140869140625,-1.6691163330078125,0.773416204470272,-4.21906689453125,-1.4317249755859376
1741504897.640219,-3.217889189720154,-0.0306664116413906,-0.04370562323400848,-0.9985736776496602,0.11471793055534363,0.22498935461044312,0.43931326270103455,-1.1994661092758179,1.0688605308532715,8.040760040283203,0.032998085021972656,0.14209938049316406,0.43087664246559143,-1.2554595470428467,0.005531395319849253,-0.9351872801780701,-0.06580453366041183,1.23600435256958,0.005149920005351305,0.9302281141281128,-0.008201723918318748,-0.7223239541053772,-0.06160829961299896,0.07953765243291855,1.2644007205963135,-0.5190591216087341,-0.010032476857304573,-0.579270601272583,-0.10166323184967041,-0.10967422276735306,0.80510413646698,-0.4322061538696289,0.04005645960569382,0.038397446274757385,-0.4654117226600647,1.334660530090332,-0.06087130308151245,0.01669560931622982,0.2275480180978775,-3.4036271572113037,-0.20245413482189178,0.011566604487597942,0.8999015092849731,-0.3498270511627197,-2.4293177127838135,0.5509403944015503,0.3321162462234497,-4.559660911560059,-0.38311004638671875,-0.08650793880224228,0.9429650902748108,-0.2570522725582123,0.06983272731304169,0.0963091030716896,-0.694032609462738,0.4221726059913635,1741504897.6207345,1741504897473,-1.1078140869140625,-1.6691163330078125,0.773416204470272,-4.21906689453125,-1.4317249755859376
1741504897.6602397,-3.209078550338745,-0.02055838774565323,-0.04514384956558872,-0.9987689350093438,0.09900117665529251,0.5069428086280823,0.41974881291389465,-1.4817067384719849,4.572362899780273,0.6744233965873718,0.036049842834472656,0.13866615295410156,0.45948728919029236,-1.2566040754318237,0.005149920005351305,-0.9279392957687378,-0.09861142933368683,1.231808066368103,0.004386968910694122,0.9481574892997742,-0.02079041674733162,-0.7566567659378052,-0.04711223021149635,0.07457847148180008,1.1423285007476807,-0.4957575798034668,-0.013265542685985565,-0.5659189820289612,-0.11196307092905045,-0.10738536715507507,0.8157854676246643,-0.4461301267147064,0.04610506445169449,0.08819838613271713,-0.0789782851934433,1.3796193599700928,0.02965010330080986,0.0016734233358874917,0.3755270838737488,-1.9524683952331543,-0.2758457362651825,-0.05981329083442688,1.1704623699188232,-0.7494341731071472,-1.702563762664795,0.877270519733429,-0.3282288610935211,-6.409799575805664,1.3732078075408936,-0.2603706121444702,0.5725165009498596,-0.5446180701255798,0.14446894824504852,0.6025568842887878,-0.7470322251319885,0.2975688576698303,1741504897.6207345,1741504897473,-1.1078140869140625,-1.6691163330078125,0.773416204470272,-4.21906689453125,-1.4317249755859376
1741504897.6802485,-3.2018115520477295,-0.009940141094537735,-0.04876095841783493,-0.9987610137210978,0.17456026375293732,0.5480892062187195,0.33090102672576904,-0.17734366655349731,0.8391449451446533,5.063766956329346,0.037957191467285156,0.13714027404785156,0.4705500900745392,-1.2543151378631592,0.005149920005351305,-0.9237430095672607,-0.11196307092905045,1.2283748388290405,0.004386968910694122,0.9637979865074158,-0.04634927958250046,-0.7661936283111572,-0.02040894143283367,0.07648584991693497,0.9847791194915771,-0.4537907540798187,-0.010628336109220982,-0.5571450591087341,-0.11463340371847153,-0.10051880776882172,0.8295185565948486,-0.4608232080936432,0.057498279958963394,0.059670500457286835,0.010886435396969318,0.3981073498725891,0.13531216979026794,0.017029646784067154,0.13646580278873444,-0.6997174024581909,-0.22648611664772034,0.009299932047724724,0.9807600975036621,-1.3295539617538452,-0.2311842441558838,1.4315732717514038,0.23350709676742554,-7.922393321990967,2.0772082805633545,0.2535915970802307,0.48963668942451477,-0.11272253096103668,0.4500565826892853,0.6820133924484253,-0.7195900678634644,0.5514277219772339,1741504897.729326,1741504897573,-1.1782132568359376,-1.6776129150390626,0.865673682092018,-4.15200634765625,-1.3848978271484376
1741504897.700274,-3.1948771476745605,-0.0002900923969049427,-0.050751817044773925,-0.9987112540234314,0.070217564702034,0.46942639350891113,0.3555828928947449,2.827519655227661,-2.500638961791992,5.66163444519043,0.036431312561035156,0.13752174377441406,0.4671168029308319,-1.2543151378631592,0.005149920005351305,-0.924124538898468,-0.10433356463909149,1.2203638553619385,0.004005493130534887,0.9733348488807678,-0.07801175117492676,-0.7558938264846802,0.004005493130534887,0.11081864684820175,0.8192187547683716,-0.41391631960868835,0.00671142665669322,-0.5464637279510498,-0.09670405089855194,-0.0871671661734581,0.841725766658783,-0.47041794657707214,0.05892593413591385,-0.057572346180677414,0.01772954687476158,-0.2512076497077942,0.015185318887233734,-0.011430436745285988,-0.04791664332151413,0.6705822348594666,-0.6123020648956299,-0.027399538084864616,0.571439802646637,-1.6083945035934448,0.5786711573600769,1.0494706630706787,2.0645670890808105,-7.970517635345459,2.130610227584839,0.7972970008850098,0.5078349113464355,1.0923149585723877,0.6835691928863525,0.5361154675483704,-0.43494993448257446,-0.016511308029294014,1741504897.729326,1741504897573,-1.1782132568359376,-1.6776129150390626,0.865673682092018,-4.15200634765625,-1.3848978271484376
1741504897.720326,-3.186620831489563,-2.83470089887722e-05,-0.04866245015021561,-0.9988152807911104,0.031284138560295105,-0.06233162805438042,0.5438181757926941,-0.6774024367332458,1.5720901489257812,12.739886283874512,0.02613067626953125,0.16002941131591797,0.4537651538848877,-1.2516448497772217,0.005531395319849253,-0.9225986003875732,-0.07457847148180008,1.211208462715149,0.0036240178160369396,0.9718089699745178,-0.10509651154279709,-0.7330052852630615,0.028038453310728073,0.18749523162841797,0.8039597272872925,-0.35658714175224304,0.044219572097063065,-0.5155642032623291,-0.0883115902543068,-0.05893797054886818,0.84897381067276,-0.47491466999053955,0.043126288801431656,-0.3978242576122284,0.7583405375480652,-0.7477197647094727,0.2407810091972351,0.04653805121779442,0.1534961611032486,2.23175311088562,-0.5487464070320129,-0.03499506041407585,-0.21498402953147888,-1.1340177059173584,1.624968409538269,0.5637726783752441,4.326141834259033,0.5088313221931458,2.586224317550659,1.7953531742095947,1.6517976522445679,0.3278864026069641,1.4982348680496216,0.003762467997148633,-0.30112314224243164,-0.8901248574256897,1741504897.729326,1741504897573,-1.1782132568359376,-1.6776129150390626,0.865673682092018,-4.15200634765625,-1.3848978271484376
