Freshhhhh-LC/Legged_odom/data/2/segments/booster_seg_10.01s.csv
time,yaw,projected_gravity_x,projected_gravity_y,projected_gravity_z,ang_vel_x,ang_vel_y,ang_vel_z,lin_acc_x,lin_acc_y,lin_acc_z,q_0,q_1,q_2,q_3,q_4,q_5,q_6,q_7,q_8,q_9,q_10,q_11,q_12,q_13,q_14,q_15,q_16,q_17,q_18,q_19,q_20,q_21,q_22,dq_0,dq_1,dq_2,dq_3,dq_4,dq_5,dq_6,dq_7,dq_8,dq_9,dq_10,dq_11,dq_12,dq_13,dq_14,dq_15,dq_16,dq_17,dq_18,dq_19,dq_20,dq_21,dq_22,mocap_time,mocap_timestamp,robot_x,robot_y,robot_yaw,ball_x,ball_y
1741433039.2906191,-4.172341704368591,0.03419164093304388,0.06216612365811768,-0.9974799771221623,0.25529158115386963,-0.055381543934345245,-0.5859916806221008,6.879080295562744,-2.30890154838562,4.552545547485352,-0.9901199340820312,0.14095497131347656,-0.08487831056118011,-1.2260860204696655,0.005912871100008488,-0.954261064529419,0.5052643418312073,1.2604187726974487,0.00476844422519207,0.9081025123596191,0.1646067053079605,-0.30384528636932373,0.02689402550458908,-0.049782559275627136,0.7745860815048218,-0.5610697865486145,0.018905339762568474,-0.7871748208999634,-0.1356145590543747,-0.2817196846008301,0.9382390975952148,-0.32414934039115906,-0.0018330381717532873,-0.04227805137634277,-0.02012256160378456,0.8790802359580994,0.41167059540748596,-0.004861877299845219,-0.3362133204936981,0.4721340835094452,-0.12604445219039917,-0.003534135175868869,-0.26822522282600403,0.41286996006965637,3.638303279876709,-0.25019970536231995,-0.1989751011133194,-1.8921867609024048,-0.28594547510147095,-0.8439905047416687,1.5796723365783691,-0.9315950274467468,-2.101839780807495,-5.125586986541748,0.8236659169197083,-0.20700562000274658,1741433039.3156667,1741433039479,-5.76626025390625,2.214615478515625,1.8700184978227543,3.5736054687500003,2.0749208984375
1741433039.2930157,-4.150569796562195,0.013850910051522487,0.08916289110576872,-0.9959207454112026,-0.4978020191192627,-0.269477903842926,0.9127970337867737,1.8300275802612305,2.4611623287200928,7.99267053604126,-0.9870681762695312,0.18749523162841797,0.3389410376548767,-1.2405821084976196,0.006294346414506435,-0.9443427324295044,0.05741206929087639,1.2619446516036987,0.005912871100008488,0.918402373790741,0.164988175034523,-0.6609063744544983,-0.11768520623445511,-0.19207294285297394,1.4787899255752563,-0.4776906967163086,0.011682890355587006,-0.5609598159790039,-0.071908138692379,-0.2660791873931885,0.7379644513130188,-0.39524775743484497,0.006804179400205612,0.15322376787662506,-0.42016103863716125,2.724334955215454,-0.612055242061615,-0.0031340839341282845,0.14293895661830902,-4.415863037109375,-0.2329985499382019,-0.04774615168571472,0.4379346966743469,-0.437775582075119,-5.281167507171631,0.5649087429046631,0.44164520502090454,2.368252754211426,-2.3566200733184814,-0.21642620861530304,1.658759593963623,0.3123563826084137,-0.18408812582492828,-0.19975295662879944,-0.11652155220508575,0.07477299124002457,1741433039.3156667,1741433039479,-5.76626025390625,2.214615478515625,1.8700184978227543,3.5736054687500003,2.0749208984375
1741433039.2951238,-4.090344309806824,0.04174667752980768,0.10951915846411309,-0.9931076320543181,-0.03462086245417595,0.640156626701355,0.1863619089126587,-0.576747477054596,-1.3216025829315186,7.327730655670166,-0.9882125854492188,0.13485145568847656,0.4678797721862793,-1.2459226846694946,0.006294346414506435,-0.9321355223655701,-0.11730372905731201,1.2253230810165405,0.0036240178160369396,0.9630350470542908,0.1184481605887413,-0.8916990756988525,-0.04596780240535736,-0.1832990050315857,1.0187304019927979,-0.49740874767303467,-0.006479193922132254,-0.541886031627655,-0.014686808921396732,-0.2466239482164383,0.8184558153152466,-0.4716085195541382,0.033864498138427734,0.14405114948749542,-0.298865407705307,0.5844534039497375,-0.009763099253177643,0.0073319729417562485,0.12177104502916336,-1.1679342985153198,-0.4131319522857666,0.0013032798888161778,0.947257399559021,-0.6905297636985779,0.5972601175308228,1.8695907592773438,-0.15318097174167633,-10.880325317382812,1.6312077045440674,0.37498289346694946,-0.46784278750419617,0.5641123652458191,0.19275328516960144,1.9156920909881592,-1.177371621131897,-0.05732164531946182,1741433039.3156667,1741433039479,-5.76626025390625,2.214615478515625,1.8700184978227543,3.5736054687500003,2.0749208984375
1741433039.3090684,1.4775971174240112,0.046367182674187955,-0.0023618188274174587,-0.9989216716953762,0.5402320027351379,0.5569713115692139,-0.7523008584976196,4.5548834800720215,-15.98443603515625,5.336265563964844,-0.9905014038085938,0.00247955322265625,0.41371023654937744,-1.2478300333023071,0.006294346414506435,-0.9214541912078857,-0.04253452271223068,1.2173120975494385,0.0009536888683214784,0.9706645011901855,0.31376364827156067,-0.7593270540237427,-0.0707637146115303,-0.17719538509845734,0.7860303521156311,-0.34692510962486267,-0.09354410320520401,-0.541886031627655,-0.031090257689356804,-0.20885786414146423,0.8875028491020203,-0.5280210971832275,-0.009432684630155563,0.006017137784510851,-0.13043110072612762,-2.6087915897369385,0.37978222966194153,0.02724120020866394,0.1940186321735382,3.760288953781128,-0.18278084695339203,-0.013200889341533184,-0.3712991774082184,0.8942714333534241,0.13519705832004547,1.2277768850326538,-1.1697137355804443,-0.5743252635002136,2.0361366271972656,1.364065408706665,0.9575409889221191,0.41152578592300415,-1.7094371318817139,0.44937217235565186,-0.03692042455077171,1.1536411046981812,1741433039.3156667,1741433039479,-5.76626025390625,2.214615478515625,1.8700184978227543,3.5736054687500003,2.0749208984375
1741433039.3290505,1.4699329137802124,0.049149812252475916,0.007613989102970184,-0.9987623957305792,-0.6430131196975708,0.14116886258125305,-0.24116714298725128,7.058078289031982,7.232332706451416,6.891695976257324,-0.9931716918945312,0.02994537353515625,0.34542611241340637,-1.2463041543960571,0.006294346414506435,-0.924887478351593,0.018501564860343933,1.225704550743103,0.00476844422519207,0.9626535177230835,0.33054855465888977,-0.7139315009117126,-0.05359731614589691,-0.17910276353359222,0.7543678879737854,-0.31116291880607605,-0.06828077137470245,-0.5262455344200134,-0.04749370738863945,-0.23632410168647766,0.9210727214813232,-0.5150917768478394,-0.012301803566515446,-0.06668638437986374,0.8869981169700623,-3.470250368118286,0.20548762381076813,-0.017124902456998825,-0.2255299985408783,4.079314708709717,0.8496274948120117,0.22839204967021942,-0.5693326592445374,0.9120005369186401,2.0144002437591553,0.5959479212760925,0.1793060153722763,-1.1900460720062256,1.962955355644226,0.8932551145553589,0.6451863050460815,-0.8851731419563293,-1.5385264158248901,2.0282986164093018,0.8919447660446167,0.1785784214735031,1741433039.3156667,1741433039479,-5.76626025390625,2.214615478515625,1.8700184978227543,3.5736054687500003,2.0749208984375
1741433039.3491,1.4582279920578003,0.04175535360975026,0.018186129070789203,-0.9989623392072121,-0.3846186399459839,-0.32453298568725586,-0.6381503939628601,-8.399857521057129,1.32151198387146,8.676241874694824,-0.9870681762695312,0.035286903381347656,0.28591591119766235,-1.2371487617492676,0.005912871100008488,-0.9229800701141357,0.0871671661734581,1.2443968057632446,0.007057297509163618,0.9515907764434814,0.3397039771080017,-0.6994354128837585,-0.05664911866188049,-0.20809490978717804,0.7631418108940125,-0.2735753059387207,-0.06465046107769012,-0.5430304408073425,-0.06885633617639542,-0.28286412358283997,1.0008010864257812,-0.48511844873428345,0.009799199178814888,0.1740475445985794,0.20447051525115967,-3.0122885704040527,0.663253664970398,0.06298993527889252,0.08577080070972443,4.628897666931152,1.1651859283447266,0.15484385192394257,-0.7234822511672974,0.4594314694404602,0.7548556327819824,-0.016849787905812263,-1.680809497833252,0.5249031782150269,1.6683269739151,0.16626045107841492,-1.1368027925491333,-1.0819538831710815,-2.1433346271514893,4.193658351898193,1.5323368310928345,0.9077227711677551,1741433039.3156667,1741433039479,-5.76626025390625,2.214615478515625,1.8700184978227543,3.5736054687500003,2.0749208984375
1741433039.3691294,1.437764286994934,0.04096855331335619,0.020222253083551606,-0.9989557738556974,-0.08541960269212723,-0.04731149226427078,-1.205528974533081,5.927731037139893,-6.051820278167725,11.61662769317627,-0.9874496459960938,0.02613067626953125,0.2153429538011551,-1.225704550743103,0.005912871100008488,-0.9283207654953003,0.16079194843769073,1.2527892589569092,0.005912871100008488,0.9443427324295044,0.3427557647228241,-0.6727321147918701,-0.05855649709701538,-0.21190966665744781,0.7673380374908447,-0.2529597878456116,-0.0667257085442543,-0.6013962030410767,-0.09250781685113907,-0.31681543588638306,1.1137179136276245,-0.46159979701042175,-0.0024131678510457277,-0.007423248142004013,-0.11106248199939728,-3.618224620819092,0.7655266523361206,-0.020844202488660812,-0.2781776487827301,4.768537998199463,0.4419768750667572,-0.1080218106508255,-0.4586668908596039,0.1223788857460022,1.3599622249603271,0.051580484956502914,0.40907934308052063,0.07163478434085846,0.9522849321365356,-0.04468017816543579,-3.1395022869110107,-1.292040228843689,-1.4798706769943237,5.984062194824219,1.1259125471115112,-0.8741424083709717,1741433039.3156667,1741433039479,-5.76626025390625,2.214615478515625,1.8700184978227543,3.5736054687500003,2.0749208984375
1741433039.3891497,1.4016274213790894,0.03767480338932557,0.01772282256007418,-0.9991328794259949,0.3215987980365753,-0.06969049572944641,-1.8210017681121826,-0.9940428733825684,0.7675750255584717,14.324995040893555,-0.9885940551757812,-0.00629425048828125,0.1508735716342926,-1.2180750370025635,0.005912871100008488,-0.9260318875312805,0.22068360447883606,1.2577484846115112,0.006294346414506435,0.9412909150123596,0.3442816734313965,-0.6513695120811462,-0.035667963325977325,-0.19245441257953644,0.770008385181427,-0.2425273209810257,-0.06706157326698303,-0.6666285395622253,-0.1188296303153038,-0.3255893886089325,1.2281605005264282,-0.45052218437194824,-0.007110182661563158,-0.058529093861579895,-0.9354424476623535,-3.0249099731445312,0.4325215816497803,-0.00949099287390709,0.18035860359668732,3.8869409561157227,0.23427227139472961,0.033845581114292145,-0.10203097760677338,0.22769325971603394,1.0678529739379883,1.3746085166931152,1.1042035818099976,0.2113969922065735,0.42614179849624634,-0.1434473693370819,-3.240499258041382,-1.3667371273040771,-0.30545440316200256,5.465337753295898,0.437838077545166,0.06124548241496086,1741433039.3156667,1741433039479,-5.76626025390625,2.214615478515625,1.8700184978227543,3.5736054687500003,2.0749208984375
1741433039.4091222,1.3586899042129517,0.036583483878157345,0.008872087647565526,-0.9992912161968155,0.49789518117904663,-0.012213683687150478,-2.145989418029785,2.068881034851074,-0.9171778559684753,11.28243637084961,-0.9882125854492188,-0.01926422119140625,0.08869306743144989,-1.214260220527649,0.005912871100008488,-0.9267948269844055,0.2756160795688629,1.2558410167694092,0.005149920005351305,0.9393835067749023,0.34733349084854126,-0.6204699873924255,-0.006294346414506435,-0.15545128285884857,0.7726787328720093,-0.24767889082431793,-0.07988321036100388,-0.7207980751991272,-0.14362554252147675,-0.32978561520576477,1.2968261241912842,-0.4487653970718384,0.0034813261590898037,-0.020608985796570778,-0.41386696696281433,-2.900909662246704,0.24096515774726868,0.0036970037035644054,-0.06303253769874573,3.615652561187744,-0.17937371134757996,-0.06579828262329102,-0.17822851240634918,0.030956340953707695,1.5971989631652832,1.4471796751022339,2.0647449493408203,0.01328894030302763,-0.37348026037216187,-0.6205770373344421,-2.4981276988983154,-1.1926480531692505,-0.14395330846309662,3.019503116607666,0.06495649367570877,0.42056384682655334,1741433039.3156667,1741433039479,-5.76626025390625,2.214615478515625,1.8700184978227543,3.5736054687500003,2.0749208984375
1741433039.4292223,1.316759467124939,0.034432011505344785,-2.2610689396572556e-05,-0.9994070422367718,0.5403498411178589,-0.10465870797634125,-2.007453441619873,1.1709016561508179,0.7248313426971436,11.03146743774414,-0.9912643432617188,-0.01621246337890625,0.03376058489084244,-1.2146416902542114,0.005912871100008488,-0.9267948269844055,0.3263523280620575,1.2512633800506592,0.004386968910694122,0.9355688095092773,0.34771496057510376,-0.5838482975959778,0.02079041674733162,-0.12684062123298645,0.767719566822052,-0.26256781816482544,-0.09656741470098495,-0.7528420090675354,-0.1684214472770691,-0.3248264193534851,1.3067444562911987,-0.44916626811027527,-0.00019256550876889378,-0.09563329070806503,0.05267598107457161,-2.6264660358428955,-0.056762728840112686,0.003467405680567026,0.014861669391393661,3.331420660018921,-0.2986909747123718,-0.04848909005522728,-0.24692192673683167,0.1870557814836502,1.850201964378357,1.1927188634872437,1.329764723777771,-0.30939310789108276,-0.7877622246742249,-0.8299465775489807,-1.4572569131851196,-1.2581590414047241,0.23603026568889618,0.1115453764796257,-0.010115006938576698,-0.0912884995341301,1741433039.3156667,1741433039479,-5.76626025390625,2.214615478515625,1.8700184978227543,3.5736054687500003,2.0749208984375
1741433039.4491928,1.2840803861618042,0.032347619435497604,-0.01213251790543128,-0.9994030385815978,0.6645932197570801,-0.12053879350423813,-1.5331672430038452,0.4477922320365906,-4.770307540893555,10.22412395477295,-0.9924087524414062,-0.01659393310546875,-0.009727626107633114,-1.215786099433899,0.005912871100008488,-0.927176296710968,0.369840532541275,1.2470670938491821,0.0036240178160369396,0.9340428709983826,0.3442816734313965,-0.54417484998703,0.03147173300385475,-0.11005569249391556,0.7543678879737854,-0.2836908996105194,-0.10719684511423111,-0.7658121585845947,-0.1958876997232437,-0.3217746317386627,1.2731746435165405,-0.44795459508895874,0.0035848503466695547,-0.06910618394613266,0.011681884527206421,-2.042994737625122,-0.07507750391960144,-0.02177693508565426,-0.005945980083197355,2.85196590423584,-0.2896973192691803,-0.01782991923391819,-0.09628001600503922,-0.28018099069595337,2.084197759628296,0.4851323068141937,0.6340703964233398,-0.7220121026039124,-1.1076138019561768,-0.3441656231880188,-0.5908602476119995,-1.465776801109314,0.19819079339504242,-1.9563816785812378,0.09435486048460007,0.18149589002132416,1741433039.3156667,1741433039479,-5.76626025390625,2.214615478515625,1.8700184978227543,3.5736054687500003,2.0749208984375
1741433039.469243,1.2621339559555054,0.031639837812709175,-0.02363720822941364,-0.999219797166922,0.5878482460975647,-0.022665387019515038,-1.1776957511901855,2.527176856994629,-1.6907926797866821,9.740373611450195,-0.9897384643554688,-0.01621246337890625,-0.04901960864663124,-1.217693567276001,0.005912871100008488,-0.9294651746749878,0.4232471287250519,1.2463041543960571,0.0036240178160369396,0.9302281141281128,0.3412298858165741,-0.49114975333213806,0.037193864583969116,-0.09632257372140884,0.7345311641693115,-0.3069400191307068,-0.10366567969322205,-0.768482506275177,-0.22716869413852692,-0.31567102670669556,1.2109941244125366,-0.4424550235271454,0.001206174842081964,0.0816086083650589,0.007364558521658182,-2.08784556388855,-0.15029335021972656,0.001089911675080657,-0.13683617115020752,3.823371648788452,-0.02057456597685814,0.006714524235576391,-0.3742406666278839,0.007442608941346407,2.585129976272583,0.3348381519317627,0.7251579761505127,-1.068895936012268,-1.1601413488388062,0.2506045997142792,-0.03258993476629257,-1.5063461065292358,0.3259204924106598,-3.2556891441345215,0.308368057012558,-0.19611942768096924,1741433039.3156667,1741433039479,-5.76626025390625,2.214615478515625,1.8700184978227543,3.5736054687500003,2.0749208984375
1741433039.4892151,1.240188717842102,0.0322485374553439,-0.03415817243958747,-0.9988960161536228,0.5511224269866943,0.004865276627242565,-0.9795501232147217,1.3236790895462036,-2.5338826179504395,8.753588676452637,-0.9931716918945312,-0.01697540283203125,-0.08144503086805344,-1.2180750370025635,0.005912871100008488,-0.9390020370483398,0.4640650153160095,1.2463041543960571,0.0036240178160369396,0.9233615398406982,0.343900203704834,-0.44308385252952576,0.04940108209848404,-0.07953765243291855,0.7116426229476929,-0.3292202651500702,-0.10563753545284271,-0.7585641145706177,-0.25387197732925415,-0.308804452419281,1.124399185180664,-0.43472835421562195,0.0032095888163894415,-0.10803060233592987,-0.01506511028856039,-1.5008150339126587,0.02153274416923523,-0.004409057088196278,-0.5261632800102234,2.4018380641937256,0.03317850083112717,0.0030998571310192347,-0.42969462275505066,0.16249050199985504,2.4214985370635986,0.7070105075836182,0.8069754838943481,-1.1508439779281616,-1.127437949180603,-0.1434878557920456,0.6223332285881042,-1.2890522480010986,0.35927125811576843,-4.310114860534668,0.42034614086151123,0.21909072995185852,1741433039.3156667,1741433039479,-5.76626025390625,2.214615478515625,1.8700184978227543,3.5736054687500003,2.0749208984375
1741433039.5093184,1.2221497297286987,0.0338545186395866,-0.04119592783355027,-0.9985773716130437,0.363661527633667,0.024999557062983513,-0.8871922492980957,4.169173240661621,-1.7109262943267822,7.527385711669922,-0.9916458129882812,-0.01506805419921875,-0.09479667246341705,-1.2169305086135864,0.005912871100008488,-0.9504463076591492,0.4854276478290558,1.2501189708709717,0.004386968910694122,0.916876494884491,0.3549630045890808,-0.3923476040363312,0.058175019919872284,-0.07381551712751389,0.6872282028198242,-0.3510189354419708,-0.11032078415155411,-0.7322422862052917,-0.2759975492954254,-0.3114747703075409,1.0160601139068604,-0.42644593119621277,0.0012043302413076162,0.024569451808929443,0.07251286506652832,-0.43019363284111023,0.0816011130809784,-0.004524919204413891,-0.5631324648857117,1.2362836599349976,0.2584785223007202,0.015748491510748863,-0.46635064482688904,0.6120906472206116,2.530829668045044,0.30090218782424927,0.15105848014354706,-1.303533911705017,-1.0649718046188354,-0.1446409672498703,1.470090627670288,-1.1132158041000366,-0.2763543426990509,-5.6017608642578125,0.3302246332168579,-0.20942352712154388,1741433039.3156667,1741433039479,-5.76626025390625,2.214615478515625,1.8700184978227543,3.5736054687500003,2.0749208984375
1741433039.5293605,1.2030805349349976,0.03195489385687886,-0.046203609614053814,-0.9984208086860108,0.28764796257019043,-0.12913045287132263,-0.9774550795555115,-0.712191641330719,2.3574349880218506,8.02676773071289,-0.9912643432617188,-0.01087188720703125,-0.08411535620689392,-1.2154046297073364,0.005912871100008488,-0.959220290184021,0.4858091175556183,1.2531707286834717,0.004005493130534887,0.9115357995033264,0.3763256371021271,-0.33169299364089966,0.053215838968753815,-0.07877469807863235,0.6601434350013733,-0.36799323558807373,-0.09977290034294128,-0.697528064250946,-0.28858625888824463,-0.33131152391433716,0.8863584399223328,-0.42841243743896484,-0.006113193929195404,0.018193354830145836,0.14769576489925385,0.6591911315917969,0.07280752062797546,-0.008280569687485695,-0.43359923362731934,-0.09427522867918015,0.2029114067554474,0.0005163028254173696,-0.30222606658935547,1.2280056476593018,3.194474220275879,-0.34893903136253357,-0.3411804139614105,-1.2838455438613892,-0.8198665380477905,0.6896770596504211,1.7173082828521729,-0.5497992634773254,-1.1759260892868042,-6.644221305847168,-0.12215384840965271,-0.3433360159397125,1741433039.3156667,1741433039479,-5.76626025390625,2.214615478515625,1.8700184978227543,3.5736054687500003,2.0749208984375
1741433039.5493433,1.17566978931427,0.03219976149655414,-0.054326273610721613,-0.9980039235169059,0.42007797956466675,-0.13207030296325684,-1.458166480064392,4.23349142074585,2.4805798530578613,13.591751098632812,-0.9901199340820312,-0.01201629638671875,-0.05092698708176613,-1.2154046297073364,0.005531395319849253,-0.9649423956871033,0.4686427116394043,1.2508819103240967,0.004005493130534887,0.9096284508705139,0.39425498247146606,-0.2725642919540405,0.04177157208323479,-0.10051880776882172,0.6452658772468567,-0.38201797008514404,-0.07578375190496445,-0.6513695120811462,-0.290112167596817,-0.368314653635025,0.8501182794570923,-0.4104078710079193,-0.022586125880479813,0.011563342995941639,-0.0366959348320961,1.8219809532165527,-0.0027171382680535316,-0.04983076825737953,-0.24756594002246857,-1.3521109819412231,-0.2053813636302948,0.00487547367811203,-0.2236773818731308,0.7325966954231262,2.7979331016540527,-0.3403359651565552,-1.1998366117477417,-0.7996654510498047,-0.719722330570221,1.2762495279312134,2.650035858154297,0.5565250515937805,-1.973170280456543,-0.11928986012935638,0.8459099531173706,-1.0226939916610718,1741433039.3156667,1741433039479,-5.76626025390625,2.214615478515625,1.8700184978227543,3.5736054687500003,2.0749208984375
1741433039.5693479,1.1454731225967407,0.03252562439731653,-0.05752652457637928,-0.9978140020703898,0.2384975701570511,-0.08890336006879807,-1.379105806350708,2.5016849040985107,4.0518059730529785,10.613247871398926,-0.9931716918945312,-0.00591278076171875,0.005912871100008488,-1.2154046297073364,0.005912871100008488,-0.9637979865074158,0.42782482504844666,1.2489745616912842,0.004386968910694122,0.9126802682876587,0.39692530035972595,-0.22068360447883606,0.02040894143283367,-0.14629587531089783,0.6395437717437744,-0.3847459852695465,-0.024243295192718506,-0.6177996397018433,-0.2599755823612213,-0.3713664412498474,0.8440146446228027,-0.41656824946403503,-0.03596162796020508,-0.08331157267093658,0.14135311543941498,3.129122734069824,-0.027810633182525635,0.04286837577819824,0.11104724556207657,-2.8819942474365234,-0.05195889621973038,-0.00015017321857158095,0.30150577425956726,-0.027832379564642906,2.5423479080200195,-0.9910258054733276,-2.4492075443267822,0.039182454347610474,0.23408974707126617,2.1656649112701416,1.359941840171814,1.2439229488372803,0.42537587881088257,-0.840857744216919,-0.4127500653266907,-0.6122758388519287,1741433039.3156667,1741433039479,-5.76626025390625,2.214615478515625,1.8700184978227543,3.5736054687500003,2.0749208984375
1741433039.5893416,1.1134699583053589,0.03398370810672993,-0.05936673911650828,-0.9976576055290658,0.10028601437807083,0.04466972500085831,-1.5466333627700806,-4.909157752990723,-1.2315064668655396,8.7005033493042,-0.9927902221679688,0.00476837158203125,0.0711451917886734,-1.2173120975494385,0.006294346414506435,-0.962272047996521,0.3732738196849823,1.2489745616912842,0.004386968910694122,0.9145876169204712,0.38319218158721924,-0.20771344006061554,0.005531395319849253,-0.21763180196285248,0.6803616285324097,-0.3557294011116028,-0.013051124289631844,-0.576981782913208,-0.22068360447883606,-0.31834134459495544,0.8291370868682861,-0.42095106840133667,-0.04520818218588829,0.0071123824454844,0.2623431980609894,3.181264877319336,-0.16369478404521942,0.010895626619458199,0.00838812068104744,-3.7245595455169678,0.006507150363177061,-0.005375370383262634,0.1094227284193039,-0.7804383039474487,-0.05631403625011444,-0.7304566502571106,-3.3796844482421875,2.8129684925079346,1.560210943222046,0.5531899333000183,2.500669240951538,2.178755760192871,3.1687307357788086,-0.6055713295936584,-0.13263249397277832,-0.29022926092147827,1741433039.3156667,1741433039479,-5.76626025390625,2.214615478515625,1.8700184978227543,3.5736054687500003,2.0749208984375
1741433039.609361,1.0928770303726196,0.03491550169486421,-0.057786885252160254,-0.9977181884852303,-0.05820120871067047,-0.13467924296855927,-0.9029954075813293,-10.377938270568848,-3.696781873703003,12.605668067932129,-0.9943161010742188,0.02079010009765625,0.12760357558727264,-1.228756308555603,0.006294346414506435,-0.9637979865074158,0.3126192092895508,1.2516448497772217,0.004386968910694122,0.9134432077407837,0.3568703830242157,-0.2622644305229187,-0.02231631986796856,-0.27141985297203064,0.8218890428543091,-0.3098532557487488,-0.0038932275492697954,-0.5521858334541321,-0.16117341816425323,-0.26951247453689575,0.810826301574707,-0.41977187991142273,-0.04600154235959053,-0.05444087088108063,0.5476928949356079,2.677882432937622,-0.860711932182312,-0.00016397326544392854,-0.030879739671945572,-3.9339568614959717,0.17389114201068878,0.021421685814857483,-0.10417494922876358,-1.3031779527664185,-2.9845128059387207,-1.5080265998840332,-2.6558330059051514,8.112378120422363,2.383329391479492,0.48331695795059204,0.7349532246589661,3.1706461906433105,2.0911006927490234,-1.087881088256836,0.04378233850002289,-0.13437141478061676,1741433039.3156667,1741433039479,-5.76626025390625,2.214615478515625,1.8700184978227543,3.5736054687500003,2.0749208984375
1741433039.6294167,1.0903371572494507,0.0377713984195865,-0.05116942636545191,-0.9979754562447213,-0.38598278164863586,0.18053217232227325,-0.03273843601346016,-1.313423991203308,-1.2824217081069946,7.7905426025390625,-0.9935531616210938,0.032616615295410156,0.17757686972618103,-1.2405821084976196,0.006294346414506435,-0.9630350470542908,0.25158312916755676,1.2546966075897217,0.004386968910694122,0.9130617380142212,0.33550775051116943,-0.36907759308815,-0.06542305648326874,-0.30384528636932373,1.0442893505096436,-0.2661958932876587,0.004530460573732853,-0.5247195959091187,-0.10547798871994019,-0.23403525352478027,0.7921339869499207,-0.41403573751449585,-0.04748162254691124,0.011373085901141167,0.4508764445781708,2.454946994781494,-0.7406957745552063,0.004556639119982719,0.027465542778372765,-4.058101654052734,0.15670378506183624,-0.0031027295626699924,-0.011831658892333508,-0.9638848900794983,-5.61070442199707,-2.2719063758850098,-1.4146513938903809,11.37260627746582,1.8780359029769897,0.5011134147644043,1.567825198173523,2.516153573989868,1.6097067594528198,-0.8540245890617371,0.3677946925163269,0.0790368989109993,1741433039.3156667,1741433039479,-5.76626025390625,2.214615478515625,1.8700184978227543,3.5736054687500003,2.0749208984375
1741433039.6493921,1.1010371446609497,0.03716131904850169,-0.039668036697599274,-0.998521648854512,-0.5703482031822205,-0.057016365230083466,0.5684642195701599,4.344592094421387,2.1796839237213135,10.855046272277832,-0.9950790405273438,0.039483070373535156,0.22640573978424072,-1.2474485635757446,0.006294346414506435,-0.9630350470542908,0.19054703414440155,1.2543151378631592,0.004386968910694122,0.9130617380142212,0.3233005404472351,-0.499542236328125,-0.11234454810619354,-0.3076600432395935,1.2754634618759155,-0.268473744392395,0.01563277468085289,-0.4980163276195526,-0.06923781335353851,-0.2149614691734314,0.7650492191314697,-0.4065517783164978,-0.0397641584277153,-0.03347301855683327,0.20264706015586853,2.398797035217285,-0.46182459592819214,-0.004957603290677071,-0.009494640864431858,-4.024562358856201,-0.06653054058551788,0.006673859432339668,0.0009910468943417072,-0.5211779475212097,-6.51309061050415,-2.2880136966705322,-0.02051728591322899,11.1539306640625,-0.6063597202301025,0.5466841459274292,1.2702490091323853,1.708988904953003,0.8403998613357544,-1.446653127670288,0.34508979320526123,0.38728800415992737,1741433039.3156667,1741433039479,-5.76626025390625,2.214615478515625,1.8700184978227543,3.5736054687500003,2.0749208984375
1741433039.6694498,1.1142910718917847,0.033932056960649756,-0.029257591377857314,-0.9989958002199937,-0.5439103245735168,-0.10924862325191498,0.6451544761657715,1.3778409957885742,-0.4265825152397156,10.623564720153809,-0.9912643432617188,0.036431312561035156,0.2759975492954254,-1.2550780773162842,0.005912871100008488,-0.9618905782699585,0.13065537810325623,1.2505004405975342,0.004386968910694122,0.9142061471939087,0.3213931620121002,-0.6219958662986755,-0.15774014592170715,-0.2798123061656952,1.4406423568725586,-0.3154464066028595,0.021411458030343056,-0.4560540020465851,-0.04596780240535736,-0.1997024416923523,0.7429236173629761,-0.39197689294815063,-0.040313705801963806,0.09378504753112793,-0.0768686905503273,2.4653236865997314,-0.44752925634384155,-0.016650142148137093,0.10444701462984085,-3.909976005554199,-0.2630101442337036,-0.0008839239017106593,0.09310680627822876,0.0989702045917511,-5.899570941925049,-2.1967475414276123,1.5543811321258545,7.487524032592773,-2.5213072299957275,0.25152894854545593,2.1403441429138184,1.0372004508972168,0.8100621104240417,-1.1213445663452148,0.7662886381149292,0.0013671109918504953,1741433039.3156667,1741433039479,-5.76626025390625,2.214615478515625,1.8700184978227543,3.5736054687500003,2.0749208984375
1741433039.6894743,1.1217795610427856,0.029986979902223838,-0.02407908920036998,-0.9992602156093399,-0.14144231379032135,-0.23070944845676422,0.18855080008506775,-2.612226963043213,1.6460398435592651,11.890874862670898,-0.9897384643554688,0.02918243408203125,0.33054855465888977,-1.2608002424240112,0.005912871100008488,-0.9576943516731262,0.07305257022380829,1.2459226846694946,0.004386968910694122,0.9153505563735962,0.3229190409183502,-0.728427529335022,-0.18558785319328308,-0.22564278542995453,1.513885736465454,-0.3741188645362854,0.0185274388641119,-0.4182879328727722,-0.03223468363285065,-0.182917520403862,0.7188906669616699,-0.37734147906303406,-0.03419296070933342,0.07514367997646332,-0.20574809610843658,2.719996690750122,-0.5365073680877686,-0.007789625320583582,0.20174366235733032,-3.819369077682495,-0.3021790385246277,0.013857217505574226,0.04586024954915047,-0.033038053661584854,-5.130404472351074,-1.1595979928970337,2.8662612438201904,2.904768466949463,-2.8517777919769287,-0.27354124188423157,1.755635380744934,0.720594584941864,0.8817805647850037,-1.1681082248687744,0.6533265113830566,0.43392640352249146,1741433039.3156667,1741433039479,-5.76626025390625,2.214615478515625,1.8700184978227543,3.5736054687500003,2.0749208984375
1741433039.7095435,1.1150280237197876,0.032510861432924955,-0.03143216390163284,-0.9989770082245888,0.425780713558197,0.16396641731262207,-0.4956580102443695,0.4848102629184723,-0.33573582768440247,6.893730163574219,-0.9908828735351562,-0.00591278076171875,0.3843366205692291,-1.2714815139770508,0.005912871100008488,-0.9489204287528992,0.02536812424659729,1.238293170928955,0.004386968910694122,0.9180209040641785,0.3233005404472351,-0.8096818327903748,-0.19054703414440155,-0.1676585078239441,1.4940489530563354,-0.42913463711738586,0.008737290278077126,-0.3843366205692291,-0.023079270496964455,-0.15774014592170715,0.7070649266242981,-0.37303632497787476,-0.03355341777205467,-0.026426207274198532,-1.0412713289260864,2.7227301597595215,-0.6829840540885925,-0.027594173327088356,0.4791085422039032,-3.0717501640319824,-0.5695198178291321,-0.013877280987799168,0.22379134595394135,0.006798776797950268,-4.004500865936279,-0.33408549427986145,3.1912331581115723,-1.6415741443634033,-2.620333671569824,-0.5315635204315186,1.6224570274353027,0.5019498467445374,1.446163535118103,-0.5010058879852295,0.04427643120288849,-0.08962539583444595,1741433039.3156667,1741433039479,-5.76626025390625,2.214615478515625,1.8700184978227543,3.5736054687500003,2.0749208984375
1741433039.729471,1.098087191581726,0.036351496824982225,-0.04329920453020404,-0.9984005947342154,0.6071192026138306,0.14522713422775269,-0.8670859932899475,3.0138015747070312,0.684831976890564,9.365412712097168,-0.9916458129882812,-0.01430511474609375,0.43011367321014404,-1.2775851488113403,0.006294346414506435,-0.9393835067749023,-0.024223696440458298,1.230282187461853,0.0036240178160369396,0.9222171306610107,0.32063019275665283,-0.8649957776069641,-0.19359883666038513,-0.10090028494596481,1.4009689092636108,-0.4597369432449341,-0.015653785318136215,-0.3728923499584198,-0.01506828423589468,-0.13103684782981873,0.6986724734306335,-0.38996195793151855,-0.03805512562394142,-0.017052061855793,-0.3029875159263611,2.2206389904022217,-0.329276442527771,0.0013973801396787167,0.4813461899757385,-3.5836191177368164,-0.4990732669830322,-0.040677621960639954,0.406801700592041,-0.2306116819381714,-2.523468017578125,-0.018017025664448738,3.048159122467041,-5.155857086181641,-1.201472520828247,-1.0526779890060425,0.29377272725105286,0.2877490818500519,1.2959545850753784,-0.3866770565509796,-1.0301333665847778,-0.31050658226013184,1741433039.3156667,1741433039479,-5.76626025390625,2.214615478515625,1.8700184978227543,3.5736054687500003,2.0749208984375
1741433039.7495909,1.0865503549575806,0.04759201917508104,-0.0552019850128857,-0.9973403333674399,0.6170371770858765,0.6318499445915222,-0.5307020545005798,1.2403770685195923,1.8343909978866577,6.373738765716553,-0.9916458129882812,-0.02155303955078125,0.4667353332042694,-1.2806370258331299,0.005912871100008488,-0.9287022352218628,-0.0715266615152359,1.2241785526275635,0.004005493130534887,0.9355688095092773,0.30460822582244873,-0.8978027105331421,-0.18902114033699036,-0.05893797054886818,1.2628748416900635,-0.45094650983810425,-0.01097441278398037,-0.3614480793476105,-0.007438773289322853,-0.10852979123592377,0.7040131092071533,-0.4211055040359497,-0.05526695027947426,0.002006852300837636,-0.26915138959884644,1.7717559337615967,-0.12911197543144226,-0.01251191459596157,0.4765074849128723,-2.7436940670013428,-0.368374764919281,0.0070823486894369125,0.960185170173645,-0.7915793657302856,-1.4846830368041992,0.2591245174407959,1.835769772529602,-7.2212066650390625,0.7535779476165771,0.4122026562690735,0.5885767340660095,0.4071492552757263,1.1605178117752075,0.33982372283935547,-1.5986425876617432,-0.8651745915412903,1741433039.3156667,1741433039479,-5.76626025390625,2.214615478515625,1.8700184978227543,3.5736054687500003,2.0749208984375
1741433039.76952,1.0730115175247192,0.06395314642896406,-0.06302914682412487,-0.9959605020845246,0.36333462595939636,0.8268269300460815,-0.6238322257995605,0.611255407333374,-1.3173238039016724,11.675690650939941,-0.9916458129882812,-0.01239776611328125,0.4854276478290558,-1.2791110277175903,0.005912871100008488,-0.9218356609344482,-0.09746700525283813,1.223034143447876,0.0036240178160369396,0.9523537158966064,0.28439003229141235,-0.8962767720222473,-0.17795833945274353,-0.04177157208323479,1.0954070091247559,-0.4134151339530945,-0.006755768321454525,-0.3599221706390381,0.005531395319849253,-0.08106355369091034,0.7078278660774231,-0.44985681772232056,-0.07181017845869064,0.009483055211603642,0.2155955284833908,0.7878744006156921,0.10828042775392532,-0.012592661194503307,0.23303188383579254,-1.6380760669708252,-0.0540817528963089,-0.007698962930589914,1.0645651817321777,-1.0434885025024414,0.22019866108894348,0.5190255641937256,0.7854823470115662,-8.803084373474121,1.9887193441390991,0.14687970280647278,0.1275757998228073,0.6983994245529175,1.3469282388687134,0.31481271982192993,-1.3006503582000732,-0.8027712106704712,1741433039.3156667,1741433039479,-5.76626025390625,2.214615478515625,1.8700184978227543,3.5736054687500003,2.0749208984375
1741433039.7895799,1.060315728187561,0.07996019580962227,-0.06338655968924391,-0.9947806346812591,0.039088450372219086,0.6968100666999817,-0.6342006325721741,0.3223342299461365,-2.4761078357696533,5.155497074127197,-0.9912643432617188,0.00858306884765625,0.4888609051704407,-1.2733889818191528,0.005912871100008488,-0.918402373790741,-0.10090028494596481,1.2234156131744385,0.0036240178160369396,0.9634165167808533,0.264934778213501,-0.8886472582817078,-0.16041046380996704,-0.028038453310728073,0.9164950251579285,-0.37205761671066284,-0.0016170302405953407,-0.3530556261539459,0.02384222112596035,-0.05703059583902359,0.7162203192710876,-0.4660387933254242,-0.0690518170595169,0.01467058714479208,0.6208215355873108,0.0608372762799263,0.35804152488708496,-0.005907610058784485,0.16701285541057587,0.026154259219765663,0.0010096679907292128,0.005955176427960396,0.6790241003036499,-0.8883209824562073,0.6229835152626038,0.9334343075752258,0.7938889861106873,-8.6278657913208,1.9892371892929077,0.3870643079280853,0.34155768156051636,1.089286208152771,1.1296025514602661,0.26029661297798157,-0.7038379907608032,0.5621197819709778,1741433039.3156667,1741433039479,-5.76626025390625,2.214615478515625,1.8700184978227543,3.5736054687500003,2.0749208984375
1741433039.8095658,1.0467387437820435,0.09077304133402853,-0.05543070644061764,-0.9943277587146327,-0.3869054317474365,0.4494330883026123,-0.7086188793182373,6.056256294250488,0.1977921575307846,3.753103733062744,-0.9920272827148438,0.03032684326171875,0.47856107354164124,-1.2653779983520508,0.005912871100008488,-0.9149690866470337,-0.08487831056118011,1.224560022354126,0.0036240178160369396,0.9676127433776855,0.25196459889411926,-0.8684290647506714,-0.1329442262649536,-0.009727626107633114,0.7761120200157166,-0.3506728708744049,0.00866929441690445,-0.33512628078460693,0.05245288833975792,-0.05703059583902359,0.7249943017959595,-0.47179314494132996,-0.05275875702500343,-0.03841959312558174,0.6263418197631836,-0.6288891434669495,0.6107020378112793,-0.012121294625103474,0.15768632292747498,1.278576374053955,0.1428193747997284,0.011764010414481163,0.17216846346855164,-0.5333073735237122,1.1298866271972656,1.6193524599075317,1.0078893899917603,-6.585397243499756,0.8099970817565918,0.4031846225261688,0.929660975933075,1.5074388980865479,-0.29162710905075073,0.4530744254589081,-0.20411159098148346,0.5979932546615601,1741433039.3156667,1741433039479,-5.76626025390625,2.214615478515625,1.8700184978227543,3.5736054687500003,2.0749208984375
1741433039.829642,1.0366641283035278,0.08984487881478156,-0.03915266615041885,-0.9951858954406815,-0.8351396918296814,-0.13966135680675507,-0.5581380128860474,3.792572021484375,-2.2927451133728027,2.4146852493286133,-0.9912643432617188,0.050164222717285156,0.4518577754497528,-1.2531707286834717,0.005912871100008488,-0.9138246774673462,-0.04558632895350456,1.230282187461853,0.0036240178160369396,0.9645609259605408,0.24891279637813568,-0.8360036611557007,-0.07839322835206985,-0.01201647985726595,0.6780728101730347,-0.36751964688301086,0.009202276356518269,-0.31757840514183044,0.08068207651376724,-0.0883115902543068,0.7539864182472229,-0.46401259303092957,-0.07071969658136368,0.014338555745780468,0.5920648574829102,-1.411771297454834,0.806983470916748,-0.009041881188750267,0.02315812185406685,2.8482067584991455,0.4251081645488739,0.019893908873200417,-0.2590944468975067,-0.16946528851985931,1.7041281461715698,2.7500417232513428,-0.7013236284255981,-4.63889741897583,-1.1992363929748535,0.007533936761319637,0.7625204920768738,1.3437349796295166,-1.6653640270233154,1.727301001548767,0.5558726787567139,-1.169397234916687,1741433039.3156667,1741433039479,-5.76626025390625,2.214615478515625,1.8700184978227543,3.5736054687500003,2.0749208984375
1741433039.84961,1.0279897451400757,0.07932564775720598,-0.014565037890398175,-0.9967423444798315,-1.2679909467697144,-0.5325992107391357,-0.5483700633049011,5.066536903381348,-16.99625587463379,15.11004638671875,-0.9908828735351562,0.059700965881347656,0.41180285811424255,-1.2402005195617676,0.005912871100008488,-0.9153505563735962,0.009727626107633114,1.2371487617492676,0.004005493130534887,0.9580758213996887,0.2454795092344284,-0.802815318107605,-0.03299763426184654,-0.05703059583902359,0.6353475451469421,-0.39206305146217346,-0.017316674813628197,-0.3225375711917877,0.10128175467252731,-0.14324407279491425,0.8310444951057434,-0.44148847460746765,-0.10090906172990799,0.017408279702067375,0.3122408092021942,-2.158522605895996,0.8527392745018005,-0.011088013648986816,-0.08944936096668243,3.709956645965576,0.46137264370918274,0.020528102293610573,-0.43229758739471436,-0.3063476085662842,1.306406855583191,1.6874314546585083,-2.368725061416626,-1.1892313957214355,-0.4468899369239807,-2.0973150730133057,-0.39661452174186707,0.8984255790710449,-2.810732841491699,4.4309000968933105,1.1897488832473755,-1.3767871856689453,1741433039.3156667,1741433039479,-5.76626025390625,2.214615478515625,1.8700184978227543,3.5736054687500003,2.0749208984375
1741433039.8696542,1.0239335298538208,0.06679966146592115,0.009546640580150145,-0.9977207359184591,-1.0174287557601929,-0.44871994853019714,-0.16441583633422852,11.661285400390625,6.556385040283203,4.570957183837891,-0.9901199340820312,0.048256874084472656,0.3557259440422058,-1.223797082901001,0.006294346414506435,-0.9088655114173889,0.06809338182210922,1.2497375011444092,0.0036240178160369396,0.953498125076294,0.25425344705581665,-0.8070115447044373,-0.03185320645570755,-0.0864042118191719,0.7066834568977356,-0.34428703784942627,-0.10275779664516449,-0.36678874492645264,0.08564125746488571,-0.20733195543289185,0.967231273651123,-0.4123183488845825,-0.10090477764606476,0.02806878089904785,-0.3346588909626007,-2.9555208683013916,1.0777866840362549,0.027207335457205772,0.295165091753006,3.96767258644104,0.9622121453285217,-0.07191342115402222,-0.2495318055152893,0.49614518880844116,-0.5414368510246277,0.5110006928443909,-1.833452820777893,3.351975917816162,2.6867401599884033,-4.237805366516113,-2.5111093521118164,-0.7204833626747131,-3.0215511322021484,6.972545623779297,1.5169334411621094,0.5679334998130798,1741433039.3156667,1741433039479,-5.76626025390625,2.214615478515625,1.8700184978227543,3.5736054687500003,2.0749208984375
1741433039.8897033,1.0038303136825562,0.05726507326006979,0.01472258865043846,-0.9982504479177302,-0.22709298133850098,-0.5043967962265015,-1.1133525371551514,-6.616508960723877,-9.414690017700195,5.108521461486816,-0.9863052368164062,0.01430511474609375,0.26684215664863586,-1.2203638553619385,0.005912871100008488,-0.9096284508705139,0.12874799966812134,1.2539336681365967,0.005149920005351305,0.9489204287528992,0.2470054179430008,-0.7875562906265259,-0.009346150793135166,-0.11768520623445511,0.7249943017959595,-0.2962512671947479,-0.11120567470788956,-0.4507133662700653,0.07801175117492676,-0.25158312916755676,1.1293584108352661,-0.3930935561656952,-0.037582337856292725,0.04894055798649788,-0.8754689693450928,-4.583876132965088,-0.08915739506483078,-0.011741467751562595,-0.10022926330566406,3.9065985679626465,0.0817917138338089,0.1400054693222046,-0.339580774307251,-0.5900736451148987,1.4102133512496948,1.104069471359253,-0.8688319325447083,0.3858422636985779,2.4130749702453613,0.464520663022995,-3.7463185787200928,-0.4513972997665405,-1.869680404663086,8.224072456359863,0.824863612651825,3.660932779312134,1741433039.3156667,1741433039479,-5.76626025390625,2.214615478515625,1.8700184978227543,3.5736054687500003,2.0749208984375
1741433039.9097066,0.9776769876480103,0.04575516798589846,0.023345865436678714,-0.9986798461817454,-0.3152884542942047,-0.60846346616745,-1.4946393966674805,-2.502774477005005,2.049912929534912,11.97295093536377,-0.9882125854492188,0.00782012939453125,0.17376211285591125,-1.224560022354126,0.005912871100008488,-0.9130617380142212,0.1817730963230133,1.2512633800506592,0.004386968910694122,0.9462500810623169,0.2504386901855469,-0.7547493577003479,0.005912871100008488,-0.11692225188016891,0.728427529335022,-0.24622805416584015,-0.07038375735282898,-0.535400927066803,0.049782559275627136,-0.2637903392314911,1.2747005224227905,-0.4074929654598236,-0.004903244320303202,-0.043025922030210495,-0.1372268795967102,-4.431063652038574,-0.28235453367233276,-0.057056162506341934,-0.1300925612449646,3.495215892791748,-0.06269337236881256,-0.04057354852557182,-0.1438608020544052,0.526462972164154,1.3399114608764648,0.6975665092468262,-0.31242066621780396,0.42872369289398193,2.558396577835083,1.56761634349823,-3.8958683013916016,-1.4290363788604736,-0.6252761483192444,6.9209442138671875,-1.1422300338745117,0.7783515453338623,1741433039.3156667,1741433039479,-5.76626025390625,2.214615478515625,1.8700184978227543,3.5736054687500003,2.0749208984375
1741433039.9296968,0.9347258806228638,0.0361857076205184,0.020135273515699548,-0.9991422147644701,0.29086336493492126,-0.3879754841327667,-2.176863431930542,3.7949366569519043,-4.1057047843933105,11.496039390563965,-0.9851608276367188,-0.01392364501953125,0.09899290651082993,-1.229519248008728,0.005912871100008488,-0.916113555431366,0.2309834510087967,1.2505004405975342,0.00476844422519207,0.9466315507888794,0.2653162479400635,-0.7200350761413574,0.01773861236870289,-0.1203555315732956,0.7345311641693115,-0.21216845512390137,-0.07337697595357895,-0.6147478222846985,0.01926451548933983,-0.28934919834136963,1.3712139129638672,-0.45163843035697937,-0.0051933713257312775,0.06576415151357651,-0.4881197512149811,-3.479221820831299,-0.22161388397216797,0.04319257289171219,-0.1413276642560959,3.3132286071777344,-0.10680811107158661,0.013568167574703693,0.011273594573140144,0.7667708396911621,1.9176921844482422,0.5750141143798828,-0.05014091730117798,0.07176569104194641,1.4673082828521729,-0.45889225602149963,-3.602436065673828,-1.7946741580963135,-1.069056510925293,4.181385517120361,-2.273435592651367,0.1979837715625763,1741433039.3156667,1741433039479,-5.76626025390625,2.214615478515625,1.8700184978227543,3.5736054687500003,2.0749208984375
1741433039.94976,0.8922473192214966,0.02500797652827555,0.016293281639495838,-0.999554465791323,0.2487301528453827,-0.5420290231704712,-2.132558822631836,1.7306207418441772,-3.6260693073272705,13.43463134765625,-0.9855422973632812,-0.00858306884765625,0.03490501269698143,-1.227230429649353,0.005912871100008488,-0.916876494884491,0.2794308364391327,1.2459226846694946,0.0036240178160369396,0.9462500810623169,0.27065691351890564,-0.6822690367698669,0.03299763426184654,-0.11005569249391556,0.7303349375724792,-0.19943182170391083,-0.09216904640197754,-0.6719691753387451,-0.02841992862522602,-0.30117493867874146,1.4024949073791504,-0.49930649995803833,0.005661384202539921,0.010367419570684433,0.12652914226055145,-3.3405141830444336,0.1569027304649353,0.004933797754347324,-0.028767116367816925,3.252671718597412,-0.29451659321784973,-0.08752171695232391,-0.04928459972143173,0.16072161495685577,1.7421135902404785,0.8291060328483582,0.6712676286697388,-0.1186428889632225,0.5344709753990173,-0.8792713284492493,-2.658010721206665,-2.344897985458374,-0.5216690301895142,1.0008465051651,-2.3437817096710205,0.6733071804046631,1741433039.3156667,1741433039479,-5.76626025390625,2.214615478515625,1.8700184978227543,3.5736054687500003,2.0749208984375
1741433039.9697754,0.8581823110580444,0.013553969897416166,0.0066197152152093425,-0.9998862281632294,0.5774335861206055,-0.5581157803535461,-1.6430243253707886,-10.458693504333496,-9.084492683410645,15.655227661132812,-0.9847793579101562,-0.01010894775390625,-0.018501564860343933,-1.2283748388290405,0.006294346414506435,-0.916876494884491,0.3271152675151825,1.2428709268569946,0.0020981156267225742,0.9466315507888794,0.27218279242515564,-0.6548027992248535,0.05703059583902359,-0.08449683338403702,0.7318608164787292,-0.19970013201236725,-0.10119394212961197,-0.7032501697540283,-0.07381551712751389,-0.29964902997016907,1.3689249753952026,-0.5386797785758972,0.005373643711209297,0.03122592903673649,-0.020404361188411713,-2.632197856903076,-0.15604574978351593,0.007735638413578272,-0.04424667730927467,3.1510138511657715,-0.2657189965248108,-0.06495893746614456,0.014521009288728237,-0.07015497237443924,1.4423974752426147,1.1807193756103516,1.3514318466186523,0.06817327439785004,-0.10274562239646912,-0.38819169998168945,-1.3494386672973633,-2.333364486694336,0.1935136467218399,-1.9987621307373047,-1.8583091497421265,-0.3092970848083496,1741433039.3156667,1741433039479,-5.76626025390625,2.214615478515625,1.8700184978227543,3.5736054687500003,2.0749208984375
1741433039.9897842,0.8320780992507935,0.010654036488431776,-0.0041819941615208476,-0.9999344990704823,0.5322427749633789,-0.11707388609647751,-1.2660530805587769,2.545154094696045,-4.55087947845459,9.934045791625977,-0.9851608276367188,-0.01964569091796875,-0.07648584991693497,-1.230282187461853,0.006294346414506435,-0.9225986003875732,0.3694590628147125,1.2363858222961426,0.0024795911740511656,0.9451056718826294,0.2645532786846161,-0.6132219433784485,0.08030059933662415,-0.05664911866188049,0.732623815536499,-0.21116191148757935,-0.11740531027317047,-0.7215610146522522,-0.11310750246047974,-0.28858625888824463,1.2964446544647217,-0.5492330193519592,0.003690822049975395,-0.01853075996041298,-0.1897345334291458,-3.0573413372039795,-0.040345583111047745,0.03707630932331085,-0.3321429491043091,2.741914749145508,-0.40825387835502625,0.014723691157996655,-0.11867331713438034,-0.46244537830352783,1.9329750537872314,1.1308705806732178,1.3831787109375,-0.017776895314455032,-0.6564587950706482,-0.8448501825332642,-1.0767409801483154,-1.9126332998275757,0.6420709490776062,-3.94339656829834,-0.20687612891197205,0.1906910091638565,1741433039.3156667,1741433039479,-5.76626025390625,2.214615478515625,1.8700184978227543,3.5736054687500003,2.0749208984375
1741433040.0098743,0.814336895942688,0.011930364272749374,-0.01189009698290362,-0.9998581359383223,0.3655504286289215,0.14499099552631378,-0.9403183460235596,4.335638999938965,-2.983642816543579,8.809274673461914,-0.9821090698242188,-0.02079010009765625,-0.12264438718557358,-1.2283748388290405,0.005912871100008488,-0.9393835067749023,0.4190509021282196,1.239819049835205,0.002861066721379757,0.9378576278686523,0.2588311731815338,-0.578507661819458,0.09784847497940063,-0.03337911143898964,0.7364385724067688,-0.2313399761915207,-0.13361522555351257,-0.7303349375724792,-0.1493476778268814,-0.27065691351890564,1.182383418083191,-0.5292634963989258,0.015912365168333054,0.09186483919620514,-0.07439545542001724,-2.0951383113861084,0.14433982968330383,0.026124849915504456,-0.8576387763023376,3.376063585281372,0.2613406777381897,0.02867187187075615,-0.6462151408195496,-0.05785456299781799,1.6344465017318726,0.8393977284431458,1.0631279945373535,0.24379003047943115,-1.0587540864944458,-0.8460015654563904,-0.4318431615829468,-1.816972255706787,0.8879102468490601,-6.009271621704102,1.125246286392212,0.4032503664493561,1741433039.3156667,1741433039479,-5.76626025390625,2.214615478515625,1.8700184978227543,3.5736054687500003,2.0749208984375
1741433040.0298288,0.7950068712234497,0.016383265098331122,-0.016588663401417552,-0.9997281654886354,0.22169245779514313,0.22873513400554657,-0.9711931943893433,0.10984452068805695,-0.30063125491142273,9.262834548950195,-0.9786758422851562,-0.01659393310546875,-0.14095520973205566,-1.224941611289978,0.005912871100008488,-0.955024003982544,0.4514763057231903,1.2428709268569946,0.002861066721379757,0.9287022352218628,0.2733272314071655,-0.5552376508712769,0.10509651154279709,-0.02994582988321781,0.7444495558738708,-0.256018728017807,-0.1340494304895401,-0.7234683632850647,-0.182154580950737,-0.2660791873931885,1.038948655128479,-0.4982375502586365,0.006361658219248056,0.09463562816381454,0.10183776915073395,-0.6773549914360046,0.19585469365119934,-0.009540040045976639,-0.7808948159217834,1.844472050666809,0.1505342721939087,0.01111102756112814,-0.6197341680526733,0.9043130278587341,1.067685842514038,0.3093869388103485,0.05306673422455788,0.4236181676387787,-1.2563109397888184,0.11950621008872986,0.5819414258003235,-1.6730382442474365,0.08318597823381424,-7.226741313934326,1.5646350383758545,-0.6215922832489014,1741433039.3156667,1741433039479,-5.76626025390625,2.214615478515625,1.8700184978227543,3.5736054687500003,2.0749208984375
1741433040.049859,0.7692506313323975,0.022980592792224978,-0.019293454648647734,-0.9995497261080303,0.17202533781528473,0.3143860995769501,-1.3311030864715576,-7.623288154602051,-12.77407455444336,32.45681381225586,-0.9695205688476562,-0.01735687255859375,-0.13179980218410492,-1.2203638553619385,0.005912871100008488,-0.9676127433776855,0.46025025844573975,1.2463041543960571,0.004005493130534887,0.9206912517547607,0.3114747703075409,-0.5312047004699707,0.09784847497940063,-0.04177157208323479,0.7539864182472229,-0.2801714837551117,-0.12729822099208832,-0.7055390477180481,-0.21648737788200378,-0.308804452419281,0.9214541912078857,-0.4479235112667084,-0.011909693479537964,0.2544887363910675,-0.00021658929472323507,0.6870771050453186,0.4460064768791199,-0.01601375639438629,-0.5297076106071472,0.4087461829185486,0.19384713470935822,0.04917816072702408,-0.5308307409286499,2.057363986968994,1.3726845979690552,-0.38985785841941833,-0.6679494380950928,0.48961368203163147,-1.2469582557678223,0.327908456325531,0.6489210724830627,-1.6884785890579224,-2.780742883682251,-4.341437339782715,2.9895436763763428,-1.1216305494308472,1741433039.3156667,1741433039479,-5.76626025390625,2.214615478515625,1.8700184978227543,3.5736054687500003,2.0749208984375
1741433040.0698512,0.7333062887191772,0.022187049514321044,-0.01606909229060668,-0.9996246891242757,-0.24946795403957367,0.15509647130966187,-1.9050135612487793,-1.1657893657684326,-0.6008374094963074,8.775233268737793,-0.9534978866577148,-0.00667572021484375,-0.09288929402828217,-1.211971402168274,0.005149920005351305,-0.969520092010498,0.4499503970146179,1.2470670938491821,0.004386968910694122,0.9107728600502014,0.3393225073814392,-0.4983977973461151,0.08106355369091034,-0.07343403995037079,0.7486457824707031,-0.3080722391605377,-0.11124414950609207,-0.6467918157577515,-0.20580606162548065,-0.369840532541275,0.9107728600502014,-0.4075690805912018,-0.03302358463406563,0.4579150676727295,0.35047993063926697,2.168571949005127,0.45810049772262573,-0.052360136061906815,-0.07179334759712219,-1.047275185585022,0.1407727301120758,0.020893625915050507,-0.49663838744163513,1.3476253747940063,1.7849810123443604,-1.1522120237350464,-1.7138032913208008,-0.3709537982940674,-1.4407706260681152,1.132187008857727,2.8839995861053467,0.5641102194786072,-2.0926594734191895,-1.325265645980835,1.5652120113372803,-0.6082531809806824,1741433039.3156667,1741433039479,-5.76626025390625,2.214615478515625,1.8700184978227543,3.5736054687500003,2.0749208984375
1741433040.0902925,0.7039486169815063,0.026591068277445295,-0.014277905742216596,-0.99954442447321,-0.03689103201031685,0.1878703236579895,-1.4918221235275269,6.924164295196533,0.5756444931030273,10.48037338256836,-0.9435796737670898,-0.00438690185546875,-0.035667963325977325,-1.2089195251464844,0.006294346414506435,-0.9668498039245605,0.4209582805633545,1.2501189708709717,0.004005493130534887,0.9103913903236389,0.3549630045890808,-0.4533836841583252,0.06427863240242004,-0.13981078565120697,0.7467383742332458,-0.33826425671577454,-0.0669478178024292,-0.6036850810050964,-0.18940261006355286,-0.3542000353336334,0.8562218546867371,-0.3916008472442627,-0.03298652917146683,0.35031312704086304,0.14604052901268005,2.7306628227233887,0.17360582947731018,0.05817549675703049,0.179361492395401,-2.0099563598632812,0.10728130489587784,0.004306245595216751,-0.10655247420072556,0.6540307402610779,2.2961769104003906,-0.9024841785430908,-3.69925594329834,0.07493526488542557,-1.503699779510498,2.4191226959228516,2.2316417694091797,1.2270761728286743,0.9115703105926514,-2.2010340690612793,0.8063843250274658,-0.37681469321250916,1741433039.3156667,1741433039479,-5.76626025390625,2.214615478515625,1.8700184978227543,3.5736054687500003,2.0749208984375
1741433040.1103892,0.6732982397079468,0.03308243426887137,-0.01252457835297153,-0.9993741478945342,-0.010047863237559795,0.32188859581947327,-1.2187001705169678,17.78769302368164,4.537421226501465,-6.396927833557129,-0.9267950057983398,-0.00095367431640625,0.02727550081908703,-1.2123528718948364,0.00667582219466567,-0.959983229637146,0.38052186369895935,1.2508819103240967,0.004005493130534887,0.9126802682876587,0.3397039771080017,-0.4228656589984894,0.025749599561095238,-0.20923933386802673,0.7825970649719238,-0.3665040135383606,-0.007374197244644165,-0.5518043637275696,-0.13752193748950958,-0.31834134459495544,0.8382925391197205,-0.39199188351631165,-0.05243947356939316,0.4593345820903778,0.11634396761655807,2.9511964321136475,-0.4348268210887909,0.05099808797240257,0.32646918296813965,-2.758316993713379,0.0881514921784401,-0.010381213389337063,0.22874103486537933,-0.9182087779045105,1.0257203578948975,-1.9779821634292603,-3.139981269836426,2.168083667755127,-1.157362699508667,2.8875131607055664,2.5784077644348145,2.3513572216033936,2.182948589324951,-1.0680021047592163,-0.2303454726934433,-0.45689114928245544,1741433039.3156667,1741433039479,-5.76626025390625,2.214615478515625,1.8700184978227543,3.5736054687500003,2.0749208984375
1741433040.130333,0.65899658203125,0.03233996796925682,-0.014097835501764166,-0.9993774949967167,0.120283342897892,-0.052030980587005615,-0.6164035797119141,-2.8651740550994873,-1.3123677968978882,9.87204360961914,-0.9088659286499023,0.00743865966796875,0.09212634712457657,-1.23753023147583,0.005912871100008488,-0.9561684727668762,0.3404669165611267,1.2516448497772217,0.004005493130534887,0.9134432077407837,0.308041512966156,-0.44079500436782837,-0.01125352829694748,-0.2641718089580536,0.8932250142097473,-0.36213043332099915,-0.002185081597417593,-0.5151827335357666,-0.0864042118191719,-0.26722362637519836,0.804341197013855,-0.39435654878616333,-0.05285453796386719,0.5368282198905945,0.23915104568004608,3.1602942943573,-1.6590790748596191,-0.06618066877126694,0.17853529751300812,-2.67500376701355,-0.03823147341609001,0.0008769994601607323,0.01757809706032276,-1.4817047119140625,-1.2159947156906128,-1.9581100940704346,-2.2668721675872803,6.288201332092285,0.4602401852607727,-0.3268446922302246,1.8549250364303589,2.6831603050231934,2.3828928470611572,-1.6946320533752441,-0.008234864100813866,-0.11063198745250702,1741433039.3156667,1741433039479,-5.76626025390625,2.214615478515625,1.8700184978227543,3.5736054687500003,2.0749208984375
1741433040.1503818,0.6556435823440552,0.03191592113210292,-0.011650002256632774,-0.9994226590515696,-0.18627482652664185,-0.05802750959992409,-0.1043393611907959,-6.122018814086914,-2.687438488006592,5.341738700866699,-0.8936061859130859,0.02422332763671875,0.15888457000255585,-1.2539336681365967,0.006294346414506435,-0.951209306716919,0.2904936373233795,1.2482116222381592,0.0036240178160369396,0.9126802682876587,0.2821011543273926,-0.5098420977592468,-0.057793546468019485,-0.2767605185508728,1.0805294513702393,-0.34737709164619446,-0.014233359135687351,-0.47741663455963135,-0.038719769567251205,-0.23632410168647766,0.7814526557922363,-0.3891466557979584,-0.04614192992448807,0.45288267731666565,0.520091712474823,3.3600165843963623,-0.9723682999610901,0.0023755214642733335,0.26359260082244873,-3.475480794906616,-0.20523463189601898,0.00518006319180131,-0.01464838907122612,-1.1832348108291626,-3.7256457805633545,-2.398681879043579,-0.26193925738334656,9.574244499206543,0.6234930753707886,-0.18654365837574005,1.9551677703857422,2.119807243347168,1.5552726984024048,-1.1098110675811768,0.2732013165950775,0.5177338123321533,1741433039.3156667,1741433039479,-5.76626025390625,2.214615478515625,1.8700184978227543,3.5736054687500003,2.0749208984375
1741433040.1704118,0.6613916158676147,0.02956159700786415,-0.0042020347562531325,-0.9995541280422247,-0.39167916774749756,-0.13416141271591187,0.2538212239742279,-0.3219129741191864,3.2976982593536377,10.790084838867188,-0.8745326995849609,0.02918243408203125,0.22144655883312225,-1.2638521194458008,0.006294346414506435,-0.9493018984794617,0.23670557141304016,1.2485930919647217,0.004386968910694122,0.9126802682876587,0.2725642919540405,-0.6185625791549683,-0.10471503436565399,-0.2603570520877838,1.2903410196304321,-0.34941744804382324,0.010835615918040276,-0.44346532225608826,-0.010872052982449532,-0.2153429538011551,0.7543678879737854,-0.38224148750305176,-0.04355927184224129,0.6094688773155212,0.2030870020389557,2.799480438232422,-0.6782560348510742,-0.013390982523560524,0.008639346808195114,-3.5809707641601562,-0.007386650424450636,0.04316582903265953,-0.031195681542158127,-0.43268904089927673,-5.428991317749023,-2.2100048065185547,0.9001228213310242,10.47079849243164,-0.27396416664123535,1.2587066888809204,1.7509398460388184,1.4035367965698242,0.8077977895736694,-1.288861870765686,0.32375141978263855,-0.14176997542381287,1741433039.3156667,1741433039479,-5.76626025390625,2.214615478515625,1.8700184978227543,3.5736054687500003,2.0749208984375
1741433040.1904547,0.6684764623641968,0.03045412459140582,0.004763796433309523,-0.999524813368289,-0.45274364948272705,0.0362197607755661,0.34856852889060974,-0.5209380984306335,2.69203782081604,13.254925727844238,-0.8501186370849609,0.02803802490234375,0.28706035017967224,-1.2691926956176758,0.006294346414506435,-0.9504463076591492,0.17452506721019745,1.2478300333023071,0.004005493130534887,0.9142061471939087,0.26874953508377075,-0.7352941036224365,-0.13981078565120697,-0.2283131182193756,1.4570459127426147,-0.36933791637420654,0.010832095518708229,-0.40989547967910767,0.008201723918318748,-0.20199130475521088,0.7322422862052917,-0.3798263370990753,-0.051297396421432495,0.7091783881187439,-0.019426174461841583,3.3527398109436035,-0.31834352016448975,-0.00783814862370491,-0.03737833723425865,-4.206188678741455,-0.05020257458090782,-0.014087497256696224,0.10118385404348373,-0.13836857676506042,-5.6698808670043945,-1.5714457035064697,1.7181154489517212,7.583170413970947,-1.1287760734558105,-0.38713887333869934,1.5671215057373047,0.7827820777893066,0.7261728644371033,-1.1191786527633667,0.002610220806673169,-0.1410619616508484,1741433039.3156667,1741433039479,-5.76626025390625,2.214615478515625,1.8700184978227543,3.5736054687500003,2.0749208984375
1741433040.2104616,0.6700139045715332,0.03410751337094489,0.011821485329201747,-0.999348252620808,-0.3252542018890381,0.210310161113739,-0.08640877157449722,2.5969960689544678,5.517653465270996,8.207496643066406,-0.8249406814575195,0.02384185791015625,0.35076677799224854,-1.2726260423660278,0.006294346414506435,-0.9500648379325867,0.10967422276735306,1.2470670938491821,0.004386968910694122,0.9145876169204712,0.2611200213432312,-0.840199887752533,-0.15697719156742096,-0.182917520403862,1.5417333841323853,-0.39920803904533386,-0.00637352280318737,-0.38166627287864685,0.019645990803837776,-0.18863965570926666,0.7192721366882324,-0.3908551037311554,-0.04303770139813423,0.7694849371910095,-0.12372438609600067,3.0999577045440674,-0.25388088822364807,-0.005098182708024979,-0.001984734321013093,-4.305543422698975,-0.0971221774816513,0.03987816348671913,0.0001236652460647747,-0.43560028076171875,-5.172715663909912,-0.8543555736541748,2.166494846343994,3.519848108291626,-1.538764476776123,-0.6238845586776733,1.3978354930877686,0.5457755923271179,0.8109297156333923,-0.5741062164306641,-0.6643628478050232,0.4993515908718109,1741433039.3156667,1741433039479,-5.76626025390625,2.214615478515625,1.8700184978227543,3.5736054687500003,2.0749208984375
1741433040.230474,0.657142162322998,0.04073096279129554,0.012910399231619392,-0.9990867381072447,0.015478361397981644,0.3463018536567688,-0.7310984134674072,-1.0182368755340576,3.894120216369629,8.312912940979004,-0.8005266189575195,0.00476837158203125,0.4056992530822754,-1.2756778001785278,0.006294346414506435,-0.9493018984794617,0.05092698708176613,1.2455412149429321,0.004386968910694122,0.9149690866470337,0.2588311731815338,-0.9283207654953003,-0.17109178006649017,-0.1337071806192398,1.5386816263198853,-0.4232367277145386,-0.0016000374453142285,-0.3557259440422058,0.03185320645570755,-0.16269932687282562,0.7040131092071533,-0.4147107005119324,-0.026703549548983574,0.7597467303276062,-0.5797619819641113,2.6582422256469727,-0.2955985367298126,0.0010381825268268585,0.04809683561325073,-3.80462646484375,-0.08705055713653564,-0.004549703095108271,0.04284533113241196,-0.039315927773714066,-4.194489479064941,-0.6024375557899475,2.4368040561676025,-0.8219566345214844,-1.0853145122528076,0.2896330654621124,1.2484253644943237,0.5787253975868225,1.274674415588379,-0.7535073757171631,-1.278211236000061,0.8979114294052124,1741433039.3156667,1741433039479,-5.76626025390625,2.214615478515625,1.8700184978227543,3.5736054687500003,2.0749208984375
1741433040.2506852,0.634953498840332,0.05037497835614378,0.008274961289686933,-0.9986960931991635,0.33368077874183655,0.5111311078071594,-1.0083653926849365,-1.1585373878479004,-5.257137298583984,8.291077613830566,-0.7787818908691406,-0.01201629638671875,0.4541466534137726,-1.2791110277175903,0.00667582219466567,-0.9466315507888794,-0.004005493130534887,1.2485930919647217,0.004386968910694122,0.9180209040641785,0.24967575073242188,-0.9889753460884094,-0.1668955534696579,-0.09403372555971146,1.4612420797348022,-0.4246755540370941,-0.004440033808350563,-0.33016708493232727,0.03757534176111221,-0.14248111844062805,0.6876096725463867,-0.44725316762924194,-0.0319506861269474,0.6272644996643066,-0.5305666923522949,2.5409388542175293,-0.187223419547081,0.007006671279668808,0.21887314319610596,-3.684593439102173,0.22658592462539673,0.015468215569853783,0.2786077857017517,-0.6286520957946777,-2.7891321182250977,0.2871878147125244,1.8781641721725464,-4.260166645050049,0.16669142246246338,-0.3445018231868744,1.2506767511367798,0.21277764439582825,0.8844053745269775,-0.7547510862350464,-1.5841584205627441,-0.5552282333374023,1741433039.3156667,1741433039479,-5.76626025390625,2.214615478515625,1.8700184978227543,3.5736054687500003,2.0749208984375
1741433040.2708187,0.6268846988677979,0.06032550733361003,-0.0010705835991230558,-0.9981781840010829,0.4794958829879761,0.48812732100486755,-0.31170013546943665,2.978684425354004,0.40244409441947937,7.3302764892578125,-0.7600898742675781,-0.01125335693359375,0.4888609051704407,-1.2768222093582153,0.006294346414506435,-0.9393835067749023,-0.051689937710762024,1.2474485635757446,0.004005493130534887,0.9287022352218628,0.21648737788200378,-1.0137712955474854,-0.1501106321811676,-0.06656748056411743,1.333447813987732,-0.40289121866226196,-0.010870521888136864,-0.3133821487426758,0.035667963325977325,-0.12569619715213776,0.6731135845184326,-0.47531983256340027,-0.044931236654520035,0.5693705677986145,0.008656047284603119,1.4184319972991943,0.24796317517757416,0.0021675259340554476,0.3484192490577698,-2.927591562271118,-0.18297068774700165,-0.004513582680374384,0.8269529938697815,-1.6981295347213745,-0.9033554792404175,0.9697449207305908,1.30655038356781,-6.7906293869018555,1.236544132232666,-0.19631318747997284,0.6997153759002686,-0.08693470060825348,0.9024675488471985,-0.68253493309021,-1.3118140697479248,-0.6229079365730286,1741433039.3156667,1741433039479,-5.76626025390625,2.214615478515625,1.8700184978227543,3.5736054687500003,2.0749208984375
1741433040.2907379,0.6257120370864868,0.0675993830843812,-0.009566850832286521,-0.9976666771882099,0.3959278166294098,0.41540446877479553,0.00011762647773139179,0.7922561764717102,2.775110960006714,6.462258815765381,-0.7383460998535156,-0.00667572021484375,0.4953460097312927,-1.2730075120925903,0.005912871100008488,-0.9321355223655701,-0.07724879682064056,1.2402005195617676,0.004005493130534887,0.9439612627029419,0.17681391537189484,-0.9981307983398438,-0.11959258466959,-0.04100862145423889,1.1797131299972534,-0.3681492209434509,-0.0020299754105508327,-0.2939268946647644,0.04139009863138199,-0.10471503436565399,0.6635767221450806,-0.4922012984752655,-0.041211534291505814,0.6323649287223816,0.1217602789402008,0.18222399055957794,0.17910358309745789,-0.016966266557574272,0.3367408215999603,-1.5335508584976196,-0.5197726488113403,-0.00040850878576748073,1.0108128786087036,-1.9659425020217896,0.9386374950408936,1.5221978425979614,1.3690558671951294,-8.062211036682129,1.723280668258667,0.5712630152702332,1.2242518663406372,0.357414573431015,1.004616618156433,-0.4317728281021118,-0.7702698707580566,0.4182036519050598,1741433039.3156667,1741433039479,-5.76626025390625,2.214615478515625,1.8700184978227543,3.5736054687500003,2.0749208984375
1741433040.3107958,0.6281274557113647,0.07244726911495042,-0.01470225448404144,-0.9972638752661567,0.19949699938297272,0.1476501077413559,0.10096361488103867,3.7298026084899902,0.43169155716896057,5.298485279083252,-0.7219429016113281,0.01049041748046875,0.49000534415245056,-1.2672853469848633,0.005912871100008488,-0.925650417804718,-0.08068207651376724,1.231808066368103,0.004005493130534887,0.9557870030403137,0.1504921019077301,-0.9714275002479553,-0.0864042118191719,-0.010872052982449532,1.0046159029006958,-0.3393145203590393,0.0037850739900022745,-0.2622644305229187,0.05741206929087639,-0.08564125746488571,0.6532768607139587,-0.5032821893692017,-0.032935891300439835,0.5134291648864746,0.6038539409637451,-0.3187968134880066,0.3971504271030426,-0.004664948210120201,0.36343133449554443,-0.028826512396335602,-0.5591739416122437,0.00739402137696743,0.7087405323982239,-1.097037672996521,1.516884684562683,1.5536165237426758,1.4139907360076904,-8.60392951965332,1.2874141931533813,0.30279773473739624,1.5858283042907715,0.8433233499526978,0.9401221871376038,-0.5539316534996033,-0.5039856433868408,0.21637384593486786,1741433039.3156667,1741433039479,-5.76626025390625,2.214615478515625,1.8700184978227543,3.5736054687500003,2.0749208984375
1741433040.3307672,0.624086856842041,0.07207536471549573,-0.012724546857697118,-0.9973180173386994,-0.1276141256093979,-0.006291553843766451,-0.26476699113845825,3.223278760910034,2.2957780361175537,1.3044286966323853,-0.7036314010620117,0.02422332763671875,0.47894254326820374,-1.2585114240646362,0.005912871100008488,-0.9225986003875732,-0.0715266615152359,1.225704550743103,0.004005493130534887,0.962272047996521,0.14744029939174652,-0.924887478351593,-0.06198977679014206,0.012779430486261845,0.84592205286026,-0.33682695031166077,0.008075335994362831,-0.22297245264053345,0.08106355369091034,-0.08525978773832321,0.655947208404541,-0.4998225271701813,-0.04216892272233963,0.5429748296737671,0.4388885498046875,-0.6296451091766357,0.6114195585250854,-0.009031759575009346,0.09836519509553909,0.7174379229545593,-0.29538819193840027,0.01003709901124239,0.4521714150905609,0.023134080693125725,2.4440155029296875,1.225185751914978,1.1386284828186035,-7.6434736251831055,-0.1508437693119049,0.20480528473854065,1.8766554594039917,1.2542892694473267,-0.20587626099586487,0.3262513279914856,0.24779504537582397,-0.6109264492988586,1741433039.3156667,1741433039479,-5.76626025390625,2.214615478515625,1.8700184978227543,3.5736054687500003,2.0749208984375
1741433040.3508332,0.6140048503875732,0.0651335862146089,-0.0032309689858898024,-0.9978713227597215,-0.519891083240509,-0.37987038493156433,-0.5839576721191406,-1.1139144897460938,-3.192185878753662,5.117730617523193,-0.6879911422729492,0.039483070373535156,0.45681697130203247,-1.2493560314178467,0.005912871100008488,-0.9233615398406982,-0.04787518084049225,1.227993369102478,0.004005493130534887,0.9626535177230835,0.16384375095367432,-0.8722438216209412,-0.03032730519771576,0.005149920005351305,0.7207980751991272,-0.37264078855514526,0.010757490061223507,-0.20466163754463196,0.09822995215654373,-0.11387044936418533,0.6960021257400513,-0.4843567907810211,-0.08073792606592178,0.4651680588722229,0.46129295229911804,-1.2379052639007568,0.6091911196708679,-0.007487140595912933,-0.07538687437772751,1.7737085819244385,0.23294544219970703,0.0045823161490261555,-0.05934249609708786,0.8636478185653687,2.741302728652954,1.4370635747909546,-0.7219585180282593,-6.022462368011475,-2.1460485458374023,0.17817120254039764,0.6462094187736511,0.8040630221366882,-1.5801249742507935,2.4928033351898193,0.8927178382873535,-2.0217814445495605,1741433039.3156667,1741433039479,-5.76626025390625,2.214615478515625,1.8700184978227543,3.5736054687500003,2.0749208984375
1741433040.3708308,0.5988211631774902,0.05735814169965153,0.01838575054376049,-0.9981843555965527,-1.0859463214874268,-0.3721727728843689,-0.8714772462844849,0.5130948424339294,-3.0680646896362305,37.763423919677734,-0.6776914596557617,0.049782752990722656,0.4236285984516144,-1.239819049835205,0.005912871100008488,-0.926413357257843,-0.013923857361078262,1.2340970039367676,0.004005493130534887,0.9596017599105835,0.18558785319328308,-0.837911069393158,-0.00858320016413927,-0.039101243019104004,0.6727321147918701,-0.38720548152923584,-0.025479532778263092,-0.22564278542995453,0.10585946589708328,-0.15812161564826965,0.8093003630638123,-0.46661362051963806,-0.10681848227977753,0.3259667456150055,0.2713071405887604,-1.7898250818252563,0.6605862379074097,-0.01712639443576336,-0.10865259170532227,2.3271679878234863,0.35550400614738464,0.007577043958008289,-0.19632472097873688,1.1334420442581177,1.0021638870239258,0.8048771023750305,-2.1611597537994385,-0.6793898344039917,0.3766603171825409,-2.5019326210021973,-1.3311117887496948,-0.032143060117959976,-2.215014934539795,6.255265235900879,0.9666846394538879,-1.1502436399459839,1741433039.3156667,1741433039479,-5.76626025390625,2.214615478515625,1.8700184978227543,3.5736054687500003,2.0749208984375
1741433040.3908613,0.5880476236343384,0.054694399331595346,0.032887352216021515,-0.9979613944166253,-0.45888862013816833,0.0327913835644722,-0.6092656254768372,3.546185255050659,-1.5660804510116577,10.729472160339355,-0.6620512008666992,0.03108978271484375,0.36755168437957764,-1.2253230810165405,0.00667582219466567,-0.9206912517547607,0.029182879254221916,1.2459226846694946,0.0032425422687083483,0.9580758213996887,0.2134355753660202,-0.8524070978164673,-0.018120087683200836,-0.07610437273979187,0.7463569045066833,-0.33830809593200684,-0.10310562700033188,-0.29850462079048157,0.09136339277029037,-0.19550621509552002,0.9676127433776855,-0.43869027495384216,-0.10021643340587616,0.43956899642944336,-0.5179828405380249,-3.0050809383392334,0.8971812725067139,0.05383912846446037,0.20662103593349457,3.0674216747283936,0.758723795413971,-0.06976142525672913,-0.08879249542951584,1.2437770366668701,-0.8641931414604187,0.30600693821907043,-2.256815195083618,2.9860012531280518,2.437297821044922,-3.6385722160339355,-4.305925369262695,-0.5177305936813354,-1.808558702468872,8.171783447265625,1.438969612121582,0.7808699607849121,1741433039.3156667,1741433039479,-5.76626025390625,2.214615478515625,1.8700184978227543,3.5736054687500003,2.0749208984375
1741433040.4108574,0.5660357475280762,0.05208444549907998,0.03733834372171899,-0.9979444166010311,-0.24993640184402466,-0.07441774755716324,-1.1015565395355225,-1.8436402082443237,-6.278257369995117,10.863204956054688,-0.6475543975830078,0.01316070556640625,0.2763790488243103,-1.224941611289978,0.005912871100008488,-0.9218356609344482,0.07877469807863235,1.2470670938491821,0.004386968910694122,0.9576943516731262,0.2161058932542801,-0.8325703740119934,-0.002861066721379757,-0.09174486994743347,0.7532234787940979,-0.2978571653366089,-0.10425388813018799,-0.39387351274490356,0.08945601433515549,-0.21229113638401031,1.1346989870071411,-0.41847220063209534,-0.040773194283246994,0.38537582755088806,-0.5607172846794128,-4.738554000854492,-0.2790389955043793,-0.011013141833245754,-0.10644783824682236,3.250072956085205,-0.029735088348388672,0.05329231172800064,-6.240605580387637e-05,0.0731569305062294,1.358566403388977,0.6869356036186218,-0.1612732708454132,-0.08899657428264618,1.9810235500335693,0.679987907409668,-4.561526298522949,-0.13165463507175446,-0.5794915556907654,8.235197067260742,0.863618791103363,3.450895071029663,1741433039.3156667,1741433039479,-5.76626025390625,2.214615478515625,1.8700184978227543,3.5736054687500003,2.0749208984375
1741433040.4309049,0.5384596586227417,0.04183183027081084,0.04384020685687129,-0.9981623786934373,-0.14723558723926544,-0.4715307950973511,-1.5299421548843384,-6.734245777130127,-1.5277211666107178,14.085052490234375,-0.6403064727783203,0.02231597900390625,0.182154580950737,-1.2283748388290405,0.005912871100008488,-0.9199283123016357,0.12951095402240753,1.2505004405975342,0.004005493130534887,0.9569314122200012,0.22335393726825714,-0.804341197013855,0.013542382046580315,-0.09288929402828217,0.7547493577003479,-0.2509888708591461,-0.06010296195745468,-0.4842832088470459,0.06809338182210922,-0.22220951318740845,1.261730432510376,-0.4315051734447479,-0.01261135470122099,0.24775654077529907,0.2320946902036667,-4.5145745277404785,-0.16093958914279938,-0.05742666497826576,0.15757118165493011,3.4189062118530273,0.31124642491340637,0.0024796342477202415,-0.046621616929769516,0.5701783299446106,1.19418466091156,0.8870750069618225,-0.41417035460472107,0.3656888008117676,2.405409812927246,1.6684494018554688,-4.271909713745117,-1.0202840566635132,-0.6135296821594238,5.997076988220215,-1.0570913553237915,0.5074467062950134,1741433039.3156667,1741433039479,-5.76626025390625,2.214615478515625,1.8700184978227543,3.5736054687500003,2.0749208984375
1741433040.45096,0.5066176652908325,0.03522100726413267,0.041812240061710595,-0.9985044903395887,0.1090230718255043,-0.263910174369812,-1.6432470083236694,7.707910060882568,-3.5570878982543945,7.351118087768555,-0.6242847442626953,0.01277923583984375,0.09746700525283813,-1.2283748388290405,0.005531395319849253,-0.9195467829704285,0.18711376190185547,1.2512633800506592,0.004005493130534887,0.9569314122200012,0.23746852576732635,-0.7722972631454468,0.026512550190091133,-0.09403372555971146,0.7612344622612,-0.22105742990970612,-0.06839821487665176,-0.5651560425758362,0.043678950518369675,-0.25196459889411926,1.338025450706482,-0.473822683095932,-0.016407418996095657,0.4639222323894501,-0.07815519720315933,-4.054521560668945,0.037451621145009995,0.020986363291740417,-0.0036679140757769346,3.96116304397583,0.03448202461004257,-0.005786314606666565,-0.053802307695150375,0.5294121503829956,1.723124384880066,0.717752993106842,0.1113692969083786,0.06497596949338913,1.214939832687378,-0.5374475717544556,-3.954500675201416,-1.4652855396270752,-1.6419788599014282,3.3434484004974365,-2.2145962715148926,0.08588458597660065,1741433039.3156667,1741433039479,-5.76626025390625,2.214615478515625,1.8700184978227543,3.5736054687500003,2.0749208984375
1741433040.4709606,0.47142159938812256,0.02340950786977682,0.040884987167175965,-0.9988895898774973,0.1416473239660263,-0.5299269556999207,-1.7691572904586792,-4.918973445892334,0.46480873227119446,13.687257766723633,-0.6250476837158203,0.00934600830078125,0.028038453310728073,-1.226467490196228,0.006294346414506435,-0.918402373790741,0.2458609938621521,1.2512633800506592,0.004005493130534887,0.9554055333137512,0.24242770671844482,-0.7402533292770386,0.04596780240535736,-0.07953765243291855,0.7589455842971802,-0.2120874673128128,-0.08525867015123367,-0.6292439103126526,0.001716639962978661,-0.27218279242515564,1.3616769313812256,-0.5195951461791992,-0.006892334204167128,0.01666201464831829,-0.09524015337228775,-3.546238660812378,0.0746023878455162,0.01770644821226597,0.01931418851017952,3.8633344173431396,-0.0017121630953624845,0.0025158629287034273,-0.11419655382633209,0.1586935818195343,1.5985475778579712,1.0733784437179565,0.8370157480239868,0.02303958684206009,0.35297414660453796,-0.7448142170906067,-2.9422285556793213,-2.210426092147827,-0.9079806804656982,0.8117865920066833,-2.2782492637634277,0.6009635329246521,1741433039.3156667,1741433039479,-5.76626025390625,2.214615478515625,1.8700184978227543,3.5736054687500003,2.0749208984375
1741433040.490944,0.43835222721099854,0.016036379984974595,0.03062679756504773,-0.9994022382343793,0.603926956653595,-0.31305375695228577,-1.5855847597122192,-3.8685481548309326,-2.0672473907470703,12.537176132202148,-0.6170368194580078,0.00400543212890625,-0.024605173617601395,-1.2283748388290405,0.005912871100008488,-0.919165313243866,0.30422675609588623,1.2501189708709717,0.004005493130534887,0.953498125076294,0.23632410168647766,-0.7154573798179626,0.07305257022380829,-0.048638131469488144,0.7612344622612,-0.2146400809288025,-0.09172510355710983,-0.6750209927558899,-0.035667963325977325,-0.2782863974571228,1.341458797454834,-0.5583080649375916,0.0027837343513965607,0.2202896773815155,-0.1282627284526825,-2.4985926151275635,-0.14272399246692657,0.010351438075304031,-0.05899010971188545,3.8829004764556885,-0.12438690662384033,-0.03237150236964226,-0.16865409910678864,-0.38273969292640686,1.136584758758545,1.337038278579712,1.7127243280410767,0.03700169920921326,-0.17217595875263214,-0.25786346197128296,-2.1422460079193115,-1.9188427925109863,-0.04275945574045181,-1.2868748903274536,-1.7332772016525269,0.29613155126571655,1741433039.3156667,1741433039479,-5.76626025390625,2.214615478515625,1.8700184978227543,3.5736054687500003,2.0749208984375
1741433040.5111914,0.41181349754333496,0.015905095149460733,0.01912290811436843,-0.9996906233097999,0.5575165748596191,0.05089741572737694,-1.3286231756210327,0.6079009175300598,-4.963773727416992,9.835456848144531,-0.6090259552001953,-0.01277923583984375,-0.07457847148180008,-1.2299007177352905,0.006294346414506435,-0.9233615398406982,0.3561074137687683,1.2447782754898071,0.0024795911740511656,0.9493018984794617,0.22640573978424072,-0.6773098111152649,0.09822995215654373,-0.01926451548933983,0.7631418108940125,-0.22313153743743896,-0.10579226166009903,-0.7166017889976501,-0.06847485899925232,-0.26836803555488586,1.2922483682632446,-0.568083643913269,0.008263706229627132,0.23879753053188324,-0.4585106670856476,-2.699474811553955,-0.044774129986763,0.0178533848375082,-0.2566501200199127,3.367370367050171,-0.39198264479637146,-0.07313168793916702,-0.3304082453250885,-0.5171132683753967,1.8774616718292236,1.1912161111831665,1.428398847579956,0.028262073174118996,-0.4877985417842865,-0.8528648614883423,-2.072232484817505,-1.595089077949524,0.5300793051719666,-2.693551778793335,-0.22972939908504486,0.32321539521217346,1741433041.6731696,1741433041779,-4.1045644531250005,2.709030029296875,-0.08612975463405372,3.583265869140625,2.075453369140625
1741433040.531049,0.39282000064849854,0.01833168919237944,0.008678223836803426,-0.9997942976444667,0.5355412364006042,0.15709352493286133,-0.8972029685974121,-0.35704508423805237,-2.248197078704834,8.990144729614258,-0.6052112579345703,-0.01544952392578125,-0.1184481605887413,-1.227993369102478,0.005912871100008488,-0.9405279755592346,0.39578089118003845,1.23905611038208,0.0024795911740511656,0.9431982636451721,0.21801327168941498,-0.6437399983406067,0.11577782779932022,0.0013351644156500697,0.7681010365486145,-0.23773501813411713,-0.12223422527313232,-0.7429236173629761,-0.10166323184967041,-0.25158312916755676,1.204127550125122,-0.5507042407989502,0.016845934092998505,0.12923021614551544,-0.0921081155538559,-2.101632833480835,0.15178653597831726,-0.004490059334784746,-0.851665735244751,2.571164608001709,-0.3207053244113922,0.013350697234272957,-0.35935139656066895,-0.22838985919952393,1.6126954555511475,0.8135000467300415,0.8563653230667114,0.320716917514801,-0.7595266699790955,-0.6841824650764465,-1.1525572538375854,-1.6521896123886108,0.8102148771286011,-4.608588695526123,1.032554030418396,0.36123886704444885,1741433041.6731696,1741433041779,-4.1045644531250005,2.709030029296875,-0.08612975463405372,3.583265869140625,2.075453369140625
1741433040.5510566,0.3714783191680908,0.02261190165458722,0.0014348690833078522,-0.9997432885767612,0.3542153835296631,0.2314254194498062,-1.1217530965805054,2.9189579486846924,-3.1913795471191406,6.813137531280518,-0.5910959243774414,-0.01277923583984375,-0.1348516047000885,-1.224941611289978,0.005912871100008488,-0.9565499424934387,0.44155794382095337,1.2436338663101196,0.0036240178160369396,0.9302281141281128,0.23556114733219147,-0.6177996397018433,0.12264438718557358,0.00476844422519207,0.7776378989219666,-0.257386177778244,-0.12531639635562897,-0.7448310256004333,-0.1340886503458023,-0.24357213079929352,1.0866330862045288,-0.5169697999954224,0.010332600213587284,0.40698328614234924,0.049118027091026306,-0.527862548828125,0.1807958036661148,0.0012239165371283889,-0.7899810671806335,3.0408377647399902,0.2821800708770752,0.06176552549004555,-0.8204553723335266,1.0856095552444458,1.2219572067260742,0.27019307017326355,0.038798630237579346,0.47472620010375977,-1.033064365386963,-0.11700660735368729,0.13036657869815826,-1.6180254220962524,0.24916574358940125,-6.062900066375732,1.695273756980896,-0.4024779796600342,1741433041.6731696,1741433041779,-4.1045644531250005,2.709030029296875,-0.08612975463405372,3.583265869140625,2.075453369140625
1741433040.5710118,0.3453251123428345,0.02516746187190187,0.00021370043117763487,-0.999683226424777,0.054501987993717194,0.13111740350723267,-1.3338621854782104,53.91044616699219,21.816808700561523,19.18535804748535,-0.5830850601196289,-0.00858306884765625,-0.12760357558727264,-1.223034143447876,0.005912871100008488,-0.9683756828308105,0.46177613735198975,1.2440153360366821,0.004005493130534887,0.9199283123016357,0.2744716703891754,-0.5937666893005371,0.11463340371847153,-0.00858320016413927,0.7906080484390259,-0.28130921721458435,-0.11873456090688705,-0.7307164072990417,-0.17299915850162506,-0.2626459002494812,0.9508277773857117,-0.47035813331604004,-0.003128181444481015,0.2642801105976105,0.10864099860191345,0.4843698740005493,0.2151404321193695,-0.020886439830064774,-0.5492258667945862,1.0491770505905151,0.011919568292796612,0.05200153589248657,-0.5872758030891418,2.113621711730957,1.393040657043457,-0.42490097880363464,-0.8132171630859375,0.7153264284133911,-1.2191224098205566,0.40952202677726746,0.5776635408401489,-2.0462045669555664,-1.5545775890350342,-6.218785762786865,2.6855478286743164,-0.7867295145988464,1741433041.6731696,1741433041779,-4.1045644531250005,2.709030029296875,-0.08612975463405372,3.583265869140625,2.075453369140625
1741433040.5911157,0.3107137680053711,0.0214876664323404,0.0017795565905753196,-0.9997675296635881,-0.15673302114009857,-0.014756519347429276,-1.902719497680664,5.45592737197876,-3.7836313247680664,10.392693519592285,-0.5632486343383789,0.00591278076171875,-0.09365224838256836,-1.2138787508010864,0.005531395319849253,-0.970283031463623,0.46215763688087463,1.2440153360366821,0.004005493130534887,0.9092469811439514,0.3103303611278534,-0.5663004517555237,0.09632257372140884,-0.040245670825242996,0.7948042750358582,-0.31050145626068115,-0.10688627511262894,-0.6731135845184326,-0.16994735598564148,-0.3408484160900116,0.9378576278686523,-0.4137095808982849,-0.04096103087067604,0.5869640111923218,0.38177353143692017,1.9094678163528442,0.5334334373474121,-0.031558260321617126,-0.05284113809466362,-0.18348059058189392,0.06009669229388237,0.019727835431694984,-0.6306929588317871,1.52302885055542,1.3959295749664307,-1.2162625789642334,-1.762439250946045,0.031772367656230927,-1.5346288681030273,0.7427152991294861,3.237192392349243,0.5376859903335571,-3.079087018966675,-0.8691825866699219,2.2542636394500732,-1.4588623046875,1741433041.6731696,1741433041779,-4.1045644531250005,2.709030029296875,-0.08612975463405372,3.583265869140625,2.075453369140625
1741433040.611079,0.28075873851776123,0.024838701644882426,0.00334502948799573,-0.9996858755020603,-0.004269159398972988,0.1232452318072319,-1.4391838312149048,-9.049604415893555,5.210014343261719,20.79332160949707,-0.5556192398071289,0.00362396240234375,-0.039101243019104004,-1.2100640535354614,0.006294346414506435,-0.9683756828308105,0.44270238280296326,1.2459226846694946,0.004005493130534887,0.9069581031799316,0.33436331152915955,-0.5205233693122864,0.07343403995037079,-0.1035706102848053,0.7951858043670654,-0.34343159198760986,-0.07464775443077087,-0.6288624405860901,-0.15774014592170715,-0.3408484160900116,0.8768215179443359,-0.39241233468055725,-0.0423240102827549,0.2692176401615143,-0.07019120454788208,2.9056453704833984,0.19731251895427704,0.0747801885008812,0.12679219245910645,-1.2841190099716187,0.06555706262588501,0.0023409726563841105,-0.21133747696876526,1.1167711019515991,2.4646644592285156,-1.0289665460586548,-3.4147884845733643,0.08086293935775757,-1.664305329322815,1.7420883178710938,2.0063116550445557,0.7038290500640869,0.3134850263595581,-2.9259769916534424,1.036049485206604,-0.3180461525917053,1741433041.6731696,1741433041779,-4.1045644531250005,2.709030029296875,-0.08612975463405372,3.583265869140625,2.075453369140625
1741433040.6311343,0.25052881240844727,0.030609938550344076,0.0079331631672176,-0.9994999232536772,-0.18414418399333954,0.30815449357032776,-1.4287474155426025,5.789375305175781,-3.9221131801605225,2.1788597106933594,-0.5354013442993164,0.00438690185546875,0.02040894143283367,-1.212734341621399,0.006294346414506435,-0.962272047996521,0.4076066315174103,1.2443968057632446,0.004005493130534887,0.9065766334533691,0.3221561014652252,-0.482375830411911,0.040627144277095795,-0.16918440163135529,0.8173113465309143,-0.3746319115161896,-0.020803511142730713,-0.5663004517555237,-0.11501488089561462,-0.3099488914012909,0.8627069592475891,-0.38599470257759094,-0.061513736844062805,0.5582730174064636,0.005443585570901632,2.7570948600769043,-0.2973686158657074,0.005473478231579065,0.3562036454677582,-2.5674803256988525,-0.049654219299554825,-0.0024386912118643522,0.05260400101542473,-0.893301784992218,1.5175912380218506,-1.683946967124939,-3.181331157684326,1.4689087867736816,-1.5154240131378174,3.047560453414917,3.188020944595337,1.9788308143615723,1.9365184307098389,-0.8031080961227417,0.1055045798420906,-0.48203781247138977,1741433041.6731696,1741433041779,-4.1045644531250005,2.709030029296875,-0.08612975463405372,3.583265869140625,2.075453369140625
1741433040.6510937,0.23439598083496094,0.027928514573288765,0.007191012893973764,-0.9995840571994374,0.09626391530036926,-0.24485668540000916,-0.8178765773773193,-11.783349990844727,-0.7568694353103638,15.006579399108887,-0.519378662109375,0.01811981201171875,0.07915617525577545,-1.236767292022705,0.005912871100008488,-0.9569314122200012,0.369840532541275,1.2463041543960571,0.004386968910694122,0.9073395729064941,0.290112167596817,-0.4880979657173157,0.00476844422519207,-0.22373540699481964,0.9058136940002441,-0.3803386092185974,0.00023577692627441138,-0.5277714133262634,-0.06618601083755493,-0.2637903392314911,0.8226520419120789,-0.38856396079063416,-0.04652373120188713,0.49472543597221375,0.5112555623054504,2.900085687637329,-1.7105144262313843,-0.0718856230378151,0.24236877262592316,-2.435359477996826,-0.013573861680924892,0.01756454072892666,0.018170272931456566,-1.5545035600662231,-0.5346105694770813,-1.6175230741500854,-2.5964818000793457,5.267909049987793,0.0776033028960228,0.2949317693710327,1.7938776016235352,2.520563840866089,2.129973888397217,-1.9972212314605713,-0.12261195480823517,0.6476058959960938,1741433041.6731696,1741433041779,-4.1045644531250005,2.709030029296875,-0.08612975463405372,3.583265869140625,2.075453369140625
1741433040.6711998,0.22652101516723633,0.02760041323130425,0.008576295756478801,-0.9995822449106221,-0.1417696624994278,0.03981410712003708,-0.28666913509368896,-0.40166541934013367,-0.980199933052063,7.844233989715576,-0.5022125244140625,0.02841949462890625,0.14782176911830902,-1.2566040754318237,0.00667582219466567,-0.9500648379325867,0.31910428404808044,1.2409635782241821,0.0032425422687083483,0.9084840416908264,0.2584496736526489,-0.5415045619010925,-0.03490501269698143,-0.24013885855674744,1.0797665119171143,-0.362779825925827,-0.014760208316147327,-0.47665369510650635,-0.01773861236870289,-0.23327229917049408,0.7944228053092957,-0.3880424201488495,-0.05078301951289177,0.5239958763122559,0.45014688372612,3.2876362800598145,-1.1809017658233643,0.07613790035247803,0.32712286710739136,-3.5633766651153564,-0.4049915075302124,-0.06102814897894859,0.0937025398015976,-1.5088855028152466,-3.155005931854248,-2.0287249088287354,-0.48775342106819153,9.080146789550781,0.8628381490707397,-0.47029611468315125,2.5190277099609375,2.1210172176361084,1.4184598922729492,-1.3860149383544922,0.06846830993890762,-0.2005464732646942,1741433041.6731696,1741433041779,-4.1045644531250005,2.709030029296875,-0.08612975463405372,3.583265869140625,2.075453369140625
1741433040.691232,0.22754216194152832,0.023602910603611974,0.015938112385081797,-0.999594357319327,-0.37755393981933594,-0.2390795648097992,0.046597082167863846,-7.228729724884033,-0.9448485970497131,10.597238540649414,-0.4861907958984375,0.034905433654785156,0.20885786414146423,-1.2669038772583008,0.006294346414506435,-0.9489204287528992,0.2607385218143463,1.2402005195617676,0.004005493130534887,0.9084840416908264,0.23746852576732635,-0.6414511203765869,-0.07915617525577545,-0.22640573978424072,1.2819485664367676,-0.3534335494041443,0.005737927742302418,-0.44308385252952576,0.0078202486038208,-0.2153429538011551,0.7608529925346375,-0.3876626491546631,-0.051683422178030014,0.49799397587776184,0.2920354902744293,2.7993099689483643,-0.6984325647354126,0.0025337485130876303,-0.031361233443021774,-3.8646810054779053,0.024517443031072617,0.07347405701875687,-0.0011586336186155677,-0.9926053881645203,-5.186303615570068,-2.1515092849731445,0.6881434321403503,10.024977684020996,0.3274224102497101,1.1757831573486328,1.7272671461105347,1.260278344154358,0.8271360397338867,-1.5765589475631714,-0.002361772581934929,-0.01644056662917137,1741433041.6731696,1741433041779,-4.1045644531250005,2.709030029296875,-0.08612975463405372,3.583265869140625,2.075453369140625
1741433040.7112918,0.22931408882141113,0.0262031418777592,0.026426431363528097,-0.9993072796097919,-0.521895706653595,0.15091608464717865,0.10338076204061508,1.4815870523452759,0.943230926990509,10.370999336242676,-0.4598684310913086,0.02689361572265625,0.27218279242515564,-1.2730075120925903,0.006294346414506435,-0.951209306716919,0.19398032128810883,1.2413450479507446,0.004005493130534887,0.9107728600502014,0.22411687672138214,-0.7551308274269104,-0.11234454810619354,-0.20885786414146423,1.4509422779083252,-0.3585624694824219,0.008167161606252193,-0.4037918746471405,0.025749599561095238,-0.20122835040092468,0.734149694442749,-0.39308610558509827,-0.04680367186665535,0.7576535940170288,-0.2033289074897766,2.936664342880249,-0.3072439432144165,-0.0015702146338298917,-0.040689144283533096,-4.560597896575928,0.03987358883023262,0.0032681843731552362,0.2064182311296463,-0.5285053253173828,-5.633571624755859,-1.6318683624267578,1.0332821607589722,8.076220512390137,-0.3589293956756592,-0.2849169969558716,1.8794807195663452,0.8575160503387451,0.6650484800338745,-1.3746823072433472,-0.3364734947681427,0.33854854106903076,1741433041.6731696,1741433041779,-4.1045644531250005,2.709030029296875,-0.08612975463405372,3.583265869140625,2.075453369140625
1741433040.731278,0.2324059009552002,0.029981854345787724,0.03532947218407713,-0.9989258815373554,-0.4303882420063019,0.17170564830303192,0.13946810364723206,-3.7220375537872314,7.489448547363281,8.992713928222656,-0.4404134750366211,0.02460479736328125,0.33550775051116943,-1.2760592699050903,0.006294346414506435,-0.9489204287528992,0.12264438718557358,1.2413450479507446,0.004005493130534887,0.9157320261001587,0.21992065012454987,-0.8642328381538391,-0.13904783129692078,-0.17910276353359222,1.5398260354995728,-0.37314730882644653,-0.00671280175447464,-0.3728923499584198,0.039101243019104004,-0.19130998849868774,0.7085908055305481,-0.41003328561782837,-0.03638330474495888,0.5947412848472595,-0.08280688524246216,3.1293110847473145,-0.1848560869693756,-0.010993106290698051,0.11312825977802277,-4.648110389709473,0.07418803125619888,0.0017559152329340577,0.3084530830383301,-0.32863926887512207,-5.312489032745361,-1.417924165725708,1.5438196659088135,3.8009727001190186,-0.7843295931816101,-0.535958468914032,1.47711181640625,0.688064455986023,0.6712232828140259,-1.2728594541549683,-0.9489302635192871,0.4705929160118103,1741433041.6731696,1741433041779,-4.1045644531250005,2.709030029296875,-0.08612975463405372,3.583265869140625,2.075453369140625
1741433040.75125,0.22664058208465576,0.03766689276637643,0.03856656500890936,-0.9985458553580502,-0.11433130502700806,0.41671741008758545,-0.30074256658554077,0.1268085390329361,5.283361911773682,7.401972770690918,-0.4106588363647461,0.00858306884765625,0.3877699077129364,-1.2768222093582153,0.006294346414506435,-0.9489204287528992,0.058175019919872284,1.2409635782241821,0.004005493130534887,0.9210727214813232,0.20733195543289185,-0.9546425342559814,-0.1520180106163025,-0.14248111844062805,1.5424963235855103,-0.3862873613834381,0.001867813989520073,-0.3385595381259918,0.04940108209848404,-0.17338064312934875,0.6857023239135742,-0.43479421734809875,-0.019697001203894615,0.8330549001693726,-0.47012975811958313,2.444871187210083,0.008990607224404812,0.007195036858320236,-0.021040048450231552,-4.159980297088623,-0.01918954961001873,-0.002873139688745141,0.35435593128204346,-0.5898844003677368,-4.496430397033691,-0.44593796133995056,1.8814398050308228,-0.49135786294937134,-0.5736787915229797,0.49847981333732605,1.595984935760498,0.5099848508834839,0.9743852615356445,-1.1221003532409668,-1.2563707828521729,0.7483647465705872,1741433041.6731696,1741433041779,-4.1045644531250005,2.709030029296875,-0.08612975463405372,3.583265869140625,2.075453369140625
1741433040.7714398,0.212607741355896,0.04587671936735151,0.03541212020596964,-0.998319241707084,0.21695470809936523,0.4095142185688019,-0.691204309463501,-0.04629342630505562,-0.5111093521118164,7.488336086273193,-0.3873882293701172,-0.00133514404296875,0.42706188559532166,-1.2775851488113403,0.006294346414506435,-0.9481574892997742,0.005912871100008488,1.2405821084976196,0.004005493130534887,0.9267948269844055,0.19550621509552002,-1.019874930381775,-0.14248111844062805,-0.10852979123592377,1.4745937585830688,-0.38283854722976685,-0.004276149440556765,-0.31376364827156067,0.0551232174038887,-0.15354390442371368,0.6654840707778931,-0.4641958177089691,-0.02489330805838108,0.6939794421195984,-0.29400286078453064,1.8823217153549194,-0.04894324019551277,0.00990455411374569,0.03287371248006821,-3.3468191623687744,-0.020576614886522293,-0.00477336160838604,0.34612712264060974,-0.6765002012252808,-3.0112740993499756,0.6447268128395081,1.6120682954788208,-3.8892576694488525,0.34014198184013367,-0.4350384473800659,1.1365801095962524,0.20534831285476685,0.9273796081542969,-0.9009459614753723,-1.4950059652328491,-0.5205408334732056,1741433041.6731696,1741433041779,-4.1045644531250005,2.709030029296875,-0.08612975463405372,3.583265869140625,2.075453369140625
1741433040.791292,0.2044450044631958,0.05312511898088029,0.028058893489943917,-0.9981935785354399,0.41627418994903564,0.3606586158275604,-0.2813219130039215,6.317289352416992,2.4283909797668457,6.024822235107422,-0.3683147430419922,-0.00057220458984375,0.46139466762542725,-1.2768222093582153,0.006294346414506435,-0.9443427324295044,-0.04139009863138199,1.2421079874038696,0.0036240178160369396,0.9344243407249451,0.16918440163135529,-1.0473411083221436,-0.11959258466959,-0.07991912961006165,1.356717824935913,-0.3626139163970947,-0.01102961041033268,-0.2965972423553467,0.053215838968753815,-0.13942931592464447,0.6521324515342712,-0.49047258496284485,-0.03055325336754322,0.5733346939086914,0.017735935747623444,1.7031497955322266,0.08356757462024689,-0.013568229041993618,0.23471911251544952,-3.147059917449951,0.034707143902778625,-0.018065733835101128,0.5134050846099854,-1.4697351455688477,-1.0672303438186646,1.2094166278839111,1.3227533102035522,-6.1022233963012695,1.1674786806106567,-0.09456879645586014,0.8376591205596924,-0.1341644823551178,0.6720808148384094,-0.6121655106544495,-1.272186279296875,-0.10765812546014786,1741433041.6731696,1741433041779,-4.1045644531250005,2.709030029296875,-0.08612975463405372,3.583265869140625,2.075453369140625
1741433040.8113003,0.20657551288604736,0.059776869926613865,0.018093013666999256,-0.998047778755217,0.46793439984321594,0.3805292248725891,0.11590154469013214,3.4520492553710938,-1.892044186592102,4.374330997467041,-0.3446636199951172,-0.00095367431640625,0.47665369510650635,-1.2707185745239258,0.006294346414506435,-0.9374761581420898,-0.07305257022380829,1.23753023147583,0.0036240178160369396,0.9458686113357544,0.13828489184379578,-1.0378042459487915,-0.0883115902543068,-0.05664911866188049,1.2102311849594116,-0.3329470157623291,-0.0013819478917866945,-0.27141985297203064,0.056267641484737396,-0.12684062123298645,0.647173285484314,-0.5108010768890381,-0.029371781274676323,0.6864305734634399,0.009155175648629665,0.5246326327323914,0.45727479457855225,-0.003509658155962825,0.3524523377418518,-1.8956830501556396,-0.3166331648826599,0.0009671367006376386,0.7870927453041077,-1.4486408233642578,0.4953686594963074,1.633770227432251,1.2308578491210938,-7.841240882873535,1.4644099473953247,0.4317595660686493,1.3860688209533691,0.24940145015716553,0.6981432437896729,-0.18560871481895447,-0.9392979741096497,0.0812128409743309,1741433041.6731696,1741433041779,-4.1045644531250005,2.709030029296875,-0.08612975463405372,3.583265869140625,2.075453369140625
