Freshhhhh-LC/Legged_odom/data/2/segments/booster_seg_9.23s.csv
time,yaw,projected_gravity_x,projected_gravity_y,projected_gravity_z,ang_vel_x,ang_vel_y,ang_vel_z,lin_acc_x,lin_acc_y,lin_acc_z,q_0,q_1,q_2,q_3,q_4,q_5,q_6,q_7,q_8,q_9,q_10,q_11,q_12,q_13,q_14,q_15,q_16,q_17,q_18,q_19,q_20,q_21,q_22,dq_0,dq_1,dq_2,dq_3,dq_4,dq_5,dq_6,dq_7,dq_8,dq_9,dq_10,dq_11,dq_12,dq_13,dq_14,dq_15,dq_16,dq_17,dq_18,dq_19,dq_20,dq_21,dq_22,mocap_time,mocap_timestamp,robot_x,robot_y,robot_yaw,ball_x,ball_y
1741433086.5796156,-2.887918710708618,0.05125679843150544,-0.026781891586126767,-0.998326334871329,0.39456772804260254,0.32823124527931213,0.4032212197780609,-1.6463137865066528,0.39211025834083557,13.37722396850586,1.0030899047851562,0.9023799896240234,0.0883115902543068,-1.2558410167694092,0.005912871100008488,-0.9145876169204712,0.1844434291124344,1.2642335891723633,0.016212711110711098,0.9557870030403137,-0.09632257372140884,-0.4991607666015625,-0.050164032727479935,0.0715266615152359,0.7848859429359436,-0.393186092376709,0.053620122373104095,-0.5598153471946716,0.071908138692379,0.07877469807863235,1.4528496265411377,-0.3295328617095947,-0.02217954210937023,0.2514630854129791,-0.08674722164869308,-4.1375908851623535,0.021868478506803513,-0.024641767144203186,-0.37977349758148193,3.4902660846710205,0.7602748274803162,0.09955273568630219,-0.10965454578399658,1.5283622741699219,1.916525959968567,-0.5883955955505371,-0.9452610015869141,-1.2004660367965698,0.0786992758512497,-0.6388107538223267,-5.632949352264404,2.2744390964508057,0.07347967475652695,8.717574119567871,-0.8275505304336548,-0.5403563976287842,1741433086.5512896,1741433086699,-2.863854736328125,3.15786083984375,-2.4822209130989137,-2.756047607421875,2.722015380859375
1741433086.6087804,-2.8867106437683105,0.08720227749869856,-0.01734884974160031,-0.9960395475138943,-0.4222801625728607,0.34859931468963623,0.4375004768371582,1.7392852306365967,-3.0322766304016113,4.464820861816406,0.9908828735351562,0.8657588958740234,-0.09937438368797302,-1.239819049835205,0.005912871100008488,-0.9725719094276428,0.44117647409439087,1.2630890607833862,0.01506828423589468,0.924887478351593,-0.039101243019104004,-0.2752346098423004,-0.06389715522527695,-0.001716639962978661,0.6380178332328796,-0.5151837468147278,0.02461148239672184,-0.9725719094276428,-0.03147173300385475,-0.038719769567251205,0.9691386222839355,-0.3426063656806946,-0.00046536256559193134,-0.21323759853839874,-0.06226371228694916,0.3123016059398651,0.4000759422779083,0.032217539846897125,-0.12252781540155411,2.1530914306640625,-0.10161446779966354,-0.04190646484494209,-0.5582199096679688,0.33169257640838623,1.6249123811721802,-0.30468979477882385,-1.065656304359436,0.2861403822898865,-1.1802277565002441,0.19814720749855042,1.3679602146148682,-1.4582453966140747,-1.3837764263153076,-10.677962303161621,2.047053813934326,-0.5939685702323914,1741433086.5512896,1741433086699,-2.863854736328125,3.15786083984375,-2.4822209130989137,-2.756047607421875,2.722015380859375
1741433086.6146708,-2.8174909353256226,0.06037414531579573,-0.03254049209793168,-0.9976452670921723,0.07296986877918243,-0.4384337365627289,0.9097612500190735,-12.412357330322266,4.859227180480957,12.452905654907227,0.9702835083007812,0.8901729583740234,0.12493324279785156,-1.2489745616912842,0.00476844422519207,-0.9500648379325867,0.33321890234947205,1.2321895360946655,0.013542382046580315,0.9096284508705139,-0.061226826161146164,-0.38204777240753174,-0.11539635062217712,0.038719769567251205,1.1263065338134766,-0.42856407165527344,0.10486460477113724,-0.8077744841575623,-0.09060044586658478,0.0020981156267225742,0.7406347990036011,-0.2567436993122101,0.10095013678073883,-0.2780359387397766,-0.2610556185245514,3.3468704223632812,0.024446628987789154,-0.07349713146686554,0.3858138918876648,-5.035283088684082,-0.4628893733024597,-0.23558813333511353,0.3961372673511505,0.28529876470565796,-3.9171082973480225,-0.4274963438510895,0.1211589127779007,8.081831932067871,1.8332635164260864,-0.7642995715141296,1.982616662979126,-0.17585968971252441,0.13949377834796906,-0.8642674684524536,1.4771957397460938,-2.0891120433807373,1741433086.5512896,1741433086699,-2.863854736328125,3.15786083984375,-2.4822209130989137,-2.756047607421875,2.722015380859375
1741433086.6166265,-2.667270302772522,0.04379279640937206,0.014138830962015899,-0.9989405810365674,-1.1750997304916382,0.4072013199329376,1.0085279941558838,-0.5851725339889526,12.22471809387207,2.8159661293029785,0.9767684936523438,0.8691921234130859,0.3850995600223541,-1.2478300333023071,0.005149920005351305,-0.9508277773857117,0.013542382046580315,1.226467490196228,0.015449759550392628,0.9130617380142212,-0.06580453366041183,-0.8440146446228027,-0.03299763426184654,0.09822995215654373,1.403639316558838,-0.5400819778442383,-0.009754705242812634,-0.7082093358039856,-0.11005569249391556,-0.03528648987412453,0.7986190319061279,-0.21076957881450653,0.11179972440004349,0.19202449917793274,-0.4421040415763855,1.9581314325332642,0.3197609484195709,-0.006622015032917261,0.054184626787900925,-3.808464765548706,0.12971600890159607,0.06597112119197845,-0.1302475482225418,0.2038949877023697,-3.889899969100952,1.1321138143539429,-0.7075366973876953,-2.5530502796173096,-1.0224835872650146,-0.1698770821094513,1.136905550956726,0.27836906909942627,-0.33430612087249756,0.06597752869129181,-2.776167869567871,0.8211951851844788,1741433086.5512896,1741433086699,-2.863854736328125,3.15786083984375,-2.4822209130989137,-2.756047607421875,2.722015380859375
1741433086.6241755,-2.6536142826080322,0.05693391458405552,0.030036656200811116,-0.9979260136174474,-0.7745389342308044,0.6638162136077881,0.6651241183280945,-0.8361751437187195,-1.4161261320114136,8.542800903320312,0.9969863891601562,0.8703365325927734,0.4201953113079071,-1.2455412149429321,0.00667582219466567,-0.9473945498466492,-0.06275273114442825,1.2283748388290405,0.01506828423589468,0.9218356609344482,-0.05664911866188049,-0.8978027105331421,-0.00858320016413927,0.058175019919872284,1.3200961351394653,-0.533765435218811,-0.0038536847569048405,-0.6818875670433044,-0.10814831405878067,-0.054741740226745605,0.802815318107605,-0.26061123609542847,0.14925549924373627,0.5170516967773438,-0.012967444956302643,1.876602292060852,0.0007073911838233471,0.04933867231011391,0.25887125730514526,-4.958888053894043,0.020455073565244675,0.000632869137916714,0.706382155418396,0.3142535388469696,-2.471442461013794,1.0619306564331055,-1.860090732574463,-4.433050155639648,0.5629507303237915,0.01624114252626896,1.1663271188735962,0.1109681949019432,-1.1115223169326782,0.3999190628528595,-2.356257438659668,1.871488094329834,1741433086.5512896,1741433086699,-2.863854736328125,3.15786083984375,-2.4822209130989137,-2.756047607421875,2.722015380859375
1741433086.6442378,-2.6394612789154053,0.06902103753003688,0.04328032582719548,-0.9966759301671576,-0.7141197919845581,0.5538456439971924,0.6890302300453186,1.9956680536270142,1.5012788772583008,5.3381805419921875,0.9939346313476562,0.8749141693115234,0.45796138048171997,-1.2516448497772217,0.005912871100008488,-0.9390020370483398,-0.11501488089561462,1.226467490196228,0.01430533267557621,0.9397650361061096,-0.07343403995037079,-0.9126802682876587,0.02040894143283367,0.023079270496964455,1.189631462097168,-0.5045945644378662,-0.016484877094626427,-0.6704432964324951,-0.11348897218704224,-0.07038223743438721,0.8268482685089111,-0.2944384217262268,0.14227290451526642,-0.07786653935909271,0.14339914917945862,1.7849920988082886,-0.2490304708480835,-0.004141939803957939,0.4343859553337097,-3.218651056289673,-0.12843669950962067,-0.08239282667636871,1.0926470756530762,-1.0426822900772095,-0.37072157859802246,1.5187939405441284,-1.4943150281906128,-6.735722541809082,1.5597867965698242,-0.5375298857688904,0.5339105725288391,-0.38749948143959045,-0.601106584072113,1.2620761394500732,-1.6285490989685059,-0.8871302008628845,1741433086.5512896,1741433086699,-2.863854736328125,3.15786083984375,-2.4822209130989137,-2.756047607421875,2.722015380859375
1741433086.6642883,-2.620259642601013,0.07640871914394931,0.051650041254858364,-0.9957379077232886,-0.45964106917381287,0.20529115200042725,0.9470667243003845,-32.429264068603516,-3.8465778827667236,23.607667922973633,0.9821090698242188,0.8916988372802734,0.4713130295276642,-1.2501189708709717,0.005912871100008488,-0.9294651746749878,-0.13752193748950958,1.2241785526275635,0.01430533267557621,0.9557870030403137,-0.11577782779932022,-0.8993285894393921,0.059319447726011276,0.061226826161146164,1.0839627981185913,-0.4457252621650696,0.02808287739753723,-0.6540398001670837,-0.09975585341453552,-0.06923781335353851,0.8554589152336121,-0.3217438757419586,0.11219874769449234,-0.27930280566215515,0.4664190709590912,0.5222010612487793,0.07585012912750244,-0.0003010805230587721,0.5346829295158386,-1.193223476409912,-0.2152959108352661,0.027426403015851974,1.0748308897018433,-2.2611021995544434,0.7115997672080994,2.0055902004241943,3.794609546661377,-3.255561351776123,3.5008997917175293,3.114766836166382,1.0492973327636719,0.8356951475143433,0.1775686889886856,1.4593721628189087,-1.3725258111953735,-1.447513222694397,1741433086.750955,1741433086899,-2.986349365234375,3.05913671875,-2.2475698010163008,-2.7540229492187502,2.7221748046875
1741433086.6842995,-2.5865912437438965,0.08054763577897792,0.04718687169499876,-0.9956332043026974,0.15909536182880402,0.3229275941848755,1.819437026977539,-2.9424147605895996,2.0365688800811768,20.571245193481445,0.9863052368164062,0.9122991561889648,0.46139466762542725,-1.2520263195037842,0.005912871100008488,-0.917639434337616,-0.13065537810325623,1.2203638553619385,0.01201647985726595,0.9668498039245605,-0.15583276748657227,-0.8348592519760132,0.07343403995037079,0.11348897218704224,1.0675593614578247,-0.39208200573921204,0.11130978912115097,-0.622377336025238,-0.07419699430465698,-0.045204851776361465,0.8787289261817932,-0.35585522651672363,0.07351695746183395,0.20177924633026123,0.5961019396781921,-0.7711873650550842,-0.1440262645483017,-0.046630341559648514,0.4880289137363434,0.7494272589683533,-0.2365291267633438,-0.14448702335357666,0.8100036382675171,-1.8946969509124756,3.1854474544525146,0.2322656214237213,1.433066725730896,-1.872422456741333,2.4992170333862305,3.2196850776672363,1.4545068740844727,1.5877623558044434,1.38995361328125,1.2862962484359741,-1.7157665491104126,-2.236698865890503,1741433086.750955,1741433086899,-2.986349365234375,3.05913671875,-2.2475698010163008,-2.7540229492187502,2.7221748046875
1741433086.7043183,-2.5436280965805054,0.08299882762949526,0.03398980807421208,-0.9959698226147254,0.5222139954566956,0.02497151866555214,2.213135004043579,3.6557164192199707,-7.512625217437744,15.85128402709961,0.9786758422851562,0.9355688095092773,0.4179064631462097,-1.2546966075897217,0.005912871100008488,-0.9096284508705139,-0.09594109654426575,1.211208462715149,0.010872052982449532,0.9691386222839355,-0.17185473442077637,-0.7803082466125488,0.037193864583969116,0.09594109654426575,1.033226490020752,-0.3843674659729004,0.12881551682949066,-0.6082627773284912,-0.05664911866188049,0.015449759550392628,0.9107728600502014,-0.3921031355857849,0.019734904170036316,-0.28969940543174744,0.5540884137153625,-2.374540090560913,-0.18669132888317108,-0.06877822428941727,0.2809663712978363,2.4072060585021973,-0.5595952272415161,-0.10257844626903534,0.04567889869213104,-0.42745423316955566,2.747722864151001,-2.1708507537841797,-1.0893235206604004,-1.6808735132217407,-0.14560584723949432,0.034787867218256,0.46913978457450867,0.8628923892974854,3.168956756591797,1.5721509456634521,-1.8214497566223145,-2.881507396697998,1741433086.750955,1741433086899,-2.986349365234375,3.05913671875,-2.2475698010163008,-2.7540229492187502,2.7221748046875
1741433086.72437,-2.5067710876464844,0.08045894230090452,0.022206798096404884,-0.9965105201261677,0.4175165593624115,-0.17080789804458618,1.7233022451400757,-4.6622161865234375,-3.4720287322998047,12.780056953430176,0.9828720092773438,0.9409093856811523,0.35114824771881104,-1.2543151378631592,0.005531395319849253,-0.9134432077407837,-0.05741206929087639,1.2100640535354614,0.010490577667951584,0.9649423956871033,-0.16079194843769073,-0.7097352743148804,-0.00476844422519207,0.06008239835500717,0.9805828928947449,-0.41344285011291504,0.07225149869918823,-0.6040665507316589,-0.031090257689356804,0.05359731614589691,0.9802014231681824,-0.4124486446380615,-0.005034332163631916,0.053248509764671326,0.18389908969402313,-3.494570732116699,0.010596226900815964,-0.0045941658318042755,-0.2849230170249939,2.413538694381714,0.07308951020240784,0.01846548728644848,-0.3131801187992096,0.8686895370483398,3.864635944366455,-2.057466983795166,-1.731091022491455,-2.8369452953338623,-1.503232717514038,-2.746081590652466,0.37398144602775574,1.3356989622116089,1.6861883401870728,4.175036907196045,-0.7399582266807556,-0.5615179538726807,1741433086.750955,1741433086899,-2.986349365234375,3.05913671875,-2.2475698010163008,-2.7540229492187502,2.7221748046875
1741433086.7443125,-2.4814194440841675,0.07504743229918251,0.017133020691614226,-0.9970327690238071,0.13330918550491333,-0.3966948986053467,1.1757903099060059,-7.437963962554932,3.755356788635254,7.682465076446533,0.9832534790039062,0.9367132186889648,0.2973601818084717,-1.2527892589569092,0.005912871100008488,-0.9157320261001587,-0.019645990803837776,1.233715534210205,0.013160906732082367,0.959983229637146,-0.12989242374897003,-0.6429770588874817,-0.042153049260377884,0.024605173617601395,0.917639434337616,-0.4373723566532135,0.0650518611073494,-0.6292439103126526,-0.012397955171763897,0.054741740226745605,1.0976959466934204,-0.40878328680992126,0.014684208668768406,-0.0036355669144541025,-0.056524183601140976,-2.581029176712036,0.10232748091220856,-0.0071047209203243256,-0.07507149130105972,2.608999013900757,1.8789974451065063,0.21867167949676514,-0.3930326998233795,1.5975829362869263,3.2678442001342773,-1.8450825214385986,-1.8229469060897827,-2.997208595275879,-0.9646746516227722,-0.16762234270572662,-1.638248085975647,0.8442943096160889,-0.12400747835636139,6.025014877319336,0.30024170875549316,0.8138330578804016,1741433086.750955,1741433086899,-2.986349365234375,3.05913671875,-2.2475698010163008,-2.7540229492187502,2.7221748046875
1741433086.7643356,-2.4748616218566895,0.07045098722255587,0.012942989619761851,-0.9974312695213993,0.18119265139102936,-0.19655805826187134,0.20339058339595795,0.8684385418891907,-3.85567045211792,7.50547981262207,0.9996566772460938,0.9260320663452148,0.2447165697813034,-1.2489745616912842,0.005912871100008488,-0.9172579646110535,0.02689402550458908,1.2634705305099487,0.016975661739706993,0.9561684727668762,-0.09365224838256836,-0.5727855563163757,-0.06771191209554672,-0.010109102353453636,0.8581292629241943,-0.4368407428264618,0.05165565013885498,-0.6860837936401367,0.008201723918318748,0.03337911143898964,1.2415121793746948,-0.39868199825286865,0.0015511669917032123,0.5244377851486206,-0.27902257442474365,-2.632904052734375,0.26332855224609375,-0.007615141104906797,-0.07945811748504639,2.98989200592041,1.794100284576416,0.1768740713596344,-0.20104378461837769,1.7210601568222046,3.550659656524658,-1.1691361665725708,-1.7044501304626465,-3.0285274982452393,0.14442066848278046,-0.7895265817642212,-2.976470470428467,1.2232649326324463,-1.2142962217330933,7.275747776031494,0.4728124439716339,-0.8296841979026794,1741433086.750955,1741433086899,-2.986349365234375,3.05913671875,-2.2475698010163008,-2.7540229492187502,2.7221748046875
1741433086.7843792,-2.4805848598480225,0.0641683456539793,0.011593499497490783,-0.9978717423524093,0.06535599380731583,-0.3907892405986786,-0.3071291446685791,-1.8289155960083008,1.5280866622924805,10.369138717651367,1.0008010864257812,0.9157323837280273,0.19359883666038513,-1.2455412149429321,0.005912871100008488,-0.916876494884491,0.07419699430465698,1.2794926166534424,0.016212711110711098,0.9565499424934387,-0.06466010212898254,-0.5125123858451843,-0.07534141838550568,-0.028038453310728073,0.7993820309638977,-0.43028849363327026,0.043332044035196304,-0.7642862796783447,0.03528648987412453,0.00858320016413927,1.3662546873092651,-0.3901973366737366,-0.0057051959447562695,0.05102214589715004,-0.28077855706214905,-2.5636420249938965,0.24588316679000854,-0.015814051032066345,0.0013913310831412673,3.35780668258667,0.9486193656921387,-0.05437971651554108,0.019547777250409126,1.4369502067565918,2.850877046585083,-0.2512063682079315,-0.8777379989624023,-2.915123224258423,0.24063442647457123,-0.1884378045797348,-3.9581243991851807,1.3678359985351562,-1.1422282457351685,5.800380229949951,0.4045800268650055,-0.0748344361782074,1741433086.750955,1741433086899,-2.986349365234375,3.05913671875,-2.2475698010163008,-2.7540229492187502,2.7221748046875
1741433086.8044448,-2.4902790784835815,0.059580748301767024,0.011282676286733304,-0.9981597245168782,0.054829586297273636,-0.13587771356105804,-0.4535309672355652,0.45482054352760315,-0.014259053394198418,6.512803077697754,1.0030899047851562,0.9054317474365234,0.14209964871406555,-1.2413450479507446,0.005912871100008488,-0.9180209040641785,0.1325627565383911,1.289410948753357,0.01583123579621315,0.9569314122200012,-0.04787518084049225,-0.4491874575614929,-0.07419699430465698,-0.039101243019104004,0.7532234787940979,-0.43055009841918945,0.03729629144072533,-0.8405813574790955,0.061226826161146164,-0.0024795911740511656,1.4375905990600586,-0.3840188682079315,0.004149536602199078,0.09263163059949875,-0.32394006848335266,-2.658601760864258,0.2988741993904114,-0.01279548928141594,-0.09593383222818375,4.101364612579346,0.5491625070571899,-0.003549266140908003,0.055676598101854324,0.6398971080780029,3.1060402393341064,0.02142059989273548,-0.6032000780105591,-2.2669050693511963,-0.07550698518753052,-0.48078781366348267,-3.6738767623901367,1.2503347396850586,-0.4360854923725128,3.1889727115631104,0.26248621940612793,0.34793391823768616,1741433086.750955,1741433086899,-2.986349365234375,3.05913671875,-2.2475698010163008,-2.7540229492187502,2.7221748046875
1741433086.8244164,-2.4955945014953613,0.05801794852771222,0.010506035154124823,-0.9982602570842816,0.038997236639261246,-0.10222277045249939,-0.2656213939189911,-4.581816673278809,-3.0218939781188965,7.485516548156738,1.0011825561523438,0.8981838226318359,0.0883115902543068,-1.2394375801086426,0.006294346414506435,-0.919165313243866,0.1997024416923523,1.2890294790267944,0.015449759550392628,0.9573128819465637,-0.049782559275627136,-0.4011215269565582,-0.07305257022380829,-0.04749370738863945,0.7074463963508606,-0.44245776534080505,0.026520444080233574,-0.916876494884491,0.07457847148180008,-0.009346150793135166,1.4497978687286377,-0.3763853907585144,0.004481073934584856,-0.06288839131593704,-0.2057630866765976,-2.667376756668091,0.006063979584723711,0.021953359246253967,-0.06604321300983429,4.528033256530762,-0.11193981021642685,0.0018031984800472856,-0.02315939962863922,-0.08927477896213531,2.148834466934204,0.07739467173814774,-0.30463534593582153,-2.1686086654663086,-0.7134953737258911,-0.46641770005226135,-3.7082643508911133,0.5157276391983032,-0.25866734981536865,0.1580001264810562,0.47166794538497925,0.03536025062203407,1741433086.750955,1741433086899,-2.986349365234375,3.05913671875,-2.2475698010163008,-2.7540229492187502,2.7221748046875
1741433086.844512,-2.4928805828094482,0.06282117342337064,0.010852207794594702,-0.9979657958846554,-0.023840513080358505,0.32774341106414795,0.2194414883852005,-0.8651050925254822,-1.2840747833251953,5.948858261108398,0.9992752075195312,0.8825435638427734,0.03757534176111221,-1.239819049835205,0.005912871100008488,-0.9214541912078857,0.26874953508377075,1.2848331928253174,0.01506828423589468,0.9573128819465637,-0.05092698708176613,-0.3583962619304657,-0.0707637146115303,-0.05092698708176613,0.6734950542449951,-0.4629350006580353,0.023631295189261436,-0.9878309369087219,0.06885633617639542,-0.016975661739706993,1.418898344039917,-0.35892024636268616,0.004377089906483889,-0.0004592794575728476,-0.4581906795501709,-2.477954387664795,-0.009394664317369461,-0.006658002268522978,-0.1329374462366104,4.4951934814453125,-0.31416013836860657,-0.04684623330831528,0.03140425309538841,-0.16537533700466156,2.180872917175293,0.12875644862651825,-0.2178148329257965,-1.5531766414642334,-1.0473477840423584,-0.1717141568660736,-3.4034981727600098,-0.37850308418273926,-0.5391919612884521,-1.7956937551498413,1.0204713344573975,0.016779065132141113,1741433086.750955,1741433086899,-2.986349365234375,3.05913671875,-2.2475698010163008,-2.7540229492187502,2.7221748046875
1741433086.8644602,-2.4809935092926025,0.07299365981416114,0.011435213169971816,-0.9972668456971243,-0.09059388190507889,0.47606906294822693,0.6110033988952637,2.855103015899658,0.4415079355239868,6.632437705993652,0.9992752075195312,0.8752956390380859,-0.015449759550392628,-1.2409635782241821,0.006294346414506435,-0.9287022352218628,0.33360037207603455,1.2745333909988403,0.01506828423589468,0.9565499424934387,-0.06160829961299896,-0.33512628078460693,-0.07000076025724411,-0.06008239835500717,0.6483176946640015,-0.4884466826915741,0.031268421560525894,-1.045433759689331,0.04901960864663124,-0.03223468363285065,1.3632028102874756,-0.3275660574436188,0.005930344574153423,0.003383210627362132,-0.22086499631404877,-2.8687422275543213,-0.08376277983188629,-0.003934879787266254,-0.4760294258594513,4.1399312019348145,-0.7727082371711731,0.011106966994702816,-0.06629766523838043,-0.5780301094055176,0.7791630625724792,-0.008236570283770561,-0.43767601251602173,-1.2495996952056885,-1.3062782287597656,0.5595507621765137,-2.7224197387695312,-1.0912318229675293,-0.7616289854049683,-2.8509654998779297,1.7163121700286865,0.1411527693271637,1741433086.958613,1741433087099,-3.1381484375,2.980287841796875,-2.0990729536137454,-2.7540986328125,2.72200244140625
1741433086.8844821,-2.4686532020568848,0.08246210864126945,0.013961880015366999,-0.9964963956507179,-0.17949996888637543,0.5845250487327576,0.6571455001831055,3.16896390914917,-5.278646469116211,3.6470038890838623,0.9962234497070312,0.8665218353271484,-0.06160829961299896,-1.23905611038208,0.005912871100008488,-0.9412909150123596,0.387006938457489,1.2661409378051758,0.015449759550392628,0.9538795948028564,-0.06656748056411743,-0.3068970739841461,-0.07305257022380829,-0.07534141838550568,0.6372548937797546,-0.5097588300704956,0.035842329263687134,-1.0763332843780518,0.018120087683200836,-0.06084534898400307,1.2941558361053467,-0.28691378235816956,0.004864979535341263,-0.11901884526014328,-0.2504696547985077,-2.171828031539917,0.15654125809669495,-0.025118287652730942,-0.7017379999160767,3.411362409591675,-0.4094841182231903,0.013014763593673706,-0.22601178288459778,-0.16212505102157593,1.8281800746917725,-0.12978070974349976,-0.8188013434410095,-0.4410009980201721,-1.022706151008606,0.12210343033075333,-1.33018958568573,-1.6526743173599243,-1.5532702207565308,-3.5531697273254395,2.03369402885437,-0.08623287826776505,1741433086.958613,1741433087099,-3.1381484375,2.980287841796875,-2.0990729536137454,-2.7540986328125,2.72200244140625
1741433086.9045062,-2.4584827423095703,0.08980766520162874,0.01698089981855874,-0.995814356349809,-0.19705256819725037,0.22138553857803345,0.425101637840271,3.7594285011291504,-0.030167099088430405,9.904541969299316,1.0015640258789062,0.8783473968505859,-0.09021896868944168,-1.236767292022705,0.005912871100008488,-0.954261064529419,0.4377431869506836,1.2653779983520508,0.01583123579621315,0.9428167939186096,-0.06160829961299896,-0.27027541399002075,-0.07572289556264877,-0.09517814964056015,0.6204699873924255,-0.5307064652442932,0.044614288955926895,-1.0908293724060059,-0.02231631986796856,-0.09174486994743347,1.2029831409454346,-0.25055766105651855,-2.7819836759590544e-05,0.13415385782718658,0.3871118426322937,-1.1945267915725708,0.13693714141845703,-0.007786996196955442,-0.561028242111206,3.4566802978515625,-0.04743367061018944,0.024617737159132957,-0.8811972141265869,0.3124382197856903,1.7836414575576782,-0.13581010699272156,-1.0050556659698486,-0.8869993686676025,-1.0755259990692139,0.6146379113197327,-0.5358003377914429,-2.0305263996124268,-1.4790802001953125,-4.6789164543151855,1.7188678979873657,-0.14312906563282013,1741433086.958613,1741433087099,-3.1381484375,2.980287841796875,-2.0990729536137454,-2.7540986328125,2.72200244140625
1741433086.924565,-2.452499270439148,0.08833518977777755,0.02089080237016421,-0.9958717129345801,-0.2346898764371872,-0.03370499238371849,0.2893955409526825,4.8726043701171875,1.2869884967803955,6.66022253036499,0.9905014038085938,0.8863582611083984,-0.09136339277029037,-1.2356228828430176,0.005912871100008488,-0.959983229637146,0.47665369510650635,1.2630890607833862,0.01430533267557621,0.927176296710968,-0.05054550990462303,-0.21229113638401031,-0.08068207651376724,-0.1180666834115982,0.6006332635879517,-0.5396255254745483,0.05344371125102043,-1.0683223009109497,-0.050164032727479935,-0.13065537810325623,1.0976959466934204,-0.2334211766719818,-0.004115107003599405,-0.25671637058258057,0.2624846398830414,0.039419014006853104,0.09129950404167175,0.004640705417841673,-0.24758249521255493,2.249277353286743,-0.1703263819217682,-0.07193760573863983,-0.9917360544204712,0.5211688280105591,3.1448147296905518,-0.212797611951828,-1.1352266073226929,-1.042003870010376,-0.32590633630752563,0.483142614364624,1.5266720056533813,-1.2181826829910278,-2.058797836303711,-5.268782615661621,0.6382838487625122,-0.15724840760231018,1741433086.958613,1741433087099,-3.1381484375,2.980287841796875,-2.0990729536137454,-2.7540986328125,2.72200244140625
1741433086.944548,-2.448632597923279,0.07726251265777362,0.02316880700206537,-0.9967415465003495,-0.10313505679368973,-0.607636034488678,0.17621374130249023,-2.653221607208252,-4.15099573135376,8.750577926635742,0.9897384643554688,0.8966579437255859,-0.07419699430465698,-1.232571005821228,0.005912871100008488,-0.9641794562339783,0.4953460097312927,1.2581299543380737,0.01506828423589468,0.9145876169204712,-0.04482337832450867,-0.152399480342865,-0.08564125746488571,-0.13218127191066742,0.5796520709991455,-0.5350844860076904,0.09025397896766663,-1.0133898258209229,-0.0722896158695221,-0.17147326469421387,0.9828717708587646,-0.2459995150566101,-0.009119854308664799,-0.10046089440584183,0.33001479506492615,1.02106511592865,0.18490496277809143,0.0007543209940195084,-0.19835807383060455,1.1308510303497314,-0.3208621144294739,0.009281999431550503,-0.8390668630599976,0.2699805498123169,2.9044082164764404,-0.34377092123031616,-0.5387328863143921,-0.8690828084945679,0.3988410234451294,2.0721027851104736,2.8897197246551514,-1.1510560512542725,-1.9459724426269531,-5.818104267120361,-0.8333200216293335,-0.19994693994522095,1741433086.958613,1741433087099,-3.1381484375,2.980287841796875,-2.0990729536137454,-2.7540986328125,2.72200244140625
1741433086.9645875,-2.443667769432068,0.06552056798345532,0.02408966160125074,-0.9975603958533351,-0.010210786014795303,-0.5655292868614197,0.2838033139705658,2.2509331703186035,3.578566074371338,6.580447673797607,0.9897384643554688,0.8955135345458984,-0.04139009863138199,-1.2314265966415405,0.005912871100008488,-0.9637979865074158,0.49420157074928284,1.2569855451583862,0.01506828423589468,0.9069581031799316,-0.042153049260377884,-0.10738536715507507,-0.10738536715507507,-0.1184481605887413,0.5994887948036194,-0.5222387909889221,0.11572346091270447,-0.9313725233078003,-0.0883115902543068,-0.19169145822525024,0.8630884289741516,-0.29231464862823486,-0.011522367596626282,0.014435148797929287,0.009082077071070671,1.64697265625,0.040569789707660675,0.0075414227321743965,0.047964777797460556,-0.2199961096048355,-0.09988385438919067,0.01889766752719879,-0.40628814697265625,0.1197732537984848,2.010845184326172,-0.9436147212982178,0.9418942928314209,1.4843670129776,0.6319186091423035,1.1568350791931152,4.461428642272949,-0.7773580551147461,-0.6848459839820862,-6.043323040008545,-2.5288093090057373,-0.014487295411527157,1741433086.958613,1741433087099,-3.1381484375,2.980287841796875,-2.0990729536137454,-2.7540986328125,2.72200244140625
1741433086.9846067,-2.433343768119812,0.053191882234785104,0.014492507849837999,-0.998479138931076,0.5397496223449707,-0.6101863384246826,0.6270800828933716,-6.048441410064697,7.755493640899658,9.640423774719238,0.9954605102539062,0.8993282318115234,0.001716639962978661,-1.233715534210205,0.006294346414506435,-0.9630350470542908,0.47932401299476624,1.2531707286834717,0.014686808921396732,0.9065766334533691,-0.04901960864663124,-0.11196307092905045,-0.12264438718557358,-0.08602273464202881,0.6937133073806763,-0.5035845637321472,0.1370086967945099,-0.8405813574790955,-0.09060044586658478,-0.17338064312934875,0.7520790696144104,-0.35226765275001526,-0.001448115915991366,0.1263684779405594,0.1058216243982315,2.170971155166626,-0.18332484364509583,0.01382445264607668,0.013256309553980827,-1.053106427192688,-0.3077041506767273,-0.0174278374761343,0.026022516191005707,-0.3417230546474457,-0.6730291843414307,-0.8528124094009399,1.7267314195632935,5.324033260345459,0.9704607129096985,0.9581335783004761,4.576722621917725,0.0719510167837143,1.2772220373153687,-5.173795700073242,-2.854447841644287,0.9917415380477905,1741433086.958613,1741433087099,-3.1381484375,2.980287841796875,-2.0990729536137454,-2.7540986328125,2.72200244140625
1741433087.0046504,-2.421076774597168,0.04697542529015343,-0.0009909345867600975,-0.9988955538330591,0.606781005859375,-0.3208804726600647,0.5294630527496338,-15.642053604125977,-6.327006816864014,12.591686248779297,1.0046157836914062,0.9050502777099609,0.04558632895350456,-1.2436338663101196,0.005912871100008488,-0.9634165167808533,0.4488059878349304,1.2463041543960571,0.01506828423589468,0.9031433463096619,-0.07419699430465698,-0.16117341816425323,-0.12493324279785156,-0.04787518084049225,0.8615625500679016,-0.4723649024963379,0.1458546370267868,-0.8222705721855164,-0.071908138692379,-0.1348516047000885,0.7810711860656738,-0.31788843870162964,0.06106140837073326,0.27044233679771423,0.2171478122472763,2.180591583251953,-0.7817924618721008,-0.0076448447071015835,-0.00936280656605959,-2.3703675270080566,-0.5033416152000427,0.06101438030600548,-0.42257410287857056,-1.5688490867614746,-2.9293527603149414,-0.1871240884065628,1.8853274583816528,8.574914932250977,1.7372684478759766,0.4544515013694763,0.20893600583076477,1.2887026071548462,2.080864191055298,2.7724688053131104,2.1600358486175537,3.2859303951263428,1741433086.958613,1741433087099,-3.1381484375,2.980287841796875,-2.0990729536137454,-2.7540986328125,2.72200244140625
1741433087.0246868,-2.403935194015503,0.04019711924182702,0.0040196819429244935,-0.9991836836947129,-0.262471079826355,-0.3498924672603607,0.9744026064872742,-19.728076934814453,15.569478988647461,6.203079700469971,0.9672307968139648,0.8901729583740234,0.09975585341453552,-1.2455412149429321,0.005531395319849253,-0.9634165167808533,0.38281071186065674,1.2405821084976196,0.01735713705420494,0.9008545279502869,-0.08220797777175903,-0.26760509610176086,-0.15354390442371368,-0.01201647985726595,1.0614557266235352,-0.42403504252433777,0.15092125535011292,-0.8039597272872925,-0.08411535620689392,-0.07763027399778366,0.8196002244949341,-0.27904844284057617,0.10871779173612595,-0.9461088180541992,-0.27424657344818115,2.595655679702759,0.01660461351275444,-0.07930751144886017,-0.022016238421201706,-4.769750118255615,-0.27408188581466675,0.046063218265771866,0.04040206968784332,0.008547483012080193,-5.4196343421936035,-1.2430161237716675,1.3941177129745483,10.290056228637695,2.420888900756836,0.33234190940856934,1.5961912870407104,-0.9432507753372192,2.630046844482422,0.9633857607841492,1.7874681949615479,1.6533432006835938,1741433086.958613,1741433087099,-3.1381484375,2.980287841796875,-2.0990729536137454,-2.7540986328125,2.72200244140625
1741433087.0446455,-2.382333993911743,0.032083897808750726,-0.003899822940098614,-0.9994775709751738,0.46987491846084595,-0.49356964230537415,1.302670955657959,1.4557445049285889,-10.607866287231445,8.699602127075195,0.9668493270874023,0.9023799896240234,0.1508735716342926,-1.2428709268569946,0.00667582219466567,-0.962272047996521,0.2931639552116394,1.23905611038208,0.013542382046580315,0.9081025123596191,-0.07495994865894318,-0.404936283826828,-0.1680399775505066,-0.005531395319849253,1.267071008682251,-0.39345645904541016,0.11751464754343033,-0.7593270540237427,-0.08907453715801239,-0.08106355369091034,0.8039597272872925,-0.24665860831737518,0.07162346690893173,-0.1579764485359192,0.445122092962265,2.4960227012634277,0.008004383184015751,0.13588552176952362,0.08809416741132736,-6.056753635406494,-0.16761673986911774,-0.2284911572933197,0.43936294317245483,0.19602668285369873,-6.988753318786621,-0.6573378443717957,0.3148488700389862,9.940398216247559,1.1762930154800415,-2.3589746952056885,2.088172197341919,-0.09407394379377365,-0.38172975182533264,-0.25395068526268005,1.8184541463851929,-2.104299545288086,1741433086.958613,1741433087099,-3.1381484375,2.980287841796875,-2.0990729536137454,-2.7540986328125,2.72200244140625
1741433087.0647025,-2.346606135368347,0.02506309168143504,-0.0047609920752203615,-0.9996745342309304,-0.14720383286476135,-0.35632193088531494,1.789852499961853,1.7283354997634888,-9.642993927001953,10.008289337158203,0.9626531600952148,0.8955135345458984,0.20160982012748718,-1.2508819103240967,0.005531395319849253,-0.961509108543396,0.21686884760856628,1.2363858222961426,0.013160906732082367,0.9081025123596191,-0.0722896158695221,-0.5567635893821716,-0.17223620414733887,0.013160906732082367,1.431486964225769,-0.38828545808792114,0.04213458299636841,-0.7265201807022095,-0.09250781685113907,-0.06618601083755493,0.8169298768043518,-0.21566854417324066,0.053623005747795105,-0.13915987312793732,-0.11949250847101212,2.522200584411621,-0.38642746210098267,-0.07015784829854965,-0.024862343445420265,-4.860474586486816,-0.22073356807231903,0.02103654108941555,-0.03953268751502037,0.16543777287006378,-7.535786151885986,-0.40673986077308655,1.145188331604004,8.054594039916992,0.06557919830083847,-3.3843555450439453,1.6607387065887451,-0.013597286306321621,0.8470091223716736,0.4889485239982605,1.3128645420074463,-0.44473159313201904,1741433087.1603322,1741433087299,-3.2844208984375,2.8847189941406253,-1.955483940557274,-2.7536916503906252,2.723571044921875
1741433087.0847623,-2.3096773624420166,0.016006987492400305,0.006542104551543868,-0.9998504774312281,-0.580500066280365,-0.47557535767555237,1.8688701391220093,-3.8394737243652344,5.513642311096191,17.63677215576172,0.9592199325561523,0.8890285491943359,0.2588311731815338,-1.2489745616912842,0.005531395319849253,-0.9637979865074158,0.14667734503746033,1.232571005821228,0.013542382046580315,0.9084840416908264,-0.06542305648326874,-0.7013428211212158,-0.15430685877799988,0.046730753034353256,1.5234225988388062,-0.4202113747596741,0.03856659308075905,-0.6971465349197388,-0.09136339277029037,-0.08411535620689392,0.8196002244949341,-0.2199687957763672,0.06239587813615799,-0.09558649361133575,-0.1500856727361679,2.780935764312744,0.14658233523368835,0.028763815760612488,-0.10874312371015549,-4.67731237411499,-0.25194016098976135,0.03468628227710724,0.05117907375097275,0.35320889949798584,-6.917322158813477,1.217118501663208,1.616324543952942,3.8675732612609863,-1.8277268409729004,0.17704883217811584,1.5611728429794312,-0.036954496055841446,-1.3003867864608765,0.2187545746564865,-0.5434817671775818,0.37085238099098206,1741433087.1603322,1741433087299,-3.2844208984375,2.8847189941406253,-1.955483940557274,-2.7536916503906252,2.723571044921875
1741433087.1047525,-2.2868376970291138,0.01321110253485738,0.021617603847048167,-0.9996790214732555,-0.8444382548332214,-0.11344865709543228,0.9927679300308228,-6.608303546905518,-1.7157169580459595,14.774740219116211,0.9744796752929688,0.8844509124755859,0.3133821487426758,-1.2440153360366821,0.005149920005351305,-0.9630350470542908,0.07801175117492676,1.228756308555603,0.01430533267557621,0.9088655114173889,-0.07305257022380829,-0.8009079098701477,-0.10814831405878067,0.06275273114442825,1.5276188850402832,-0.46314191818237305,0.01840570569038391,-0.6704432964324951,-0.09594109654426575,-0.11501488089561462,0.8196002244949341,-0.2648386061191559,0.06928834319114685,0.40485426783561707,-0.16420619189739227,2.6382479667663574,0.36202239990234375,-0.018297696486115456,0.07678622752428055,-4.57511568069458,-0.16795609891414642,0.07503357529640198,0.00388866919092834,-0.3429482579231262,-4.448033332824707,2.3272221088409424,0.601144552230835,-0.4289456903934479,-1.9871658086776733,-1.3940850496292114,1.347188115119934,-0.02693367563188076,-1.2688698768615723,-0.01994621753692627,-2.3916826248168945,0.343860000371933,1741433087.1603322,1741433087299,-3.2844208984375,2.8847189941406253,-1.955483940557274,-2.7536916503906252,2.723571044921875
1741433087.1247482,-2.272388458251953,0.01786376135023374,0.03983146672113843,-0.99904671576922,-0.8595238327980042,0.16617818176746368,0.6484400033950806,-5.501793384552002,4.474669933319092,5.013084411621094,0.9954605102539062,0.8791103363037109,0.36564430594444275,-1.2356228828430176,0.005912871100008488,-0.9596017599105835,0.001716639962978661,1.2409635782241821,0.015449759550392628,0.916876494884491,-0.07953765243291855,-0.8821622133255005,-0.06313420087099075,0.05207141116261482,1.4623864889144897,-0.48555007576942444,-0.018915992230176926,-0.6345845460891724,-0.09060044586658478,-0.12493324279785156,0.8150225281715393,-0.31413283944129944,0.09049547463655472,0.5580613613128662,-0.0443701408803463,2.6122817993164062,0.5517062544822693,0.05342757701873779,0.1487470418214798,-5.255455493927002,0.8174609541893005,0.035881608724594116,0.6370675563812256,-0.31647422909736633,-3.705240249633789,2.243729829788208,-0.8667937517166138,-3.684627056121826,-0.8521734476089478,-1.3078269958496094,1.5849955081939697,0.2826835811138153,-0.6229041814804077,-0.3222454786300659,-2.4905688762664795,1.6258777379989624,1741433087.1603322,1741433087299,-3.2844208984375,2.8847189941406253,-1.955483940557274,-2.7536916503906252,2.723571044921875
1741433087.1447604,-2.263049364089966,0.028354245295165288,0.052470486100630466,-0.9982198579782438,-0.6310295462608337,0.4992981553077698,0.5019538998603821,-1.282664179801941,-0.13823813199996948,5.296557426452637,1.0057601928710938,0.8737697601318359,0.4175249934196472,-1.2356228828430176,0.006294346414506435,-0.951972246170044,-0.07343403995037079,1.2424894571304321,0.01506828423589468,0.9344243407249451,-0.09250781685113907,-0.9359502792358398,-0.01201647985726595,0.02193484455347061,1.347562313079834,-0.47580578923225403,-0.005152663681656122,-0.6017776727676392,-0.08297093212604523,-0.1363775134086609,0.8196002244949341,-0.3541971445083618,0.10805825144052505,0.2938455045223236,-0.11708024889230728,2.723024845123291,-0.21113964915275574,-0.009148945100605488,0.47079139947891235,-4.799765110015869,-0.11674895137548447,-0.033022649586200714,1.2484151124954224,-0.787182092666626,-2.4233503341674805,2.5300817489624023,-1.5991942882537842,-5.966537952423096,0.7811325788497925,0.6817277669906616,1.4741601943969727,0.24696211516857147,-0.4172927141189575,0.2846977710723877,-1.9526840448379517,0.4958256185054779,1741433087.1603322,1741433087299,-3.2844208984375,2.8847189941406253,-1.955483940557274,-2.7536916503906252,2.723571044921875
1741433087.1647797,-2.2455872297286987,0.03985529997872853,0.06215723617264012,-0.9972702908715291,-0.48739302158355713,0.4961681365966797,0.870853066444397,0.6220728754997253,3.5585029125213623,7.063328266143799,0.9981307983398438,0.8733882904052734,0.45872434973716736,-1.2402005195617676,0.005912871100008488,-0.9401465058326721,-0.1203555315732956,1.2348599433898926,0.013923857361078262,0.952735185623169,-0.13141833245754242,-0.9576943516731262,0.043678950518369675,-0.0009536888683214784,1.2022202014923096,-0.4384710490703583,-0.007849224843084812,-0.5827038884162903,-0.08220797777175903,-0.14553292095661163,0.8295185565948486,-0.383505642414093,0.09549953788518906,-0.16590730845928192,0.0010132009629160166,1.8042621612548828,-0.183465838432312,-0.008904673159122467,0.56809002161026,-2.7589924335479736,-0.46658775210380554,-0.0235016867518425,1.1402219533920288,-2.044799327850342,-0.8602240681648254,2.8980140686035156,-0.978492796421051,-7.467982769012451,1.9621139764785767,-0.11671524494886398,0.952311098575592,-0.0071460106410086155,-0.3901243209838867,0.6325233578681946,-1.401986002922058,-0.6682700514793396,1741433087.1603322,1741433087299,-3.2844208984375,2.8847189941406253,-1.955483940557274,-2.7536916503906252,2.723571044921875
1741433087.1848323,-2.220366954803467,0.050285100570448146,0.06522415119709153,-0.996602839029289,-0.19405639171600342,0.43546852469444275,1.32326078414917,27.7221622467041,-51.4826774597168,22.79652976989746,0.9943161010742188,0.8775844573974609,0.47474631667137146,-1.2402005195617676,0.006294346414506435,-0.9290837049484253,-0.13904783129692078,1.222271203994751,0.013923857361078262,0.967994213104248,-0.1802472025156021,-0.9508277773857117,0.10700388997793198,0.014686808921396732,1.0385671854019165,-0.38463327288627625,0.004078807774931192,-0.5590524077415466,-0.07419699430465698,-0.14476996660232544,0.8497368097305298,-0.41051578521728516,0.08486735075712204,-0.14867225289344788,0.1177399680018425,0.607948362827301,-0.05497198551893234,0.00396156869828701,0.4960705637931824,-1.006652593612671,-1.022307276725769,-0.025641903281211853,0.9677925109863281,-2.5254335403442383,0.3925740122795105,3.0377612113952637,1.1922749280929565,-7.794150352478027,3.1467463970184326,0.9202505350112915,1.3683205842971802,0.6042003631591797,0.12401199340820312,1.0635533332824707,-1.3822669982910156,-0.42920053005218506,1741433087.1603322,1741433087299,-3.2844208984375,2.8847189941406253,-1.955483940557274,-2.7536916503906252,2.723571044921875
1741433087.2048354,-2.1889456510543823,0.04765237482758641,0.0650430324901706,-0.9967440268683699,0.11640138924121857,-0.16099531948566437,1.762402892112732,-4.2476043701171875,-5.545366287231445,6.557953834533691,0.9802017211914062,0.9134435653686523,0.47398337721824646,-1.239819049835205,0.00667582219466567,-0.9119172692298889,-0.13179980218410492,1.2009085416793823,0.013160906732082367,0.9714275002479553,-0.22449836134910583,-0.9054322242736816,0.134470134973526,0.11196307092905045,1.0423818826675415,-0.30444520711898804,0.05697418004274368,-0.5163271427154541,-0.06198977679014206,-0.12455176562070847,0.8581292629241943,-0.44344356656074524,0.06999301165342331,-0.47609472274780273,0.9410229921340942,-0.21602420508861542,0.03150126710534096,0.029362354427576065,0.8121726512908936,0.7469842433929443,-1.2151846885681152,-0.04878886789083481,0.18124127388000488,-1.5706433057785034,2.9116671085357666,0.9769594073295593,3.894836664199829,-0.2867625057697296,3.3245058059692383,2.8446826934814453,2.266702890396118,0.7609255313873291,1.0655676126480103,0.08748096972703934,-1.6383392810821533,-1.0480746030807495,1741433087.1603322,1741433087299,-3.2844208984375,2.8847189941406253,-1.955483940557274,-2.7536916503906252,2.723571044921875
1741433087.2248278,-2.142708897590637,0.048864634179136036,0.05256330414470901,-0.9974213485703672,0.574714720249176,-0.2042861133813858,2.2603442668914795,-18.24564552307129,-16.857358932495117,15.613116264343262,0.9855422973632812,0.9378576278686523,0.4404135048389435,-1.2409635782241821,0.006294346414506435,-0.9019989371299744,-0.09479667246341705,1.1940420866012573,0.012397955171763897,0.9721904397010803,-0.23670557141304016,-0.8470664620399475,0.10967422276735306,0.11158160120248795,1.0088120698928833,-0.2827823758125305,0.11040753871202469,-0.4640650153160095,-0.04749370738863945,-0.08258945494890213,0.8646143078804016,-0.4733206033706665,0.024643493816256523,0.09573453664779663,0.8395460844039917,-1.9351943731307983,-0.15815258026123047,0.02278992347419262,0.4665079712867737,2.6981356143951416,-0.3354235589504242,-0.029070671647787094,-0.06914106011390686,-0.7464388608932495,2.5040783882141113,-1.5762354135513306,-0.7511482834815979,-1.3973703384399414,0.5328813791275024,2.3487722873687744,2.639940023422241,0.3861050307750702,2.492619752883911,0.3289119005203247,-1.4679425954818726,-2.3425233364105225,1741433087.1603322,1741433087299,-3.2844208984375,2.8847189941406253,-1.955483940557274,-2.7536916503906252,2.723571044921875
1741433087.2449224,-2.092260956764221,0.04681923200176336,0.033148145935385176,-0.9983532240323619,0.7970467805862427,-0.26985129714012146,2.583266496658325,-5.7414422035217285,2.6451644897460938,5.201274871826172,0.9897384643554688,0.9477758407592773,0.3763256371021271,-1.2466856241226196,0.00667582219466567,-0.9019989371299744,-0.046730753034353256,1.1948050260543823,0.012779430486261845,0.9668498039245605,-0.20809490978717804,-0.7791637778282166,0.04596780240535736,0.06389715522527695,0.970283031463623,-0.31505459547042847,0.0737384781241417,-0.44346532225608826,-0.03147173300385475,-0.01773861236870289,0.8928435444831848,-0.4788632094860077,0.0015219069318845868,0.1951625794172287,0.37295234203338623,-3.444295644760132,-0.27158448100090027,0.026250820606946945,-0.1217859536409378,3.1850531101226807,0.05210608243942261,0.003469509771093726,-0.3929976224899292,1.7953938245773315,3.7233099937438965,-3.1862645149230957,-2.126509189605713,-2.113513708114624,-1.7277495861053467,-2.3015551567077637,0.5016964077949524,1.0903524160385132,3.0927345752716064,1.8435170650482178,0.18883346021175385,-0.5551878213882446,1741433087.1603322,1741433087299,-3.2844208984375,2.8847189941406253,-1.955483940557274,-2.7536916503906252,2.723571044921875
1741433087.264896,-2.066472113132477,0.039752489001922166,0.020673126915180497,-0.9989956763878916,0.5471729636192322,-0.3717789947986603,1.4208916425704956,-4.643469333648682,2.830268621444702,5.534969806671143,0.9843978881835938,0.9386205673217773,0.30346378684043884,-1.2508819103240967,0.005912871100008488,-0.9111543297767639,-0.018120087683200836,1.210445523262024,0.016594186425209045,0.959983229637146,-0.1684214472770691,-0.7204165458679199,-0.02079041674733162,0.022697795182466507,0.9153505563735962,-0.35540127754211426,0.05659079924225807,-0.45757991075515747,-0.007438773289322853,0.02536812424659729,1.0004196166992188,-0.44601789116859436,0.01878216862678528,-0.20383013784885406,-0.19348359107971191,-3.4570233821868896,-0.1945333480834961,0.07492608577013016,-0.3850369453430176,2.0137710571289062,1.302266001701355,0.2685432732105255,-0.39115527272224426,1.9329414367675781,3.1003801822662354,-3.330538749694824,-2.342968702316284,-2.4545300006866455,-1.8453277349472046,-0.3792729675769806,-1.1244620084762573,1.1918574571609497,1.8393642902374268,6.081146717071533,1.8122886419296265,0.6051668524742126,1741433087.1603322,1741433087299,-3.2844208984375,2.8847189941406253,-1.955483940557274,-2.7536916503906252,2.723571044921875
1741433087.2849185,-2.0515859723091125,0.03661931949460604,0.0074431208276256955,-0.9993015687929733,0.653093695640564,-0.1452735960483551,0.6115700006484985,1.207301378250122,-1.1509023904800415,7.070463180541992,1.0049972534179688,0.9260320663452148,0.24967575073242188,-1.2501189708709717,0.005149920005351305,-0.919165313243866,0.025749599561095238,1.2386746406555176,0.01583123579621315,0.9561684727668762,-0.12493324279785156,-0.6670100092887878,-0.06656748056411743,-0.02040894143283367,0.8714808821678162,-0.3779156804084778,0.05479174479842186,-0.5231937170028687,0.018501564860343933,0.03795681521296501,1.1636911630630493,-0.40447667241096497,0.0038244386669248343,0.5508381724357605,-0.321999192237854,-2.720839023590088,0.04237370565533638,-0.05454660952091217,-0.47633886337280273,2.9852864742279053,1.8081303834915161,-0.03899502381682396,-0.24696028232574463,2.1816368103027344,2.4705214500427246,-2.097480297088623,-1.9827059507369995,-2.168949842453003,-0.954464852809906,-0.3233887851238251,-3.9481959342956543,1.239622950553894,0.5110746026039124,8.272735595703125,2.0755057334899902,-0.8087789416313171,1741433087.1603322,1741433087299,-3.2844208984375,2.8847189941406253,-1.955483940557274,-2.7536916503906252,2.723571044921875
1741433087.3049273,-2.0525225400924683,0.036910023299416804,-0.0023659271204178236,-0.9993157922143017,0.44940972328186035,0.07267982512712479,-0.11733189225196838,-3.90049147605896,-0.7092452645301819,8.812108993530273,1.0141525268554688,0.9103918075561523,0.19398032128810883,-1.2470670938491821,0.005531395319849253,-0.9290837049484253,0.06351567804813385,1.2596558332443237,0.01583123579621315,0.9546425342559814,-0.08411535620689392,-0.6189440488815308,-0.09136339277029037,-0.04177157208323479,0.8348592519760132,-0.38264918327331543,0.03547361493110657,-0.6177996397018433,0.048638131469488144,0.02994582988321781,1.3307774066925049,-0.3748219907283783,-0.0072244214825332165,0.3429136574268341,-0.46438828110694885,-2.7136378288269043,0.2169945240020752,-0.005959466099739075,-0.492768257856369,2.529757499694824,1.2812366485595703,-0.012287978082895279,-0.059172846376895905,2.007326126098633,2.4914908409118652,-1.1060227155685425,-0.9547162055969238,-1.8198038339614868,-0.18410144746303558,-1.0140358209609985,-4.582973480224609,1.4877861738204956,-0.5518869757652283,8.244035720825195,1.264480710029602,-0.26551052927970886,1741433087.1603322,1741433087299,-3.2844208984375,2.8847189941406253,-1.955483940557274,-2.7536916503906252,2.723571044921875
1741433087.324964,-2.0627636909484863,0.03605784229996027,-0.01013933093865275,-0.9992982667736334,0.3956747055053711,-0.12493820488452911,-0.5373365879058838,0.8264688849449158,0.07464799284934998,10.519342422485352,1.0091934204101562,0.9058132171630859,0.14248111844062805,-1.2417265176773071,0.005531395319849253,-0.9344243407249451,0.11158160120248795,1.2730075120925903,0.01583123579621315,0.9557870030403137,-0.048256658017635345,-0.5731670260429382,-0.09784847497940063,-0.05855649709701538,0.7986190319061279,-0.38493186235427856,0.03293995186686516,-0.7143129706382751,0.07763027399778366,0.018501564860343933,1.4440757036209106,-0.3710283041000366,-0.001108576892875135,-0.1096685603260994,-0.13189858198165894,-2.55450177192688,0.33573850989341736,-0.009847057051956654,-0.20647834241390228,3.346972942352295,0.8660438060760498,0.01596675254404545,0.03559977188706398,1.6742095947265625,2.267730236053467,-0.2462093085050583,-0.6908589005470276,-1.763253092765808,-0.141742542386055,0.08999723941087723,-4.901281356811523,1.423984169960022,-0.6455470323562622,5.196938514709473,-0.017022298648953438,0.34830763936042786,1741433087.1603322,1741433087299,-3.2844208984375,2.8847189941406253,-1.955483940557274,-2.7536916503906252,2.723571044921875
1741433087.3449697,-2.072705924510956,0.03438879022165553,-0.014406952822473422,-0.999304683676336,0.20532375574111938,-0.036929816007614136,-0.46212226152420044,0.3165639340877533,1.7648903131484985,7.443052768707275,0.9992752075195312,0.8978023529052734,0.09441519528627396,-1.2386746406555176,0.005531395319849253,-0.9374761581420898,0.1680399775505066,1.2806370258331299,0.01583123579621315,0.9557870030403137,-0.03147173300385475,-0.5216678380966187,-0.09975585341453552,-0.06771191209554672,0.7715343236923218,-0.38972949981689453,0.02931857854127884,-0.8009079098701477,0.09632257372140884,0.010109102353453636,1.4852750301361084,-0.38286900520324707,-3.960619869758375e-05,-0.28766536712646484,-0.228022038936615,-2.4153358936309814,0.2222168892621994,-0.008149279281497002,-0.189751997590065,3.834641218185425,0.44413718581199646,-0.01136908307671547,-0.0046142456121742725,0.6322224140167236,2.566298007965088,-0.054429441690444946,-0.41653725504875183,-1.3342480659484863,-0.2843111455440521,-0.34999480843544006,-4.020442485809326,0.8256136178970337,-0.4046758711338043,1.6295512914657593,-0.6403710842132568,-0.0088471295312047,1741433087.1603322,1741433087299,-3.2844208984375,2.8847189941406253,-1.955483940557274,-2.7536916503906252,2.723571044921875
1741433087.3649752,-2.0811744928359985,0.03387063617255454,-0.01601296182351966,-0.9992979360825804,0.08504015952348709,-0.05700733885169029,-0.38866475224494934,-1.3726115226745605,-3.9602255821228027,7.181424140930176,0.9958419799804688,0.8920803070068359,0.04940108209848404,-1.238293170928955,0.005912871100008488,-0.9412909150123596,0.2302204966545105,1.2802555561065674,0.01583123579621315,0.954261064529419,-0.03528648987412453,-0.4808499217033386,-0.09975585341453552,-0.07572289556264877,0.7467383742332458,-0.40418195724487305,0.025612134486436844,-0.882543683052063,0.09327077120542526,0.005149920005351305,1.4658198356628418,-0.39284762740135193,0.0002759298658929765,-0.12693211436271667,-0.16217869520187378,-2.2197890281677246,-0.013902285136282444,-0.0007137907086871564,-0.14742304384708405,4.181862831115723,-0.11896860599517822,0.007759863045066595,-0.13752421736717224,-0.2038157433271408,1.8859957456588745,-0.007229149807244539,-0.23177160322666168,-1.2477844953536987,-0.8451142311096191,-0.015151136554777622,-3.8186686038970947,-0.30429357290267944,-0.2529004216194153,-1.3295001983642578,-0.36279159784317017,0.11085046827793121,1741433087.1603322,1741433087299,-3.2844208984375,2.8847189941406253,-1.955483940557274,-2.7536916503906252,2.723571044921875
1741433087.3850214,-2.0776044130325317,0.037376245540127584,-0.018678087724832156,-0.9991266913201086,0.14145487546920776,0.254423588514328,0.19903087615966797,0.8787575960159302,-0.511715829372406,4.527170658111572,0.9924087524414062,0.8836879730224609,0.008964675478637218,-1.2405821084976196,0.005912871100008488,-0.9409094452857971,0.2950713336467743,1.2760592699050903,0.014686808921396732,0.9531166553497314,-0.045204851776361465,-0.44308385252952576,-0.09861142933368683,-0.07572289556264877,0.7303349375724792,-0.4277084171772003,0.022675640881061554,-0.9573128819465637,0.07534141838550568,-0.0036240178160369396,1.410887360572815,-0.3859431743621826,0.011636528186500072,-0.094286248087883,-0.22982412576675415,-1.9827100038528442,-0.18744945526123047,-0.02097320929169655,0.008865652605891228,4.372003555297852,-0.30773165822029114,-0.09122340381145477,-0.07165148854255676,-0.6217042803764343,1.8651965856552124,0.08771456778049469,-0.009947762824594975,-0.7529780864715576,-1.2000312805175781,-0.08728263527154922,-3.6518027782440186,-0.9846183657646179,-0.4575969874858856,-2.8593697547912598,0.47559213638305664,0.5203282833099365,1741433087.5734355,1741433087699,-3.5294223632812503,2.6187666015625,-1.7147150716116843,-2.75379345703125,2.72341845703125
1741433087.405071,-2.070639491081238,0.04364793558260121,-0.02210905977327916,-0.9988023063626348,0.15274792909622192,0.3006642758846283,0.33459287881851196,4.773074626922607,-4.988351345062256,6.016792297363281,1.0000381469726562,0.8810176849365234,-0.039101243019104004,-1.2424894571304321,0.005912871100008488,-0.9412909150123596,0.3545815348625183,1.2665224075317383,0.01430533267557621,0.9485389590263367,-0.058175019919872284,-0.4232471287250519,-0.09479667246341705,-0.07495994865894318,0.7196536064147949,-0.4611121416091919,0.02962893433868885,-1.0141527652740479,0.04749370738863945,-0.016212711110711098,1.3384069204330444,-0.35761258006095886,0.01055703405290842,0.20278489589691162,-0.09975407272577286,-2.3917946815490723,-0.08417628705501556,-0.013756015338003635,-0.020849063992500305,3.94769287109375,-0.7045765519142151,0.03066706284880638,-0.32074975967407227,-0.6452356576919556,0.6472859978675842,0.13912557065486908,0.06610363721847534,-0.539385199546814,-1.7704297304153442,0.2622271180152893,-2.59247088432312,-1.417493462562561,-0.6851075887680054,-3.8905844688415527,1.5846574306488037,-0.29663151502609253,1741433087.5734355,1741433087699,-3.5294223632812503,2.6187666015625,-1.7147150716116843,-2.75379345703125,2.72341845703125
1741433087.4250865,-2.0595539808273315,0.05091573210195507,-0.024558900574160273,-0.9984009458264302,0.10329125821590424,0.4965694844722748,0.563058078289032,6.096225261688232,-0.11711560934782028,5.8399481773376465,1.0019454956054688,0.8802547454833984,-0.07457847148180008,-1.2413450479507446,0.005912871100008488,-0.9451056718826294,0.4003585875034332,1.2600373029708862,0.01506828423589468,0.9451056718826294,-0.06160829961299896,-0.3934920132160187,-0.09403372555971146,-0.07686731964349747,0.7192721366882324,-0.4973088800907135,0.026339098811149597,-1.0416189432144165,0.010109102353453636,-0.035667963325977325,1.2369344234466553,-0.31220489740371704,0.005902016069740057,0.05587198585271835,-0.04302051663398743,-1.7381891012191772,0.09065518528223038,-0.012548679485917091,-0.1639004498720169,2.889230489730835,-0.3021063208580017,0.009426912292838097,-0.22241945564746857,0.06299525499343872,1.912616491317749,0.1581420749425888,-0.18430206179618835,0.0931609719991684,-1.793091058731079,-0.2696681022644043,-1.327430009841919,-1.9503928422927856,-1.0458554029464722,-5.348862171173096,2.337900400161743,-0.2515065670013428,1741433087.5734355,1741433087699,-3.5294223632812503,2.6187666015625,-1.7147150716116843,-2.75379345703125,2.72341845703125
1741433087.4450946,-2.0532702207565308,0.053680273091893264,-0.025909321023047212,-0.998221987017369,0.03830741345882416,0.059064831584692,0.29849255084991455,1.1642554998397827,-3.1655261516571045,8.936300277709961,1.0004196166992188,0.8871212005615234,-0.08983749151229858,-1.2379117012023926,0.005531395319849253,-0.9470130205154419,0.44537270069122314,1.2608002424240112,0.015449759550392628,0.9325169920921326,-0.051689937710762024,-0.36259251832962036,-0.09517814964056015,-0.09479667246341705,0.7162203192710876,-0.5331947207450867,0.029156453907489777,-1.042763352394104,-0.03032730519771576,-0.05397878959774971,1.10685133934021,-0.2702556848526001,-0.00023269708617590368,-0.05811594799160957,0.2245408147573471,-0.513712465763092,0.21857795119285583,-0.019272232428193092,-0.07941671460866928,3.043494462966919,0.038404468446969986,-0.017457060515880585,-0.9136441349983215,0.5268353223800659,1.586414098739624,-0.101277656853199,-0.8807982206344604,-0.1101224422454834,-1.7838973999023438,0.24819883704185486,0.19941164553165436,-1.9957412481307983,-0.9436817765235901,-6.7216572761535645,1.9141480922698975,-0.34902483224868774,1741433087.5734355,1741433087699,-3.5294223632812503,2.6187666015625,-1.7147150716116843,-2.75379345703125,2.72341845703125
1741433087.46515,-2.048848509788513,0.05236324523481982,-0.023843819063847263,-0.9983434092740477,-0.1300518661737442,-0.005711240693926811,0.19943025708198547,5.615031719207764,-0.012829569168388844,5.123194694519043,0.9905014038085938,0.8852138519287109,-0.08297093212604523,-1.2356228828430176,0.005912871100008488,-0.9508277773857117,0.4728389382362366,1.2596558332443237,0.01506828423589468,0.9210727214813232,-0.03376058489084244,-0.31719690561294556,-0.10166323184967041,-0.10166323184967041,0.7166017889976501,-0.553026556968689,0.02262917160987854,-0.996604859828949,-0.06046387553215027,-0.07686731964349747,0.9546425342559814,-0.2570958733558655,-0.007128539029508829,-0.2592731714248657,-0.029629724100232124,0.4279671013355255,0.14950031042099,0.004031350836157799,-0.2860528230667114,1.5060606002807617,-0.10272697359323502,0.019520599395036697,-0.7085418105125427,0.9485795497894287,2.366563320159912,-0.33536726236343384,-0.09531066566705704,0.0073523009195923805,-0.8223397731781006,-0.4305209517478943,2.6479389667510986,-1.4135714769363403,-1.249201774597168,-7.538011074066162,0.3207654654979706,-0.3728305995464325,1741433087.5734355,1741433087699,-3.5294223632812503,2.6187666015625,-1.7147150716116843,-2.75379345703125,2.72341845703125
1741433087.4852319,-2.046369254589081,0.04327946547507714,-0.022769530570899258,-0.9988035023695966,-0.01994982734322548,-0.5405469536781311,0.12171872705221176,-7.720677852630615,0.6183670163154602,11.731200218200684,0.9870681762695312,0.8924617767333984,-0.056267641484737396,-1.2321895360946655,0.005912871100008488,-0.955024003982544,0.482375830411911,1.2596558332443237,0.01506828423589468,0.9122987985610962,-0.021171892061829567,-0.2775234580039978,-0.1192111074924469,-0.0875486359000206,0.7242313027381897,-0.5556842684745789,0.049532536417245865,-0.9279392957687378,-0.08564125746488571,-0.10204470902681351,0.80663001537323,-0.2878018021583557,-0.01581348478794098,-0.17598259449005127,0.2188267856836319,1.5501734018325806,0.24252785742282867,0.0010393776465207338,-0.15353962779045105,0.47818487882614136,-0.010934337973594666,-0.023066598922014236,-0.5648436546325684,0.6163035035133362,1.8916455507278442,-0.7860300540924072,0.8295502066612244,0.5278275609016418,0.010096291080117226,1.5487393140792847,3.648158311843872,-1.2206084728240967,-1.1780964136123657,-7.08258581161499,-1.9309355020523071,-0.3951084017753601,1741433087.5734355,1741433087699,-3.5294223632812503,2.6187666015625,-1.7147150716116843,-2.75379345703125,2.72341845703125
1741433087.5051525,-2.042372405529022,0.0350684689615718,-0.032466610705838825,-0.9988574080788343,0.5983417630195618,-0.3957049250602722,0.23830263316631317,0.8686607480049133,7.137454986572266,15.348508834838867,1.0015640258789062,0.9084844589233398,-0.018120087683200836,-1.229519248008728,0.005912871100008488,-0.952735185623169,0.47512778639793396,1.2562226057052612,0.014686808921396732,0.9092469811439514,-0.02536812424659729,-0.2450980395078659,-0.11081864684820175,-0.06542305648326874,0.7745860815048218,-0.5483532547950745,0.07697637379169464,-0.8779659867286682,-0.09975585341453552,-0.11310750246047974,0.7639048099517822,-0.2955334782600403,0.008093021810054779,0.47929736971855164,0.48154401779174805,1.9744396209716797,0.010281672701239586,0.0190119631588459,0.1165403500199318,-0.617647647857666,-0.3195060193538666,-0.037497807294130325,-0.1788298636674881,-0.2766169011592865,1.5038888454437256,0.9823474287986755,1.1731830835342407,3.0860354900360107,0.3040866255760193,1.2938240766525269,1.8546148538589478,-0.2601839303970337,-0.4942256808280945,0.19920864701271057,0.6033474802970886,1.5352109670639038,1741433087.5734355,1741433087699,-3.5294223632812503,2.6187666015625,-1.7147150716116843,-2.75379345703125,2.72341845703125
1741433087.5251691,-2.0440287590026855,0.028209035707995888,-0.034461717854466674,-0.9990078279507845,-0.06782998144626617,-0.29053905606269836,-0.07433131337165833,-17.21310043334961,3.8066458702087402,5.643912315368652,0.9859237670898438,0.8981838226318359,0.031090257689356804,-1.2409635782241821,0.005912871100008488,-0.9504463076591492,0.44155794382095337,1.2474485635757446,0.016212711110711098,0.9027618765830994,-0.05245288833975792,-0.25310903787612915,-0.11043716967105865,-0.026512550190091133,0.8569847941398621,-0.5250965356826782,0.0898778885602951,-0.8691920638084412,-0.09021896868944168,-0.09403372555971146,0.8455405235290527,-0.2720363438129425,0.07312682271003723,-0.4071503281593323,-0.34140902757644653,2.8197672367095947,-0.5921590328216553,0.0006213950109668076,0.09559103101491928,-2.678715705871582,-0.5202192664146423,0.15402083098888397,-0.3204834461212158,-1.2805802822113037,-0.6508647203445435,-0.32933422923088074,2.1165475845336914,4.407793045043945,1.520990014076233,0.4465884864330292,0.2597379982471466,-0.11785745620727539,1.3966237306594849,3.2875759601593018,0.9677497148513794,3.3455045223236084,1741433087.5734355,1741433087699,-3.5294223632812503,2.6187666015625,-1.7147150716116843,-2.75379345703125,2.72341845703125
1741433087.5452642,-2.0344653725624084,0.021418937609312776,-0.035265282510518504,-0.9991484318964533,0.1769663393497467,-0.26087331771850586,0.4023679494857788,-1.1762162446975708,11.017566680908203,5.604857444763184,0.9782943725585938,0.8943691253662109,0.08297093212604523,-1.2405821084976196,0.005149920005351305,-0.951972246170044,0.3740367889404297,1.2478300333023071,0.014686808921396732,0.9084840416908264,-0.06275273114442825,-0.29812315106391907,-0.11425192654132843,-0.013923857361078262,0.9859235286712646,-0.48051658272743225,0.09490612149238586,-0.8340963125228882,-0.09288929402828217,-0.06389715522527695,0.8413442969322205,-0.2685859799385071,0.08704565465450287,-0.20107907056808472,-0.12641194462776184,2.5193943977355957,0.044879525899887085,-0.06025433912873268,-0.10078161209821701,-4.666361331939697,0.018008798360824585,-0.16455306112766266,0.4587210416793823,-0.3274507224559784,-2.4368486404418945,-0.24228011071681976,0.41124647855758667,7.058662414550781,2.2636568546295166,0.4641141891479492,1.9676339626312256,0.19982805848121643,0.9098774194717407,-0.7545038461685181,0.1349845826625824,-0.19418424367904663,1741433087.5734355,1741433087699,-3.5294223632812503,2.6187666015625,-1.7147150716116843,-2.75379345703125,2.72341845703125
1741433087.5652304,-2.0218966007232666,0.014615012601077677,-0.03966519155006822,-0.999106137497897,0.050885818898677826,-0.29922109842300415,0.6243710517883301,-4.435317516326904,-4.5972723960876465,13.878036499023438,0.9695205688476562,0.8958950042724609,0.13904783129692078,-1.2482116222381592,0.005912871100008488,-0.9515907764434814,0.3099488914012909,1.2436338663101196,0.01430533267557621,0.9088655114173889,-0.05970092490315437,-0.3908216953277588,-0.12645913660526276,-0.011635004542768002,1.1449989080429077,-0.43645384907722473,0.09044285863637924,-0.8047226667404175,-0.09174486994743347,-0.06275273114442825,0.8535515666007996,-0.2506318688392639,0.04896223545074463,-0.3369361162185669,-0.014612770639359951,2.720334053039551,-0.5602720379829407,-0.051776222884655,0.03334169462323189,-4.237020492553711,-0.3143066167831421,-0.005977331660687923,-0.05427408963441849,0.2486124485731125,-5.011824607849121,-0.8786864876747131,0.17068500816822052,7.675683498382568,2.0960731506347656,-0.37751197814941406,1.188105821609497,-0.04160917177796364,0.38731276988983154,1.1763194799423218,0.9632670283317566,-1.7639788389205933,1741433087.5734355,1741433087699,-3.5294223632812503,2.6187666015625,-1.7147150716116843,-2.75379345703125,2.72341845703125
1741433087.5852778,-2.0005061626434326,0.010938640459875222,-0.034464049124246075,-0.9993460739217677,-0.21478739380836487,-0.16337965428829193,1.1116883754730225,1.1687567234039307,5.268002986907959,9.940401077270508,0.9634160995483398,0.8901729583740234,0.19283588230609894,-1.2508819103240967,0.005912871100008488,-0.9515907764434814,0.23823148012161255,1.23600435256958,0.01430533267557621,0.9111543297767639,-0.05054550990462303,-0.5102235674858093,-0.14209964871406555,0.00858320016413927,1.2960631847381592,-0.4127029478549957,0.040294498205184937,-0.7806897163391113,-0.10090028494596481,-0.06160829961299896,0.8737697601318359,-0.2476910948753357,0.04201851412653923,-0.20310543477535248,-0.11320202052593231,2.667849063873291,-0.15760289132595062,-0.0066581908613443375,-0.010495385155081749,-5.009220600128174,-0.4898134469985962,0.0047445837408304214,0.21376118063926697,0.5153346061706543,-6.151077747344971,-0.35325920581817627,0.9495969414710999,7.3050456047058105,1.0317965745925903,-3.028303623199463,1.3102318048477173,-0.43686991930007935,-0.26341336965560913,0.6699146032333374,-0.06452622264623642,0.007581138052046299,1741433087.5734355,1741433087699,-3.5294223632812503,2.6187666015625,-1.7147150716116843,-2.75379345703125,2.72341845703125
1741433087.6052992,-1.9762623310089111,0.005031765625861937,-0.03587519411182354,-0.9993436104674536,0.04936659708619118,-0.24399404227733612,1.2086743116378784,-7.136849880218506,-0.8158940672874451,13.691603660583496,0.9683752059936523,0.8970394134521484,0.2470054179430008,-1.2566040754318237,0.005912871100008488,-0.9500648379325867,0.15964750945568085,1.2291377782821655,0.01430533267557621,0.9157320261001587,-0.04100862145423889,-0.6284809708595276,-0.1329442262649536,0.02384222112596035,1.3998245000839233,-0.4219934046268463,0.00526612950488925,-0.7505531311035156,-0.10624094307422638,-0.07343403995037079,0.8836880922317505,-0.2635580897331238,0.047913577407598495,0.10994484275579453,0.2179839164018631,2.800701856613159,-0.4513435959815979,-0.01052380446344614,0.06035497784614563,-5.190951824188232,-0.46484261751174927,0.0070921569131314754,0.22397004067897797,0.5108315944671631,-5.693172931671143,0.46603333950042725,1.0780518054962158,4.652553081512451,-0.89960777759552,-0.9630043506622314,1.4134044647216797,-0.18494689464569092,-0.6360156536102295,0.5514926910400391,-0.9583446979522705,0.26826149225234985,1741433087.5734355,1741433087699,-3.5294223632812503,2.6187666015625,-1.7147150716116843,-2.75379345703125,2.72341845703125
1741433087.625343,-1.9537111520767212,0.0018444955367538263,-0.02905587049337463,-0.999576087262039,-0.41635578870773315,-0.10344067215919495,1.0663923025131226,-3.081482172012329,5.28532600402832,14.206319808959961,0.9737167358398438,0.8901729583740234,0.3065156042575836,-1.2558410167694092,0.005912871100008488,-0.9508277773857117,0.086785688996315,1.2234156131744385,0.01430533267557621,0.9157320261001587,-0.03490501269698143,-0.7299534678459167,-0.12111848592758179,0.06389715522527695,1.4333943128585815,-0.4628737270832062,0.012054132297635078,-0.7219424843788147,-0.11120012402534485,-0.09021896868944168,0.8932250142097473,-0.3013634979724884,0.05393151193857193,0.15816034376621246,-0.1585470587015152,3.031360387802124,0.1666441112756729,-0.001714430283755064,-0.03168730065226555,-4.784634113311768,-0.32801178097724915,0.021436143666505814,-0.019746147096157074,0.17479155957698822,-4.915968418121338,0.7560843825340271,1.7209579944610596,1.1460806131362915,-2.129425287246704,0.1511773318052292,1.3599321842193604,-0.265997052192688,-0.8742066025733948,0.44112494587898254,-2.056328296661377,0.3639901280403137,1741433087.5734355,1741433087699,-3.5294223632812503,2.6187666015625,-1.7147150716116843,-2.75379345703125,2.72341845703125
1741433087.6456661,-1.9441699385643005,0.0011378956132873696,-0.02133603640686069,-0.9997717133146038,-0.37204790115356445,-0.04554775729775429,0.3967389166355133,-1.4727894067764282,2.485112428665161,9.514791488647461,0.9840164184570312,0.8916988372802734,0.36335545778274536,-1.2554595470428467,0.006294346414506435,-0.9508277773857117,0.023460745811462402,1.2260860204696655,0.014686808921396732,0.9157320261001587,-0.02689402550458908,-0.805867075920105,-0.09822995215654373,0.08068207651376724,1.4078354835510254,-0.4954030513763428,-0.005670242011547089,-0.6956206560134888,-0.11425192654132843,-0.10929274559020996,0.8916990756988525,-0.34867149591445923,0.0644000917673111,0.3055628836154938,0.05753399059176445,2.6587703227996826,-0.020227789878845215,0.03160030022263527,-0.007386160548776388,-4.069344997406006,0.23217029869556427,0.021615605801343918,-0.0004791569081135094,0.533208966255188,-3.517928123474121,1.0149786472320557,0.6890872120857239,-1.6444514989852905,-1.3564355373382568,-1.0411150455474854,1.49301016330719,-0.08669218420982361,-0.8723950386047363,-0.10834158211946487,-2.305452346801758,0.675606906414032,1741433087.5734355,1741433087699,-3.5294223632812503,2.6187666015625,-1.7147150716116843,-2.75379345703125,2.72341845703125
1741433087.6656978,-1.941551923751831,0.009034267663637473,-0.014687145407367132,-0.9998513238314808,-0.30421048402786255,0.40412360429763794,0.20323306322097778,3.5267300605773926,3.039968967437744,2.7149157524108887,0.9992752075195312,0.8848323822021484,0.41142138838768005,-1.2558410167694092,0.005912871100008488,-0.9500648379325867,-0.04482337832450867,1.23447847366333,0.014686808921396732,0.9214541912078857,-0.020027466118335724,-0.8581292629241943,-0.07419699430465698,0.07839322835206985,1.344510555267334,-0.4958574175834656,-0.014890870079398155,-0.6597619652748108,-0.11387044936418533,-0.12111848592758179,0.890554666519165,-0.38810592889785767,0.07369168847799301,0.41187480092048645,-0.1189836710691452,2.2314770221710205,0.02370518073439598,-0.0013219495303928852,0.06663472950458527,-4.567589282989502,0.47927743196487427,-0.0017078579403460026,0.455837219953537,0.08939555287361145,-2.6748769283294678,1.2658772468566895,-0.24504724144935608,-3.463068723678589,0.28410980105400085,-0.057229191064834595,1.68230140209198,0.06300324946641922,-0.5193955898284912,-0.08615148812532425,-1.9067264795303345,0.41366660594940186,1741433087.5734355,1741433087699,-3.5294223632812503,2.6187666015625,-1.7147150716116843,-2.75379345703125,2.72341845703125
1741433087.6857212,-1.9359501600265503,0.015133753097576069,-0.0090564659295931,-0.9998444628751253,-0.3052860498428345,0.31936463713645935,0.2559499740600586,-0.6108334064483643,-0.19894003868103027,6.536351680755615,0.9966049194335938,0.8817806243896484,0.44728007912635803,-1.2569855451583862,0.005912871100008488,-0.9477760195732117,-0.09822995215654373,1.233715534210205,0.014686808921396732,0.9374761581420898,-0.032616160809993744,-0.8993285894393921,-0.04177157208323479,0.06656748056411743,1.2464714050292969,-0.463397741317749,-0.008905415423214436,-0.6280995011329651,-0.10967422276735306,-0.12836651504039764,0.8901731967926025,-0.42189618945121765,0.07150319963693619,-0.03504510968923569,-0.08706596493721008,1.7827517986297607,-0.1306869089603424,-0.03245898336172104,0.15688130259513855,-3.2668845653533936,-0.10954147577285767,-0.010389614850282669,1.110673427581787,-0.750209391117096,-1.753438115119934,1.6529046297073364,-0.5783235430717468,-5.04969596862793,1.8297474384307861,0.28638410568237305,1.6318979263305664,0.1547357738018036,-0.23363636434078217,-0.007090740837156773,-1.7280668020248413,-0.26645922660827637,1741433087.7745004,1741433087899,-3.634075439453125,2.4860439453125,-1.5864137706028179,-2.7541188964843752,2.7245888671875003
1741433087.7057142,-1.9231672883033752,0.021534186404212896,-0.0056245954299340975,-0.9997522906911283,-0.15370599925518036,0.3070671558380127,0.6556181311607361,2.880524158477783,2.5208897590637207,7.710782527923584,0.9927902221679688,0.8855953216552734,0.4736018776893616,-1.2543151378631592,0.005912871100008488,-0.9443427324295044,-0.12569619715213776,1.229519248008728,0.01430533267557621,0.953498125076294,-0.06008239835500717,-0.9073395729064941,-0.000572213320992887,0.0555046908557415,1.1308842897415161,-0.41814953088760376,-0.0037165232934057713,-0.5987258553504944,-0.10700388997793198,-0.134470134973526,0.890554666519165,-0.4524558186531067,0.06847933679819107,-0.0901721641421318,0.09216573089361191,1.1070860624313354,0.2394985407590866,0.0012818436371162534,0.21470287442207336,-1.5358244180679321,-0.3339475095272064,0.004565970506519079,0.9907546639442444,-1.4014532566070557,-0.3238409161567688,2.087658405303955,-0.3880716562271118,-6.015788555145264,2.2425718307495117,0.34498855471611023,1.4675971269607544,0.09544775635004044,-0.2578537166118622,0.050662774592638016,-1.5496174097061157,-0.07692431658506393,1741433087.7745004,1741433087899,-3.634075439453125,2.4860439453125,-1.5864137706028179,-2.7541188964843752,2.7245888671875003
1741433087.725732,-1.9077016711235046,0.023384514290388656,-0.005752484684961176,-0.9997099946541257,-0.0032223868183791637,0.08427920192480087,0.8200428485870361,0.022062232717871666,1.1863813400268555,7.179892063140869,0.9855422973632812,0.8894100189208984,0.47741663455963135,-1.2535521984100342,0.005912871100008488,-0.9355688095092773,-0.12836651504039764,1.2234156131744385,0.01430533267557621,0.9653238654136658,-0.09060044586658478,-0.8947508931159973,0.043678950518369675,0.06923781335353851,0.9935530424118042,-0.3728123903274536,0.0017789446283131838,-0.5643930435180664,-0.09746700525283813,-0.1325627565383911,0.8936064839363098,-0.4821912944316864,0.06343192607164383,-0.21421141922473907,0.10645313560962677,0.03410555049777031,0.02913481555879116,-0.009400895796716213,0.45638900995254517,0.019567962735891342,-0.3905673623085022,0.004206313285976648,0.738010585308075,-1.5285512208938599,0.8839522004127502,2.2035436630249023,0.9580429196357727,-6.91845703125,2.210134506225586,0.19262628257274628,1.8269083499908447,0.5295313596725464,0.16079837083816528,0.13401705026626587,-1.5295445919036865,-0.3592820465564728,1741433087.7745004,1741433087899,-3.634075439453125,2.4860439453125,-1.5864137706028179,-2.7541188964843752,2.7245888671875003
1741433087.7457426,-1.8909804224967957,0.01782478239454654,-0.002622284568538405,-0.9998376872053927,-0.2682797610759735,-0.4889916479587555,0.7180049419403076,1.3804528713226318,-6.250014781951904,17.154518127441406,0.9771499633789062,0.9012355804443359,0.4659723937511444,-1.2516448497772217,0.005912871100008488,-0.9252689480781555,-0.10891126841306686,1.2169305086135864,0.01430533267557621,0.968757152557373,-0.12149996310472488,-0.8657587766647339,0.06656748056411743,0.12722209095954895,0.9199283123016357,-0.31388112902641296,0.014592915773391724,-0.5151827335357666,-0.07572289556264877,-0.12188144028186798,0.8928435444831848,-0.5118579268455505,0.04278197139501572,-0.25130584836006165,0.37212783098220825,-0.5906294584274292,0.18761886656284332,-0.027539275586605072,0.6292127370834351,1.473378300666809,-0.503655195236206,-0.0006594957085326314,0.09252998232841492,-1.5208898782730103,1.6354600191116333,0.9189905524253845,3.953249216079712,-1.8021880388259888,3.0839288234710693,0.6996210813522339,2.545844316482544,0.7753283381462097,0.6038967370986938,-0.13129521906375885,-1.5155105590820312,-1.196932077407837,1741433087.7745004,1741433087899,-3.634075439453125,2.4860439453125,-1.5864137706028179,-2.7541188964843752,2.7245888671875003
1741433087.765771,-1.8689205646514893,0.008827933926569309,-0.007207811239846494,-0.9999350554109596,0.2335105985403061,-0.38580143451690674,1.113834023475647,-8.970818519592285,0.6204771995544434,14.777986526489258,0.9893569946289062,0.9111547470092773,0.4369802474975586,-1.2512633800506592,0.005912871100008488,-0.9149690866470337,-0.06694895774126053,1.212734341621399,0.013923857361078262,0.967231273651123,-0.10929274559020996,-0.7951858043670654,0.06771191209554672,0.1672770231962204,0.9115357995033264,-0.2884250283241272,0.038229621946811676,-0.4510948359966278,-0.06084534898400307,-0.10700388997793198,0.8722438216209412,-0.5361162424087524,0.009781024418771267,0.3780345618724823,0.3012252449989319,-1.7982896566390991,-0.06858954578638077,-0.03299446776509285,0.3821885883808136,3.000328779220581,-0.2062198966741562,-0.018793493509292603,-0.058859243988990784,1.0466760396957397,3.7468488216400146,-0.21072271466255188,1.2758798599243164,-1.0920568704605103,0.8046619892120361,0.9437429904937744,3.2809054851531982,0.8667660355567932,0.7265657782554626,-1.0529897212982178,-0.9711474180221558,-1.6087080240249634,1741433087.7745004,1741433087899,-3.634075439453125,2.4860439453125,-1.5864137706028179,-2.7541188964843752,2.7245888671875003
1741433087.7858331,-1.8531315922737122,0.0029093468031509673,-0.01394028663806749,-0.9998985969135208,0.3957546055316925,-0.3149491250514984,0.810942530632019,-1.1272131204605103,5.813472747802734,16.373245239257812,0.9966049194335938,0.9168767929077148,0.3850995600223541,-1.2558410167694092,0.006294346414506435,-0.9103913903236389,-0.016212711110711098,1.212734341621399,0.01430533267557621,0.9634165167808533,-0.09174486994743347,-0.734912633895874,0.046730753034353256,0.1333257108926773,0.8852140307426453,-0.29679152369499207,0.045384977012872696,-0.3881513774394989,-0.054741740226745605,-0.07343403995037079,0.8745326995849609,-0.5256584286689758,0.016983453184366226,0.13872532546520233,0.22763125598430634,-2.65984845161438,-0.2889392375946045,0.026811232790350914,0.2538357675075531,3.299661874771118,-0.005529401823878288,0.03352697938680649,-0.3093329966068268,1.012521505355835,2.8213932514190674,-1.0863045454025269,-2.1003315448760986,-1.1019710302352905,-0.5899477005004883,0.5201631784439087,2.8310434818267822,0.13421134650707245,1.8584457635879517,0.6652277708053589,0.7184659838676453,0.3364807367324829,1741433087.7745004,1741433087899,-3.634075439453125,2.4860439453125,-1.5864137706028179,-2.7541188964843752,2.7245888671875003
1741433087.8060234,-1.8388206958770752,-0.0018156098005665054,-0.026562025908218826,-0.9996455183417285,0.639994204044342,-0.15414954721927643,0.541029155254364,9.006402969360352,-6.791509628295898,6.900206565856934,1.0042343139648438,0.9180212020874023,0.32063019275665283,-1.2615631818771362,0.005912871100008488,-0.9145876169204712,0.03795681521296501,1.2169305086135864,0.01430533267557621,0.9584572911262512,-0.06351567804813385,-0.6811245679855347,0.008201723918318748,0.09441519528627396,0.8760585784912109,-0.32977962493896484,0.049273520708084106,-0.3847180902957916,-0.05054550990462303,-0.026512550190091133,0.9431982636451721,-0.4936169385910034,0.008101681247353554,0.20417045056819916,0.03508768975734711,-3.366938591003418,-0.4297529458999634,-0.008369943127036095,-0.32470703125,3.461460590362549,0.4497308135032654,0.012286566197872162,-0.3226900100708008,1.4837976694107056,2.685593605041504,-2.0517985820770264,-1.543605089187622,-0.5368998646736145,-1.7272711992263794,0.057253431528806686,-0.5836083292961121,0.3779677450656891,2.258610963821411,3.925536870956421,1.7011908292770386,-0.40402525663375854,1741433087.7745004,1741433087899,-3.634075439453125,2.4860439453125,-1.5864137706028179,-2.7541188964843752,2.7245888671875003
1741433087.826049,-1.841645061969757,-0.003942611657642315,-0.03365822484222514,-0.9994256249035178,0.3170125484466553,-0.050908271223306656,-0.2204764038324356,-3.7109763622283936,0.8545887470245361,8.755194664001465,1.0057601928710938,0.9077215194702148,0.25349050760269165,-1.2619446516036987,0.005912871100008488,-0.9199283123016357,0.08297093212604523,1.2371487617492676,0.016212711110711098,0.9554055333137512,-0.031090257689356804,-0.6406881809234619,-0.016212711110711098,0.0711451917886734,0.8577477931976318,-0.3660065829753876,0.04052365943789482,-0.44499123096466064,-0.03643091395497322,0.008201723918318748,1.1007477045059204,-0.4491107165813446,0.0008494601934216917,0.014769521541893482,-0.32858893275260925,-3.303074598312378,0.04454495757818222,-0.012285839766263962,-0.24457146227359772,3.0715904235839844,1.4599775075912476,0.14031842350959778,-0.17272895574569702,1.54303777217865,2.076037645339966,-1.1784906387329102,-1.0820019245147705,-0.8232290744781494,-1.745028018951416,-0.47654271125793457,-3.557417392730713,0.7727867364883423,1.530540108680725,8.44225788116455,2.2135069370269775,-0.44624751806259155,1741433087.7745004,1741433087899,-3.634075439453125,2.4860439453125,-1.5864137706028179,-2.7541188964843752,2.7245888671875003
1741433087.8461726,-1.8559682369232178,0.0013986595537055272,-0.03989430817267425,-0.9992029263001968,0.31700992584228516,0.2638969123363495,-0.7901397943496704,0.7474665641784668,3.033820390701294,8.11702823638916,1.0145339965820312,0.9000911712646484,0.18635080754756927,-1.2558410167694092,0.005912871100008488,-0.9222171306610107,0.13027389347553253,1.2550780773162842,0.015449759550392628,0.9546425342559814,-0.004386968910694122,-0.6059738993644714,-0.021553369238972664,0.06389715522527695,0.8455405235290527,-0.39422371983528137,0.028531182557344437,-0.5537117719650269,-0.01430533267557621,0.023079270496964455,1.2819485664367676,-0.4064744710922241,-0.004283409100025892,0.22917483747005463,-0.24938325583934784,-3.1870951652526855,0.47690555453300476,-0.0008946240996010602,-0.12440607696771622,3.167107343673706,1.0809305906295776,-0.0530238151550293,-0.05484882369637489,1.258410096168518,1.618673324584961,-0.14026182889938354,-0.26663780212402344,-0.6396982073783875,-1.3038129806518555,-0.571761965751648,-5.679745197296143,1.1403450965881348,0.6462683081626892,8.9182710647583,1.9746479988098145,-0.13601146638393402,1741433087.7745004,1741433087899,-3.634075439453125,2.4860439453125,-1.5864137706028179,-2.7541188964843752,2.7245888671875003
1741433087.8661227,-1.877810537815094,0.007158979622941761,-0.04520491919263203,-0.9989520830808382,0.24550339579582214,0.29328882694244385,-1.1252326965332031,3.051499843597412,3.1816177368164062,8.945192337036133,1.0126266479492188,0.8985652923583984,0.1203555315732956,-1.2447782754898071,0.005912871100008488,-0.925650417804718,0.17795833945274353,1.2646150588989258,0.015449759550392628,0.953498125076294,0.013923857361078262,-0.568970799446106,-0.01506828423589468,0.06427863240242004,0.8329518437385559,-0.41630589962005615,0.015987850725650787,-0.6666285395622253,0.010490577667951584,0.01926451548933983,1.4333943128585815,-0.39173009991645813,-0.004921267740428448,-0.04478617385029793,-0.09237790107727051,-3.2825632095336914,0.7165403366088867,-0.01824299618601799,-0.2532620131969452,3.1663691997528076,0.6403866410255432,0.005516478791832924,-0.08518471568822861,0.8414985537528992,2.097989082336426,0.27716752886772156,0.019110877066850662,-0.7044793367385864,-1.0505660772323608,-0.6110429167747498,-5.517913818359375,1.2632012367248535,-0.2967643439769745,7.027921676635742,0.43280941247940063,-0.03825576230883598,1741433087.7745004,1741433087899,-3.634075439453125,2.4860439453125,-1.5864137706028179,-2.7541188964843752,2.7245888671875003
1741433087.8861547,-1.8999348878860474,0.012135878314344085,-0.04870416855649562,-0.9987395178036963,0.1652742624282837,0.13904152810573578,-1.0965526103973389,2.425523042678833,-0.3372131586074829,10.741985321044922,1.0080490112304688,0.9000911712646484,0.059319447726011276,-1.2356228828430176,0.005912871100008488,-0.9302281141281128,0.2302204966545105,1.2699556350708008,0.015449759550392628,0.9508277773857117,0.01888304017484188,-0.5193789601325989,-0.009346150793135166,0.06427863240242004,0.8093003630638123,-0.4334646165370941,0.0073018260300159454,-0.7661936283111572,0.029182879254221916,0.0009536888683214784,1.5093079805374146,-0.4043121039867401,-0.004506885074079037,-0.14685307443141937,0.023855244740843773,-2.961550712585449,0.5629475116729736,0.011044345796108246,-0.19274628162384033,3.556614875793457,0.1855064332485199,0.001773010822944343,-0.2424156367778778,0.08102328330278397,2.4149515628814697,0.20057611167430878,-8.870495366863906e-05,-1.2449537515640259,-0.8185006380081177,-0.44068726897239685,-4.817040920257568,0.7464506030082703,-1.0330208539962769,3.1150097846984863,-0.7576626539230347,-0.03313164412975311,1741433087.9792063,1741433088099,-3.7295676269531253,2.31977734375,-1.5697008887671444,-2.75343212890625,2.721185302734375
1741433087.9061449,-1.9198046326637268,0.012732557555826137,-0.04978250857744954,-0.9986789192817799,0.06622520089149475,-0.0033947471529245377,-0.8565205931663513,0.03516659513115883,-1.6663589477539062,7.2708868980407715,0.9927902221679688,0.8970394134521484,0.010109102353453636,-1.2306636571884155,0.005912871100008488,-0.9298466444015503,0.28515297174453735,1.2695741653442383,0.015449759550392628,0.9458686113357544,0.01506828423589468,-0.46139466762542725,-0.004386968910694122,0.06313420087099075,0.7825970649719238,-0.44412899017333984,4.217810419504531e-05,-0.8470664620399475,0.03185320645570755,-0.02040894143283367,1.511215329170227,-0.4253486394882202,-0.0006736423238180578,-0.43254145979881287,-0.07488980889320374,-2.3721675872802734,0.3099612593650818,0.002111112466081977,0.059619344770908356,3.7040727138519287,-0.026558425277471542,-0.020555181428790092,-0.31899791955947876,-0.08944236487150192,2.9775466918945312,0.289996474981308,-0.0654531791806221,-1.3993010520935059,-0.4576350748538971,-0.24314069747924805,-3.6277034282684326,0.04885166883468628,-0.9795268774032593,-0.37057623267173767,-1.005145788192749,0.18136438727378845,1741433087.9792063,1741433088099,-3.7295676269531253,2.31977734375,-1.5697008887671444,-2.75343212890625,2.721185302734375
1741433087.926222,-1.9264160990715027,0.012869196526750875,-0.05210625360733384,-0.9985586222730061,0.1229218989610672,-0.04031229019165039,-0.263403981924057,0.18594980239868164,-1.1513553857803345,8.34117603302002,0.9893569946289062,0.8955135345458984,-0.03032730519771576,-1.2306636571884155,0.005531395319849253,-0.9294651746749878,0.3377965986728668,1.2653779983520508,0.014686808921396732,0.9412909150123596,0.00476844422519207,-0.4079881012439728,-0.0009536888683214784,0.06046387553215027,0.7497901916503906,-0.45485246181488037,0.0009587871609255672,-0.9096284508705139,0.020027466118335724,-0.038719769567251205,1.4555199146270752,-0.4348999857902527,0.007259149104356766,-0.1508651077747345,-0.036748673766851425,-2.095900058746338,-0.06374357640743256,-0.03869354724884033,-0.0094672329723835,3.460404634475708,-0.34806713461875916,-0.013549759984016418,-0.29482415318489075,-0.5325084924697876,2.5452964305877686,0.11225075274705887,-0.1508224904537201,-1.6395095586776733,-0.5732434391975403,0.027654653415083885,-3.0276269912719727,-0.7040690183639526,-0.7530977129936218,-3.1449015140533447,-0.25404876470565796,0.3365837037563324,1741433087.9792063,1741433088099,-3.7295676269531253,2.31977734375,-1.5697008887671444,-2.75343212890625,2.721185302734375
1741433087.9517553,-1.928894579410553,0.014180886200479281,-0.05453207295417265,-0.9984113157841761,0.13303576409816742,0.10446372628211975,-0.15580607950687408,2.3552634716033936,-0.4980636537075043,6.020140171051025,0.9924087524414062,0.8909358978271484,-0.07648584991693497,-1.2306636571884155,0.005912871100008488,-0.9336614012718201,0.3892957866191864,1.2619446516036987,0.015449759550392628,0.9363317489624023,0.0032425422687083483,-0.3591592311859131,-0.000572213320992887,0.05703059583902359,0.7207980751991272,-0.4718867242336273,-0.0024944585748016834,-0.952735185623169,-0.00476844422519207,-0.04901960864663124,1.3570992946624756,-0.4191236197948456,0.007597908843308687,0.09792868047952652,-0.10251346230506897,-2.082529306411743,0.037529703229665756,-0.03002057783305645,-0.32397663593292236,3.466456174850464,-0.20424826443195343,0.07757404446601868,-0.4287757873535156,0.014602730050683022,2.345489740371704,0.012044047936797142,-0.1750803142786026,-1.3593382835388184,-0.9383605122566223,-0.1710791140794754,-1.9042083024978638,-1.333927035331726,-0.4196193814277649,-5.12779426574707,0.9883894324302673,0.033607952296733856,1741433087.9792063,1741433088099,-3.7295676269531253,2.31977734375,-1.5697008887671444,-2.75343212890625,2.721185302734375
1741433087.96624,-1.932424783706665,0.015635734284420943,-0.05790705215918831,-0.9981995277115793,0.1619904637336731,0.07394737005233765,-0.2215326577425003,-6.994556903839111,-0.31269222497940063,9.071073532104492,0.9996566772460938,0.8882656097412109,-0.10013733059167862,-1.228756308555603,0.005912871100008488,-0.9431982636451721,0.44232088327407837,1.2600373029708862,0.014686808921396732,0.927176296710968,0.021553369238972664,-0.3248264193534851,-0.0032425422687083483,0.05054550990462303,0.6956206560134888,-0.497537761926651,-0.004271870478987694,-0.9569314122200012,-0.03833829239010811,-0.05359731614589691,1.2285419702529907,-0.3833569586277008,0.009015217423439026,0.1650034338235855,-0.05641710385680199,-1.0492823123931885,0.11486470699310303,0.033742278814315796,-0.4996611773967743,3.320810556411743,-0.18556790053844452,-0.03318249434232712,-0.5617077946662903,1.102782130241394,1.7972549200057983,-0.12590107321739197,-0.3449457883834839,-1.2148456573486328,-1.3599499464035034,0.04781259223818779,0.07839776575565338,-1.7763375043869019,-0.1485658437013626,-6.822442531585693,1.9152169227600098,-0.028634605929255486,1741433087.9792063,1741433088099,-3.7295676269531253,2.31977734375,-1.5697008887671444,-2.75343212890625,2.721185302734375
1741433087.9862204,-1.93580561876297,0.023308915234419067,-0.059330149447477776,-0.9979662458405768,0.048595454543828964,0.3333292007446289,-0.12861983478069305,-1.0563291311264038,-1.6296156644821167,6.433569431304932,1.0053787231445312,0.8764400482177734,-0.10662241280078888,-1.2268489599227905,0.005912871100008488,-0.9546425342559814,0.4694056510925293,1.2531707286834717,0.01506828423589468,0.9218356609344482,0.0555046908557415,-0.28744181990623474,-0.008964675478637218,0.03032730519771576,0.6826505064964294,-0.5252755284309387,0.00048674611025489867,-0.9393835067749023,-0.071908138692379,-0.06313420087099075,1.0610742568969727,-0.3458939790725708,0.0028779744170606136,0.15213845670223236,-0.3165517747402191,-0.21234475076198578,0.06847647577524185,-0.005505756940692663,-0.5848104357719421,1.6428245306015015,-0.47709977626800537,0.026124507188796997,-0.4107421636581421,1.7432746887207031,1.7306981086730957,-0.38824722170829773,-1.0465855598449707,-0.683750331401825,-1.38923180103302,0.23393049836158752,1.132537841796875,-1.6641992330551147,-0.5725001096725464,-8.707847595214844,1.6946057081222534,-0.4604606628417969,1741433087.9792063,1741433088099,-3.7295676269531253,2.31977734375,-1.5697008887671444,-2.75343212890625,2.721185302734375
1741433088.006528,-1.937217652797699,0.029312961585344858,-0.058480817172494357,-0.9978580782385505,-0.03460688889026642,0.2888151705265045,-0.0643685832619667,4.379514694213867,-3.324502468109131,4.3960347175598145,0.9962234497070312,0.8718624114990234,-0.09555962681770325,-1.226467490196228,0.005912871100008488,-0.9653238654136658,0.4827573001384735,1.2512633800506592,0.01506828423589468,0.9172579646110535,0.086785688996315,-0.25349050760269165,-0.03643091395497322,0.02079041674733162,0.6849393248558044,-0.5398042798042297,-0.007495671510696411,-0.892080545425415,-0.1035706102848053,-0.07648584991693497,0.8653773069381714,-0.3340805768966675,-0.010954799130558968,-0.25240713357925415,-0.16076958179473877,0.6650810241699219,0.02385542541742325,0.0075372979044914246,-0.4944683909416199,0.6429890990257263,-0.08157084882259369,0.008061184547841549,-0.2775675356388092,1.4670463800430298,1.6791884899139404,-1.686814308166504,-0.18266156315803528,0.3401414155960083,-0.6141671538352966,-0.32245445251464844,2.652930736541748,-1.5914390087127686,-0.5898738503456116,-9.712120056152344,0.27493223547935486,-0.6719257831573486,1741433087.9792063,1741433088099,-3.7295676269531253,2.31977734375,-1.5697008887671444,-2.75343212890625,2.721185302734375
1741433088.0263045,-1.9355442523956299,0.02625001597763382,-0.061990962730817036,-0.9977314554532599,0.27887043356895447,-0.3879203200340271,0.07142779976129532,-21.868993759155273,0.9921881556510925,18.20756721496582,0.9870681762695312,0.9050502777099609,-0.06771191209554672,-1.227230429649353,0.005531395319849253,-0.9676127433776855,0.4800869822502136,1.2497375011444092,0.014686808921396732,0.9107728600502014,0.09632257372140884,-0.22373540699481964,-0.020027466118335724,0.015449759550392628,0.7238498330116272,-0.5390117764472961,0.0004228854668326676,-0.8600366115570068,-0.11730372905731201,-0.10013733059167862,0.8257037997245789,-0.2872698903083801,0.027589624747633934,-0.3467596173286438,1.173964262008667,1.4903967380523682,-0.12848114967346191,-0.03858136385679245,-0.05256424471735954,-0.2559828758239746,-0.17497678101062775,0.00493856705725193,-0.5814087986946106,0.25267329812049866,1.2163832187652588,1.5404704809188843,-0.20778410136699677,2.316075086593628,0.0712612047791481,0.48763638734817505,1.8177599906921387,0.15179376304149628,-1.5284239053726196,1.0354894399642944,2.799028158187866,2.172610282897949,1741433087.9792063,1741433088099,-3.7295676269531253,2.31977734375,-1.5697008887671444,-2.75343212890625,2.721185302734375
1741433088.046339,-1.9391189813613892,0.03117000696061429,-0.05830171758367089,-0.9978122771307583,-0.3260710537433624,0.20850074291229248,0.06951165199279785,5.260388374328613,6.31468391418457,-6.619208335876465,0.9882125854492188,0.8955135345458984,-0.01926451548933983,-1.232571005821228,0.006294346414506435,-0.962272047996521,0.44651713967323303,1.2455412149429321,0.015449759550392628,0.9054322242736816,0.07343403995037079,-0.22411687672138214,-0.02193484455347061,0.03681239113211632,0.7928969264030457,-0.5142914652824402,0.004352580290287733,-0.8264667987823486,-0.10204470902681351,-0.09136339277029037,0.8733882904052734,-0.23871800303459167,0.04748189076781273,0.073598712682724,-0.08123843371868134,2.8342771530151367,-0.23820190131664276,0.1186615377664566,0.30438336730003357,-2.6780436038970947,-0.17557772994041443,0.053489215672016144,-0.1536744236946106,-1.1531180143356323,-0.3205525279045105,-0.04267498850822449,0.9172479510307312,3.8303070068359375,1.5091006755828857,0.2547718286514282,0.943518877029419,0.1031763032078743,1.1799266338348389,1.1673659086227417,1.926010251045227,0.6128208041191101,1741433087.9792063,1741433088099,-3.7295676269531253,2.31977734375,-1.5697008887671444,-2.75343212890625,2.721185302734375
1741433088.0663319,-1.9341785907745361,0.029996279629378137,-0.06002198295011178,-0.9977462526971137,0.26254189014434814,0.09830107539892197,0.30703669786453247,-9.62037467956543,2.704528331756592,16.317270278930664,0.9843978881835938,0.8947505950927734,0.03643091395497322,-1.235241413116455,0.005531395319849253,-0.9576943516731262,0.3858625292778015,1.2478300333023071,0.01506828423589468,0.9115357995033264,0.04482337832450867,-0.2599755823612213,-0.02689402550458908,0.03337911143898964,0.9149690866470337,-0.4725026786327362,0.014069574885070324,-0.7883192300796509,-0.08220797777175903,-0.051689937710762024,0.8516441583633423,-0.2295195311307907,0.03953490033745766,0.04982582479715347,0.02296004444360733,2.7147376537323,-0.30368131399154663,-0.07768511772155762,0.17906054854393005,-3.9744157791137695,0.01850588247179985,-0.020631544291973114,0.50096595287323,-1.3252573013305664,-1.7852931022644043,-0.19067063927650452,-0.6336268782615662,6.788122177124023,2.1292123794555664,0.5721363425254822,2.2873191833496094,1.3298715353012085,1.7472575902938843,-0.9893794655799866,0.38433513045310974,-0.38174715638160706,1741433087.9792063,1741433088099,-3.7295676269531253,2.31977734375,-1.5697008887671444,-2.75343212890625,2.721185302734375
1741433088.0863478,-1.926859438419342,0.03067229110767986,-0.06289851507505755,-0.9975484887260161,-0.028870610520243645,-0.049036264419555664,0.37903106212615967,-13.68216609954834,-5.844793319702148,14.283913612365723,0.9683752059936523,0.8936061859130859,0.09632257372140884,-1.2505004405975342,0.005912871100008488,-0.9538795948028564,0.33131152391433716,1.2428709268569946,0.01430533267557621,0.9103913903236389,0.018501564860343933,-0.3419928252696991,-0.04558632895350456,0.016212711110711098,1.0931181907653809,-0.4265046715736389,0.022492453455924988,-0.7742046117782593,-0.053215838968753815,-0.02841992862522602,0.8714808821678162,-0.23138073086738586,0.01896020583808422,-0.6704865097999573,0.010167505592107773,3.110644817352295,-0.970411479473114,-0.03962177783250809,0.21024271845817566,-3.65669584274292,-0.36177319288253784,-0.0016919252229854465,-0.13091927766799927,-1.211875081062317,-4.554832935333252,-1.4126272201538086,-0.8130388855934143,9.030607223510742,2.3329012393951416,0.3810117840766907,0.3461306095123291,0.9342918992042542,1.4301245212554932,1.3041653633117676,-0.38651612401008606,-1.2951014041900635,1741433088.1643136,1741433088299,-3.865351806640625,2.137890869140625,-1.5402238580994962,-2.75369970703125,2.72350244140625
1741433088.1063797,-1.9136937856674194,0.03566888552384395,-0.05284259650917604,-0.9979656259609623,-0.4919549226760864,0.27600839734077454,0.5723912715911865,-7.368162155151367,4.022984504699707,13.243796348571777,0.9660863876342773,0.8794918060302734,0.15735866129398346,-1.2531707286834717,0.005912871100008488,-0.9500648379325867,0.2615014910697937,1.235241413116455,0.014686808921396732,0.9119172692298889,0.0036240178160369396,-0.46330204606056213,-0.07877469807863235,0.016594186425209045,1.2731746435165405,-0.3847467005252838,0.015617859549820423,-0.7539864182472229,-0.045204851776361465,-0.027656977996230125,0.8955138325691223,-0.2712792158126831,-0.002417946932837367,-0.0723920464515686,-0.3722758889198303,2.8356130123138428,-0.12694787979125977,0.002677265787497163,0.1810113787651062,-4.858547687530518,-0.498468279838562,0.015669770538806915,0.13008558750152588,-0.548168420791626,-6.015145301818848,-1.6210795640945435,0.037440333515405655,9.12867546081543,1.8818439245224,-0.7623288631439209,1.24281907081604,0.631134569644928,-0.31792205572128296,0.9589030146598816,-2.2411210536956787,-1.0168336629867554,1741433088.1643136,1741433088299,-3.865351806640625,2.137890869140625,-1.5402238580994962,-2.75369970703125,2.72350244140625
