Freshhhhh-LC/Legged_odom/data/2/segments/booster_seg_9.29s.csv
time,yaw,projected_gravity_x,projected_gravity_y,projected_gravity_z,ang_vel_x,ang_vel_y,ang_vel_z,lin_acc_x,lin_acc_y,lin_acc_z,q_0,q_1,q_2,q_3,q_4,q_5,q_6,q_7,q_8,q_9,q_10,q_11,q_12,q_13,q_14,q_15,q_16,q_17,q_18,q_19,q_20,q_21,q_22,dq_0,dq_1,dq_2,dq_3,dq_4,dq_5,dq_6,dq_7,dq_8,dq_9,dq_10,dq_11,dq_12,dq_13,dq_14,dq_15,dq_16,dq_17,dq_18,dq_19,dq_20,dq_21,dq_22,mocap_time,mocap_timestamp,robot_x,robot_y,robot_yaw,ball_x,ball_y
1741432536.7189891,1.8453155755996704,0.03789103981695536,0.010531733608505484,-0.9992263765978106,1.0293108224868774,-0.47476038336753845,0.32819482684135437,-8.015174865722656,0.4568045437335968,20.317811965942383,-0.02422332763671875,0.21992111206054688,-0.004386968910694122,-1.2363858222961426,0.006294346414506435,-0.962272047996521,0.45834288001060486,1.23905611038208,0.004386968910694122,0.9122987985610962,-0.08869306743144989,-0.2443350851535797,-0.03032730519771576,0.10471503436565399,0.8382925391197205,-0.533147931098938,0.03428545594215393,-0.8287556171417236,0.00667582219466567,-0.06847485899925232,0.7459754347801208,-0.33112162351608276,-0.013342450372874737,-0.0020241907332092524,0.3229268789291382,2.7131006717681885,-0.7413921356201172,0.0031558452174067497,0.3758481740951538,-1.269386887550354,-0.705069899559021,0.0019469757098704576,0.027998272329568863,0.003619622206315398,0.7586385607719421,-0.05853274092078209,0.07562503963708878,3.618715524673462,0.6811028718948364,0.8292207717895508,1.4679527282714844,-0.9837833046913147,0.8926268219947815,-0.564269483089447,0.6996008157730103,-0.31357765197753906,1741432536.726047,1741432536939,-2.7216767578125,0.053181560516357425,2.475844793214897,-3.122547119140625,2.4006513671875
1741432536.739954,1.920483946800232,0.012438686163048426,-0.006264231260369163,-0.9999030145435376,0.08656706660985947,-0.1939934641122818,1.0320059061050415,4.942237377166748,-1.5399558544158936,9.005289077758789,-0.040246009826660156,0.23289108276367188,0.3110933005809784,-1.2577484846115112,0.005912871100008488,-0.9481574892997742,0.1359960287809372,1.23447847366333,0.0036240178160369396,0.9149690866470337,-0.09555962681770325,-0.6109330654144287,-0.0394827201962471,0.11959258466959,1.421187162399292,-0.4730795621871948,0.008840491063892841,-0.6769283413887024,-0.005531395319849253,-0.00667582219466567,0.8321889042854309,-0.2892470955848694,-0.01983029954135418,0.46491435170173645,0.07696052640676498,3.317239284515381,-0.10428967326879501,0.0047233570367097855,-0.013515591621398926,-4.782167434692383,-0.07791127264499664,-0.00792020745575428,0.21953462064266205,0.22309041023254395,-3.892364501953125,0.39777183532714844,1.1617019176483154,1.9256234169006348,-2.004671573638916,0.1757751852273941,2.1326303482055664,-0.6531843543052673,-0.3665410876274109,-0.31047549843788147,-0.7454283833503723,0.2790900766849518,1741432536.726047,1741432536939,-2.7216767578125,0.053181560516357425,2.475844793214897,-3.122547119140625,2.4006513671875
1741432536.7425723,-4.282498478889465,0.021455049723618454,-0.0004203966770835664,-0.9997697255408323,-0.32789289951324463,-0.7741101980209351,0.32502418756484985,-4.544031620025635,4.262323379516602,14.793944358825684,-0.07724857330322266,0.22755050659179688,0.4190509021282196,-1.2520263195037842,0.006294346414506435,-0.9126802682876587,-0.01773861236870289,1.2226526737213135,0.0024795911740511656,0.959983229637146,-0.14858472347259521,-0.727664589881897,0.14362554252147675,0.2927824854850769,0.7555122971534729,-0.32497313618659973,0.022530756890773773,-0.33245593309402466,0.021553369238972664,0.042153049260377884,0.7719157934188843,-0.4373777210712433,0.002367139793932438,-0.06353281438350677,0.38685572147369385,-1.9962857961654663,-0.09975066035985947,0.014771227724850178,0.07042259722948074,3.357429265975952,-0.003702437039464712,0.00879430491477251,-0.30469274520874023,-0.1596055030822754,1.9197769165039062,0.3693076968193054,0.5786598324775696,-1.266347050666809,1.3229135274887085,0.812646746635437,2.8637137413024902,0.4775892496109009,0.9042572379112244,0.16002319753170013,0.9223436713218689,-0.3908790051937103,1741432536.726047,1741432536939,-2.7216767578125,0.053181560516357425,2.475844793214897,-3.122547119140625,2.4006513671875
1741432536.7445505,-4.282485127449036,0.009611173635560613,0.004072747578661817,-0.9999455175500851,-0.08014566451311111,-0.02007271721959114,-0.28577351570129395,-7.5402302742004395,2.811984062194824,10.330370903015137,-0.09174442291259766,0.21839427947998047,0.28362706303596497,-1.2627075910568237,0.006294346414506435,-0.916113555431366,0.09975585341453552,1.2321895360946655,0.004005493130534887,0.9557870030403137,-0.14705882966518402,-0.6326771974563599,0.11310750246047974,0.2576867341995239,0.7616159319877625,-0.3248949646949768,0.041804805397987366,-0.3561074137687683,0.04444190114736557,0.1329442262649536,0.9531166553497314,-0.3799634277820587,-0.018342627212405205,-0.245461568236351,-0.2340465486049652,-3.697394371032715,-0.24184656143188477,-0.010359625332057476,-0.02175460010766983,3.58355450630188,0.6979520320892334,0.13991688191890717,-0.038330964744091034,0.005496686790138483,1.5165256261825562,-0.8674682974815369,-1.303322434425354,-0.07673310488462448,-0.3226074278354645,0.5826295018196106,-2.6786859035491943,0.5137193202972412,2.725918769836426,6.684024333953857,2.0180506706237793,-0.4668719470500946,1741432536.726047,1741432536939,-2.7216767578125,0.053181560516357425,2.475844793214897,-3.122547119140625,2.4006513671875
1741432536.7600899,-4.293401122093201,0.014962444533616757,-0.003372469425238793,-0.9998823689332432,0.4365956783294678,0.30951395630836487,-0.6372016072273254,2.4555611610412598,-6.500156879425049,9.869708061218262,-0.09098148345947266,0.21229076385498047,0.20275425910949707,-1.2661409378051758,0.006294346414506435,-0.9157320261001587,0.15583276748657227,1.2409635782241821,0.004386968910694122,0.9557870030403137,-0.1508735716342926,-0.6013962030410767,0.09403372555971146,0.24013885855674744,0.7616159319877625,-0.3301495909690857,0.04842669144272804,-0.4488059878349304,0.0722896158695221,0.17681391537189484,1.1232547760009766,-0.3361101746559143,-0.01390126347541809,0.021684130653738976,-0.18470561504364014,-4.079422473907471,-0.2477383315563202,-0.0027021702844649553,0.007402688264846802,3.739560842514038,0.4851984679698944,-0.016349289566278458,0.007954388856887817,-0.2978382408618927,1.4555975198745728,-1.1445202827453613,-0.5720003247261047,-0.004711955785751343,-0.1394500583410263,0.10401726514101028,-5.000013828277588,1.6295956373214722,2.0453295707702637,8.846993446350098,1.9939322471618652,0.6304548382759094,1741432536.726047,1741432536939,-2.7216767578125,0.053181560516357425,2.475844793214897,-3.122547119140625,2.4006513671875
1741432536.7802086,-4.3129812479019165,0.020841197741404624,-0.012581571415888384,-0.9997036303512209,0.48172634840011597,0.280160129070282,-0.9751262664794922,-1.9564695358276367,1.130322813987732,10.570451736450195,-0.10547828674316406,0.20923900604248047,0.12188144028186798,-1.2638521194458008,0.005912871100008488,-0.9157320261001587,0.20580606162548065,1.2421079874038696,0.004386968910694122,0.9557870030403137,-0.16041046380996704,-0.5731670260429382,0.08182650804519653,0.24357213079929352,0.7597085237503052,-0.3359599709510803,0.041587136685848236,-0.5678263306617737,0.1035706102848053,0.19474326074123383,1.2968261241912842,-0.3287798762321472,-0.0031798803247511387,-0.4126412570476532,-0.10912937670946121,-3.981606960296631,0.20143699645996094,0.001237295102328062,-0.015848686918616295,3.3495521545410156,0.02684575505554676,0.012079271487891674,0.001635052147321403,-0.513776957988739,1.4598195552825928,-0.5174521803855896,0.22379069030284882,-0.11253172159194946,-0.35883936285972595,-0.30952996015548706,-5.988925457000732,1.5467382669448853,0.6701412200927734,8.489424705505371,-0.045377399772405624,0.22045569121837616,1741432536.726047,1741432536939,-2.7216767578125,0.053181560516357425,2.475844793214897,-3.122547119140625,2.4006513671875
1741432536.8001132,-4.333648085594177,0.02627363548214458,-0.02211293684956881,-0.9994101831092368,0.491305410861969,0.25084367394447327,-1.035070776939392,-0.6501420140266418,-1.0692428350448608,11.567315101623535,-0.11310768127441406,0.21763134002685547,0.048638131469488144,-1.2573670148849487,0.005912871100008488,-0.9164950251579285,0.25616082549095154,1.2424894571304321,0.004386968910694122,0.9554055333137512,-0.17452506721019745,-0.5395971536636353,0.08144503086805344,0.2462424635887146,0.7600900530815125,-0.34584465622901917,0.029719987884163857,-0.6780728101730347,0.12874799966812134,0.17605096101760864,1.416990876197815,-0.3644220232963562,-0.014000375755131245,-0.27694568037986755,0.203762486577034,-3.47971773147583,0.4198492169380188,0.005262506660073996,-0.05014687776565552,3.3630950450897217,0.05267494544386864,0.0028819378931075335,-0.01760801486670971,-0.7464066743850708,1.6496937274932861,-0.013873351737856865,0.04902290180325508,0.046510662883520126,-0.46916303038597107,-0.8244915008544922,-5.191160678863525,1.1403319835662842,-1.088374137878418,5.430033206939697,-2.0556914806365967,-0.47837525606155396,1741432536.726047,1741432536939,-2.7216767578125,0.053181560516357425,2.475844793214897,-3.122547119140625,2.4006513671875
1741432536.8201168,-4.349772095680237,0.029205384026792607,-0.02488193059268688,-0.9992636964654668,0.06379421800374985,0.09618702530860901,-0.6877251863479614,-1.1944721937179565,-2.960156202316284,12.60835075378418,-0.13141822814941406,0.23174667358398438,-0.0078202486038208,-1.2493560314178467,0.006294346414506435,-0.9180209040641785,0.30498969554901123,1.2455412149429321,0.004005493130534887,0.9531166553497314,-0.17681391537189484,-0.5045014023780823,0.08068207651376724,0.24319066107273102,0.7597085237503052,-0.3589358627796173,0.012404832988977432,-0.770008385181427,0.13981078565120697,0.14057374000549316,1.4589532613754272,-0.4171155095100403,-0.011614996008574963,-0.552421510219574,0.41796085238456726,-2.6608126163482666,0.5625314116477966,0.01110624149441719,-0.09750618040561676,3.247688055038452,0.2275323122739792,-0.013099182397127151,-0.2847602963447571,-0.04530743882060051,1.7861392498016357,-0.09749763458967209,-0.16959130764007568,-0.053700439631938934,-0.7338441610336304,-0.7424265742301941,-4.534721851348877,0.47801899909973145,-1.7700843811035156,1.462912917137146,-2.700411796569824,0.4702848494052887,1741432536.726047,1741432536939,-2.7216767578125,0.053181560516357425,2.475844793214897,-3.122547119140625,2.4006513671875
1741432536.8401356,1.9244309663772583,0.032617281210506756,-0.01909004564953075,-0.9992855863683482,-0.3147641718387604,0.14976248145103455,-0.43850091099739075,3.3779852390289307,0.127952441573143,9.478358268737793,-0.14324378967285156,0.23212814331054688,-0.05397878959774971,-1.2409635782241821,0.005912871100008488,-0.9222171306610107,0.35000380873680115,1.2516448497772217,0.00476844422519207,0.9447242021560669,-0.17643244564533234,-0.4686427116394043,0.07915617525577545,0.23212787508964539,0.7570382356643677,-0.3874645531177521,0.015010601840913296,-0.8337147831916809,0.14133669435977936,0.09288929402828217,1.4253833293914795,-0.46422815322875977,0.0051141781732439995,-0.37128397822380066,0.0688328668475151,-2.3776280879974365,0.5372396111488342,0.005185817368328571,-0.2348535805940628,2.9697108268737793,0.3873814642429352,0.05160675197839737,-0.5079372525215149,0.10476406663656235,1.7107455730438232,-0.09887673705816269,-0.6966367363929749,-0.1100110188126564,-1.5252207517623901,0.2775259017944336,-3.01025390625,0.08703964948654175,-2.269399642944336,-2.2379233837127686,-2.2352075576782227,0.8452712297439575,1741432536.9264777,1741432537139,-2.78790771484375,0.24597671508789062,2.3666536317952183,-2.843939697265625,2.4577392578125
1741432536.8601582,1.9182406663894653,0.035585201608572314,-0.009310849322512063,-0.9993232717751402,-0.4957721531391144,0.147334024310112,-0.30896955728530884,-0.8880629539489746,-1.5831125974655151,8.969741821289062,-0.15125465393066406,0.23289108276367188,-0.09937438368797302,-1.2348599433898926,0.005149920005351305,-0.9367132186889648,0.3931105434894562,1.2577484846115112,0.00476844422519207,0.9351872801780701,-0.1653696447610855,-0.4362172782421112,0.07915617525577545,0.22144655883312225,0.7566567659378052,-0.42592471837997437,0.01283368468284607,-0.8730067610740662,0.13904783129692078,0.05359731614589691,1.3345922231674194,-0.48185938596725464,0.0129186837002635,-0.25857850909233093,0.034617580473423004,-2.1215920448303223,0.38455653190612793,-0.08052544295787811,-0.8491607904434204,3.007539749145508,0.40857744216918945,0.018365388736128807,-0.7054049968719482,0.6360713839530945,1.5714441537857056,0.0007955042528919876,-0.5931280851364136,-0.008186855353415012,-1.9650295972824097,-0.13626064360141754,-1.784332513809204,-0.15268288552761078,-1.8534311056137085,-4.792746543884277,-0.5865291953086853,0.30460697412490845,1741432536.9264777,1741432537139,-2.78790771484375,0.24597671508789062,2.3666536317952183,-2.843939697265625,2.4577392578125
1741432536.88027,1.9105597734451294,0.03985578015934725,0.0031006799133173123,-0.999200631791216,-0.6053929328918457,0.21332545578479767,-0.4261191785335541,4.903295040130615,-0.531579852104187,5.828106880187988,-0.15583229064941406,0.23365402221679688,-0.12111848592758179,-1.228756308555603,0.005912871100008488,-0.9531166553497314,0.4335469603538513,1.2615631818771362,0.00476844422519207,0.924887478351593,-0.14133669435977936,-0.41447317600250244,0.07534141838550568,0.20923933386802673,0.7524605393409729,-0.46653199195861816,0.007860861718654633,-0.8886472582817078,0.12645913660526276,0.02841992862522602,1.2125200033187866,-0.4618726670742035,0.010674369521439075,-0.1601439267396927,0.005987068638205528,-0.8964723944664001,0.3997896909713745,0.005780794192105532,-0.8190940022468567,2.34731388092041,0.1392662525177002,-0.006264714058488607,-0.6273937821388245,1.2951173782348633,0.9533869028091431,-0.26936325430870056,-0.6520261168479919,-0.2582622766494751,-2.0087404251098633,-0.08872107416391373,-0.6283929347991943,-0.7665769457817078,-1.2075387239456177,-6.204446315765381,1.3208173513412476,-0.022441009059548378,1741432536.9264777,1741432537139,-2.78790771484375,0.24597671508789062,2.3666536317952183,-2.843939697265625,2.4577392578125
1741432536.900256,1.903844952583313,0.04490507469147483,0.011682300447894168,-0.9989229490422163,-0.3582780361175537,0.31719183921813965,-0.34842586517333984,1.8692615032196045,1.9961687326431274,5.05212926864624,-0.15621376037597656,0.23365402221679688,-0.12149996310472488,-1.2234156131744385,0.005912871100008488,-0.9660868048667908,0.4545281231403351,1.2611817121505737,0.004386968910694122,0.919165313243866,-0.10891126841306686,-0.38204777240753174,0.061226826161146164,0.1844434291124344,0.7475013136863708,-0.4984318017959595,0.004622692707926035,-0.884069561958313,0.1035706102848053,0.004386968910694122,1.0759518146514893,-0.41826507449150085,0.0086945416405797,-0.03536415845155716,-0.03642462566494942,0.09042736142873764,0.29503142833709717,-0.0001532904279883951,-0.6475792527198792,1.3424749374389648,-0.024175014346837997,-0.02185101993381977,-0.34311380982398987,1.6285853385925293,1.644984483718872,-0.7718018293380737,-1.2130790948867798,-0.30109792947769165,-1.5080896615982056,0.036100272089242935,0.46134689450263977,-1.2482936382293701,-1.274446725845337,-7.029102325439453,2.1667535305023193,-0.16635490953922272,1741432536.9264777,1741432537139,-2.78790771484375,0.24597671508789062,2.3666536317952183,-2.843939697265625,2.4577392578125
1741432536.92028,1.8996046781539917,0.051805325479304866,0.011890295186756722,-0.9985864154555454,0.04755125194787979,0.3316860795021057,-0.16812674701213837,5.505464553833008,-0.5315567255020142,3.839388847351074,-0.15659618377685547,0.23250961303710938,-0.10204470902681351,-1.223034143447876,0.005912871100008488,-0.9706645011901855,0.46292057633399963,1.2573670148849487,0.004386968910694122,0.9157320261001587,-0.08449683338403702,-0.34809643030166626,0.038719769567251205,0.1661325991153717,0.7387273907661438,-0.5119106769561768,0.0023038825020194054,-0.8680475950241089,0.07610437273979187,-0.034142062067985535,0.9363317489624023,-0.372668981552124,0.001078231493011117,-0.025818917900323868,-0.034465912729501724,1.082688331604004,0.013613132759928703,-0.003901788732036948,-0.14447233080863953,0.44626784324645996,-0.3339882791042328,-0.014650609344244003,-0.24589644372463226,1.1633403301239014,1.7726829051971436,-1.176310420036316,-0.7152753472328186,-0.42438068985939026,-0.4477887749671936,-0.21923495829105377,0.6461968421936035,-1.3297514915466309,-1.9535744190216064,-6.894406318664551,2.2067131996154785,-0.37079086899757385,1741432536.9264777,1741432537139,-2.78790771484375,0.24597671508789062,2.3666536317952183,-2.843939697265625,2.4577392578125
1741432536.940286,1.899375319480896,0.054293476712233904,0.0053803039538028305,-0.9985105260916696,0.33000192046165466,0.10856564342975616,0.01354180183261633,-1.0885698795318604,0.6445721387863159,7.772518634796143,-0.15812206268310547,0.23098373413085938,-0.06504157930612564,-1.223034143447876,0.005912871100008488,-0.9683756828308105,0.46025025844573975,1.2482116222381592,0.004005493130534887,0.9130617380142212,-0.07457847148180008,-0.30308231711387634,0.00667582219466567,0.1668955534696579,0.7398717999458313,-0.49978575110435486,0.007027681451290846,-0.8485923409461975,0.040627144277095795,-0.057793546468019485,0.8150225281715393,-0.3459932506084442,-0.007234192453324795,-0.030879473313689232,-0.0389118492603302,1.9852311611175537,-0.0022675576619803905,0.005543234292417765,0.12674473226070404,-0.3309102952480316,-0.6030871868133545,0.0038215171080082655,-0.19648969173431396,0.3671613931655884,2.281358242034912,-1.5389916896820068,0.1776866465806961,0.15765489637851715,0.6730877757072449,0.737723708152771,1.1509742736816406,-1.682051181793213,-1.083187222480774,-5.783768653869629,1.06397545337677,-0.2780047357082367,1741432536.9264777,1741432537139,-2.78790771484375,0.24597671508789062,2.3666536317952183,-2.843939697265625,2.4577392578125
1741432536.960283,1.901041865348816,0.0489390731704962,-0.009735154980219405,-0.9987543210793753,0.8471251726150513,-0.34922242164611816,0.09149820357561111,6.072057723999023,16.27729606628418,26.622631072998047,-0.15392494201660156,0.24547958374023438,-0.012397955171763897,-1.228756308555603,0.006294346414506435,-0.961509108543396,0.44308385252952576,1.2405821084976196,0.004386968910694122,0.9130617380142212,-0.07305257022380829,-0.26951247453689575,-0.01888304017484188,0.17223620414733887,0.776493489742279,-0.4876953363418579,0.021388109773397446,-0.8245593905448914,0.012779430486261845,-0.05359731614589691,0.734149694442749,-0.34006020426750183,-0.01708836667239666,0.14321883022785187,0.48777467012405396,2.8814868927001953,-0.5259247422218323,-0.004767497070133686,0.38492682576179504,-1.1946876049041748,-0.5530782341957092,-0.005552990827709436,-0.037387553602457047,0.18415164947509766,1.585741400718689,-1.0630956888198853,0.13054457306861877,2.412869453430176,0.5200093388557434,0.5795343518257141,1.01701819896698,-1.1765069961547852,0.5546064972877502,-2.9439499378204346,0.573032557964325,-0.6165071129798889,1741432536.9264777,1741432537139,-2.78790771484375,0.24597671508789062,2.3666536317952183,-2.843939697265625,2.4577392578125
1741432536.9803104,1.8996115922927856,0.038627102150801465,-0.02764566700933978,-0.9988711949370852,0.7869922518730164,-0.3167214095592499,-0.1842799037694931,9.388158798217773,-12.591414451599121,7.046943664550781,-0.16765880584716797,0.2550163269042969,0.054741740226745605,-1.2474485635757446,0.005149920005351305,-0.9561684727668762,0.4079881012439728,1.2321895360946655,0.004005493130534887,0.9088655114173889,-0.07572289556264877,-0.2759975492954254,-0.018120087683200836,0.16880293190479279,0.883306622505188,-0.46911248564720154,0.03260790556669235,-0.7860303521156311,0.016594186425209045,-0.02727550081908703,0.7970931529998779,-0.3212417662143707,-0.03146322816610336,-0.3718056380748749,0.3271855115890503,3.4041292667388916,-1.205895185470581,-0.10220932960510254,0.257203608751297,-2.6613171100616455,-0.5477929711341858,0.02383737452328205,-0.2358335256576538,-0.2846525311470032,-0.599646270275116,-0.21451222896575928,-0.1408071517944336,5.845951080322266,1.2017685174942017,0.6873887181282043,1.848628044128418,0.4525681734085083,1.5397584438323975,3.0881593227386475,0.6435284614562988,-0.7133051753044128,1741432536.9264777,1741432537139,-2.78790771484375,0.24597671508789062,2.3666536317952183,-2.843939697265625,2.4577392578125
1741432537.0003195,1.899889349937439,0.032676183888399726,-0.03302833304132917,-0.9989201150357332,0.276523232460022,-0.4442901611328125,0.05304853245615959,-11.8146333694458,-1.1661032438278198,11.979108810424805,-0.19092845916748047,0.2653160095214844,0.1333257108926773,-1.2520263195037842,0.006294346414506435,-0.9470130205154419,0.3427557647228241,1.228756308555603,0.00476844422519207,0.9092469811439514,-0.06618601083755493,-0.3442816734313965,-0.02689402550458908,0.14019227027893066,1.0370413064956665,-0.4255997836589813,0.03897842764854431,-0.7703898549079895,0.03223468363285065,0.01583123579621315,0.8176928162574768,-0.32569798827171326,-0.027553195133805275,-0.5077317357063293,0.2972829341888428,3.9410793781280518,-0.16540104150772095,0.0038335039280354977,0.4464898109436035,-4.64641809463501,-0.1905636489391327,0.06681492924690247,0.06860771775245667,0.6963814496994019,-3.593127727508545,-0.1568984091281891,-1.823344349861145,8.079314231872559,2.2137093544006348,0.40359339118003845,1.2321041822433472,0.8062058687210083,2.0051040649414062,0.6817612648010254,-0.17159079015254974,0.2153932899236679,1741432536.9264777,1741432537139,-2.78790771484375,0.24597671508789062,2.3666536317952183,-2.843939697265625,2.4577392578125
1741432537.0203426,1.9034188985824585,0.03148952650456255,-0.03106414127739307,-0.99902123543357,-0.22080537676811218,-0.04262362793087959,0.25336769223213196,-0.1061830222606659,-9.001293182373047,10.900750160217285,-0.20275402069091797,0.2691307067871094,0.20771344006061554,-1.2531707286834717,0.006294346414506435,-0.9435797929763794,0.2595941126346588,1.23447847366333,0.00476844422519207,0.9111543297767639,-0.046730753034353256,-0.439269095659256,-0.040627144277095795,0.09594109654426575,1.2125200033187866,-0.3880442976951599,0.019907735288143158,-0.7211795449256897,0.038719769567251205,0.03528648987412453,0.8299000263214111,-0.3219068944454193,-0.0279743243008852,-0.4529762864112854,0.24098940193653107,3.8124489784240723,-0.17397266626358032,0.09164693206548691,0.14312362670898438,-5.537271976470947,0.48593395948410034,-0.005972639657557011,0.11288373917341232,0.9382055997848511,-4.84734582901001,-0.8847111463546753,-2.1785430908203125,8.334294319152832,1.6182864904403687,-1.5098333358764648,2.400867462158203,0.010871457867324352,0.898770272731781,0.7619826793670654,0.1667795330286026,0.05148497596383095,1741432536.9264777,1741432537139,-2.78790771484375,0.24597671508789062,2.3666536317952183,-2.843939697265625,2.4577392578125
1741432537.040418,1.9194141626358032,0.022974348991943977,-0.021837815414085974,-0.9994975183092436,-0.42564794421195984,-0.4825471341609955,0.7760215401649475,3.0331099033355713,3.1924962997436523,7.589414119720459,-0.23098373413085938,0.2828645706176758,0.26913100481033325,-1.2569855451583862,0.006294346414506435,-0.9397650361061096,0.18558785319328308,1.2447782754898071,0.005149920005351305,0.9122987985610962,-0.027656977996230125,-0.5376898050308228,-0.05359731614589691,0.0711451917886734,1.347943902015686,-0.39188486337661743,9.80467302724719e-05,-0.6799801588058472,0.02994582988321781,0.03528648987412453,0.8348592519760132,-0.3251194953918457,-0.021202268078923225,-0.7186887860298157,0.44083061814308167,3.027913808822632,-0.2708100974559784,-0.03292740136384964,0.2143622487783432,-4.722270965576172,0.597710132598877,0.005224478431046009,0.07242720574140549,0.9704046845436096,-4.771273136138916,-0.42044898867607117,-1.0500876903533936,6.232722282409668,-0.6064199805259705,-0.45012542605400085,2.1806094646453857,-0.4387893080711365,-0.08763249963521957,0.0352281779050827,-0.1923626959323883,0.3438366949558258,1741432536.9264777,1741432537139,-2.78790771484375,0.24597671508789062,2.3666536317952183,-2.843939697265625,2.4577392578125
1741432537.060415,-4.348228096961975,0.01285732687133415,-0.017131704102823057,-0.9997705706112062,-0.21515168249607086,-0.4569028317928314,0.832177996635437,2.084455728530884,1.652312159538269,10.77914810180664,-0.23785018920898438,0.2828645706176758,0.3274967670440674,-1.2604187726974487,0.006294346414506435,-0.9351872801780701,0.11692225188016891,1.2436338663101196,0.0032425422687083483,0.9153505563735962,-0.00476844422519207,-0.6227588057518005,-0.0551232174038887,0.07495994865894318,1.4173723459243774,-0.4326225221157074,0.010739997029304504,-0.622377336025238,0.020027466118335724,0.034142062067985535,0.8257037997245789,-0.3315049111843109,-0.013385032303631306,-0.29362019896507263,0.04496847838163376,2.879103899002075,-0.1769038885831833,-0.004921897780150175,0.13541734218597412,-4.495865821838379,-0.17049433290958405,-0.13282398879528046,0.21033109724521637,1.126212239265442,-4.18479585647583,-0.12887653708457947,0.37947455048561096,2.9062461853027344,-2.1531670093536377,0.29130250215530396,2.854565143585205,-0.3916822075843811,-0.034626252949237823,-0.4929296672344208,-0.32477784156799316,0.3439027965068817,1741432536.9264777,1741432537139,-2.78790771484375,0.24597671508789062,2.3666536317952183,-2.843939697265625,2.4577392578125
1741432537.0804298,-4.33808434009552,0.004665851892918183,-0.017125942542363513,-0.9998424535486323,0.04154204949736595,-0.42693737149238586,0.4563567638397217,-4.551243782043457,3.8990769386291504,9.818674087524414,-0.2580680847167969,0.2748527526855469,0.38357365131378174,-1.2630890607833862,0.006294346414506435,-0.9351872801780701,0.0555046908557415,1.2371487617492676,0.0032425422687083483,0.9164950251579285,0.008964675478637218,-0.6963835954666138,-0.05130846053361893,0.09479667246341705,1.418135404586792,-0.48021361231803894,0.0008144938619807363,-0.5754558444023132,0.01430533267557621,0.02880140393972397,0.811589241027832,-0.3447026014328003,-0.008470063097774982,-0.5931170582771301,-0.21934688091278076,2.7271060943603516,-0.2336450070142746,0.012530632317066193,-0.003957414533942938,-3.9423739910125732,-0.4013671278953552,0.07722075283527374,0.06009529531002045,0.777555525302887,-3.639930486679077,0.1356462985277176,1.2165840864181519,-0.46009331941604614,-2.3508098125457764,-0.6528664827346802,2.1765685081481934,-0.13585622608661652,-0.3634854257106781,-0.748201310634613,-0.8107113242149353,0.2661217153072357,1741432537.2324529,1741432537439,-2.880095947265625,0.5433485107421875,2.362481861365637,-1.7180924072265626,2.548016845703125
1741432537.100434,-4.33607280254364,0.0015022269387967514,-0.019422310493036426,-0.9998102405803495,0.09781372547149658,-0.08975688368082047,-0.006787111982703209,-3.796107530593872,1.629027247428894,8.690258026123047,-0.2798118591308594,0.2637901306152344,0.43240252137184143,-1.2665224075317383,0.006294346414506435,-0.9363317489624023,0.004386968910694122,1.2363858222961426,0.004005493130534887,0.9199283123016357,0.03185320645570755,-0.7581826448440552,-0.04787518084049225,0.11081864684820175,1.3643473386764526,-0.5076239109039307,-0.011098545044660568,-0.5395971536636353,0.009727626107633114,0.02727550081908703,0.8047226667404175,-0.368865430355072,-0.008889428339898586,-0.6582162380218506,-0.2787174582481384,2.435098648071289,-0.3089461326599121,-0.0059813521802425385,-0.040638040751218796,-3.4330074787139893,0.08692742884159088,0.021394681185483932,0.20308904349803925,1.134360671043396,-3.119554281234741,0.11558671295642853,0.8506765961647034,-2.994288682937622,-1.0724989175796509,-0.4452008605003357,2.052795171737671,-0.263488233089447,-0.020414652302861214,-0.19007708132266998,-1.2660853862762451,0.019097553566098213,1741432537.2324529,1741432537439,-2.880095947265625,0.5433485107421875,2.362481861365637,-1.7180924072265626,2.548016845703125
1741432537.120478,-4.3374820947647095,0.008281179113414227,-0.022853973925548866,-0.9997045153185525,0.1705569177865982,0.34484463930130005,-0.035505007952451706,-2.120293140411377,1.6096605062484741,8.549885749816895,-0.3156709671020508,0.23937606811523438,0.4797055125236511,-1.2669038772583008,0.005912871100008488,-0.9363317489624023,-0.05436026677489281,1.2405821084976196,0.004386968910694122,0.9302281141281128,0.05130846053361893,-0.8062485456466675,-0.04787518084049225,0.11234454810619354,1.2731746435165405,-0.49886640906333923,-0.009560932405292988,-0.509079098701477,0.004386968910694122,0.024223696440458298,0.8024337887763977,-0.3983704149723053,-0.008169583976268768,-1.0496808290481567,-0.6134479641914368,2.1931076049804688,0.030848437920212746,-0.004455394111573696,-0.03690636530518532,-3.7695233821868896,0.180768683552742,0.051541443914175034,0.7714186906814575,0.9589292407035828,-2.133167266845703,-0.015355453826487064,0.030787648633122444,-4.813547134399414,0.7716389298439026,0.018379267305135727,1.3628361225128174,-0.28289738297462463,-0.1840876042842865,-0.09555093944072723,-1.450019121170044,-0.027594691142439842,1741432537.2324529,1741432537439,-2.880095947265625,0.5433485107421875,2.362481861365637,-1.7180924072265626,2.548016845703125
1741432537.140493,-4.34235417842865,0.022852787441077032,-0.025337497667279663,-0.999417711128902,0.1337970346212387,0.753818690776825,-0.2788066864013672,3.820791244506836,-0.08279997110366821,6.47465181350708,-0.3419923782348633,0.22755050659179688,0.5041199326515198,-1.2661409378051758,0.006294346414506435,-0.9363317489624023,-0.09784847497940063,1.2386746406555176,0.0036240178160369396,0.9462500810623169,0.06160829961299896,-0.8344777822494507,-0.04139009863138199,0.1035706102848053,1.1522468328475952,-0.45830869674682617,-0.012685185298323631,-0.4812313914299011,0.0020981156267225742,0.021171892061829567,0.8047226667404175,-0.4296287000179291,-0.01082823146134615,-0.8204777240753174,-0.3911997079849243,1.1243582963943481,0.01251889206469059,-0.004119921009987593,0.056211572140455246,-2.807173490524292,-0.14149585366249084,-0.07552008330821991,1.0571551322937012,0.41236963868141174,-1.512986421585083,0.5216865539550781,-0.4634004533290863,-6.400633811950684,2.058100700378418,-0.08189680427312851,1.5033817291259766,-0.08145805448293686,-0.08980242908000946,0.06223764270544052,-1.5994997024536133,-0.03361142799258232,1741432537.2324529,1741432537439,-2.880095947265625,0.5433485107421875,2.362481861365637,-1.7180924072265626,2.548016845703125
1741432537.1605048,-4.348351836204529,0.03435351022873966,-0.02569028899330413,-0.9990794990321864,-0.012407970614731312,0.5669248700141907,-0.31662338972091675,3.4473397731781006,0.9145769476890564,7.072597026824951,-0.3675518035888672,0.22640609741210938,0.5113679766654968,-1.2657594680786133,0.006294346414506435,-0.9306095838546753,-0.11654078215360641,1.2371487617492676,0.0036240178160369396,0.9554055333137512,0.06237125024199486,-0.8440146446228027,-0.024986648932099342,0.09517814964056015,1.0164415836334229,-0.4132439196109772,-0.006278962828218937,-0.4533836841583252,0.007057297509163618,0.02536812424659729,0.805867075920105,-0.4642302691936493,-0.01068072859197855,-0.7661241888999939,-0.0796123594045639,0.19109615683555603,0.03192939609289169,-0.0010173575719818473,0.33295467495918274,-0.9492511749267578,-0.10767409950494766,-0.004249269142746925,0.506641685962677,0.056295305490493774,-0.25551536679267883,0.8131483197212219,-0.24718235433101654,-6.7900214195251465,2.269451379776001,0.40331578254699707,1.4424618482589722,0.288994163274765,0.24516567587852478,0.11370044201612473,-1.6920301914215088,0.13100790977478027,1741432537.2324529,1741432537439,-2.880095947265625,0.5433485107421875,2.362481861365637,-1.7180924072265626,2.548016845703125
1741432537.180533,1.927451491355896,0.04116041143224162,-0.02153947245070769,-0.9989203530098252,-0.20939049124717712,0.27910223603248596,-0.3789050579071045,3.1414544582366943,-0.597464382648468,4.761080265045166,-0.3984508514404297,0.24052047729492188,0.5006866455078125,-1.2642335891723633,0.006294346414506435,-0.9157320261001587,-0.11348897218704224,1.236767292022705,0.0036240178160369396,0.955024003982544,0.06046387553215027,-0.8382925391197205,-0.013923857361078262,0.10814831405878067,0.8916990756988525,-0.3681679666042328,0.002211912302300334,-0.4190509021282196,0.02727550081908703,0.02727550081908703,0.80663001537323,-0.49161797761917114,-0.007928073406219482,-0.9385148882865906,0.45796194672584534,-0.675515353679657,0.09315589815378189,-0.007457153871655464,0.8044108152389526,0.3951321840286255,-0.0016734370728954673,0.00507540674880147,-0.12925930321216583,-0.12542828917503357,0.3919697403907776,0.3436925709247589,0.8386155366897583,-6.006707191467285,2.1949667930603027,0.3749011754989624,1.6810959577560425,1.186424732208252,0.06307919323444366,-0.02240007370710373,-1.1986184120178223,0.16610699892044067,1741432537.2324529,1741432537439,-2.880095947265625,0.5433485107421875,2.362481861365637,-1.7180924072265626,2.548016845703125
1741432537.2005684,1.919265866279602,0.043946789347436045,-0.014132395064706463,-0.9989339092831853,-0.35541459918022156,0.1437787264585495,-0.3995916247367859,2.3626160621643066,0.2767165005207062,3.6751039028167725,-0.4343099594116211,0.24738693237304688,0.4732204079627991,-1.2634705305099487,0.005912871100008488,-0.8951323628425598,-0.08907453715801239,1.2371487617492676,0.0036240178160369396,0.9454871416091919,0.06160829961299896,-0.8180742859840393,0.01773861236870289,0.11654078215360641,0.7864118218421936,-0.3390544056892395,0.006491699256002903,-0.37937742471694946,0.049782559275627136,0.018120087683200836,0.8199816942214966,-0.4901028275489807,-0.002265899907797575,-1.0859893560409546,0.1845417618751526,-1.5114444494247437,0.0763583779335022,-0.012063012458384037,1.0405938625335693,1.8187702894210815,0.016781913116574287,-0.0012475161347538233,-0.6877267360687256,0.08224427700042725,1.1386866569519043,1.5670108795166016,0.332248330116272,-5.123603343963623,1.2821086645126343,0.18322008848190308,1.9416561126708984,1.078161358833313,-0.6180455088615417,0.876488208770752,0.3067485988140106,-0.07894416898488998,1741432537.2324529,1741432537439,-2.880095947265625,0.5433485107421875,2.362481861365637,-1.7180924072265626,2.548016845703125
1741432537.220569,1.9127007722854614,0.038375232170841864,-0.0036720730521863677,-0.9992566524348654,-0.5727354884147644,-0.42801880836486816,-0.33615192770957947,-15.090850830078125,-7.952945709228516,24.606403350830078,-0.4716949462890625,0.2740898132324219,0.42935073375701904,-1.2627075910568237,0.005912871100008488,-0.8691920638084412,-0.048638131469488144,1.238293170928955,0.0036240178160369396,0.9267948269844055,0.06427863240242004,-0.7898451089859009,0.040245670825242996,0.10776684433221817,0.7566567659378052,-0.3058055639266968,0.006290125194936991,-0.361066609621048,0.05054550990462303,0.006294346414506435,0.8661402463912964,-0.4762232303619385,-0.03228243812918663,-1.1067665815353394,0.7856013178825378,-2.3058652877807617,0.07959649711847305,-0.011758795008063316,1.3305898904800415,2.8654937744140625,0.09661617875099182,0.018147122114896774,-1.3444963693618774,0.10689955204725266,1.7286142110824585,1.02089262008667,-0.6144752502441406,-0.030248310416936874,1.808964729309082,0.029299337416887283,0.6267022490501404,-0.2449970543384552,-0.6349965929985046,2.7498221397399902,0.6138596534729004,-1.2748266458511353,1741432537.2324529,1741432537439,-2.880095947265625,0.5433485107421875,2.362481861365637,-1.7180924072265626,2.548016845703125
1741432537.2406492,1.9111531972885132,0.03697544686144594,0.005586761358463366,-0.999300557603627,-0.3394312262535095,-0.01948707178235054,-0.18183152377605438,1.2142219543457031,-4.766718864440918,10.239509582519531,-0.505645751953125,0.2676048278808594,0.36449989676475525,-1.2619446516036987,0.005912871100008488,-0.8413442969322205,0.008201723918318748,1.2440153360366821,0.0020981156267225742,0.9004730582237244,0.08030059933662415,-0.761997401714325,0.038719769567251205,0.07686731964349747,0.7906080484390259,-0.27940356731414795,0.01541109848767519,-0.3755626678466797,0.05283436179161072,-0.026131074875593185,0.9699015617370605,-0.4532078504562378,-0.04441625624895096,-1.050416111946106,-0.18985851109027863,-3.5079174041748047,0.011920260265469551,-0.000646583444904536,1.3045077323913574,3.926323175430298,0.4520770311355591,-0.12717029452323914,-1.8313862085342407,0.8096594214439392,0.7201818227767944,-0.2283865511417389,-1.8834621906280518,1.1806946992874146,1.105961561203003,0.37487873435020447,-1.0149074792861938,0.2994772791862488,-1.7037296295166016,5.542752265930176,1.4147999286651611,-0.6518819332122803,1741432537.2324529,1741432537439,-2.880095947265625,0.5433485107421875,2.362481861365637,-1.7180924072265626,2.548016845703125
1741432537.260669,1.8984404802322388,0.03250566367630821,0.01372564135992666,-0.9993773004217282,-0.4648963510990143,-0.14458979666233063,-0.7114821672439575,-3.2202301025390625,0.913969099521637,8.423722267150879,-0.5350198745727539,0.2767601013183594,0.2805752754211426,-1.2665224075317383,0.005912871100008488,-0.8203631639480591,0.06237125024199486,1.2550780773162842,0.005149920005351305,0.8710994124412537,0.10051880776882172,-0.7318608164787292,0.02841992862522602,0.04940108209848404,0.80357825756073,-0.2604805827140808,0.004492196720093489,-0.4365987777709961,0.04940108209848404,-0.05397878959774971,1.1053253412246704,-0.41066280007362366,-0.04738346114754677,-0.9113264679908752,0.15644101798534393,-4.214591026306152,-0.3993237316608429,-0.016368020325899124,1.0086225271224976,3.4660346508026123,0.9129656553268433,0.20358188450336456,-1.9054009914398193,0.9188681244850159,1.7889258861541748,-0.683600664138794,-1.030030369758606,0.5727741122245789,1.0015671253204346,-0.5862371325492859,-3.3403782844543457,-0.24369065463542938,-1.211430549621582,6.7950286865234375,2.079770803451538,-0.0380752757191658,1741432537.2324529,1741432537439,-2.880095947265625,0.5433485107421875,2.362481861365637,-1.7180924072265626,2.548016845703125
1741432537.2807224,1.872926115989685,0.030126667301900053,0.0203733185294553,-0.9993384370719351,-0.21377690136432648,-0.10463187843561172,-1.3706574440002441,-1.4380276203155518,-2.4305295944213867,12.561949729919434,-0.5670633316040039,0.2809562683105469,0.20656901597976685,-1.2714815139770508,0.005912871100008488,-0.8012893795967102,0.11234454810619354,1.2749148607254028,0.005531395319849253,0.8421072959899902,0.12264438718557358,-0.7055390477180481,0.03681239113211632,0.03528648987412453,0.8104447722434998,-0.23467862606048584,0.0038005344104021788,-0.5167086124420166,0.04901960864663124,-0.08220797777175903,1.2472343444824219,-0.3849879503250122,-0.007482841145247221,-0.9429599046707153,0.19498856365680695,-3.5115678310394287,-0.23922090232372284,0.012780575081706047,0.9920068979263306,3.4000797271728516,1.1830514669418335,0.019397297874093056,-1.97482430934906,1.2246909141540527,1.2410225868225098,0.4685520529747009,-0.7255491018295288,0.43040794134140015,1.2944196462631226,0.1271287351846695,-3.9671993255615234,0.14086325466632843,-1.575351357460022,6.786592483520508,0.971184492111206,2.232470750808716,1741432537.2324529,1741432537439,-2.880095947265625,0.5433485107421875,2.362481861365637,-1.7180924072265626,2.548016845703125
1741432537.300711,1.8447827100753784,0.029051970917349568,0.024897896274722057,-0.99926777079365,-0.22740212082862854,0.009012499824166298,-1.4109278917312622,4.868047714233398,-2.445072650909424,11.938618659973145,-0.5983448028564453,0.2729454040527344,0.14057374000549316,-1.2714815139770508,0.005912871100008488,-0.7837415337562561,0.16384375095367432,1.2852146625518799,0.00476844422519207,0.813115119934082,0.14515145123004913,-0.6731135845184326,0.05092698708176613,0.03604944050312042,0.8188372850418091,-0.2113272100687027,0.0018736401107162237,-0.5918593406677246,0.051689937710762024,-0.11577782779932022,1.3441290855407715,-0.39971327781677246,0.004363744053989649,-0.9644566774368286,-0.18078415095806122,-3.3647358417510986,0.011078772135078907,0.012138665653765202,0.8471608757972717,3.3955748081207275,0.6872351765632629,-0.054159484803676605,-1.9493401050567627,1.0241819620132446,1.7892911434173584,0.7470927238464355,0.13185575604438782,0.30249422788619995,1.1165931224822998,-0.17912715673446655,-3.6248621940612793,-0.013508681207895279,-1.6666984558105469,4.342781066894531,-1.094844102859497,-0.013227778486907482,1741432537.3349733,1741432537539,-2.924998779296875,0.6378197021484375,2.3746865844781877,-1.4164029541015626,2.5738466796875
1741432537.3207386,1.8138302564620972,0.02542311749479137,0.030401950526615058,-0.9992143846547762,-0.1870541274547577,-0.14408010244369507,-1.5501611232757568,-2.9883322715759277,-2.778398036956787,17.28411865234375,-0.6345844268798828,0.2794303894042969,0.08449683338403702,-1.2703371047973633,0.005912871100008488,-0.7673380374908447,0.21152819693088531,1.2962775230407715,0.00476844422519207,0.7856488823890686,0.15850308537483215,-0.6445029377937317,0.056267641484737396,0.03681239113211632,0.8237964510917664,-0.20558564364910126,0.0015306094428524375,-0.6578545570373535,0.04177157208323479,-0.14438849687576294,1.3799878358840942,-0.43848878145217896,-0.012082039378583431,-1.0864062309265137,0.15156827867031097,-2.691072702407837,0.057462457567453384,-0.014723217114806175,0.7643886208534241,3.1459572315216064,0.7015430927276611,0.02363445609807968,-1.886325716972351,0.7679356336593628,1.3298590183258057,0.18255038559436798,-0.10299922525882721,0.24200153350830078,-0.005687417462468147,0.1358836591243744,-3.174940824508667,-0.6063369512557983,-1.4198640584945679,1.272994875907898,-2.0282647609710693,-0.6546664834022522,1741432537.3349733,1741432537539,-2.924998779296875,0.6378197021484375,2.3746865844781877,-1.4164029541015626,2.5738466796875
1741432537.3407776,1.7899585962295532,0.028704010072215562,0.02821942211216204,-0.9991895435909194,0.17059703171253204,0.26054713129997253,-1.2441387176513672,2.5656304359436035,-2.0566022396087646,9.573957443237305,-0.6593809127807617,0.2698936462402344,0.03223468363285065,-1.2726260423660278,0.005912871100008488,-0.7532234787940979,0.25616082549095154,1.3050514459609985,0.004005493130534887,0.760471522808075,0.17452506721019745,-0.612840473651886,0.05741206929087639,0.030708782374858856,0.8264667987823486,-0.21970945596694946,0.0004122824175283313,-0.7108796834945679,0.026131074875593185,-0.1676585078239441,1.3586251735687256,-0.4755694270133972,0.0057182032614946365,-0.7197444438934326,-0.26790550351142883,-2.6417412757873535,-0.2232867032289505,-0.0006326150032691658,0.6389029026031494,2.9319560527801514,0.5451117157936096,-0.06799519807100296,-1.6970161199569702,0.7369309067726135,1.640443205833435,0.062364690005779266,-0.22576506435871124,-0.012282032519578934,-0.7587663531303406,-0.14607995748519897,-2.564621925354004,-0.7851523160934448,-1.085803747177124,-1.4223333597183228,-1.694618582725525,1.1678953170776367,1741432537.3349733,1741432537539,-2.924998779296875,0.6378197021484375,2.3746865844781877,-1.4164029541015626,2.5738466796875
1741432537.3607774,1.768612027168274,0.03301044884494359,0.02435918905828376,-0.9991581157031544,0.23098398745059967,0.22065412998199463,-0.9831658005714417,-0.1901836395263672,-0.2832477390766144,8.22120189666748,-0.6933317184448242,0.2649345397949219,-0.018501564860343933,-1.2783480882644653,0.005912871100008488,-0.7490272521972656,0.2920195460319519,1.3065773248672485,0.004005493130534887,0.7364385724067688,0.17605096101760864,-0.577744722366333,0.06237125024199486,0.031090257689356804,0.810826301574707,-0.2392246574163437,-0.008055342361330986,-0.7528420090675354,0.00667582219466567,-0.17872129380702972,1.2994964122772217,-0.49027886986732483,0.012359271757304668,-1.002705693244934,-0.11888471990823746,-2.457200527191162,-0.3699934780597687,-0.0006539365858770907,0.12783899903297424,2.3642594814300537,0.07446720451116562,0.009295858442783356,-1.6375428438186646,-0.09915046393871307,1.7400656938552856,0.25318121910095215,0.12791408598423004,-0.9069285988807678,-1.020188331604004,-0.3939841687679291,-1.9808762073516846,-0.9262291789054871,-0.5376684665679932,-3.1863605976104736,-0.4883825182914734,-0.04970506206154823,1741432537.3349733,1741432537539,-2.924998779296875,0.6378197021484375,2.3746865844781877,-1.4164029541015626,2.5738466796875
1741432537.3808172,1.751330018043518,0.03804418031059381,0.02089949974491164,-0.9990574814568516,0.2019779533147812,0.2821332812309265,-0.842993438243866,-3.7260758876800537,0.0658816322684288,7.384384632110596,-0.7211799621582031,0.2584495544433594,-0.05092698708176613,-1.2813999652862549,0.005912871100008488,-0.7482643127441406,0.3248264193534851,1.310010552406311,0.004386968910694122,0.7127870321273804,0.16956588625907898,-0.5384527444839478,0.06771191209554672,0.0398641936480999,0.7925154566764832,-0.26029741764068604,-0.010913488455116749,-0.776493489742279,-0.013923857361078262,-0.1848248988389969,1.2182421684265137,-0.4719884693622589,0.007792762480676174,-0.8606835007667542,-0.17450490593910217,-1.4128271341323853,-0.15978087484836578,0.0019668706227093935,0.029243379831314087,2.3905434608459473,0.2922849953174591,0.03538667783141136,-1.6517571210861206,-0.28051653504371643,2.1767141819000244,0.28220927715301514,0.557599663734436,-0.8409241437911987,-1.0481733083724976,-0.09454282373189926,-1.0040956735610962,-1.0524518489837646,-0.3351413607597351,-3.9553446769714355,1.1978238821029663,-0.07057464122772217,1741432537.3349733,1741432537539,-2.924998779296875,0.6378197021484375,2.3746865844781877,-1.4164029541015626,2.5738466796875
1741432537.4008138,1.7342058420181274,0.04541954080193861,0.01830094240229516,-0.9988003508312004,0.15775854885578156,0.3649129569530487,-0.8230563402175903,7.504271984100342,0.09537681937217712,3.5543806552886963,-0.7497901916503906,0.2553977966308594,-0.06427863240242004,-1.2813999652862549,0.005912871100008488,-0.7459754347801208,0.3568703830242157,1.314206838607788,0.004005493130534887,0.6860837936401367,0.1653696447610855,-0.49114975333213806,0.0707637146115303,0.04940108209848404,0.7814526557922363,-0.27626195549964905,-0.012857848778367043,-0.7867932915687561,-0.03604944050312042,-0.18863965570926666,1.1144808530807495,-0.42954587936401367,0.009918571449816227,-0.8591733574867249,-0.07406111806631088,-0.532349705696106,-0.0006072940304875374,0.009758259169757366,0.17906300723552704,1.8845235109329224,0.20989465713500977,-0.0068251765333116055,-1.741243600845337,-0.24911172688007355,2.2779619693756104,0.10193631052970886,0.5031142830848694,-0.5423084497451782,-0.7694852948188782,-0.08587238937616348,-0.4729544222354889,-1.1909674406051636,-0.14835523068904877,-5.405788421630859,2.1636335849761963,0.07658404856920242,1741432537.3349733,1741432537539,-2.924998779296875,0.6378197021484375,2.3746865844781877,-1.4164029541015626,2.5738466796875
1741432537.4208307,1.7212687730789185,0.04687033897082394,0.015345299439622474,-0.9987831061396004,0.18267500400543213,0.06351039558649063,-0.6280452013015747,-4.488180160522461,-4.835812091827393,9.737844467163086,-0.7681007385253906,0.2553977966308594,-0.05855649709701538,-1.2817814350128174,0.005912871100008488,-0.7337682247161865,0.3736552894115448,1.3145883083343506,0.004005493130534887,0.6616693139076233,0.16422522068023682,-0.44651713967323303,0.06923781335353851,0.051689937710762024,0.7829785346984863,-0.28091442584991455,-0.01596631295979023,-0.7841230034828186,-0.056267641484737396,-0.19512474536895752,0.9897382855415344,-0.3826158344745636,0.004778966773301363,-0.5753014087677002,0.009433134458959103,0.37506103515625,-0.041047804057598114,-0.00686200987547636,0.6748733520507812,1.0838428735733032,0.01816875860095024,0.003774589393287897,-1.7000932693481445,0.041065897792577744,2.3777456283569336,-0.10196421295404434,0.08703707158565521,0.2736729383468628,-0.1045687347650528,-0.1263846904039383,0.326147198677063,-1.003574013710022,-0.4502265155315399,-6.301445484161377,2.3392956256866455,-0.1946476846933365,1741432537.3349733,1741432537539,-2.924998779296875,0.6378197021484375,2.3746865844781877,-1.4164029541015626,2.5738466796875
1741432537.440859,1.709579586982727,0.04574110485330953,0.010668151083734522,-0.9988963619311331,0.30375751852989197,-0.10897114127874374,-0.5614586472511292,-0.16786779463291168,-1.7417532205581665,7.244730472564697,-0.7784004211425781,0.2595939636230469,-0.03643091395497322,-1.2833073139190674,0.005912871100008488,-0.7120240926742554,0.3774700462818146,1.3168771266937256,0.004005493130534887,0.6387808322906494,0.1657511293888092,-0.4179064631462097,0.05855649709701538,0.05207141116261482,0.8009079098701477,-0.2769263684749603,-0.017481133341789246,-0.7600900530815125,-0.06733043491840363,-0.2141985148191452,0.8569847941398621,-0.33175957202911377,-0.0016682542627677321,-0.33856311440467834,0.15076886117458344,1.1821848154067993,-0.13466525077819824,-0.0004162945842836052,1.1935895681381226,0.12464266270399094,0.1743486374616623,0.0033521675504744053,-1.5330673456192017,0.08714853227138519,1.1616359949111938,-0.5406534075737,-0.04525754600763321,0.97797691822052,0.18562684953212738,-0.03794817999005318,1.2685143947601318,-0.47634002566337585,-1.1293935775756836,-6.661440372467041,2.5949106216430664,-0.30477461218833923,1741432537.3349733,1741432537539,-2.924998779296875,0.6378197021484375,2.3746865844781877,-1.4164029541015626,2.5738466796875
1741432537.4608834,1.698008418083191,0.04121653741538678,0.0012199383923839294,-0.999149492715582,0.51419997215271,-0.2395925521850586,-0.5720406770706177,-1.9928948879241943,-0.9894899725914001,7.658498287200928,-0.790226936340332,0.2557792663574219,0.000572213320992887,-1.2871220111846924,0.005912871100008488,-0.6837949156761169,0.3709849715232849,1.3184030055999756,0.004005493130534887,0.6197070479393005,0.17109178006649017,-0.404936283826828,0.02841992862522602,0.053215838968753815,0.84592205286026,-0.2686897814273834,-0.01584988459944725,-0.726138710975647,-0.07953765243291855,-0.22678720951080322,0.7120240926742554,-0.2787012755870819,-0.006844881922006607,-0.35383105278015137,-0.08709397912025452,1.9225075244903564,-0.3127322793006897,0.0023305416107177734,1.4844999313354492,-0.6146873831748962,0.049112431704998016,0.005132144317030907,-1.2174952030181885,0.31548765301704407,0.5934290885925293,-1.7528576850891113,0.16184864938259125,2.607224464416504,0.48970651626586914,-0.012626894749701023,1.9089537858963013,-0.5128939151763916,-0.4126063585281372,-7.330710411071777,2.6449573040008545,-0.1366502046585083,1741432537.3349733,1741432537539,-2.924998779296875,0.6378197021484375,2.3746865844781877,-1.4164029541015626,2.5738466796875
1741432537.4809272,1.6828340291976929,0.03634572271795025,-0.012158756115569921,-0.9992653066577625,0.7531889081001282,-0.2502994239330292,-0.7534233927726746,3.469696283340454,-9.33450698852539,7.2956414222717285,-0.800908088684082,0.24967575073242188,0.050164032727479935,-1.294751524925232,0.005912871100008488,-0.6525139212608337,0.35000380873680115,1.3187845945358276,0.004005493130534887,0.6040665507316589,0.17872129380702972,-0.4194323718547821,0.01430533267557621,0.040245670825242996,0.9210727214813232,-0.24896441400051117,-0.013633777387440205,-0.690280020236969,-0.08411535620689392,-0.2130540907382965,0.5914778113365173,-0.21681362390518188,-0.014079013839364052,-0.3318583369255066,-0.1914394348859787,2.5116822719573975,-0.5279191136360168,0.008966280147433281,1.6671656370162964,-1.4703540802001953,-0.02292686328291893,-0.0018668160773813725,-1.0365151166915894,0.36657220125198364,-1.218117356300354,-0.43616822361946106,-1.1287912130355835,4.046257019042969,1.0477044582366943,0.24012480676174164,1.663915753364563,-0.020077219232916832,0.9747937917709351,-5.1144633293151855,3.315338373184204,-0.4539622962474823,1741432537.3349733,1741432537539,-2.924998779296875,0.6378197021484375,2.3746865844781877,-1.4164029541015626,2.5738466796875
1741432537.5010567,1.6674858331680298,0.031785754784239686,-0.022084384253771346,-0.999250692151338,0.3677418529987335,0.04642059653997421,-0.7537412047386169,7.107997894287109,8.940189361572266,9.240180969238281,-0.809300422668457,0.24929428100585938,0.10433356463909149,-1.302762508392334,0.005912871100008488,-0.619325578212738,0.3233005404472351,1.3184030055999756,0.004005493130534887,0.5865186452865601,0.1806286722421646,-0.4491874575614929,0.005149920005351305,-0.0009536888683214784,1.0122454166412354,-0.21313489973545074,-0.005893345456570387,-0.6387808322906494,-0.06198977679014206,-0.17109178006649017,0.5865186452865601,-0.14419656991958618,-0.039697252213954926,-0.22254084050655365,-0.005559167824685574,2.72182297706604,-0.5549685955047607,-0.0033136794809252024,1.569862723350525,-1.9680935144424438,0.08125882595777512,-0.0049608685076236725,-1.1323562860488892,-0.016635101288557053,-1.3612693548202515,-0.7968014478683472,-1.8734582662582397,4.750860691070557,1.9561450481414795,0.38235560059547424,2.6934001445770264,1.2280853986740112,2.4107022285461426,-0.002916137920692563,3.3661680221557617,-1.1602755784988403,1741432537.6435065,1741432537739,-2.940887939453125,0.8295240478515625,2.113635882846613,-0.9726983642578125,2.613593994140625
1741432537.5209823,1.6537970304489136,0.03102229057720056,-0.02802168833562014,-0.9991258191389938,0.3447088897228241,-0.14874619245529175,-0.618455708026886,-6.375935077667236,-0.23719392716884613,12.494568824768066,-0.829136848449707,0.2576866149902344,0.15545128285884857,-1.3130624294281006,0.005912871100008488,-0.5891889929771423,0.28515297174453735,1.3248881101608276,0.004386968910694122,0.5716410875320435,0.16918440163135529,-0.49114975333213806,-0.02880140393972397,-0.043678950518369675,1.101129174232483,-0.1750573217868805,0.004808394238352776,-0.6265735626220703,-0.04177157208323479,-0.11959258466959,0.5727855563163757,-0.09575261175632477,-0.04085540771484375,-0.4615698456764221,0.22711658477783203,2.4370970726013184,-0.7434396147727966,-0.006853281985968351,1.4068548679351807,-2.5961546897888184,0.44683998823165894,0.03657150641083717,-0.9655542373657227,-0.5973132848739624,-2.240447998046875,-1.7404330968856812,-2.359035015106201,4.425901889801025,1.554057002067566,0.6500124335289001,0.26748794317245483,0.940244197845459,2.2480111122131348,-0.7739925384521484,2.229012966156006,0.1352313905954361,1741432537.6435065,1741432537739,-2.940887939453125,0.8295240478515625,2.113635882846613,-0.9726983642578125,2.613593994140625
1741432537.5417955,1.6478983163833618,0.03875720355088011,-0.03423409249993225,-0.9986620579974097,0.2628333270549774,0.5128518342971802,-0.2862182855606079,1.2415190935134888,-1.512939691543579,7.856337547302246,-0.828373908996582,0.2512016296386719,0.19016556441783905,-1.3332805633544922,0.005912871100008488,-0.5609598159790039,0.24357213079929352,1.3313732147216797,0.0032425422687083483,0.5590524077415466,0.16269932687282562,-0.5296788215637207,-0.06656748056411743,-0.08297093212604523,1.1717021465301514,-0.18485942482948303,0.01868831180036068,-0.5956740379333496,-0.03643091395497322,-0.08602273464202881,0.5861371755599976,-0.049850668758153915,-0.03337658569216728,-0.034244149923324585,-0.1656419187784195,1.7333439588546753,-1.4996312856674194,0.004118290729820728,1.361858606338501,-2.726755142211914,0.39860299229621887,-0.09944730997085571,-0.8221179842948914,-0.24953009188175201,-1.7999342679977417,-1.853432059288025,-1.8097772598266602,3.3674774169921875,-0.9127143621444702,0.5969882607460022,1.7376353740692139,0.035006359219551086,1.6853203773498535,1.015249252319336,2.388045072555542,0.229986771941185,1741432537.6435065,1741432537739,-2.940887939453125,0.8295240478515625,2.113635882846613,-0.9726983642578125,2.613593994140625
1741432537.5610197,1.644638180732727,0.03794425454578151,-0.036744360172090616,-0.9986040684588204,0.1604907065629959,-0.12021608650684357,-0.15861527621746063,-5.517980575561523,-0.6718690395355225,17.806241989135742,-0.8371477127075195,0.2653160095214844,0.21763180196285248,-1.3534988164901733,0.006294346414506435,-0.5327305793762207,0.20618753135204315,1.3336620330810547,0.0036240178160369396,0.54264897108078,0.15545128285884857,-0.5666819214820862,-0.09555962681770325,-0.09403372555971146,1.206416368484497,-0.23907001316547394,0.02603091672062874,-0.5968185067176819,-0.03185320645570755,-0.06618601083755493,0.5968185067176819,-0.012415346689522266,-0.0320558175444603,-0.22006218135356903,0.44184425473213196,1.2947887182235718,-1.3146557807922363,0.006076595280319452,1.353560447692871,-2.377850294113159,0.15319488942623138,0.07020366191864014,-1.054405689239502,-0.4914422333240509,-1.9424511194229126,-1.2178971767425537,-0.3830435574054718,1.4664008617401123,-2.9767966270446777,0.14438045024871826,-0.3426398038864136,0.353910893201828,0.9281960129737854,0.4284704029560089,1.5092920064926147,-0.13174550235271454,1741432537.6435065,1741432537739,-2.940887939453125,0.8295240478515625,2.113635882846613,-0.9726983642578125,2.613593994140625
1741432537.5810642,1.635724663734436,0.04233490188785076,-0.034659600170548865,-0.998502112265249,-0.15629258751869202,0.3268977403640747,-0.46487683057785034,-5.230678081512451,1.7660292387008667,9.658222198486328,-0.8379106521606445,0.2676048278808594,0.23517967760562897,-1.373335599899292,0.005912871100008488,-0.5094605684280396,0.17185473442077637,1.3409100770950317,0.0036240178160369396,0.5247195959091187,0.1493476778268814,-0.6147478222846985,-0.09899290651082993,-0.0864042118191719,1.2094682455062866,-0.3078474700450897,0.026261938735842705,-0.5842298269271851,-0.023079270496964455,-0.04253452271223068,0.6212329268455505,-0.009229782968759537,-0.033799558877944946,-0.10748561471700668,0.1050548255443573,0.761792778968811,-1.2066675424575806,-0.005306348204612732,1.1042317152023315,-2.4450879096984863,0.6620514988899231,-0.004988056607544422,-1.2051907777786255,-0.1632784754037857,-2.449770927429199,-0.1367846578359604,0.7011352777481079,0.040292881429195404,-3.4708268642425537,0.04300073906779289,0.8273190259933472,0.4563688337802887,1.3261139392852783,1.3222020864486694,0.04677434638142586,0.07232144474983215,1741432537.6435065,1741432537739,-2.940887939453125,0.8295240478515625,2.113635882846613,-0.9726983642578125,2.613593994140625
1741432537.6010983,1.6274904012680054,0.04850738948189571,-0.030182029753135456,-0.9983667052970228,-0.18437589704990387,0.28428545594215393,-0.452920138835907,-7.438844203948975,-5.039503574371338,5.97177267074585,-0.8501186370849609,0.2630271911621094,0.24166475236415863,-1.386687159538269,0.005912871100008488,-0.49038681387901306,0.12722209095954895,1.3565505743026733,0.004005493130534887,0.5144197940826416,0.152399480342865,-0.6761654019355774,-0.09861142933368683,-0.07457847148180008,1.2022202014923096,-0.37101903557777405,0.013870758935809135,-0.5872815847396851,-0.02079041674733162,-0.01926451548933983,0.6300068497657776,-0.01931845210492611,-0.02038855291903019,-0.29080361127853394,-0.12014220654964447,0.23924390971660614,-0.9024076461791992,-0.01852521114051342,0.8168066740036011,-2.8747787475585938,0.9467360377311707,0.009802729822695255,-0.4947901964187622,0.16321058571338654,-3.218461036682129,0.054980963468551636,0.512089192867279,-0.4352280795574188,-3.0698342323303223,-0.7440915703773499,-0.3163159191608429,0.0160505473613739,0.9505739212036133,0.1782606840133667,-0.5390087962150574,0.7411662936210632,1741432537.6435065,1741432537739,-2.940887939453125,0.8295240478515625,2.113635882846613,-0.9726983642578125,2.613593994140625
1741432537.6211448,1.6235336065292358,0.05911636151436962,-0.02755635645472197,-0.9978706845179102,-0.10436592996120453,0.5537922978401184,-0.14662054181098938,-2.4918782711029053,0.017778590321540833,5.409307479858398,-0.8520259857177734,0.2565422058105469,0.24204623699188232,-1.395461082458496,0.005912871100008488,-0.4850461483001709,0.09136339277029037,1.3607468605041504,0.0036240178160369396,0.5167086124420166,0.16155488789081573,-0.7433050870895386,-0.10051880776882172,-0.06466010212898254,1.189631462097168,-0.4094116687774658,-0.01412518322467804,-0.5830853581428528,-0.02384222112596035,-0.00858320016413927,0.6364919543266296,-0.02684808149933815,-0.004435606300830841,-0.07075060158967972,-0.17782369256019592,0.02217850275337696,-0.44086843729019165,-0.006744314916431904,0.16641680896282196,-2.1720967292785645,0.1464567631483078,0.001380604924634099,0.11522714793682098,0.44643306732177734,-3.3810248374938965,-0.15701207518577576,0.5460094809532166,-0.6465916633605957,-1.5637062788009644,-1.1740971803665161,0.5220577120780945,-0.10503659397363663,0.5721001625061035,0.5708067417144775,-0.31913360953330994,0.6990078687667847,1741432537.6435065,1741432537739,-2.940887939453125,0.8295240478515625,2.113635882846613,-0.9726983642578125,2.613593994140625
1741432537.6411085,1.626240611076355,0.06946563177264864,-0.023416720047476507,-0.9973094721422457,-0.25171470642089844,0.47322767972946167,0.12808378040790558,-6.372608661651611,1.2886323928833008,8.66362190246582,-0.8543148040771484,0.2515830993652344,0.23785001039505005,-1.3958425521850586,0.005912871100008488,-0.49191272258758545,0.07381551712751389,1.3584580421447754,0.0036240178160369396,0.5216678380966187,0.1684214472770691,-0.7990005612373352,-0.10471503436565399,-0.053215838968753815,1.1594948768615723,-0.4124932885169983,-0.012315003201365471,-0.5907148718833923,-0.024223696440458298,0.005912871100008488,0.6517509818077087,-0.03631121292710304,-0.0016529833665117621,-0.05616709589958191,-0.0629134252667427,-0.2710357904434204,0.030817219987511635,-0.017816627398133278,-0.4279239773750305,-1.0325403213500977,-0.14637115597724915,0.0015735314227640629,0.3598908483982086,0.24633274972438812,-2.5821080207824707,-0.1498117744922638,0.5489872097969055,-1.6578950881958008,0.14334924519062042,0.2595950961112976,-0.6228867173194885,-0.021083159372210503,0.6573628783226013,0.7662881016731262,-0.5646954774856567,0.10674382001161575,1741432537.6435065,1741432537739,-2.940887939453125,0.8295240478515625,2.113635882846613,-0.9726983642578125,2.613593994140625
1741432537.6611366,1.626052737236023,0.07807595356333606,-0.018187355504378104,-0.9967815034273725,-0.2320667952299118,0.3320040702819824,-0.08219107240438461,-2.2569892406463623,3.1032345294952393,8.668893814086914,-0.8535518646240234,0.24891281127929688,0.22640573978424072,-1.392409324645996,0.005912871100008488,-0.5045014023780823,0.06618601083755493,1.3554061651229858,0.0036240178160369396,0.5315861701965332,0.16918440163135529,-0.8371480703353882,-0.10547798871994019,-0.04711223021149635,1.1022735834121704,-0.3792581260204315,-0.008950714953243732,-0.6006332635879517,-0.020027466118335724,0.02040894143283367,0.6826505064964294,-0.04486105591058731,0.0005283253849484026,-0.011950111947953701,0.0072767301462590694,-0.5603125691413879,0.21183976531028748,-0.009096849709749222,-0.64925217628479,-0.36528143286705017,-0.1997961699962616,0.011441972106695175,0.6627886295318604,0.07067355513572693,-1.794400691986084,0.0017886017449200153,0.21110661327838898,-3.1653995513916016,1.8746225833892822,0.09897443652153015,-0.24534836411476135,0.19686147570610046,0.855147123336792,1.716973066329956,-0.3445177972316742,0.18009677529335022,1741432537.6435869,1741432537839,-2.94337451171875,0.9092816162109375,2.0479154376543787,-0.8080940551757813,2.634614990234375
1741432537.6811683,1.6165121793746948,0.07975199327890066,-0.01536241379389225,-0.9966963508564017,-0.07752746343612671,0.016701897606253624,-0.55785071849823,-0.02057420089840889,4.179483413696289,7.581805229187012,-0.8474483489990234,0.24242782592773438,0.21839475631713867,-1.3905019760131836,0.005912871100008488,-0.5163271427154541,0.06733043491840363,1.3546432256698608,0.0036240178160369396,0.5403600931167603,0.17376211285591125,-0.8367666006088257,-0.1028076633810997,-0.05207141116261482,1.0004196166992188,-0.32928332686424255,-0.0021757353097200394,-0.612077534198761,-0.012779430486261845,0.04291599988937378,0.7207980751991272,-0.04970899596810341,0.006668540649116039,0.16761784255504608,-0.1571367383003235,-0.31325989961624146,0.14592298865318298,-0.0037854197435081005,-0.6025741696357727,0.12384702265262604,-0.03991681709885597,0.0036304157692939043,0.5751472115516663,0.24622946977615356,0.2650678753852844,0.15979832410812378,-0.31818073987960815,-5.541988372802734,2.5462985038757324,0.42280951142311096,-0.7090606093406677,0.3838202655315399,1.1342532634735107,1.9148411750793457,-0.2582198977470398,0.27653029561042786,1741432537.6435869,1741432537839,-2.94337451171875,0.9092816162109375,2.0479154376543787,-0.8080940551757813,2.634614990234375
1741432537.701161,1.5958913564682007,0.07369078328059873,-0.015051701681997652,-0.9971675459700681,0.05722082033753395,-0.35785621404647827,-1.098106861114502,0.24126781523227692,5.176759719848633,4.402484893798828,-0.8489742279052734,0.23670578002929688,0.2153429538011551,-1.389357566833496,0.005912871100008488,-0.5254825949668884,0.07343403995037079,1.3519729375839233,0.0036240178160369396,0.5457007884979248,0.17795833945274353,-0.7906080484390259,-0.10128175467252731,-0.05359731614589691,0.8478294014930725,-0.2757040560245514,0.0019279144471511245,-0.6395437717437744,0.007057297509163618,0.04901960864663124,0.769245445728302,-0.05381245166063309,0.006325392983853817,-0.04337792098522186,-0.1641053557395935,-0.1683245599269867,0.0942603126168251,-0.003385895863175392,-0.44086840748786926,0.41748344898223877,-0.19236716628074646,0.0016081114299595356,0.2921617329120636,0.15263907611370087,2.588426351547241,0.024500655010342598,0.11929751187562943,-8.17529296875,2.6185479164123535,0.09291812032461166,-1.5216460227966309,1.103513240814209,0.13363605737686157,2.48661732673645,-0.182625412940979,-0.031049519777297974,1741432537.7522929,1741432537939,-2.964346923828125,0.9655518188476563,2.026594452498627,-0.641256591796875,2.653677001953125
1741432537.7230165,1.563501000404358,0.06316872933581158,-0.013167242971846536,-0.9979159961372597,-0.017849603667855263,-0.5146682262420654,-1.728373646736145,0.10801910609006882,-1.8019237518310547,6.750499725341797,-0.8501186370849609,0.23098373413085938,0.2130540907382965,-1.3878315687179565,0.005912871100008488,-0.5342565178871155,0.08144503086805344,1.3504470586776733,0.0036240178160369396,0.5491340756416321,0.17833982408046722,-0.7242313027381897,-0.0883115902543068,-0.05436026677489281,0.6704432964324951,-0.2335527092218399,0.0029152606148272753,-0.6616693139076233,0.03299763426184654,0.031090257689356804,0.8192187547683716,-0.058943502604961395,0.00037653010804206133,-0.036975737661123276,-0.16126884520053864,-0.11545874923467636,0.03671715408563614,-0.008938699029386044,-0.40415719151496887,0.5270638465881348,-0.10527952760457993,0.003134906990453601,0.271844744682312,0.07785303145647049,3.3501296043395996,1.0404185056686401,-0.1687776893377304,-8.654743194580078,1.9045560359954834,0.09340160340070724,-0.9654892683029175,1.239985704421997,-1.0205345153808594,2.444737434387207,-0.2946998178958893,-0.3234494924545288,1741432537.7522929,1741432537939,-2.964346923828125,0.9655518188476563,2.026594452498627,-0.641256591796875,2.653677001953125
1741432537.741289,1.52476966381073,0.057303856795978624,-0.0028886107180752484,-0.9983526050070813,-0.4773083031177521,-0.31881874799728394,-1.995753288269043,13.695213317871094,16.97270393371582,29.369077682495117,-0.8657588958740234,0.23060226440429688,0.21229113638401031,-1.382872462272644,0.005912871100008488,-0.5403600931167603,0.08907453715801239,1.3493025302886963,0.0036240178160369396,0.5514228940010071,0.17872129380702972,-0.6807430982589722,-0.04253452271223068,-0.06466010212898254,0.5613412857055664,-0.1897502988576889,-0.0066360835917294025,-0.6692988276481628,0.03299763426184654,0.0078202486038208,0.8478294014930725,-0.0772319957613945,-0.008314062841236591,-0.49173375964164734,-0.04172045737504959,-0.02681760862469673,0.4130246937274933,-0.016835985705256462,-0.3331727981567383,0.5523224472999573,-0.07196647673845291,0.005919851828366518,0.043138690292835236,-0.06950216740369797,1.575843095779419,2.4261832237243652,-0.37021422386169434,-3.708388566970825,2.5117437839508057,-0.7670041918754578,-0.22877943515777588,-0.2232683151960373,-1.1839278936386108,1.2620210647583008,-1.142846703529358,-0.5482247471809387,1741432537.7522929,1741432537939,-2.964346923828125,0.9655518188476563,2.026594452498627,-0.641256591796875,2.653677001953125
1741432537.7612724,1.486021637916565,0.0600947389817869,0.01015547120468316,-0.9981410164657707,-0.5253788828849792,0.42886558175086975,-1.9184991121292114,6.064355373382568,-2.3677406311035156,3.012152910232544,-0.8646144866943359,0.21038341522216797,0.21229113638401031,-1.3718096017837524,0.005912871100008488,-0.5403600931167603,0.09708552807569504,1.3512099981307983,0.0036240178160369396,0.5506599545478821,0.17605096101760864,-0.6765468716621399,-0.02880140393972397,-0.06198977679014206,0.5964370369911194,-0.13242459297180176,-0.01399679109454155,-0.6498435735702515,0.02727550081908703,-0.03337911143898964,0.837911069393158,-0.12564101815223694,-0.015058937482535839,0.002082121092826128,-0.603237509727478,-0.07495041936635971,0.8108049035072327,-0.013431521132588387,-0.009495880454778671,0.5693903565406799,0.1714686155319214,0.010176810435950756,0.02988596074283123,0.08812228590250015,-0.2998813986778259,0.9523607492446899,-0.16087454557418823,1.6957767009735107,2.6358213424682617,0.2723293602466583,1.2528284788131714,0.23750059306621552,-2.343383550643921,-0.6225700378417969,-2.619415521621704,-0.32364264130592346,1741432537.7522929,1741432537939,-2.964346923828125,0.9655518188476563,2.026594452498627,-0.641256591796875,2.653677001953125
1741432537.7812953,1.4600657224655151,0.06211169808872557,0.024003957526213458,-0.9977805104248202,-0.652244508266449,0.05570410564541817,-1.352125644683838,1.155667781829834,-12.541973114013672,4.133945941925049,-0.8707180023193359,0.20427989959716797,0.20847637951374054,-1.359602451324463,0.005912871100008488,-0.5399786233901978,0.11501488089561462,1.3527358770370483,0.0036240178160369396,0.5502784848213196,0.15774014592170715,-0.6849393248558044,0.004386968910694122,-0.06618601083755493,0.6105515956878662,-0.09764289110898972,-0.0013668447500094771,-0.6342030763626099,0.04711223021149635,-0.08411535620689392,0.8169298768043518,-0.19242869317531586,-0.006558017805218697,-0.1438029259443283,-0.17225228250026703,-0.19779030978679657,0.7865162491798401,-0.021568797528743744,0.039344657212495804,1.2899974584579468,0.02212563529610634,0.015066402032971382,-0.07495444267988205,-1.271073818206787,-0.06310968846082687,1.5980490446090698,-0.023358719423413277,0.3846728503704071,1.7271205186843872,0.43960416316986084,0.6470813155174255,0.8512271642684937,-2.353579521179199,-0.7814542651176453,-3.484429121017456,0.519192099571228,1741432537.7522929,1741432537939,-2.964346923828125,0.9655518188476563,2.026594452498627,-0.641256591796875,2.653677001953125
1741432537.8012898,1.4386104345321655,0.06520112342237752,0.04794288452733547,-0.9967197666985733,-1.139507532119751,0.2371097207069397,-1.1857895851135254,-9.302766799926758,-0.8425476551055908,14.317644119262695,-0.8718624114990234,0.19932079315185547,0.19550621509552002,-1.3477766513824463,0.005912871100008488,-0.541886031627655,0.13752193748950958,1.3546432256698608,0.0036240178160369396,0.5476081371307373,0.12378881871700287,-0.6723506450653076,0.031090257689356804,-0.05970092490315437,0.622377336025238,-0.04930730164051056,-0.012851252220571041,-0.6353475451469421,0.053215838968753815,-0.11959258466959,0.8569847941398621,-0.26869314908981323,0.00156705966219306,-0.07228256016969681,-0.11201738566160202,-0.8295392990112305,0.9227910041809082,0.004360661841928959,-0.10188416391611099,1.4321426153182983,0.2523985207080841,-0.017026245594024658,-0.17231495678424835,-1.4832168817520142,0.3797228932380676,1.1699550151824951,0.28886768221855164,0.8273712992668152,2.5608441829681396,-0.7144511342048645,-0.15036819875240326,0.19002525508403778,-1.663271188735962,2.5518975257873535,-3.858924388885498,0.3741150200366974,1741432537.8455749,1741432538039,-2.9796286621093753,1.0040838012695312,1.8885054376904855,-0.47449966430664064,2.6707993164062502
1741432537.8213317,1.4180957078933716,0.06786630413488098,0.06058121374552157,-0.9958534436874691,-0.40722739696502686,0.2443738728761673,-0.9677796363830566,-4.652899265289307,-1.3798277378082275,16.42565155029297,-0.8657588958740234,0.18101024627685547,0.1676585078239441,-1.3279399871826172,0.006294346414506435,-0.543411910533905,0.15545128285884857,1.3622727394104004,0.0036240178160369396,0.5472266674041748,0.11120012402534485,-0.6952391862869263,0.04787518084049225,-0.05245288833975792,0.6635767221450806,-0.01738678850233555,-0.0141270337626338,-0.6666285395622253,0.04406042397022247,-0.15735866129398346,0.9378576278686523,-0.3419179916381836,0.01240130327641964,0.20779699087142944,-0.5436363816261292,-1.4322381019592285,1.1830683946609497,0.020291434600949287,-0.03228108584880829,1.15949285030365,0.4277305006980896,-0.0038466572295874357,-0.03219251707196236,-0.3661716878414154,-1.1486141681671143,0.7687579393386841,0.413850873708725,2.068258762359619,1.1367278099060059,0.1329953968524933,-1.9845795631408691,-0.48802074790000916,-2.0256454944610596,4.469600677490234,-3.6195011138916016,0.7875645756721497,1741432537.8455749,1741432538039,-2.9796286621093753,1.0040838012695312,1.8885054376904855,-0.47449966430664064,2.6707993164062502
1741432537.841386,1.4061599969863892,0.07420804274553777,0.057293957598005735,-0.9955955849714453,0.2769498825073242,0.3293323516845703,-0.5274150967597961,-1.9423104524612427,-2.2262630462646484,7.3722944259643555,-0.8634700775146484,0.14820289611816406,0.13828489184379578,-1.3206919431686401,0.005912871100008488,-0.541886031627655,0.16994735598564148,1.36685049533844,0.0032425422687083483,0.5472266674041748,0.09479667246341705,-0.699053943157196,0.04482337832450867,-0.05207141116261482,0.6799801588058472,-0.015365625731647015,-0.012531878426671028,-0.7135500311851501,0.042153049260377884,-0.17490653693675995,1.035896897315979,-0.4021684527397156,0.019277311861515045,0.029277833178639412,-0.9948614835739136,-1.3133243322372437,0.33087050914764404,-0.009339351207017899,0.07407617568969727,0.9668948650360107,0.2103063017129898,-0.006656852550804615,0.0053430479019880295,-1.076280117034912,0.15835349261760712,-0.2714828550815582,0.0633748322725296,0.43137603998184204,0.06427546590566635,-0.0023847916163504124,-2.1608967781066895,-0.1323198676109314,-0.5446038842201233,4.939585208892822,-2.9669439792633057,0.3358161747455597,1741432537.8455749,1741432538039,-2.9796286621093753,1.0040838012695312,1.8885054376904855,-0.47449966430664064,2.6707993164062502
1741432537.8637333,1.3984509706497192,0.07399363243347516,0.04849880671963641,-0.9960787158182184,0.46564680337905884,-0.07626417279243469,-0.38180771470069885,-5.23259973526001,1.3939615488052368,10.702467918395996,-0.8573665618896484,0.13675880432128906,0.1203555315732956,-1.3206919431686401,0.005912871100008488,-0.5403600931167603,0.1817730963230133,1.3645615577697754,0.0032425422687083483,0.5464637279510498,0.07877469807863235,-0.6807430982589722,0.06237125024199486,-0.048256658017635345,0.6635767221450806,-0.021824635565280914,-0.011356739327311516,-0.7459754347801208,0.03223468363285065,-0.1646067053079605,1.117151141166687,-0.4437871277332306,0.0025744722224771976,0.1669759452342987,-0.401110976934433,-0.7567039728164673,-0.01557117234915495,-0.008655424229800701,0.04188833758234978,0.7605112791061401,-0.18685731291770935,0.017217446118593216,-0.05878439545631409,-0.5060567855834961,0.8673797249794006,1.049490213394165,0.3110530972480774,-0.8916745185852051,-0.4443765878677368,0.08937923610210419,-1.3981086015701294,-0.4621688425540924,0.6940527558326721,3.78627347946167,-1.936004638671875,-0.8605218529701233,1741432537.8455749,1741432538039,-2.9796286621093753,1.0040838012695312,1.8885054376904855,-0.47449966430664064,2.6707993164062502
1741432537.8814363,1.3846291303634644,0.07083685489719621,0.043296688295754324,-0.9965478095760855,0.24853602051734924,-0.11895520240068436,-0.7261152863502502,0.30438652634620667,-4.512017250061035,6.927614212036133,-0.8497371673583984,0.13332557678222656,0.12073700875043869,-1.3218363523483276,0.005912871100008488,-0.5415045619010925,0.18902114033699036,1.364943027496338,0.0036240178160369396,0.5422675013542175,0.08030059933662415,-0.6563286781311035,0.0711451917886734,-0.03795681521296501,0.6490806341171265,-0.03761013597249985,-0.016309332102537155,-0.7516975402832031,0.03185320645570755,-0.16117341816425323,1.1518653631210327,-0.4586959779262543,0.0026992610655725002,0.15987730026245117,-0.1519114375114441,0.08950749784708023,-0.06362618505954742,-0.006711063906550407,-0.06553228944540024,0.44680503010749817,0.13435912132263184,0.013921028934419155,-0.3427800238132477,-0.024682993069291115,1.179863691329956,0.3102416396141052,0.37218376994132996,-0.7113511562347412,-0.8334932923316956,-0.24175108969211578,-0.1669105738401413,0.01989188976585865,0.0725887194275856,1.295900821685791,-0.548453688621521,0.35961440205574036,1741432537.8455749,1741432538039,-2.9796286621093753,1.0040838012695312,1.8885054376904855,-0.47449966430664064,2.6707993164062502
1741432537.9014218,1.3650153875350952,0.06304929665823035,0.04574894281397102,-0.9969612933420768,-0.07976722717285156,-0.3629801571369171,-1.0020966529846191,-2.0055665969848633,-1.7212779521942139,6.865906238555908,-0.8474483489990234,0.15087318420410156,0.12836651504039764,-1.3210734128952026,0.005912871100008488,-0.5430304408073425,0.19207294285297394,1.37142813205719,0.0036240178160369396,0.5365453362464905,0.08373387902975082,-0.6391623020172119,0.07839322835206985,-0.03795681521296501,0.6380178332328796,-0.0528019517660141,-0.019076453521847725,-0.7394903302192688,0.03147173300385475,-0.16155488789081573,1.1331731081008911,-0.45171305537223816,0.008287099190056324,0.08489056676626205,0.43220996856689453,0.3960939645767212,0.07104851305484772,-0.010067202150821686,-0.05191759765148163,0.18785612285137177,0.40844303369522095,0.01447913609445095,-0.3870721757411957,0.39301225543022156,0.8312483429908752,0.4058389961719513,0.00465135183185339,-0.47298741340637207,-0.7251625657081604,-0.0974746122956276,0.7765026092529297,-0.035614702850580215,-0.05523595213890076,-1.2103302478790283,0.4826422929763794,0.042917199432849884,1741432537.8455749,1741432538039,-2.9796286621093753,1.0040838012695312,1.8885054376904855,-0.47449966430664064,2.6707993164062502
1741432537.9214664,1.3459986448287964,0.056587455802318956,0.05161101489308028,-0.9970627678273455,-0.26700714230537415,-0.28311482071876526,-0.9477202892303467,-0.9347306489944458,-3.8822543621063232,7.276876449584961,-0.839818000793457,0.15011024475097656,0.14019227027893066,-1.3199290037155151,0.005912871100008488,-0.5422675013542175,0.19245441257953644,1.374861478805542,0.0036240178160369396,0.534637987613678,0.09250781685113907,-0.6288624405860901,0.08907453715801239,-0.03795681521296501,0.6368734240531921,-0.06629648059606552,-0.018533773720264435,-0.7085908055305481,0.03337911143898964,-0.16956588625907898,1.0744259357452393,-0.4278874099254608,0.0040520490147173405,0.20598140358924866,0.04857424646615982,0.5663245320320129,0.10440528392791748,-0.004675653763115406,0.054037872701883316,0.030262896791100502,0.16174103319644928,0.009289996698498726,-0.0967961996793747,0.3048310875892639,0.43626007437705994,0.5838646292686462,0.003389668883755803,0.0437256321310997,-0.6897016763687134,0.05874977633357048,1.6222476959228516,0.0701804980635643,-0.48317328095436096,-3.3005545139312744,1.322406530380249,-0.1584768146276474,1741432537.9578001,1741432538139,-2.9853427734375,1.0270447998046874,1.8247244316664248,-0.3136973571777344,2.6849333496093752
1741432537.941505,1.3343747854232788,0.049191622703912335,0.06081115550348631,-0.9969364009916013,-0.44363316893577576,-0.34188970923423767,-0.5772784352302551,-0.8955405354499817,-2.6687369346618652,8.306703567504883,-0.8325700759887695,0.14972877502441406,0.1489662081003189,-1.317258596420288,0.005912871100008488,-0.5403600931167603,0.19245441257953644,1.376387357711792,0.0036240178160369396,0.5350194573402405,0.09708552807569504,-0.6273365616798401,0.09899290651082993,-0.03643091395497322,0.647936224937439,-0.08404895663261414,-0.018261028453707695,-0.6712062358856201,0.03299763426184654,-0.17566949129104614,0.9840161800384521,-0.3917444348335266,0.0062114764004945755,0.21847602725028992,0.009778744541108608,0.4141610562801361,0.18441222608089447,-0.002851600991562009,0.08661844581365585,0.012903589755296707,0.1262340247631073,0.003208029782399535,0.022248655557632446,0.23657503724098206,0.016158752143383026,0.5222776532173157,0.10641557723283768,0.6721322536468506,-0.9855266213417053,0.08254200965166092,2.0184669494628906,-0.01354126911610365,-0.3585028052330017,-4.64302921295166,1.9087765216827393,0.1385723054409027,1741432537.9578001,1741432538139,-2.9853427734375,1.0270447998046874,1.8247244316664248,-0.3136973571777344,2.6849333496093752
1741432537.9614966,1.3254529237747192,0.04160793426433631,0.06858995763006212,-0.9967769045872605,-0.3302602171897888,-0.3536500036716461,-0.46597403287887573,-0.7605244517326355,-3.536656379699707,7.684423446655273,-0.822270393371582,0.14972877502441406,0.15735866129398346,-1.3161141872406006,0.005912871100008488,-0.5392156839370728,0.19283588230609894,1.378676176071167,0.0036240178160369396,0.5350194573402405,0.10433356463909149,-0.6334401369094849,0.10967422276735306,-0.03299763426184654,0.6696802973747253,-0.11677680164575577,-0.012840336188673973,-0.620851457118988,0.03528648987412453,-0.18558785319328308,0.8703364729881287,-0.3459664583206177,0.005166967865079641,0.2851150631904602,0.021454760804772377,0.42663076519966125,0.03300365433096886,-0.0001755928242346272,0.02687247283756733,0.049080196768045425,0.08184491842985153,-0.003026310121640563,-0.008113331161439419,0.4012007713317871,-0.28476130962371826,0.4347068667411804,0.13553869724273682,1.1396560668945312,-1.7996182441711426,0.25154706835746765,2.537224531173706,0.12453092634677887,-0.5472098588943481,-5.7885918617248535,2.3386008739471436,-0.03194643184542656,1741432537.9578001,1741432538139,-2.9853427734375,1.0270447998046874,1.8247244316664248,-0.3136973571777344,2.6849333496093752
1741432537.9815464,1.3157726526260376,0.034049175701546926,0.07332236022575213,-0.9967268859246098,-0.18027803301811218,-0.3409842252731323,-0.5120639801025391,-1.8234668970108032,0.751100480556488,7.6406474113464355,-0.809300422668457,0.14782142639160156,0.1665140837430954,-1.316495656967163,0.005912871100008488,-0.5392156839370728,0.19321736693382263,1.377150297164917,0.0036240178160369396,0.534637987613678,0.11577782779932022,-0.6425955891609192,0.11310750246047974,-0.029564354568719864,0.699053943157196,-0.16146451234817505,-0.0207414161413908,-0.5746929049491882,0.0394827201962471,-0.1970321238040924,0.7497901916503906,-0.295257031917572,0.0024832128547132015,0.36745840311050415,-0.04135458543896675,0.4620060324668884,-0.03315521776676178,0.008821245282888412,0.0021296266932040453,0.0337662398815155,-0.11344525963068008,-0.004377031233161688,-0.02802307903766632,0.7010877132415771,-0.5320131182670593,0.13845551013946533,0.23955892026424408,1.5382957458496094,-2.2345046997070312,-0.5995539426803589,2.254101276397705,0.2286447435617447,-0.612302303314209,-5.948312282562256,2.5940113067626953,-0.27875450253486633,1741432537.9578001,1741432538139,-2.9853427734375,1.0270447998046874,1.8247244316664248,-0.3136973571777344,2.6849333496093752
1741432538.0015454,1.298648715019226,0.030056166458765018,0.06967264982113473,-0.9971170185713933,0.2804918885231018,-0.09765340387821198,-0.9434801340103149,9.765787124633789,-13.911187171936035,15.585772514343262,-0.802433967590332,0.12645912170410156,0.17528800666332245,-1.3203104734420776,0.005912871100008488,-0.5380712747573853,0.19283588230609894,1.375624418258667,0.0036240178160369396,0.533875048160553,0.12874799966812134,-0.6589990258216858,0.11768520623445511,-0.024605173617601395,0.7406347990036011,-0.20206353068351746,-0.04693800210952759,-0.5388342142105103,0.03376058489084244,-0.20466163754463196,0.6570916175842285,-0.23792383074760437,-0.007678052876144648,0.2175409346818924,-0.6607963442802429,0.4879934787750244,-0.25774890184402466,-0.011799394153058529,0.027525994926691055,-0.016668738797307014,-0.1439274698495865,0.006070380564779043,-0.05593971163034439,0.5072470903396606,-0.7913456559181213,0.32415571808815,0.16381198167800903,2.1300344467163086,-1.8967970609664917,-1.3187129497528076,1.5161523818969727,-0.4485900104045868,-0.5949556231498718,-3.8900773525238037,3.0269618034362793,-0.6089559197425842,1741432537.9578001,1741432538139,-2.9853427734375,1.0270447998046874,1.8247244316664248,-0.3136973571777344,2.6849333496093752
1741432538.0215821,1.2734419107437134,0.02416378486930722,0.0660567681643311,-0.9975232402708589,0.1412493884563446,-0.14912107586860657,-1.4057612419128418,2.765230417251587,-5.440857887268066,12.454054832458496,-0.7906084060668945,0.12607765197753906,0.18711376190185547,-1.3306102752685547,0.005912871100008488,-0.5388342142105103,0.18825818598270416,1.372191071510315,0.0036240178160369396,0.5315861701965332,0.1367589831352234,-0.6692988276481628,0.1199740618467331,-0.016975661739706993,0.776493489742279,-0.23531126976013184,-0.0560336597263813,-0.5300602912902832,0.05054550990462303,-0.21152819693088531,0.6418325901031494,-0.18276762962341309,-0.03527362644672394,0.37347695231437683,-0.09562144428491592,0.6216760277748108,-0.8517807722091675,-0.00826161541044712,-0.057611797004938126,-0.42993679642677307,-0.13680346310138702,0.006910998839884996,-0.1524181365966797,0.483915239572525,-0.3568378686904907,-0.0020458190701901913,0.5380803346633911,1.6006730794906616,-1.6835964918136597,-0.15327541530132294,0.0907728523015976,1.0991148948669434,-0.12207450717687607,-0.5547527074813843,2.456310272216797,-1.0843719244003296,1741432538.0604305,1741432538239,-2.98260302734375,1.0226573486328125,1.8012680108807468,-0.15802241516113283,2.69895166015625
1741432538.0415895,1.2475320100784302,0.017700481620564507,0.06737693125378127,-0.9975705699774946,-0.01380142942070961,-0.21376252174377441,-1.2621437311172485,1.9904814958572388,1.70400869846344,11.543706893920898,-0.7883195877075195,0.13103675842285156,0.20084688067436218,-1.3435804843902588,0.005912871100008488,-0.5380712747573853,0.17490653693675995,1.37295401096344,0.0036240178160369396,0.5319676399230957,0.14705882966518402,-0.6792172193527222,0.10776684433221817,-0.023079270496964455,0.7959487438201904,-0.27137917280197144,-0.03973016515374184,-0.5300602912902832,0.053215838968753815,-0.18711376190185547,0.6322957277297974,-0.15770481526851654,-0.037182316184043884,0.08321630209684372,0.1380821019411087,0.6906736493110657,-0.8014200925827026,-0.0029521938413381577,0.052194781601428986,-0.8282495141029358,-0.013947471976280212,0.0045921048149466515,0.05114515870809555,0.35700523853302,-0.649727463722229,-0.7976728677749634,-0.7832822203636169,0.9299041628837585,-1.8404959440231323,1.0652254819869995,0.232975572347641,-0.17645363509655,1.4095062017440796,-0.6353369951248169,1.0030460357666016,0.10118859261274338,1741432538.0604305,1741432538239,-2.98260302734375,1.0226573486328125,1.8012680108807468,-0.15802241516113283,2.69895166015625
1741432538.061634,1.2249277830123901,0.014166228655651938,0.06555393514183064,-0.9977484650717817,0.14941535890102386,-0.07018248736858368,-1.0657182931900024,-6.7724928855896,2.892652988433838,12.86975383758545,-0.7787818908691406,0.13599586486816406,0.20847637951374054,-1.3557876348495483,0.005912871100008488,-0.5376898050308228,0.1676585078239441,1.37142813205719,0.0036240178160369396,0.5327305793762207,0.14667734503746033,-0.7040131092071533,0.07686731964349747,-0.06618601083755493,0.8234149813652039,-0.31067949533462524,-0.013082729652523994,-0.5079346895217896,0.04711223021149635,-0.16231784224510193,0.615129292011261,-0.15862345695495605,-0.0298613328486681,0.27743569016456604,0.13560126721858978,0.30097267031669617,-0.88527911901474,0.005831965710967779,0.010282658040523529,-0.4557419717311859,-0.08292263001203537,-0.001195271615870297,0.03965725377202034,0.07262443751096725,-1.253024935722351,-1.6058405637741089,-2.198316812515259,1.5868738889694214,-2.0749058723449707,1.2654492855072021,1.1991498470306396,-0.054819781333208084,1.0045580863952637,-0.8754431009292603,-0.14155104756355286,0.3966287076473236,1741432538.0604305,1741432538239,-2.98260302734375,1.0226573486328125,1.8012680108807468,-0.15802241516113283,2.69895166015625
1741432538.081655,1.2136701345443726,0.019482700488352482,0.059442098693243475,-0.9980416130024958,0.3202396631240845,0.24831993877887726,-0.4994766414165497,1.928222894668579,5.712976455688477,6.1002516746521,-0.7722969055175781,0.13294410705566406,0.20885786414146423,-1.36990225315094,0.005912871100008488,-0.536926805973053,0.1661325991153717,1.3672319650650024,0.0036240178160369396,0.5323491096496582,0.14019227027893066,-0.7322422862052917,0.038719769567251205,-0.10128175467252731,0.8886472582817078,-0.351066529750824,0.004557020030915737,-0.5106050372123718,0.050164032727479935,-0.15468832850456238,0.5952925682067871,-0.16087211668491364,-0.02892572432756424,0.1866675615310669,-0.07303066551685333,-0.03045051544904709,-0.897007167339325,0.0029847475234419107,0.03334055840969086,-0.02007005177438259,-0.3560316264629364,0.005815574433654547,-0.05798151716589928,-0.5869624614715576,-1.681071400642395,-1.8088555335998535,-1.5652291774749756,3.6764724254608154,-1.8374793529510498,0.6731478571891785,-0.3632518947124481,0.0736997127532959,0.39460545778274536,-0.9738184213638306,-0.06887459009885788,0.03233414888381958,1741432538.0604305,1741432538239,-2.98260302734375,1.0226573486328125,1.8012680108807468,-0.15802241516113283,2.69895166015625
1741432538.1016622,1.2138336896896362,0.02719795549836676,0.05498444386611005,-0.9981167176986084,0.16906340420246124,0.42203545570373535,0.05662219598889351,0.9991058111190796,0.47576314210891724,6.037077903747559,-0.7677192687988281,0.13675880432128906,0.20122835040092468,-1.3790576457977295,0.005912871100008488,-0.5373083353042603,0.16956588625907898,1.360365390777588,0.0036240178160369396,0.5304417610168457,0.11959258466959,-0.7909895181655884,0.01583123579621315,-0.10967422276735306,0.9840161800384521,-0.3693525791168213,-0.008508230559527874,-0.5209048390388489,0.05130846053361893,-0.13866636157035828,0.5964370369911194,-0.1586236208677292,-0.029862796887755394,0.1375429332256317,0.0754743441939354,-0.5103045701980591,-0.5054997205734253,-0.0056606181897223,-0.018197786062955856,0.24739700555801392,-0.4374375641345978,0.001344825141131878,-0.156492218375206,-0.9767643809318542,-3.128711700439453,-0.9554337859153748,-0.13158176839351654,5.15571403503418,-0.6719317436218262,-0.7037573456764221,-0.4787638485431671,-0.004807451739907265,0.9279654622077942,0.3096095621585846,0.14222846925258636,-0.030084460973739624,1741432538.0604305,1741432538239,-2.98260302734375,1.0226573486328125,1.8012680108807468,-0.15802241516113283,2.69895166015625
1741432538.121687,1.2136231660842896,0.033130583314633616,0.05269672810298938,-0.9980608294570384,0.11531344801187515,0.27034518122673035,-0.00624583475291729,0.4829845428466797,1.5543502569198608,5.6210455894470215,-0.7597084045410156,0.14400672912597656,0.18558785319328308,-1.3817280530929565,0.005912871100008488,-0.5373083353042603,0.17338064312934875,1.3554061651229858,0.0036240178160369396,0.5251010656356812,0.11158160120248795,-0.8558403849601746,-0.0024795911740511656,-0.10090028494596481,1.1037994623184204,-0.3663869798183441,-0.005975192878395319,-0.5472266674041748,0.05092698708176613,-0.12722209095954895,0.6055924296379089,-0.1538943201303482,-0.028397507965564728,0.2375265508890152,0.1778726428747177,-0.7089845538139343,-0.11397697031497955,-0.0052160038612782955,-0.010334194637835026,0.26864463090896606,-0.3402649760246277,0.011943708173930645,-0.36566486954689026,-0.2674505114555359,-3.1814377307891846,-1.0240910053253174,0.3094962537288666,5.923874378204346,0.2657204866409302,0.34196794033050537,-1.4241328239440918,-0.0029708528891205788,0.5334709286689758,0.45749977231025696,0.22888267040252686,0.11917097866535187,1741432538.153998,1741432538339,-2.96455029296875,1.0086153564453124,1.7166457116618588,-0.004127552986145019,2.7110346679687503
1741432538.14171,1.2113991975784302,0.03640543682873752,0.049515091162010756,-0.9981096632717903,0.13954852521419525,0.18363425135612488,-0.18228964507579803,2.047649383544922,-2.113553285598755,6.457258224487305,-0.7425422668457031,0.15392494201660156,0.17643244564533234,-1.382109522819519,0.005912871100008488,-0.5384527444839478,0.17566949129104614,1.3500655889511108,0.0036240178160369396,0.5205233693122864,0.11577782779932022,-0.9103913903236389,-0.02536812424659729,-0.09174486994743347,1.195353627204895,-0.34731656312942505,-0.001360061694867909,-0.5643930435180664,0.049782559275627136,-0.12378881871700287,0.6239032745361328,-0.1494240164756775,-0.022580070421099663,0.5165637135505676,0.28528985381126404,-0.40351006388664246,-0.015885304659605026,-0.013869856484234333,-0.08890625089406967,0.12702664732933044,-0.3173164427280426,-0.0011325402883812785,-0.26299721002578735,0.15798012912273407,-2.4242897033691406,-1.308463215827942,0.3494397699832916,4.121054649353027,1.0108474493026733,0.07407289743423462,-0.73175048828125,-0.03967256098985672,0.18666163086891174,1.018516182899475,0.18971765041351318,0.2714937925338745,1741432538.153998,1741432538339,-2.96455029296875,1.0086153564453124,1.7166457116618588,-0.004127552986145019,2.7110346679687503
1741432538.1618474,1.1975561380386353,0.034072854800195576,0.0505424491965075,-0.9981405218680299,-0.027564246207475662,-0.16613423824310303,-0.7509355545043945,1.5601871013641357,2.347982883453369,10.30537223815918,-0.7326240539550781,0.16880321502685547,0.17338064312934875,-1.377150297164917,0.005912871100008488,-0.5395971536636353,0.17414358258247375,1.3485395908355713,0.0036240178160369396,0.5189974904060364,0.1348516047000885,-0.9210727214813232,-0.049782559275627136,-0.09098191559314728,1.2254902124404907,-0.3230748772621155,-0.004530469421297312,-0.5853742361068726,0.04482337832450867,-0.1184481605887413,0.6429770588874817,-0.1508655697107315,-0.02487538941204548,0.3104381561279297,0.4433097839355469,-0.10125106573104858,0.3591329753398895,-0.004748079460114241,-0.03339318186044693,-0.11470799148082733,-0.06564722210168839,-0.004579198081046343,-0.08478470146656036,1.064936637878418,-0.21953287720680237,-1.1893668174743652,-0.14945852756500244,0.9745836853981018,1.1590276956558228,0.0038387253880500793,-1.093745231628418,-0.24955525994300842,0.2700904607772827,0.8722416162490845,-0.12850221991539001,-0.1887534111738205,1741432538.153998,1741432538339,-2.96455029296875,1.0086153564453124,1.7166457116618588,-0.004127552986145019,2.7110346679687503
1741432538.181771,1.172188639640808,0.023780046852845786,0.04917932639817411,-0.9985068368452458,0.12168652564287186,-0.4716702401638031,-1.3203392028808594,1.029205083847046,-0.32705140113830566,7.575953006744385,-0.7154569625854492,0.17566967010498047,0.17528800666332245,-1.374098539352417,0.005912871100008488,-0.536926805973053,0.17185473442077637,1.3489210605621338,0.0036240178160369396,0.5201418995857239,0.15697719156742096,-0.8958953022956848,-0.06542305648326874,-0.1035706102848053,1.1827648878097534,-0.3059868812561035,0.0019224700517952442,-0.5956740379333496,0.040627144277095795,-0.11615930497646332,0.6654840707778931,-0.15578697621822357,-0.027431895956397057,0.5038963556289673,0.22861966490745544,0.08574477583169937,0.13293372094631195,-0.0011511904885992408,0.15231217443943024,-0.1460525095462799,-0.00791329424828291,-0.0015854964731261134,0.0698375254869461,1.0023643970489502,1.5512515306472778,-0.7596718668937683,-0.5408642292022705,-2.6328299045562744,0.7710522413253784,0.3368649184703827,-0.3158765733242035,-0.26950588822364807,0.1183789074420929,1.204828143119812,-0.2651120722293854,-0.04907887801527977,1741432538.153998,1741432538339,-2.96455029296875,1.0086153564453124,1.7166457116618588,-0.004127552986145019,2.7110346679687503
1741432538.2018545,1.145372748374939,0.012413600132513277,0.044542597166048095,-0.9989303577174203,0.2738646864891052,-0.5229778289794922,-1.3452153205871582,0.2920588552951813,2.1345455646514893,8.072563171386719,-0.7089719772338867,0.17643260955810547,0.17872129380702972,-1.3737170696258545,0.005912871100008488,-0.535400927066803,0.17223620414733887,1.3489210605621338,0.0036240178160369396,0.5228122472763062,0.16956588625907898,-0.8279926776885986,-0.07343403995037079,-0.12188144028186798,1.0786221027374268,-0.30346012115478516,0.0043204594403505325,-0.6094071865081787,0.04100862145423889,-0.11196307092905045,0.690280020236969,-0.165305957198143,-0.024053579196333885,0.21580153703689575,0.051812637597322464,0.17184677720069885,0.04297893866896629,-0.0043065911158919334,0.060190387070178986,0.06102123111486435,-0.00468872906640172,-0.003116485895588994,0.1628015637397766,0.5493034720420837,3.6958773136138916,-0.30649474263191223,-0.920653760433197,-5.5633440017700195,-0.06265977770090103,0.09721949696540833,-0.897914469242096,0.09213224053382874,0.29033225774765015,1.2092270851135254,-0.5629913806915283,0.15809670090675354,1741432538.153998,1741432538339,-2.96455029296875,1.0086153564453124,1.7166457116618588,-0.004127552986145019,2.7110346679687503
1741432538.2256525,1.1198233366012573,0.0021970154272455875,0.03738459836784744,-0.9992985364384795,0.3478620946407318,-0.3672662377357483,-1.2573609352111816,-0.9480046629905701,-1.6374642848968506,4.983338356018066,-0.6967649459838867,0.17605113983154297,0.1840619444847107,-1.374098539352417,0.005912871100008488,-0.5342565178871155,0.17490653693675995,1.3489210605621338,0.0036240178160369396,0.5258640646934509,0.1668955534696579,-0.7478827834129333,-0.07381551712751389,-0.14133669435977936,0.9290837049484253,-0.32160231471061707,0.004270049277693033,-0.6273365616798401,0.0558861680328846,-0.11387044936418533,0.725375771522522,-0.1837918907403946,-0.025083886459469795,0.3476244807243347,0.0032685117330402136,0.26727497577667236,-0.026010077446699142,-0.009929314255714417,0.038997724652290344,0.1919640749692917,-0.008254071697592735,0.006819653790444136,0.2110080122947693,-0.27775153517723083,3.83758282661438,0.0028714437503367662,-0.7331857681274414,-7.84025239944458,-1.1108324527740479,0.09478970617055893,-0.834865391254425,0.8237009644508362,-0.2480384111404419,1.858486533164978,-0.9714416265487671,-0.04939929395914078,1741432538.264913,1741432538439,-2.9675783691406252,0.9936591186523438,1.6832486139605913,0.14785722351074218,2.725979248046875
