Freshhhhh-LC/Legged_odom/data/2/segments/booster_seg_10.0s.csv
time,yaw,projected_gravity_x,projected_gravity_y,projected_gravity_z,ang_vel_x,ang_vel_y,ang_vel_z,lin_acc_x,lin_acc_y,lin_acc_z,q_0,q_1,q_2,q_3,q_4,q_5,q_6,q_7,q_8,q_9,q_10,q_11,q_12,q_13,q_14,q_15,q_16,q_17,q_18,q_19,q_20,q_21,q_22,dq_0,dq_1,dq_2,dq_3,dq_4,dq_5,dq_6,dq_7,dq_8,dq_9,dq_10,dq_11,dq_12,dq_13,dq_14,dq_15,dq_16,dq_17,dq_18,dq_19,dq_20,dq_21,dq_22,mocap_time,mocap_timestamp,robot_x,robot_y,robot_yaw,ball_x,ball_y
1741432329.9933786,-1.2264732765033841,0.013192141528420801,-0.005212592478007305,-0.9998993930799,-0.2553248703479767,-0.23318633437156677,-0.6552008986473083,-11.26098918914795,3.4410829544067383,9.24631118774414,-0.18444347381591797,0.8981838226318359,0.20962081849575043,-1.3817280530929565,0.006294346414506435,-0.5254825949668884,0.17833982408046722,1.3309917449951172,0.0036240178160369396,0.5155642032623291,0.018501564860343933,-0.839436948299408,0.02536812424659729,0.07991912961006165,1.1385138034820557,-0.2779008448123932,0.001256840769201517,-0.5163271427154541,0.005531395319849253,-0.02040894143283367,0.6685358881950378,-0.2313687950372696,-0.007190789561718702,0.19628822803497314,0.09572414308786392,0.516764223575592,0.1653100848197937,-0.012467162683606148,0.4676673412322998,-1.0769083499908447,0.0551619827747345,-0.027697276324033737,0.18737132847309113,0.01076230313628912,0.2764335572719574,-0.03526365011930466,-0.09450308978557587,-0.09095250070095062,1.155340313911438,0.12155934423208237,-0.6284089088439941,-0.2549645006656647,-0.4997066259384155,-0.8681877255439758,-0.6853724122047424,0.2636180818080902,1741432329.9635282,1741432330179,0.41679153442382816,-1.725170654296875,-0.6110145679156834,2.990801513671875,2.059474365234375
1741432329.99534,-1.1913585718721151,0.011005422512853493,-0.02803563439393696,-0.9995463390355862,0.02636423520743847,-0.1910940408706665,0.8810045719146729,-3.7411251068115234,-0.8327392339706421,7.980301856994629,-0.20237255096435547,0.8863582611083984,0.21839475631713867,-1.374098539352417,0.005912871100008488,-0.5197604298591614,0.1676585078239441,1.3283214569091797,0.0036240178160369396,0.5251010656356812,-0.14858472347259521,-0.6410696506500244,-0.010109102353453636,0.12188144028186798,0.7467383742332458,-0.3174515962600708,0.00475778104737401,-0.5663004517555237,-0.012397955171763897,-0.01430533267557621,0.7616159319877625,-0.3439164459705353,0.00398486340418458,-0.1405062973499298,0.06632544100284576,-0.10795074701309204,0.45635440945625305,-0.009075361303985119,-0.13902100920677185,0.5792348980903625,0.007495040073990822,0.05624164268374443,-0.26321345567703247,-0.8370718359947205,3.0250048637390137,-0.6885090470314026,0.9993851184844971,-6.769785404205322,-1.2540631294250488,0.05245775356888771,-1.7186774015426636,0.16887341439723969,-0.5941207408905029,1.3406533002853394,-1.0159955024719238,0.3873603940010071,1741432329.9635282,1741432330179,0.41679153442382816,-1.725170654296875,-0.6110145679156834,2.990801513671875,2.059474365234375
1741432330.001376,-1.0487670004367828,0.029027628965071085,0.017149862916617947,-0.9994314778705979,-0.11473192274570465,0.028005171567201614,-0.6510687470436096,-7.094854354858398,-8.777885437011719,19.81804847717285,-0.17185497283935547,0.8699550628662109,0.19436179101467133,-1.3485395908355713,0.005531395319849253,-0.5151827335357666,0.17071031033992767,1.37142813205719,0.004005493130534887,0.5014495849609375,0.12188144028186798,-0.6170367002487183,0.021553369238972664,0.011635004542768002,0.7894636392593384,-0.28841450810432434,-0.0008829589351080358,-0.5891889929771423,0.03337911143898964,-0.09136339277029037,0.7166017889976501,-0.3274633586406708,-0.017435016110539436,0.24412798881530762,-0.549602210521698,0.18341754376888275,0.13178317248821259,-0.016879281029105186,0.0436982661485672,-0.08448944240808487,-0.20681577920913696,-0.0009524985798634589,0.025427669286727905,1.102146863937378,-1.6543033123016357,0.9125580787658691,-0.6588501334190369,2.6879684925079346,-1.1912102699279785,0.02466278150677681,1.7445087432861328,0.7438409924507141,-1.230414628982544,-1.9100488424301147,2.07509446144104,-1.187735676765442,1741432329.9635282,1741432330179,0.41679153442382816,-1.725170654296875,-0.6110145679156834,2.990801513671875,2.059474365234375
1741432330.0214078,-1.0700214952230453,0.026271795823983184,0.030321944511149623,-0.999194862089095,-0.6851804256439209,-0.16455893218517303,-1.0918996334075928,11.001121520996094,-1.484025239944458,3.6299731731414795,-0.19016551971435547,0.8928432464599609,0.1993209719657898,-1.3493025302886963,0.006294346414506435,-0.5117494463920593,0.16422522068023682,1.370665192604065,0.004386968910694122,0.5006866455078125,0.1192111074924469,-0.620088517665863,0.03528648987412453,0.007057297509163618,0.80510413646698,-0.31813183426856995,0.003044972661882639,-0.6139848828315735,0.049782559275627136,-0.10051880776882172,0.7391088604927063,-0.2808612883090973,-0.06288698315620422,-0.5756825804710388,0.4834502339363098,0.2892322540283203,-0.0722905844449997,0.015072798356413841,0.085865318775177,-0.4569249749183655,-0.02184431254863739,0.04074738919734955,0.01894446834921837,-0.1603667140007019,0.21044014394283295,0.1018330380320549,0.23751777410507202,0.39140939712524414,-1.5595242977142334,0.04823087528347969,-1.5048587322235107,0.4010571539402008,-0.0479697585105896,0.5408757925033569,2.1301255226135254,-1.483109474182129,1741432330.0656111,1741432330279,0.4055168151855469,-1.7334228515625,-0.6187190773291976,3.01150927734375,2.089509765625
1741432330.0414343,-1.0892249643802643,0.024404371376994926,0.037554813084462346,-0.9989965278577723,-0.11026682704687119,0.0789240300655365,-0.9206658005714417,-1.8317018747329712,-0.3630954325199127,11.384936332702637,-0.18444347381591797,0.8894100189208984,0.20122835040092468,-1.3512099981307983,0.005912871100008488,-0.5144197940826416,0.16041046380996704,1.36685049533844,0.0036240178160369396,0.5048828721046448,0.10814831405878067,-0.6086442470550537,0.034142062067985535,0.00667582219466567,0.8073930144309998,-0.3411697745323181,-0.0051573277451097965,-0.6006332635879517,0.04482337832450867,-0.06656748056411743,0.7185091972351074,-0.2515838146209717,-0.022749686613678932,0.07230125367641449,-0.15264193713665009,0.042540039867162704,-0.1729772984981537,0.011802862398326397,-0.1334056407213211,-0.23603947460651398,-0.2799004316329956,-0.0949307233095169,0.34523898363113403,-0.6288453340530396,0.47167888283729553,-0.06771132349967957,-0.4491249918937683,0.4186876118183136,-1.0214810371398926,-0.4120701253414154,1.127132534980774,-0.21712706983089447,1.7839996814727783,-1.338610053062439,1.4179638624191284,2.479621171951294,1741432330.0656111,1741432330279,0.4055168151855469,-1.7334228515625,-0.6187190773291976,3.01150927734375,2.089509765625
1741432330.0614367,-1.1008659675717354,0.025247725678153008,0.02611215522712649,-0.9993401361385797,0.6314840316772461,0.04451163485646248,-0.5007444620132446,1.2318886518478394,3.2944798469543457,14.82546329498291,-0.16460704803466797,0.8882656097412109,0.1997024416923523,-1.36990225315094,0.006294346414506435,-0.5144197940826416,0.16193637251853943,1.3599839210510254,0.002861066721379757,0.5113679766654968,0.086785688996315,-0.6155108213424683,0.027656977996230125,0.00476844422519207,0.8134965896606445,-0.35974717140197754,-0.0033618174493312836,-0.5773632526397705,0.0555046908557415,-0.053215838968753815,0.6963835954666138,-0.2255619764328003,-0.0067730736918747425,0.4603666067123413,-0.04994964972138405,-0.10302848368883133,-1.3879857063293457,-0.0038992217741906643,0.010596194304525852,0.12876497209072113,-0.4892946183681488,-0.014876270666718483,0.39569833874702454,-1.2433240413665771,-0.39080268144607544,-0.2129700928926468,0.13041731715202332,-0.04100095108151436,-1.0125325918197632,0.1392720490694046,0.7148401737213135,0.5868566632270813,0.47061824798583984,-0.8165095448493958,1.2538743019104004,-0.160381019115448,1741432330.0656111,1741432330279,0.4055168151855469,-1.7334228515625,-0.6187190773291976,3.01150927734375,2.089509765625
1741432330.081466,-1.1037610098719597,0.024715881151549858,0.010998254678593987,-0.9996340148338927,0.6939161419868469,0.06481710821390152,-0.04258546978235245,0.022958330810070038,0.2966460585594177,7.0583882331848145,-0.16880321502685547,0.8932247161865234,0.1962691694498062,-1.3840168714523315,0.006294346414506435,-0.5151827335357666,0.1665140837430954,1.3500655889511108,0.002861066721379757,0.5144197940826416,0.0555046908557415,-0.6055924296379089,0.016594186425209045,0.009727626107633114,0.8180742859840393,-0.3796958923339844,0.00302883074618876,-0.5746929049491882,0.053215838968753815,-0.023079270496964455,0.6944762468338013,-0.20229914784431458,-0.03479450196027756,-0.11400172114372253,0.13391178846359253,-0.1477070301771164,-0.7587311863899231,-0.004714495502412319,-0.0657130777835846,0.37469005584716797,-0.620277464389801,0.022016320377588272,0.15936852991580963,-1.3744937181472778,0.649526834487915,-0.7680222392082214,0.25300925970077515,0.44699570536613464,-1.0511794090270996,0.316692978143692,0.4722995162010193,-0.3523985743522644,1.7912241220474243,-0.18382520973682404,1.1820971965789795,-0.9635632038116455,1741432330.0656111,1741432330279,0.4055168151855469,-1.7334228515625,-0.6187190773291976,3.01150927734375,2.089509765625
1741432330.101435,-1.1014397889375687,0.026703280726621422,-0.00216856114717241,-0.9996410516485336,0.6890885233879089,0.03224998340010643,0.12707053124904633,-6.730268478393555,-2.2812771797180176,13.883391380310059,-0.18520641326904297,0.8947505950927734,0.19092851877212524,-1.390120506286621,0.006294346414506435,-0.5151827335357666,0.17566949129104614,1.3435804843902588,0.002861066721379757,0.5132753252983093,0.042153049260377884,-0.619325578212738,-0.004386968910694122,0.005531395319849253,0.8562218546867371,-0.39640727639198303,0.00013510310964193195,-0.5693522691726685,0.05359731614589691,-0.0024795911740511656,0.6746395230293274,-0.18708442151546478,-0.01617514342069626,-0.41450023651123047,0.09702279418706894,-0.38045164942741394,-0.47197264432907104,-0.001834363560192287,0.007704062387347221,0.6115192770957947,-0.42691662907600403,0.00981809664517641,-0.13066494464874268,-0.5102233290672302,-1.1132642030715942,-0.9062379598617554,-0.33899131417274475,2.517864465713501,-0.665314257144928,-0.26375097036361694,0.01835797354578972,0.12231896817684174,0.6670711040496826,-1.1624094247817993,0.6520967483520508,0.9456509947776794,1741432330.0656111,1741432330279,0.4055168151855469,-1.7334228515625,-0.6187190773291976,3.01150927734375,2.089509765625
1741432330.1215217,-1.0977321416139603,0.03454935162296169,-0.007902745697308132,-0.9993717471055886,0.114996038377285,0.46437913179397583,0.13689059019088745,-0.9201580882072449,0.7110596299171448,8.323358535766602,-0.20313549041748047,0.8890285491943359,0.17643244564533234,-1.3927907943725586,0.005912871100008488,-0.5155642032623291,0.1848248988389969,1.3336620330810547,0.002861066721379757,0.5098420977592468,0.0558861680328846,-0.6719691753387451,-0.010109102353453636,-0.0020981156267225742,0.9420538544654846,-0.3982447385787964,-0.005991041194647551,-0.5682078003883362,0.048638131469488144,0.0009536888683214784,0.6696802973747253,-0.17780901491641998,-0.01894381456077099,-0.596488356590271,-0.1597823053598404,-0.7077205777168274,0.024619994685053825,-0.010296138934791088,-0.025055065751075745,0.6073790788650513,-0.5935256481170654,-0.0010572175960987806,-0.18580542504787445,0.874654233455658,-2.95829176902771,-0.2017645537853241,-0.1920766681432724,4.654567241668701,-0.010347128845751286,-0.2390419989824295,0.05375789478421211,-0.40870195627212524,0.30750101804733276,-0.010923471301794052,0.46572399139404297,-0.34292367100715637,1741432330.0656111,1741432330279,0.4055168151855469,-1.7334228515625,-0.6187190773291976,3.01150927734375,2.089509765625
1741432330.1414895,-1.103590451180935,0.04198613022317848,-0.0036026607113599663,-0.9991116983123964,-0.1960247904062271,0.31807035207748413,-0.3965076208114624,-0.940446674823761,1.57685387134552,8.867766380310059,-0.19817638397216797,0.8924617767333984,0.1668955534696579,-1.3847798109054565,0.005912871100008488,-0.5170900821685791,0.18825818598270416,1.3321361541748047,0.0032425422687083483,0.508316159248352,0.07953765243291855,-0.7486457824707031,-0.01125352829694748,-0.000572213320992887,1.0561150312423706,-0.391044944524765,-0.0009656281908974051,-0.5773632526397705,0.05245288833975792,-0.004005493130534887,0.6605249047279358,-0.1740327775478363,-0.02244444005191326,0.07896262407302856,0.12900647521018982,-0.4212602972984314,0.5306023359298706,-0.0008088331087492406,-0.03494330495595932,0.06882185488939285,-0.0765502080321312,0.028056513518095016,-0.0955677255988121,1.167505145072937,-3.7040913105010986,-0.08778013288974762,0.05650631710886955,5.650449275970459,0.4175521433353424,0.33241572976112366,-0.4338866174221039,0.340841144323349,-0.38335704803466797,-0.6504117846488953,0.1341562420129776,0.0019654100760817528,1741432330.1725228,1741432330379,0.3936781921386719,-1.748964599609375,-0.6843195217645586,3.0318093261718753,2.11797412109375
1741432330.1615138,-1.1160919293761253,0.04872402314782378,0.0035262487215755546,-0.9988060548165714,-0.3540753424167633,0.35785728693008423,-0.732083261013031,0.6624445915222168,2.706291437149048,9.403047561645508,-0.19474315643310547,0.8909358978271484,0.1661325991153717,-1.3782947063446045,0.005912871100008488,-0.5151827335357666,0.17948424816131592,1.3328990936279297,0.0032425422687083483,0.509079098701477,0.1039520874619484,-0.8112077713012695,-0.016594186425209045,-0.0013351644156500697,1.1465247869491577,-0.3776390850543976,0.000889530114363879,-0.5750743746757507,0.05283436179161072,-0.00476844422519207,0.649462103843689,-0.1727512627840042,-0.02047128975391388,0.12148036062717438,-0.024649890139698982,-0.01763106696307659,0.385479211807251,-0.0009629639680497348,0.11416105180978775,-0.6365283131599426,0.04587167128920555,-0.0034811466466635466,0.07919900119304657,1.1776018142700195,-2.841559648513794,-0.28021329641342163,-0.013369330205023289,4.1104936599731445,0.6888944506645203,-0.019984295591711998,0.16640207171440125,-0.08970265090465546,0.12159716337919235,-0.41087639331817627,0.09037677198648453,0.0911073237657547,1741432330.1725228,1741432330379,0.3936781921386719,-1.748964599609375,-0.6843195217645586,3.0318093261718753,2.11797412109375
1741432330.1815374,-1.136822335422039,0.050345362671815046,0.010986477208865465,-0.9986714383499623,-0.2715931832790375,0.016902396455407143,-1.0388312339782715,0.23950617015361786,1.9484615325927734,8.901721000671387,-0.18673229217529297,0.9004726409912109,0.16956588625907898,-1.3744800090789795,0.005912871100008488,-0.5144197940826416,0.16918440163135529,1.3378583192825317,0.0032425422687083483,0.5102235674858093,0.10814831405878067,-0.8321889042854309,-0.021553369238972664,0.0013351644156500697,1.178568720817566,-0.3630795478820801,-0.00255576241761446,-0.5819409489631653,0.05054550990462303,-0.00476844422519207,0.6490806341171265,-0.17293724417686462,-0.02086038328707218,0.23801609873771667,0.2942132353782654,0.18186071515083313,0.15297499299049377,-0.0092603275552392,0.004570635035634041,-0.5953580141067505,0.3438885509967804,-0.0013181593967601657,0.06805326044559479,0.057561878114938736,-0.6906856298446655,-0.23077763617038727,0.05122765898704529,1.0835680961608887,0.7036191821098328,-0.1287275105714798,-0.3837081491947174,-0.16095052659511566,0.02292221412062645,-0.03474670276045799,-0.07061859220266342,-0.02955618128180504,1741432330.1725228,1741432330379,0.3936781921386719,-1.748964599609375,-0.6843195217645586,3.0318093261718753,2.11797412109375
1741432330.2015843,-1.1547145396471024,0.04976912048156759,0.011361371689899218,-0.9986961268973737,0.07936449348926544,-0.0029541156254708767,-0.8673396706581116,1.1809200048446655,-0.24471572041511536,5.738452911376953,-0.18406200408935547,0.8981838226318359,0.17490653693675995,-1.376387357711792,0.005912871100008488,-0.5128938555717468,0.1672770231962204,1.3439619541168213,0.002861066721379757,0.5125123858451843,0.09212634712457657,-0.8127336502075195,-0.02841992862522602,-0.009346150793135166,1.1430914402008057,-0.35050252079963684,0.0008039926760829985,-0.5811780095100403,0.04787518084049225,0.000572213320992887,0.655947208404541,-0.17969585955142975,-0.023624718189239502,0.08247014135122299,-0.036832861602306366,0.2601243555545807,-0.10820376873016357,-0.007235498167574406,-0.008782139047980309,-0.013994511216878891,0.37542200088500977,-0.009563568979501724,0.1660866141319275,-0.8664266467094421,1.1622958183288574,-0.3378604054450989,-0.5345502495765686,-2.292945146560669,0.571550190448761,0.2609873414039612,0.10858943313360214,-0.1198713555932045,0.31725940108299255,0.390456885099411,-0.40023332834243774,-0.07348257303237915,1741432330.1725228,1741432330379,0.3936781921386719,-1.748964599609375,-0.6843195217645586,3.0318093261718753,2.11797412109375
1741432330.2215743,-1.163086861371994,0.045659643449236516,0.005085759452369076,-0.9989441085520657,0.35284623503685,-0.25106972455978394,-0.3875269293785095,-0.9190967679023743,0.5597583055496216,4.750857830047607,-0.18444347381591797,0.8966579437255859,0.17376211285591125,-1.377913236618042,0.006294346414506435,-0.5151827335357666,0.17261768877506256,1.3439619541168213,0.002861066721379757,0.5140383243560791,0.06351567804813385,-0.7650492191314697,-0.042153049260377884,-0.018120087683200836,1.034752368927002,-0.3464260697364807,0.004065124783664942,-0.5888075232505798,0.04901960864663124,0.005912871100008488,0.6731135845184326,-0.19345729053020477,-0.015859713777899742,-0.017855051904916763,-0.024257849901914597,-0.04641873762011528,-0.061916545033454895,-0.006144433282315731,-0.1168641522526741,0.4071977734565735,-0.045735735446214676,-0.004066135734319687,0.027662033215165138,-1.6262998580932617,2.53676176071167,-0.7826060652732849,-0.5101113319396973,-6.006801128387451,0.11617115885019302,0.10563575476408005,-0.48447543382644653,-0.00039229774847626686,0.19194966554641724,0.9727893471717834,-0.7381641268730164,0.33233118057250977,1741432330.1725228,1741432330379,0.3936781921386719,-1.748964599609375,-0.6843195217645586,3.0318093261718753,2.11797412109375
1741432330.241594,-1.1638276800513268,0.03896679757103389,-0.004525846090779636,-0.9992302564495437,0.46081894636154175,-0.32946085929870605,0.00939370971173048,-8.609485626220703,3.420959949493408,3.4765219688415527,-0.18406200408935547,0.8924617767333984,0.17261768877506256,-1.377913236618042,0.005912871100008488,-0.5155642032623291,0.1810101419687271,1.3412915468215942,0.002861066721379757,0.5132753252983093,0.031090257689356804,-0.6914244294166565,-0.0551232174038887,-0.020027466118335724,0.8730067610740662,-0.35339081287384033,0.004806993994861841,-0.6074998378753662,0.054741740226745605,-0.001716639962978661,0.7066834568977356,-0.2130439132452011,-0.014186741784214973,-0.011332313530147076,-0.08993475884199142,-0.04486678168177605,0.00821842160075903,-0.004559201654046774,-0.0034909574314951897,0.5668178200721741,-0.175824373960495,-0.008211755193769932,-0.021502630785107613,-1.53896164894104,4.069992542266846,-0.6989427804946899,-0.08451323211193085,-8.068851470947266,-0.4699596166610718,0.0677824318408966,-1.0805749893188477,0.3471507132053375,-0.4709235727787018,1.7921011447906494,-1.0192101001739502,0.10647460073232651,1741432330.279912,1741432330479,0.39828302001953125,-1.7577344970703126,-0.7840636508620297,3.05055078125,2.143999267578125
1741432330.2616513,-1.1651000827550888,0.0373233461011922,-0.008002579094957926,-0.9992711977054275,0.05551358312368393,-0.07416442036628723,-0.06678766757249832,6.715884208679199,-6.956760406494141,53.826419830322266,-0.19626903533935547,0.8829250335693359,0.17338064312934875,-1.3752429485321045,0.005912871100008488,-0.5155642032623291,0.18940261006355286,1.3409100770950317,0.002861066721379757,0.5132753252983093,0.009727626107633114,-0.6315327882766724,-0.0558861680328846,-0.011635004542768002,0.7471198439598083,-0.34569287300109863,0.0007749254582449794,-0.6342030763626099,0.053215838968753815,-0.007057297509163618,0.7463569045066833,-0.23465187847614288,-0.01793169043958187,-0.3781505525112152,-0.3141503632068634,0.05122408643364906,0.21242128312587738,0.00031344141461886466,0.0010377091821283102,0.5535765886306763,-0.0003894781111739576,0.005216014571487904,-0.017575159668922424,-0.9838263988494873,2.6177408695220947,0.1623133420944214,0.33629143238067627,-4.519777774810791,1.2032307386398315,-0.24798454344272614,-1.471118450164795,-0.3858994245529175,-0.08562365919351578,1.9960851669311523,-1.084340214729309,-0.18233737349510193,1741432330.279912,1741432330479,0.39828302001953125,-1.7577344970703126,-0.7840636508620297,3.05055078125,2.143999267578125
1741432330.2816463,-1.1635660752654076,0.03582435422068397,-0.018531493863515117,-0.9991862686105416,0.728119432926178,0.012698886916041374,0.1870814859867096,9.491373062133789,-3.576406478881836,6.929338455200195,-0.17376232147216797,0.8920803070068359,0.17109178006649017,-1.3718096017837524,0.006294346414506435,-0.5132753252983093,0.19550621509552002,1.3477766513824463,0.002861066721379757,0.5098420977592468,0.018120087683200836,-0.6300068497657776,-0.050164032727479935,-0.012397955171763897,0.7730602025985718,-0.31380486488342285,0.01768234185874462,-0.6467918157577515,0.02384222112596035,-0.0020981156267225742,0.7639048099517822,-0.25558245182037354,-0.02148674987256527,0.6816437840461731,0.17096027731895447,-0.1885027438402176,0.1898266077041626,0.02291189320385456,0.16200336813926697,0.37168362736701965,0.5602814555168152,0.014354757033288479,-0.12601003050804138,0.6222789883613586,-0.4769289791584015,0.4685547947883606,-0.3538908064365387,1.0178238153457642,1.3103938102722168,0.9094241857528687,-0.2519110441207886,-0.8431335687637329,-0.000599833729211241,0.45413872599601746,-1.1673537492752075,-0.016064058989286423,1741432330.279912,1741432330479,0.39828302001953125,-1.7577344970703126,-0.7840636508620297,3.05055078125,2.143999267578125
1741432330.301724,-1.1632879450917244,0.03321746511682332,-0.025145924326994255,-0.999131764333891,0.17845070362091064,-0.10601408034563065,0.07765863835811615,-3.6662697792053223,-0.6267542243003845,9.356901168823242,-0.18482494354248047,0.8955135345458984,0.17185473442077637,-1.3695207834243774,0.005912871100008488,-0.5170900821685791,0.1977950781583786,1.3527358770370483,0.004386968910694122,0.5121309161186218,0.02841992862522602,-0.6326771974563599,-0.046730753034353256,-0.013160906732082367,0.7547493577003479,-0.3007378876209259,0.002327944152057171,-0.6410696506500244,0.02880140393972397,-0.028038453310728073,0.7646677494049072,-0.28094029426574707,-0.007041032891720533,-0.22312802076339722,-0.0351179763674736,0.07677079737186432,0.09243673831224442,-0.000740146089810878,-0.25697869062423706,0.11347214132547379,0.2927033305168152,0.06363435089588165,0.17923612892627716,0.41354992985725403,0.5757753252983093,0.08570003509521484,0.2118961364030838,-1.2926145792007446,0.5998201966285706,-1.1523529291152954,0.1634341925382614,0.21637989580631256,-1.3784068822860718,0.24913780391216278,-1.222650408744812,0.6203425526618958,1741432330.279912,1741432330479,0.39828302001953125,-1.7577344970703126,-0.7840636508620297,3.05055078125,2.143999267578125
1741432330.321677,-1.162258554250002,0.03545475725393093,-0.01569518310404213,-0.9992480279767357,-0.4955650568008423,0.055259089916944504,0.06807693094015121,-1.4250601530075073,-1.814064860343933,13.373212814331055,-0.20580577850341797,0.8955135345458984,0.17452506721019745,-1.364943027496338,0.005912871100008488,-0.5235751867294312,0.1974135935306549,1.3584580421447754,0.004005493130534887,0.5128938555717468,0.04711223021149635,-0.6086442470550537,-0.038719769567251205,-0.009727626107633114,0.735675573348999,-0.28085049986839294,-0.0031896517612040043,-0.6406881809234619,0.023079270496964455,-0.037193864583969116,0.763523280620575,-0.3098098933696747,-0.022530432790517807,-0.6136002540588379,-0.004949305672198534,0.17363229393959045,0.36568376421928406,0.005205370951443911,-0.27028563618659973,-0.0024130912497639656,0.41543903946876526,0.025950679555535316,0.012673070654273033,1.195540428161621,0.9918225407600403,0.20790612697601318,0.018603511154651642,-0.5959218144416809,1.113895297050476,0.49242162704467773,0.08988723903894424,-0.3257204592227936,-0.496204137802124,-0.20726001262664795,-1.505216121673584,-0.744448721408844,1741432330.279912,1741432330479,0.39828302001953125,-1.7577344970703126,-0.7840636508620297,3.05055078125,2.143999267578125
1741432330.341717,-1.16446228697896,0.03677976762143641,-0.0029466726900395763,-0.9993190510611568,-0.583827793598175,0.05362805724143982,-0.17168888449668884,0.38804614543914795,0.8917895555496216,7.389910697937012,-0.20160961151123047,0.8955135345458984,0.17795833945274353,-1.3542617559432983,0.005912871100008488,-0.5262455344200134,0.1974135935306549,1.3737170696258545,0.00476844422519207,0.5121309161186218,0.08030059933662415,-0.6067368388175964,-0.02384222112596035,-0.02994582988321781,0.7238498330116272,-0.2530783712863922,0.00763194402679801,-0.6307697892189026,0.02689402550458908,-0.05703059583902359,0.770008385181427,-0.3380032479763031,-0.0241280235350132,0.07021063566207886,-0.02391568385064602,0.1679922640323639,0.7000217437744141,0.0025489535182714462,-0.04146065562963486,0.005348213016986847,1.0337692499160767,0.028810394927859306,-0.02040579915046692,1.477022647857666,0.311116099357605,0.8701046705245972,-1.1694040298461914,-0.6603343486785889,1.4466910362243652,0.07301990687847137,0.38155147433280945,0.34807270765304565,-1.038732647895813,0.49655336141586304,-1.5195332765579224,0.031685516238212585,1741432330.3831296,1741432330579,0.3998141784667969,-1.7556689453125,-0.8076738851436347,3.06587060546875,2.166386962890625
1741432330.3617015,-1.1733977012336254,0.03605763754223276,0.012935029584833066,-0.9992659965116959,-0.8480916023254395,-0.06602934747934341,-0.4801541864871979,-0.2029096931219101,0.4795044958591461,11.151505470275879,-0.19398021697998047,0.8981838226318359,0.1832990050315857,-1.3473951816558838,0.005912871100008488,-0.5270084738731384,0.19512474536895752,1.380964994430542,0.004386968910694122,0.5125123858451843,0.09784847497940063,-0.5930037498474121,-0.010109102353453636,-0.03643091395497322,0.7024872303009033,-0.21910633146762848,-0.008747322484850883,-0.6425955891609192,0.03223468363285065,-0.07610437273979187,0.8077744841575623,-0.3691715598106384,-0.0070387935265898705,0.18687132000923157,0.07305819541215897,0.27884671092033386,0.437658429145813,-0.008065163157880306,-0.0624937079846859,-0.18585477769374847,0.3606046140193939,-0.00942026637494564,-0.007730397395789623,0.76952064037323,0.5576076507568359,0.5841648578643799,0.046334873884916306,-1.1195940971374512,1.6267426013946533,-0.699469804763794,-0.6917555332183838,-0.012730521149933338,-0.7787899374961853,2.4874203205108643,-1.4493422508239746,1.1084579229354858,1741432330.3831296,1741432330579,0.3998141784667969,-1.7556689453125,-0.8076738851436347,3.06587060546875,2.166386962890625
1741432330.3817751,-1.187756972387433,0.03502859189226138,0.027163117743415524,-0.9990170983444191,-0.5305285453796387,0.0444323904812336,-0.7458933591842651,-4.078519344329834,-1.6140245199203491,12.531227111816406,-0.17986583709716797,0.8947505950927734,0.19130998849868774,-1.3412915468215942,0.005912871100008488,-0.5270084738731384,0.18711376190185547,1.386687159538269,0.004386968910694122,0.5132753252983093,0.10013733059167862,-0.5907148718833923,0.00667582219466567,-0.02841992862522602,0.6906614899635315,-0.19717024266719818,0.000663231941871345,-0.6822690367698669,0.01583123579621315,-0.09288929402828217,0.8997100591659546,-0.38763293623924255,0.009540565311908722,0.3709762990474701,-0.09993228316307068,0.3807202875614166,0.4095489978790283,0.012332831509411335,0.02883821353316307,-0.5508373379707336,0.395496129989624,0.004637441132217646,0.0611637718975544,0.09708654880523682,0.06842685490846634,0.8678820133209229,0.2706242799758911,-0.35312938690185547,0.9574785232543945,0.5820943713188171,-2.316122055053711,-0.8288890719413757,-0.8421669602394104,4.8337178230285645,-0.7686571478843689,0.6675131916999817,1741432330.3831296,1741432330579,0.3998141784667969,-1.7556689453125,-0.8076738851436347,3.06587060546875,2.166386962890625
1741432330.4017437,-1.2009620293974876,0.038358093562273876,0.027558170425342005,-0.9988839791993241,0.04395294934511185,0.19806545972824097,-0.6952572464942932,1.0027059316635132,-2.285273551940918,5.610025882720947,-0.16613292694091797,0.8855953216552734,0.1985580176115036,-1.3390027284622192,0.005912871100008488,-0.5228122472763062,0.17986571788787842,1.3863056898117065,0.004005493130534887,0.5144197940826416,0.0879301130771637,-0.5922408103942871,0.007438773289322853,-0.01201647985726595,0.6876096725463867,-0.19072584807872772,0.003768700873479247,-0.7513160705566406,0.009727626107633114,-0.11387044936418533,1.0130083560943604,-0.3897581100463867,0.0030455170199275017,0.37922728061676025,-0.1990196257829666,0.3438221514225006,0.09731799364089966,-0.01570187509059906,0.1511082649230957,-0.49091506004333496,-0.0852045938372612,-0.016548004001379013,0.06810235232114792,-0.8372488021850586,-0.07909861952066422,-0.025876682251691818,1.0325855016708374,-0.356305330991745,0.17231857776641846,-0.1218201071023941,-3.474257469177246,-0.2927839756011963,-1.0373320579528809,5.684385776519775,0.03432799503207207,-0.42470782995224,1741432330.3831296,1741432330579,0.3998141784667969,-1.7556689453125,-0.8076738851436347,3.06587060546875,2.166386962890625
1741432330.4217966,-1.2087912803981453,0.0418662813502915,0.02107234034182306,-0.9989009815584409,0.37675201892852783,0.19860826432704926,-0.2947736084461212,-1.60275137424469,-0.5915393829345703,12.21926212310791,-0.16651439666748047,0.8829250335693359,0.200083926320076,-1.3435804843902588,0.006294346414506435,-0.5201418995857239,0.17452506721019745,1.381346583366394,0.004005493130534887,0.5144197940826416,0.06427863240242004,-0.5880445837974548,0.01888304017484188,0.007438773289322853,0.6734950542449951,-0.1978180706501007,-0.0008487108862027526,-0.8001449704170227,0.00019073777366429567,-0.1180666834115982,1.101892113685608,-0.37687915563583374,0.002525885123759508,0.0033221784979104996,-0.04790838062763214,-0.02613498456776142,-0.40186426043510437,0.009339749813079834,0.13010786473751068,-0.3023408353328705,-0.3902190327644348,0.0003895601548720151,-0.023973746225237846,-1.0628045797348022,0.26574215292930603,0.6178175806999207,0.8901104927062988,-0.6146034598350525,-0.44302791357040405,-0.13659793138504028,-2.063128709793091,-0.5914381742477417,-0.024982290342450142,3.941986322402954,0.7507939338684082,0.06334414333105087,1741432330.3831296,1741432330579,0.3998141784667969,-1.7556689453125,-0.8076738851436347,3.06587060546875,2.166386962890625
1741432330.4417803,-1.2088953314814717,0.04489789213269927,0.011192048493072577,-0.9989288850226372,0.4846266210079193,0.09924663603305817,0.09012773633003235,4.111389636993408,-3.325225591659546,6.9698333740234375,-0.16842174530029297,0.8913173675537109,0.19321736693382263,-1.3531173467636108,0.005912871100008488,-0.5159456729888916,0.17185473442077637,1.3710466623306274,0.004005493130534887,0.5132753252983093,0.04901960864663124,-0.5857557058334351,0.030708782374858856,0.014686808921396732,0.6689173579216003,-0.2125958949327469,-0.001985075417906046,-0.80357825756073,-0.007438773289322853,-0.10852979123592377,1.1297398805618286,-0.35658952593803406,0.004607147537171841,-0.04948236420750618,0.26784271001815796,-0.32933881878852844,-0.6010837554931641,-0.007870566099882126,0.2083638310432434,-0.12578922510147095,-0.6593906283378601,0.0060619874857366085,-0.08518704026937485,-0.848548948764801,-0.00531950406730175,0.5772616267204285,0.1457161158323288,-0.2589965760707855,-0.7429926991462708,-0.043838053941726685,0.0847693681716919,-0.3077087998390198,0.3919694721698761,0.8754498362541199,0.9944109320640564,0.13513164222240448,1741432330.4796588,1741432330679,0.4072275085449219,-1.7569597167968751,-0.7958257075987993,3.0823408203125,2.186789794921875
1741432330.4618063,-1.2043111086823046,0.040272320338710144,0.006828768757230088,-0.9991654057921524,0.13948197662830353,-0.2684456408023834,0.24852347373962402,1.2166738510131836,-1.2035913467407227,6.754036903381348,-0.18101024627685547,0.9031429290771484,0.18978407979011536,-1.3554061651229858,0.005912871100008488,-0.5144197940826416,0.17223620414733887,1.3672319650650024,0.004386968910694122,0.5132753252983093,0.040627144277095795,-0.5758373141288757,0.037193864583969116,0.01430533267557621,0.6704432964324951,-0.22633737325668335,-0.00836978293955326,-0.7833600640296936,-0.001716639962978661,-0.09975585341453552,1.0873960256576538,-0.3405095636844635,-0.0007136694621294737,-0.3713403344154358,0.3514959216117859,-0.12252969294786453,-0.0782519280910492,-0.010458998382091522,0.0044715614058077335,0.03391287475824356,-0.1960010826587677,0.018421398475766182,0.014590522274374962,-0.1376301348209381,0.8043766617774963,0.34847474098205566,-0.02075253427028656,0.2101052850484848,-0.6838130950927734,-0.27978891134262085,1.178059458732605,0.31526219844818115,0.45824360847473145,-2.5376639366149902,0.7016376256942749,-0.22410978376865387,1741432330.4796588,1741432330679,0.4072275085449219,-1.7569597167968751,-0.7958257075987993,3.0823408203125,2.186789794921875
1741432330.481895,-1.2022460428997874,0.03370809031942849,0.010886085612222804,-0.9993724319727159,-0.2491501122713089,-0.3349854052066803,0.07478279620409012,3.6463682651519775,-1.4436887502670288,4.052999019622803,-0.18673229217529297,0.8989467620849609,0.18978407979011536,-1.3523544073104858,0.005912871100008488,-0.5174715518951416,0.17261768877506256,1.3695207834243774,0.004386968910694122,0.5132753252983093,0.05397878959774971,-0.5605783462524414,0.046730753034353256,0.01125352829694748,0.6868467330932617,-0.242063507437706,-0.009519033133983612,-0.7310978770256042,0.007438773289322853,-0.08907453715801239,0.9916456937789917,-0.3359815180301666,-0.0020844244863837957,-0.1707218736410141,-0.10947727411985397,0.0037349588237702847,0.22155185043811798,-0.011444286443293095,-0.12999024987220764,0.050998102873563766,0.17321839928627014,0.002143417950719595,-0.010625292547047138,0.7072104811668396,0.3669411242008209,0.43705856800079346,-0.2525116801261902,0.952059805393219,-0.8172608613967896,0.024388983845710754,2.8457491397857666,0.4669840335845947,0.47448456287384033,-5.159090995788574,0.08087179809808731,-0.06569533050060272,1741432330.4796588,1741432330679,0.4072275085449219,-1.7569597167968751,-0.7958257075987993,3.0823408203125,2.186789794921875
1741432330.501952,-1.2059475113637745,0.02265450247208256,0.01903866046063665,-0.9995620555651394,-0.4048812985420227,-0.5262259244918823,-0.2644800841808319,-8.679794311523438,2.964139461517334,2.4641520977020264,-0.18291759490966797,0.8928432464599609,0.19169145822525024,-1.3504470586776733,0.005912871100008488,-0.5174715518951416,0.17338064312934875,1.3725725412368774,0.004386968910694122,0.5132753252983093,0.08258945494890213,-0.576981782913208,0.045204851776361465,0.007438773289322853,0.7219424843788147,-0.26317736506462097,-0.00864920299500227,-0.656710147857666,0.016975661739706993,-0.09098191559314728,0.84592205286026,-0.34295281767845154,-0.0037030286621302366,0.10256090760231018,-0.19982334971427917,0.10662750154733658,0.08097073435783386,-0.004721411038190126,0.011759246699512005,0.061116836965084076,0.17324623465538025,-0.002892216667532921,-0.0015055714175105095,1.6101031303405762,-0.8188544511795044,-0.1628575176000595,-0.06748385727405548,2.037320613861084,-1.0926560163497925,0.08395884186029434,3.565873384475708,0.47858577966690063,-0.2653734087944031,-7.65631628036499,-0.37511104345321655,-0.08414284139871597,1741432330.4796588,1741432330679,0.4072275085449219,-1.7569597167968751,-0.7958257075987993,3.0823408203125,2.186789794921875
1741432330.5219357,-1.2224585255607963,0.020234922903367338,0.024817728335992637,-0.9994871826368438,-0.20367255806922913,0.008889786899089813,-0.8642849922180176,1.8590081930160522,13.889784812927246,27.94348907470703,-0.17032909393310547,0.8733882904052734,0.19512474536895752,-1.3508285284042358,0.005912871100008488,-0.5163271427154541,0.17299915850162506,1.3725725412368774,0.004005493130534887,0.5136567950248718,0.1180666834115982,-0.6059738993644714,0.024986648932099342,0.005149920005351305,0.7722972631454468,-0.28874361515045166,-0.0055846842005848885,-0.5869001150131226,0.01888304017484188,-0.10700388997793198,0.7051575779914856,-0.3439806401729584,-0.005184059031307697,0.34168052673339844,-0.5440550446510315,0.17376431822776794,-0.04517041891813278,-0.008845126256346703,0.066135935485363,-0.04326937347650528,-0.07691806554794312,-0.010111482813954353,0.035006921738386154,1.6342562437057495,-1.4829304218292236,-1.214592695236206,-0.22997425496578217,2.5896522998809814,-1.2620879411697388,0.17973974347114563,3.159343957901001,-0.01784159615635872,-0.917790412902832,-6.148614406585693,0.47338882088661194,-0.07911501824855804,1741432330.4796588,1741432330679,0.4072275085449219,-1.7569597167968751,-0.7958257075987993,3.0823408203125,2.186789794921875
1741432330.5420203,-1.2403406202793121,0.019011851433391295,0.030968411521908278,-0.9993395353896914,-0.4277527332305908,-0.04778823256492615,-1.0141459703445435,16.462371826171875,-5.5052900314331055,9.078908920288086,-0.17566967010498047,0.8821620941162109,0.20237277448177338,-1.3515914678573608,0.005912871100008488,-0.5117494463920593,0.1657511293888092,1.369139313697815,0.004005493130534887,0.5121309161186218,0.12874799966812134,-0.6250476837158203,0.04558632895350456,-0.013542382046580315,0.8085374236106873,-0.31381505727767944,-0.00399814685806632,-0.5872815847396851,0.03795681521296501,-0.1359960287809372,0.7200350761413574,-0.2988414168357849,-0.04436125606298447,-0.15432624518871307,0.3160400092601776,0.2954578995704651,-0.025919679552316666,-0.008455917239189148,0.22876185178756714,-0.5922203063964844,-0.18255816400051117,-0.003334945300593972,-0.1550472378730774,0.2993888556957245,-0.6674015522003174,0.6278427243232727,-0.5979687571525574,1.333470344543457,-1.420501470565796,0.26745396852493286,-0.6823057532310486,0.9716504812240601,-1.0275461673736572,0.8945062756538391,2.1329243183135986,-2.114173412322998,1741432330.5776722,1741432330779,0.39591537475585936,-1.761014404296875,-0.8055228723587406,3.0937197265625,2.19960693359375
1741432330.561976,-1.2609821446239948,0.013502813305023223,0.04534225039853683,-0.9988802502610841,-0.658220112323761,-0.13393348455429077,-1.0412582159042358,-0.7297356724739075,9.500000953674316,5.166738986968994,-0.19245433807373047,0.8943691253662109,0.20542457699775696,-1.3515914678573608,0.005912871100008488,-0.5148012638092041,0.15926603972911835,1.364180088043213,0.004386968910694122,0.5148012638092041,0.12111848592758179,-0.6185625791549683,0.04177157208323479,-0.011635004542768002,0.8119707107543945,-0.34225258231163025,-0.0027704956009984016,-0.5949110984802246,0.029182879254221916,-0.10891126841306686,0.7131685614585876,-0.2640393376350403,-0.04615163058042526,-0.4130018651485443,0.36826378107070923,0.12183556705713272,-0.020343253389000893,-0.02788211777806282,-0.20906789600849152,-0.39826104044914246,-0.38874679803848267,-0.009466370567679405,0.20371492207050323,-0.5335717797279358,0.42698171734809875,-0.08157821744680405,-0.011536558158695698,0.21831896901130676,-1.335145115852356,-0.13918128609657288,0.33854445815086365,-0.5973970890045166,1.7482606172561646,-0.6473153233528137,1.589199423789978,0.7716622352600098,1741432330.5776722,1741432330779,0.39591537475585936,-1.761014404296875,-0.8055228723587406,3.0937197265625,2.19960693359375
1741432330.5819955,-1.2730686701834202,0.016466381874996265,0.03848359593817375,-0.9991235514747984,0.47378674149513245,0.13408835232257843,-0.5630233883857727,-4.718217849731445,-0.707044243812561,17.892473220825195,-0.16651439666748047,0.8859767913818359,0.20733195543289185,-1.3607468605041504,0.006294346414506435,-0.5163271427154541,0.15850308537483215,1.361891269683838,0.002861066721379757,0.5201418995857239,0.09746700525283813,-0.6162737607955933,0.037193864583969116,-0.016975661739706993,0.811589241027832,-0.35988256335258484,-0.008014586754143238,-0.5758373141288757,0.037193864583969116,-0.0864042118191719,0.6887540817260742,-0.23663140833377838,-0.0027241164352744818,0.7496190071105957,-0.1376526653766632,0.08085903525352478,-0.8891825675964355,0.014539066702127457,0.008594701997935772,0.03463301435112953,-0.21833816170692444,-0.06452170759439468,0.36247503757476807,-1.3752522468566895,-0.04964461550116539,-0.20611688494682312,-0.10660948604345322,-0.10167300701141357,-0.8073671460151672,-0.45339661836624146,0.7791970372200012,0.3887937664985657,0.904832661151886,-1.1421301364898682,1.3682448863983154,1.5790413618087769,1741432330.5776722,1741432330779,0.39591537475585936,-1.761014404296875,-0.8055228723587406,3.0937197265625,2.19960693359375
1741432330.6020048,-1.2748881429433823,0.019754946310633945,0.02060899613530814,-0.9995924226276222,0.9007161855697632,0.14656321704387665,0.03326663747429848,-1.639802098274231,-3.1462631225585938,9.029533386230469,-0.16422557830810547,0.8886470794677734,0.20618753135204315,-1.377913236618042,0.006294346414506435,-0.5151827335357666,0.16308079659938812,1.3554061651229858,0.002861066721379757,0.5224307775497437,0.059319447726011276,-0.6124590039253235,0.027656977996230125,-0.00667582219466567,0.8100633025169373,-0.37432193756103516,-0.0065938751213252544,-0.570496678352356,0.0398641936480999,-0.06466010212898254,0.6853207945823669,-0.21265016496181488,-0.02518031932413578,0.1266462355852127,0.14988844096660614,-0.1012890413403511,-0.9921150803565979,0.005610890220850706,0.02190581150352955,0.3334333300590515,-0.48796287178993225,-0.009123214520514011,0.08507516980171204,-1.8240736722946167,0.5697044134140015,-0.622300922870636,0.5038663744926453,-0.11499147862195969,-0.8033599853515625,0.4479242265224457,0.26509416103363037,0.02244117297232151,1.1987242698669434,-0.0028608134016394615,1.1884657144546509,-1.145390510559082,1741432330.5776722,1741432330779,0.39591537475585936,-1.761014404296875,-0.8055228723587406,3.0937197265625,2.19960693359375
1741432330.6220617,-1.2700060792267323,0.02336164539452078,0.004392286138006164,-0.999717430750781,0.8227543234825134,0.12536774575710297,0.2403840720653534,0.267711877822876,-0.34456220269203186,9.470547676086426,-0.18024730682373047,0.8920803070068359,0.1977950781583786,-1.382872462272644,0.006294346414506435,-0.5159456729888916,0.17147326469421387,1.3473951816558838,0.002861066721379757,0.5228122472763062,0.03681239113211632,-0.6090257167816162,0.00476844422519207,-0.0024795911740511656,0.8203631639480591,-0.39085665345191956,0.0072344387881457806,-0.5659189820289612,0.03147173300385475,-0.035667963325977325,0.6696802973747253,-0.19390393793582916,-0.02552248351275921,-0.5142974257469177,0.1626206338405609,-0.5332900285720825,-0.23214897513389587,-0.0013475492596626282,-0.03602586314082146,0.583320140838623,-0.5388489365577698,0.010549549013376236,-0.018284376710653305,-0.8854188323020935,-0.22668656706809998,-1.185654878616333,0.11041188985109329,0.8990654945373535,-0.7500098347663879,0.4971645772457123,0.18893755972385406,-0.3416168987751007,1.3516480922698975,-1.0023120641708374,0.8987442255020142,0.3425928056240082,1741432330.5776722,1741432330779,0.39591537475585936,-1.761014404296875,-0.8055228723587406,3.0937197265625,2.19960693359375
1741432330.6420364,-1.2646060027182102,0.028826400384440527,-0.009367358081474346,-0.9995405400700111,0.6136049032211304,0.40174826979637146,0.2509654760360718,-0.01796569675207138,-1.3840278387069702,9.066399574279785,-0.18940258026123047,0.8905544281005859,0.182154580950737,-1.385161280632019,0.005912871100008488,-0.5163271427154541,0.182154580950737,1.3374768495559692,0.002861066721379757,0.5209048390388489,0.046730753034353256,-0.6422140598297119,-0.01125352829694748,-0.005912871100008488,0.8878843188285828,-0.39714863896369934,-0.0007527790148742497,-0.5628671646118164,0.03147173300385475,-0.024605173617601395,0.6570916175842285,-0.17583812773227692,-0.012016181834042072,-0.31583261489868164,-0.03855651617050171,-0.7637620568275452,-0.15490306913852692,-0.01077248528599739,-0.018365658819675446,0.7079052329063416,-0.6547734141349792,0.008889488875865936,-0.1525188833475113,0.7708056569099426,-1.9594223499298096,-0.6560965180397034,-0.19309374690055847,3.7318367958068848,-0.23495683073997498,-0.4442937970161438,0.10177777707576752,-0.0467970110476017,0.4402819573879242,-0.32530707120895386,0.930331826210022,0.45948925614356995,1741432330.6138875,1741432330879,0.3872708435058594,-1.7680681152343751,-0.8439220041427664,3.10889697265625,2.2109921875
1741432330.6620662,-1.2679845802485943,0.03616215685794463,-0.009944832735962436,-0.9992964518666295,-0.0033951669465750456,0.313339501619339,-0.29392364621162415,-2.2741646766662598,0.488352507352829,8.9064302444458,-0.19741344451904297,0.8924617767333984,0.17109178006649017,-1.381346583366394,0.005912871100008488,-0.5178530812263489,0.18940261006355286,1.3332805633544922,0.0032425422687083483,0.5186160206794739,0.07343403995037079,-0.7169833183288574,-0.02079041674733162,-0.007438773289322853,0.997367799282074,-0.39473602175712585,-0.005402158945798874,-0.5735484957695007,0.024605173617601395,-0.027656977996230125,0.6528953909873962,-0.1630900800228119,-0.019431037828326225,-0.1843237727880478,0.06393878906965256,-0.4982822835445404,0.34247303009033203,-0.01064995490014553,-0.048006925731897354,0.36834457516670227,-0.16338305175304413,0.04004628211259842,-0.1322166472673416,1.2629361152648926,-3.6944711208343506,-0.47815999388694763,-0.061955057084560394,5.723962306976318,0.19024644792079926,-0.026710808277130127,-0.6036221385002136,-0.308337926864624,-0.3110930323600769,-0.3060113489627838,0.5330459475517273,-0.3666400909423828,1741432330.6138875,1741432330879,0.3872708435058594,-1.7680681152343751,-0.8439220041427664,3.10889697265625,2.2109921875
1741432330.682127,-1.2802673876285553,0.045317252904776485,-0.003998859588902154,-0.99896464187235,-0.28664201498031616,0.49834078550338745,-0.6809782981872559,3.0088677406311035,2.1729445457458496,7.402398586273193,-0.19703197479248047,0.8878841400146484,0.17032882571220398,-1.372191071510315,0.005912871100008488,-0.5170900821685791,0.1810101419687271,1.3351880311965942,0.0032425422687083483,0.5201418995857239,0.1028076633810997,-0.7887006998062134,-0.02880140393972397,-0.007438773289322853,1.1118104457855225,-0.38572046160697937,0.002283436246216297,-0.5746929049491882,0.024605173617601395,-0.03452353551983833,0.647173285484314,-0.15795129537582397,-0.01650962233543396,-0.0032810831908136606,-0.14890863001346588,0.018623245880007744,0.5550819635391235,-0.0026673173997551203,0.05562606826424599,-0.656249463558197,0.10564099252223969,-0.0018816915107890964,0.12221375107765198,1.4191744327545166,-3.4066076278686523,-0.31409701704978943,0.09107699990272522,5.509521961212158,0.5243269205093384,0.3521955907344818,0.014078273437917233,0.028509443625807762,-0.22333180904388428,-0.247515469789505,0.2071957141160965,0.2256479263305664,1741432330.6138875,1741432330879,0.3872708435058594,-1.7680681152343751,-0.8439220041427664,3.10889697265625,2.2109921875
1741432330.7021217,-1.30104960501194,0.04971853785839655,0.0037652386787812055,-0.9987561714307026,-0.3253849446773529,0.14698557555675507,-1.0498324632644653,0.8500372171401978,2.4783596992492676,15.334747314453125,-0.19207286834716797,0.8985652923583984,0.17452506721019745,-1.3664690256118774,0.005912871100008488,-0.5148012638092041,0.16918440163135529,1.3374768495559692,0.0032425422687083483,0.5212863087654114,0.11425192654132843,-0.8310444951057434,-0.030708782374858856,-0.00476844422519207,1.1747539043426514,-0.37161701917648315,-0.0026098790112882853,-0.5811780095100403,0.02231631986796856,-0.03452353551983833,0.6414511203765869,-0.15986061096191406,-0.016258295625448227,0.1497088074684143,0.2843693792819977,0.20197755098342896,0.31401342153549194,0.0058815390802919865,0.09612716734409332,-0.6635012626647949,0.17596296966075897,0.001981458393856883,0.04321817681193352,0.2866280674934387,-1.7805784940719604,-0.08474431186914444,0.10979089885950089,2.62920880317688,0.7310653924942017,-0.3442903161048889,-0.34633904695510864,-0.15125177800655365,-0.01951507478952408,-0.20848143100738525,-0.1573420763015747,-0.12810982763767242,1741432330.6138875,1741432330879,0.3872708435058594,-1.7680681152343751,-0.8439220041427664,3.10889697265625,2.2109921875
1741432330.7221515,-1.3209503293037415,0.04932761304709164,0.00689882874170699,-0.9987588261202346,-0.0468113087117672,-0.0027790172025561333,-0.9959897994995117,-0.15995608270168304,-0.9656004309654236,7.721138954162598,-0.18520641326904297,0.9031429290771484,0.17490653693675995,-1.36685049533844,0.005912871100008488,-0.5136567950248718,0.1657511293888092,1.3431990146636963,0.0032425422687083483,0.5212863087654114,0.09479667246341705,-0.8264667987823486,-0.03604944050312042,-0.010872052982449532,1.1678873300552368,-0.3590392768383026,-0.005763842258602381,-0.5811780095100403,0.01888304017484188,-0.027656977996230125,0.6467918157577515,-0.16735415160655975,-0.02196214161813259,0.20787984132766724,0.14408504962921143,0.026001960039138794,-0.045624829828739166,0.0005103890434838831,0.04508397355675697,-0.11563263088464737,0.43476277589797974,-0.00044519189395941794,0.0032371818087995052,-1.0432422161102295,0.5462387204170227,-0.369500070810318,-0.3691127300262451,-0.9009206295013428,0.5965567827224731,0.01366832572966814,-0.002339114435017109,-0.061164021492004395,0.4205824136734009,0.31442537903785706,-0.4342549741268158,-0.30339211225509644,1741432330.6138875,1741432330879,0.3872708435058594,-1.7680681152343751,-0.8439220041427664,3.10889697265625,2.2109921875
1741432330.742174,-1.3286977708339691,0.044752669972900866,0.000696421357343576,-0.9989978546161096,0.36444219946861267,-0.27872180938720703,-0.3213631510734558,-0.9089070558547974,-1.072325587272644,6.196828842163086,-0.18406200408935547,0.9031429290771484,0.17452506721019745,-1.36990225315094,0.005912871100008488,-0.5151827335357666,0.17147326469421387,1.3454878330230713,0.0032425422687083483,0.5212863087654114,0.06160829961299896,-0.7829785346984863,-0.046730753034353256,-0.01735713705420494,1.0812923908233643,-0.35158175230026245,0.0032234906684607267,-0.5888075232505798,0.01926451548933983,-0.01926451548933983,0.6589990258216858,-0.18299804627895355,-0.015511536039412022,0.041994359344244,0.04188213869929314,-0.042638786137104034,-0.18834680318832397,-0.013764551840722561,-0.1239406019449234,0.3872729241847992,0.08711154013872147,-0.0017763865180313587,0.0011786005925387144,-1.8933138847351074,2.513225793838501,-0.5438695549964905,-0.4620896577835083,-4.969167709350586,0.2896839678287506,0.46132105588912964,-0.48104920983314514,-0.06685066223144531,0.3096577525138855,0.6969289779663086,-0.872779369354248,0.3776697516441345,1741432330.7918053,1741432330979,0.38300375366210937,-1.77697900390625,-0.8822647160869425,3.120050537109375,2.2190546875
1741432330.7623286,-1.3257094398140907,0.03862266119587584,-0.010938620349686663,-0.9991939934902502,0.5788415670394897,-0.29011717438697815,0.2081640511751175,-2.188793897628784,-0.9068934321403503,4.530257225036621,-0.18444347381591797,0.8951320648193359,0.16994735598564148,-1.3718096017837524,0.005912871100008488,-0.5174715518951416,0.1806286722421646,1.3451063632965088,0.0032425422687083483,0.5216678380966187,0.018120087683200836,-0.7051575779914856,-0.058175019919872284,-0.016212711110711098,0.924124538898468,-0.3541659116744995,0.004889945033937693,-0.6040665507316589,0.020027466118335724,-0.024986648932099342,0.690280020236969,-0.20696185529232025,-0.014516167342662811,-0.0037524804938584566,-0.2101879119873047,-0.21794666349887848,-0.09273625910282135,0.0004521710507106036,-0.08565536141395569,0.6499388217926025,-0.036795493215322495,0.0005974990781396627,0.02681712433695793,-2.201429605484009,3.8407063484191895,-0.6394573450088501,0.31818845868110657,-8.300650596618652,-0.2180808186531067,-0.02079714462161064,-0.8845608234405518,0.05126620829105377,-0.5299860835075378,1.7252118587493896,-1.2120790481567383,-0.003329350845888257,1741432330.7918053,1741432330979,0.38300375366210937,-1.77697900390625,-0.8822647160869425,3.120050537109375,2.2190546875
1741432330.7821922,-1.3199614062905312,0.035496268095128874,-0.020094736442021345,-0.9991677619492356,0.3762345612049103,-0.12410768866539001,0.29161858558654785,-2.902069091796875,-11.693718910217285,11.684078216552734,-0.19359874725341797,0.8829250335693359,0.16956588625907898,-1.370665192604065,0.005912871100008488,-0.5174715518951416,0.19092851877212524,1.3439619541168213,0.0032425422687083483,0.5216678380966187,-0.016212711110711098,-0.6296253800392151,-0.06618601083755493,-0.009727626107633114,0.7452124953269958,-0.3602806031703949,-0.0005070469924248755,-0.6307697892189026,0.023079270496964455,-0.03528648987412453,0.7314793467521667,-0.23695504665374756,-0.016107460483908653,-0.26300710439682007,-0.3315340280532837,0.026541559025645256,0.083931103348732,0.0029234210960566998,-0.008632483892142773,0.6822968125343323,-0.07260308414697647,0.0063993013463914394,0.0020740556064993143,-1.5191646814346313,3.4828977584838867,-0.2143745720386505,0.39596012234687805,-8.75437068939209,-0.044522590935230255,-0.3226704001426697,-1.4196962118148804,0.1113552376627922,-0.4359144866466522,2.0049796104431152,-1.5218995809555054,-0.1828220784664154,1741432330.7918053,1741432330979,0.38300375366210937,-1.77697900390625,-0.8822647160869425,3.120050537109375,2.2190546875
1741432330.8022509,-1.3171886503696442,0.0331466937924458,-0.02421498008256287,-0.9991571104837471,0.41661036014556885,-0.08523482829332352,0.13663463294506073,-1.957116961479187,-2.8900065422058105,15.737029075622559,-0.19283580780029297,0.8955135345458984,0.1684214472770691,-1.3657060861587524,0.005912871100008488,-0.5178530812263489,0.1989395022392273,1.3451063632965088,0.002861066721379757,0.5178530812263489,-0.019645990803837776,-0.6048294901847839,-0.06542305648326874,0.0024795911740511656,0.7425421476364136,-0.3124293386936188,0.002510229591280222,-0.6517509818077087,-0.009727626107633114,-0.028038453310728073,0.763523280620575,-0.260642409324646,-0.01865340955555439,-0.012040344998240471,0.4001513719558716,-0.17210139334201813,0.3217569589614868,-0.013649724423885345,0.0215305145829916,0.47623470425605774,0.305350124835968,-0.006363498512655497,-0.3411845266819,0.13538439571857452,0.545387864112854,-0.02397136576473713,0.3854919672012329,0.6417365074157715,2.2505407333374023,0.16351626813411713,-0.6771202087402344,-1.8131719827651978,0.26992446184158325,1.21818208694458,-1.1557419300079346,-0.08949457108974457,1741432330.7918053,1741432330979,0.38300375366210937,-1.77697900390625,-0.8822647160869425,3.120050537109375,2.2190546875
1741432330.8222787,-1.3159005269408226,0.0313234009437575,-0.03681492557046088,-0.998831069705262,0.5079367756843567,-0.143911674618721,0.06910791248083115,-1.1088955402374268,-6.04703950881958,10.344122886657715,-0.17910289764404297,0.9004726409912109,0.1661325991153717,-1.363417148590088,0.005912871100008488,-0.5148012638092041,0.20122835040092468,1.3515914678573608,0.004005493130534887,0.5167086124420166,0.00019073777366429567,-0.6292439103126526,-0.05664911866188049,-0.006294346414506435,0.7417792081832886,-0.2867189347743988,0.007127913646399975,-0.6429770588874817,-0.002861066721379757,-0.04711223021149635,0.7646677494049072,-0.2903338670730591,-0.008747691288590431,0.18377351760864258,0.27432677149772644,-0.016471808776259422,0.1416500210762024,-0.033908165991306305,0.11668957769870758,0.12118639051914215,0.3342680037021637,0.07959631085395813,-0.048921480774879456,1.0537521839141846,-0.8459922671318054,0.33971747756004333,-0.2841250002384186,-0.4904322922229767,1.0531798601150513,0.18621566891670227,0.38184472918510437,0.4920845925807953,-1.0627574920654297,-0.014001076109707355,-1.4766583442687988,0.6203439235687256,1741432330.7918053,1741432330979,0.38300375366210937,-1.77697900390625,-0.8822647160869425,3.120050537109375,2.2190546875
1741432330.8422892,-1.3166210278868675,0.034078279396045914,-0.02959769614948023,-0.9989808042480336,-0.4962540864944458,0.17833386361598969,-0.07327493280172348,4.129623889923096,-0.012017532251775265,11.23597526550293,-0.20580577850341797,0.8951320648193359,0.17071031033992767,-1.3630356788635254,0.005912871100008488,-0.5178530812263489,0.20122835040092468,1.3565505743026733,0.0036240178160369396,0.5148012638092041,0.023460745811462402,-0.6132219433784485,-0.06275273114442825,0.0036240178160369396,0.7230868935585022,-0.2700969874858856,-0.0031450821552425623,-0.6326771974563599,-0.001716639962978661,-0.054741740226745605,0.7566567659378052,-0.31187474727630615,-0.016586748883128166,-0.8291123509407043,-0.09164243191480637,0.23583261668682098,0.036172766238451004,0.012798542156815529,-0.19484879076480865,0.0010657806415110826,0.3277430534362793,-0.012281292118132114,-0.22535963356494904,1.3215758800506592,0.6735364198684692,-0.5397534370422363,0.7086446285247803,-0.7239101529121399,0.928047776222229,-0.5900523662567139,0.5906969904899597,0.23767639696598053,-0.32097217440605164,-0.3525713384151459,-0.9411283135414124,-0.5765627026557922,1741432330.8922567,1741432331079,0.3841532592773438,-1.7791387939453125,-0.8314740662379517,3.139989990234375,2.225836181640625
1741432330.8623357,-1.3196286261081696,0.033586111465231265,-0.012709433723795151,-0.9993550137018703,-0.8655586242675781,-0.01548414770513773,-0.2149696946144104,1.1692438125610352,0.40091943740844727,10.441365242004395,-0.20962047576904297,0.9004726409912109,0.1810101419687271,-1.3546432256698608,0.005912871100008488,-0.5209048390388489,0.20084688067436218,1.3695207834243774,0.00476844422519207,0.5113679766654968,0.057793546468019485,-0.6029220819473267,-0.05436026677489281,-0.004386968910694122,0.7135500311851501,-0.24749335646629333,0.0010427461238577962,-0.621614396572113,0.005531395319849253,-0.07572289556264877,0.7406347990036011,-0.32575905323028564,-0.017689213156700134,-0.21394526958465576,0.1916493922472,0.5367209911346436,0.6354601979255676,0.007778301369398832,-0.07863502204418182,-0.06259629875421524,0.947342038154602,0.04794028028845787,-0.1749620884656906,1.721885085105896,0.4352363049983978,0.659373939037323,-0.8904397487640381,-0.5040625333786011,1.1864217519760132,0.5113295912742615,0.5650302171707153,0.44903188943862915,-1.070245623588562,-0.9749501347541809,-0.7045595049858093,0.10308586061000824,1741432330.8922567,1741432331079,0.3841532592773438,-1.7791387939453125,-0.8314740662379517,3.139989990234375,2.225836181640625
1741432330.8842084,-1.326289489865303,0.03093379781914165,0.005669993706136286,-0.9995053533242615,-0.9507186412811279,-0.11799986660480499,-0.35209745168685913,-6.435331344604492,-7.025022506713867,15.193852424621582,-0.20199108123779297,0.9023799896240234,0.19169145822525024,-1.3439619541168213,0.005912871100008488,-0.5167086124420166,0.1981765478849411,1.3782947063446045,0.00476844422519207,0.5132753252983093,0.08182650804519653,-0.5861371755599976,-0.01125352829694748,-0.04787518084049225,0.6944762468338013,-0.2169235348701477,0.0026154560036957264,-0.615129292011261,0.018501564860343933,-0.0871671661734581,0.7455939650535583,-0.3421162962913513,-0.020989976823329926,0.18984778225421906,0.0798778310418129,0.5560725331306458,0.5953590869903564,-0.00019313461962155998,0.14810077846050262,-0.17942818999290466,0.4872514605522156,-0.0006404295563697815,0.15578693151474,1.022127628326416,1.1109950542449951,2.514925718307495,-2.1464903354644775,-1.2067550420761108,1.5812151432037354,-0.16602694988250732,0.12292220443487167,0.5289750099182129,-0.3387692868709564,0.6432725787162781,-0.8531653881072998,-0.06935267150402069,1741432330.8922567,1741432331079,0.3841532592773438,-1.7791387939453125,-0.8314740662379517,3.139989990234375,2.225836181640625
1741432330.902335,-1.3333952203392982,0.027859204587287967,0.02738254488203008,-0.9992367391942448,-1.0954928398132324,-0.199057936668396,-0.39303600788116455,3.5531086921691895,6.490374565124512,7.829411029815674,-0.19741344451904297,0.9039058685302734,0.20122835040092468,-1.3390027284622192,0.005912871100008488,-0.5140383243560791,0.19359883666038513,1.379439115524292,0.004386968910694122,0.5140383243560791,0.08068207651376724,-0.5766003131866455,-0.00019073777366429567,-0.04291599988937378,0.6689173579216003,-0.18736504018306732,-0.01209399476647377,-0.6357290148735046,0.02384222112596035,-0.08602273464202881,0.8127336502075195,-0.35946983098983765,-0.002673498122021556,0.1380406767129898,0.09592780470848083,0.46601104736328125,0.28131669759750366,-0.002634459175169468,0.14004623889923096,-0.30546385049819946,0.0516117662191391,-0.005204760003834963,-0.008748508989810944,-0.24098339676856995,0.1852939873933792,0.42065128684043884,0.48334673047065735,-1.1554346084594727,1.3136471509933472,-0.5292408466339111,-1.3849384784698486,0.11987275630235672,-0.07457005977630615,4.108541011810303,-0.7768685817718506,1.1220593452453613,1741432330.8922567,1741432331079,0.3841532592773438,-1.7791387939453125,-0.8314740662379517,3.139989990234375,2.225836181640625
1741432330.9223886,-1.3398007154464722,0.031116997591365773,0.03432074271622386,-0.9989263331599112,-0.1939881443977356,0.20885054767131805,-0.30291369557380676,-5.232827186584473,0.5755795240402222,8.92414379119873,-0.17147350311279297,0.8875026702880859,0.20580606162548065,-1.3397656679153442,0.005912871100008488,-0.5144197940826416,0.18978407979011536,1.380964994430542,0.004386968910694122,0.5144197940826416,0.06275273114442825,-0.576981782913208,0.011635004542768002,-0.03452353551983833,0.6666285395622253,-0.1763196438550949,0.0011021227110177279,-0.7051575779914856,0.018501564860343933,-0.09975585341453552,0.9260318875312805,-0.36533406376838684,0.007488558068871498,0.7993946671485901,-0.4605278968811035,0.18983027338981628,-0.10376820713281631,0.004803087096661329,-0.04550231993198395,-0.18198657035827637,-0.05846630036830902,-0.007660943549126387,0.049830362200737,-1.0003453493118286,-0.023411404341459274,0.5928730964660645,0.44271761178970337,-0.09742915630340576,0.4330460727214813,0.7851232886314392,-3.8782577514648438,-0.3559914231300354,-0.8308514952659607,6.002305507659912,-0.19971062242984772,0.24067088961601257,1741432330.8922567,1741432331079,0.3841532592773438,-1.7791387939453125,-0.8314740662379517,3.139989990234375,2.225836181640625
1741432330.9423769,-1.3389921188354492,0.038599793802318295,0.0286696954496123,-0.9988433833595961,0.2918940782546997,0.35080742835998535,0.0726892426609993,0.3456217050552368,-2.227038860321045,7.271005630493164,-0.16765880584716797,0.8787288665771484,0.20428015291690826,-1.3481581211090088,0.005912871100008488,-0.5167086124420166,0.18787670135498047,1.3744800090789795,0.004005493130534887,0.5151827335357666,0.03643091395497322,-0.5815594792366028,0.007057297509163618,-0.011635004542768002,0.6536583304405212,-0.18202725052833557,0.0029092642944306135,-0.7791637778282166,0.013542382046580315,-0.11196307092905045,1.050774335861206,-0.3596257269382477,0.0019745882600545883,0.19587919116020203,-0.26448702812194824,-0.1577838808298111,-0.6736336350440979,-0.001727707334794104,-0.12026797235012054,-0.14784809947013855,-0.4843982756137848,-0.018537482246756554,0.010898626409471035,-1.3980443477630615,-0.1972389817237854,-0.29015231132507324,1.2578645944595337,-0.7444506883621216,-0.39692190289497375,-0.07246169447898865,-3.4756598472595215,-0.22240397334098816,-0.4777379631996155,5.926358222961426,0.3956547975540161,-0.22467204928398132,1741432330.8922567,1741432331079,0.3841532592773438,-1.7791387939453125,-0.8314740662379517,3.139989990234375,2.225836181640625
1741432330.9624007,-1.3314736261963844,0.044738274982219696,0.018078088988731634,-0.9988351562946365,0.5229602456092834,0.29299768805503845,0.3936488628387451,3.452146530151367,0.45875024795532227,8.943788528442383,-0.16918468475341797,0.8791103363037109,0.1958876997232437,-1.3569320440292358,0.005912871100008488,-0.5178530812263489,0.1840619444847107,1.364180088043213,0.004005493130534887,0.5140383243560791,0.012779430486261845,-0.5815594792366028,0.02040894143283367,0.0020981156267225742,0.6437399983406067,-0.19493387639522552,-0.0017730111721903086,-0.811589241027832,0.002861066721379757,-0.10166323184967041,1.123636245727539,-0.3424687683582306,0.002292433986440301,-0.010942269116640091,0.02839026227593422,-0.4756458103656769,-0.514525294303894,-0.007314110640436411,-0.03681124746799469,-0.27323010563850403,-0.7215840220451355,0.004043795634061098,-0.08352003991603851,-1.015228271484375,-0.0510956346988678,0.7704741358757019,0.5861638784408569,-0.2943286895751953,-0.6463625431060791,-0.18492329120635986,-1.091124176979065,-0.5826966762542725,0.7110928297042847,3.073793888092041,0.9038516879081726,0.041140925139188766,1741432330.8922567,1741432331079,0.3841532592773438,-1.7791387939453125,-0.8314740662379517,3.139989990234375,2.225836181640625
1741432330.9824312,-1.323934219777584,0.046053755284597875,0.008648788551805574,-0.998901521713113,0.3851073384284973,-0.017545266076922417,0.4058838486671448,1.4517878293991089,-2.429558753967285,6.934927940368652,-0.17414379119873047,0.8978023529052734,0.18978407979011536,-1.3599839210510254,0.005912871100008488,-0.5174715518951416,0.1802472025156021,1.3550246953964233,0.004005493130534887,0.5132753252983093,0.013160906732082367,-0.5796520709991455,0.027656977996230125,0.005912871100008488,0.6464102864265442,-0.20683345198631287,-0.00660720095038414,-0.804341197013855,0.00019073777366429567,-0.0879301130771637,1.116388201713562,-0.32528960704803467,0.002093166345730424,-0.16213726997375488,0.5470940470695496,-0.21435946226119995,-0.1677524745464325,-0.009183571673929691,0.01344461739063263,-0.23777037858963013,-0.6100162267684937,0.003687337040901184,-0.01911030150949955,0.20791827142238617,0.19373178482055664,0.28126490116119385,0.10042525082826614,0.03445574268698692,-0.6267579793930054,-0.20433445274829865,0.4389331340789795,0.06598510593175888,0.6037890315055847,-0.9468830227851868,0.7971645593643188,-0.07127354294061661,1741432330.8922567,1741432331079,0.3841532592773438,-1.7791387939453125,-0.8314740662379517,3.139989990234375,2.225836181640625
1741432331.0024486,-1.3211938589811325,0.040317676134286745,0.009665142778839056,-0.9991401653452809,-0.11674097925424576,-0.28332653641700745,0.03841551020741463,-6.150407791137695,-5.089731216430664,7.928110122680664,-0.18406200408935547,0.9027614593505859,0.19092851877212524,-1.358839511871338,0.005912871100008488,-0.5174715518951416,0.17910276353359222,1.3546432256698608,0.004386968910694122,0.5140383243560791,0.023079270496964455,-0.5636301040649414,0.03223468363285065,0.00019073777366429567,0.6570916175842285,-0.22002819180488586,-0.00830315612256527,-0.7612344622612,0.010872052982449532,-0.07457847148180008,1.0385671854019165,-0.3178790807723999,-0.0016868553357198834,-0.2874752879142761,0.20989391207695007,0.07030046731233597,0.08816113322973251,-0.00843234546482563,-0.026480473577976227,-0.07625477761030197,0.11751814931631088,0.035995449870824814,0.01947125978767872,0.5289559364318848,0.8452947735786438,0.3224528431892395,-0.4567234218120575,0.7214124202728271,-0.639114499092102,-0.048657145351171494,2.4970076084136963,0.45333734154701233,0.637566864490509,-4.300088405609131,0.24367356300354004,-0.16331370174884796,1741432330.8922567,1741432331079,0.3841532592773438,-1.7791387939453125,-0.8314740662379517,3.139989990234375,2.225836181640625
1741432331.0224712,-1.323670044541359,0.02987116782760031,0.01660314834495536,-0.9994158537854254,-0.3354955017566681,-0.6109720468521118,-0.1942070871591568,-2.3541171550750732,0.06695456802845001,6.6982550621032715,-0.18215465545654297,0.8993282318115234,0.19512474536895752,-1.3546432256698608,0.005912871100008488,-0.5178530812263489,0.17910276353359222,1.3615097999572754,0.004386968910694122,0.5144197940826416,0.05054550990462303,-0.570496678352356,0.03376058489084244,-0.0036240178160369396,0.6830319762229919,-0.23493123054504395,-0.006684236228466034,-0.6898985505104065,0.021171892061829567,-0.06466010212898254,0.9027618765830994,-0.3242330551147461,-0.00363226979970932,0.026797926053404808,-0.027540242299437523,0.1928689181804657,0.3209141194820404,-0.009457744657993317,-0.002311674878001213,0.06558265537023544,0.4225389063358307,-0.00047388527309522033,0.02595231682062149,1.6127400398254395,-0.6226682066917419,0.07143355160951614,-0.07025790214538574,1.4722874164581299,-0.8104445934295654,0.12740112841129303,3.592317819595337,0.4467744827270508,0.3588031232357025,-7.077128887176514,-0.42384445667266846,-0.057961709797382355,1741432330.8922567,1741432331079,0.3841532592773438,-1.7791387939453125,-0.8314740662379517,3.139989990234375,2.225836181640625
1741432331.0424917,-1.3381134271621704,0.020825495326262627,0.02425742644854546,-0.999488807344289,-0.3179202675819397,-0.2872002124786377,-0.7527348399162292,2.3721415996551514,1.8463029861450195,1.9292926788330078,-0.17566967010498047,0.8852138519287109,0.20084688067436218,-1.3500655889511108,0.005912871100008488,-0.5178530812263489,0.17795833945274353,1.366087555885315,0.004386968910694122,0.5144197940826416,0.08487831056118011,-0.5949110984802246,0.021171892061829567,-0.001716639962978661,0.7345311641693115,-0.2532663345336914,-0.004730615299195051,-0.6048294901847839,0.027656977996230125,-0.07419699430465698,0.7387273907661438,-0.3393988311290741,-0.0015151017578318715,0.15317247807979584,-0.3880423307418823,0.28499865531921387,0.2945740818977356,-0.008851100690662861,-0.00950468797236681,-0.0997411459684372,0.30677878856658936,-0.0016234010690823197,-0.0001431677519576624,1.6674238443374634,-1.2032182216644287,-0.7501474022865295,0.08608724921941757,2.734113931655884,-0.9328585863113403,0.09060661494731903,3.8897664546966553,0.3416827917098999,-0.6375197768211365,-8.07339859008789,-0.7996153831481934,0.00820118561387062,1741432331.0895288,1741432331179,0.39524771118164065,-1.7799862060546876,-0.8034531717912841,3.14341015625,2.2289482421875
1741432331.0625634,-1.3469216525554657,0.018726306625492423,0.026331051865283242,-0.9994778642610529,-0.176787331700325,-0.19772912561893463,-0.35537055134773254,-5.635690689086914,-1.2083791494369507,20.42177963256836,-0.17071056365966797,0.8726253509521484,0.20275425910949707,-1.3489210605621338,0.005912871100008488,-0.5132753252983093,0.17795833945274353,1.3637986183166504,0.004005493130534887,0.5151827335357666,0.10013733059167862,-0.6288624405860901,0.027656977996230125,-0.011635004542768002,0.7814526557922363,-0.2735210657119751,-0.0012034651590511203,-0.5727855563163757,0.04177157208323479,-0.1024261862039566,0.692568838596344,-0.3058442175388336,-0.01681624725461006,0.12786079943180084,-0.3652227222919464,0.07013420760631561,0.009939942508935928,0.010407675057649612,0.3565133213996887,-0.08259964734315872,-0.17055600881576538,-0.009484442882239819,0.015935171395540237,0.4919400215148926,-1.688614010810852,1.222105860710144,-0.7879632711410522,2.0200014114379883,-1.0085283517837524,0.12531521916389465,0.7698712348937988,1.1403539180755615,-1.4455828666687012,-0.3036539852619171,1.9624638557434082,-0.9408088326454163,1741432331.0895288,1741432331179,0.39524771118164065,-1.7799862060546876,-0.8034531717912841,3.14341015625,2.2289482421875
1741432331.0826056,-1.3622058182954788,0.011353473258392931,0.04192636564733189,-0.9990561938692825,-0.8288828730583191,-0.42188534140586853,-0.6557181477546692,-2.7614586353302,1.055891752243042,10.462541580200195,-0.20008373260498047,0.8993282318115234,0.20656901597976685,-1.3496840000152588,0.005912871100008488,-0.5132753252983093,0.17261768877506256,1.364180088043213,0.004386968910694122,0.5136567950248718,0.0871671661734581,-0.6338216066360474,0.03223468363285065,-0.0078202486038208,0.7898451089859009,-0.30086585879325867,0.001031577354297042,-0.5994887948036194,0.04482337832450867,-0.09403372555971146,0.7177462577819824,-0.2770390808582306,-0.029180284589529037,-0.7833516597747803,0.7453660368919373,0.18393272161483765,-0.06990429759025574,0.0018006869358941913,-0.11103703826665878,-0.33047324419021606,0.04481489583849907,0.050519734621047974,-0.03848203644156456,-0.7534942626953125,0.1757357120513916,0.07806723564863205,0.37337130308151245,0.16038541495800018,-1.3075579404830933,0.003637836314737797,-1.0837701559066772,-0.19905221462249756,0.8365294933319092,0.7884869575500488,1.1405912637710571,-0.04443492367863655,1741432331.0895288,1741432331179,0.39524771118164065,-1.7799862060546876,-0.8034531717912841,3.14341015625,2.2289482421875
1741432331.1026053,-1.369426280260086,0.013132578365496212,0.04519218048138576,-0.9988919872582881,0.06273055821657181,0.14228644967079163,-0.3476182818412781,1.259966492652893,4.159619331359863,14.257840156555176,-0.17986583709716797,0.8875026702880859,0.20885786414146423,-1.3519729375839233,0.00667582219466567,-0.5163271427154541,0.17071031033992767,1.364180088043213,0.0024795911740511656,0.5155642032623291,0.06389715522527695,-0.622377336025238,0.03185320645570755,-0.009346150793135166,0.7940413355827332,-0.32286080718040466,-0.004996375646442175,-0.5895704627037048,0.03833829239010811,-0.06771191209554672,0.7013428211212158,-0.2654551565647125,-0.004470846615731716,0.44921448826789856,-0.25860992074012756,0.07489214837551117,-0.22264829277992249,0.04996296763420105,-0.055197957903146744,-0.08159127086400986,-0.025613846257328987,-0.13833551108837128,0.11734864115715027,-1.1353713274002075,0.2483266443014145,-0.12058331072330475,-0.14363549649715424,0.3391055464744568,-1.0130529403686523,-0.24639518558979034,0.5000813007354736,-0.1304764747619629,1.1371898651123047,-1.028125286102295,0.5798159837722778,1.1555638313293457,1741432331.0895288,1741432331179,0.39524771118164065,-1.7799862060546876,-0.8034531717912841,3.14341015625,2.2289482421875
1741432331.1226444,-1.3724404275417328,0.015201034344546591,0.03160353511028819,-0.9993848833774648,0.7269449234008789,0.09799094498157501,0.011145799420773983,-4.455114364624023,2.4593379497528076,13.96252727508545,-0.16308116912841797,0.8859767913818359,0.20771344006061554,-1.367613434791565,0.006294346414506435,-0.5155642032623291,0.17338064312934875,1.3607468605041504,0.002861066721379757,0.5155642032623291,0.035667963325977325,-0.622377336025238,0.026512550190091133,0.004005493130534887,0.7936598658561707,-0.3456290364265442,-0.0042806933633983135,-0.579270601272583,0.05054550990462303,-0.06771191209554672,0.6876096725463867,-0.24928390979766846,-0.013901607133448124,0.4780177175998688,-0.017633913084864616,-0.08504657447338104,-1.1326676607131958,-0.006672825664281845,0.012215990573167801,0.23986251652240753,-0.27162396907806396,0.02795729599893093,-0.04906227067112923,-1.5898487567901611,0.312741219997406,-0.21917489171028137,0.8254463076591492,-0.2038409262895584,-1.1911396980285645,0.1673946976661682,0.33121949434280396,0.7479226589202881,-0.010467227548360825,-0.3671845495700836,0.9178618788719177,-0.8285397887229919,1741432331.0895288,1741432331179,0.39524771118164065,-1.7799862060546876,-0.8034531717912841,3.14341015625,2.2289482421875
1741432331.142609,-1.3723058253526688,0.0198490864230046,0.015665051657911235,-0.9996802588451604,0.7654808163642883,0.2003517597913742,0.010536824353039265,1.2517001628875732,0.48711326718330383,8.856912612915039,-0.16765880584716797,0.8855953216552734,0.20313572883605957,-1.377150297164917,0.006294346414506435,-0.5163271427154541,0.17795833945274353,1.3550246953964233,0.002861066721379757,0.5132753252983093,0.002861066721379757,-0.6063553690910339,0.012779430486261845,0.01506828423589468,0.7955672740936279,-0.37116703391075134,0.0039611691609025,-0.576218843460083,0.040627144277095795,-0.039101243019104004,0.6803616285324097,-0.227287158370018,-0.02010841853916645,-0.09579197317361832,0.01040758565068245,-0.2533542811870575,-0.5128984451293945,-0.007955465465784073,-0.03827996551990509,0.32273855805397034,-0.4210875630378723,0.03221292793750763,-0.1022215485572815,-1.447759747505188,0.4930230379104614,-0.8058232069015503,0.46097877621650696,0.20928509533405304,-1.3797125816345215,0.4852568209171295,0.4429323673248291,-0.9672573208808899,1.8458905220031738,-0.6503469944000244,1.1377638578414917,-0.0009576984448358417,1741432331.099696,1741432331279,0.3906240844726563,-1.7813582763671876,-0.8054682587370081,3.14195068359375,2.228930419921875
1741432331.1626315,-1.3695542812347412,0.02160526702853122,0.0003620755189624417,-0.9997665134109786,0.7693986892700195,0.08765975385904312,0.17574883997440338,-1.952509880065918,0.5474842190742493,10.504210472106934,-0.17833995819091797,0.8924617767333984,0.19398032128810883,-1.3817280530929565,0.006294346414506435,-0.5167086124420166,0.18596932291984558,1.3485395908355713,0.002861066721379757,0.5136567950248718,0.001716639962978661,-0.6231403350830078,-0.002861066721379757,0.009346150793135166,0.8344777822494507,-0.3985826373100281,0.00429271487519145,-0.5601968169212341,0.01888304017484188,-0.013160906732082367,0.6593804955482483,-0.19732654094696045,-0.0045388550497591496,-0.32240140438079834,0.16783590614795685,-0.5041075944900513,-0.3183983266353607,-0.012089382857084274,-0.013836728408932686,0.53139328956604,-0.3911440968513489,-0.008998408913612366,0.011283302679657936,0.11221618950366974,-0.96595299243927,-0.7504395842552185,-0.4838627278804779,2.598498582839966,-1.2802609205245972,-0.10389219224452972,0.6452491283416748,-0.7492223381996155,0.6493752002716064,-1.0125489234924316,1.598171353340149,0.7098062038421631,1741432331.19436,1741432331379,0.3823540649414063,-1.7819063720703125,-0.8169523115582195,3.13863623046875,2.22692529296875
1741432331.1827188,-1.3683691620826721,0.02579334018744406,-0.010053002727736175,-0.9996167469276067,0.41527193784713745,0.21183718740940094,0.08879111707210541,-1.0019981861114502,2.6888108253479004,8.600606918334961,-0.19207286834716797,0.8932247161865234,0.1825360506772995,-1.3817280530929565,0.006294346414506435,-0.5170900821685791,0.19359883666038513,1.3454878330230713,0.002861066721379757,0.5136567950248718,0.01888304017484188,-0.6761654019355774,-0.013160906732082367,0.004005493130534887,0.9309910535812378,-0.41244593262672424,-0.006369960960000753,-0.5624856948852539,0.010872052982449532,-0.023079270496964455,0.6509880423545837,-0.1665111482143402,-0.011081892997026443,-0.3971719741821289,0.0321040078997612,-0.5197023749351501,0.06142095476388931,-0.003803353291004896,-0.021807972341775894,0.5205696821212769,-0.16352440416812897,0.010697074234485626,0.023639049381017685,0.9932277202606201,-3.1097912788391113,-0.3794892430305481,-0.09225943684577942,5.044007301330566,-0.575190544128418,-0.42647475004196167,-0.15652312338352203,-0.6422184109687805,-0.43163302540779114,-0.22549405694007874,1.4642441272735596,-0.4659688472747803,1741432331.19436,1741432331379,0.3823540649414063,-1.7819063720703125,-0.8169523115582195,3.13863623046875,2.22692529296875
1741432331.2027097,-1.3695413768291473,0.03095390289166648,-0.008838292751361975,-0.9994817359396891,-0.08156400173902512,0.2896187901496887,-0.10014030337333679,-0.7047969102859497,1.8356050252914429,8.56473445892334,-0.19932079315185547,0.8901729583740234,0.17414358258247375,-1.3744800090789795,0.005912871100008488,-0.5170900821685791,0.1966506391763687,1.3447248935699463,0.002861066721379757,0.5132753252983093,0.04596780240535736,-0.7539864182472229,-0.018501564860343933,0.012397955171763897,1.056496500968933,-0.4090785086154938,-0.002799797570332885,-0.5708781480789185,0.009727626107633114,-0.030708782374858856,0.6517509818077087,-0.14802534878253937,-0.015550343319773674,-0.24535086750984192,-0.0532836839556694,-0.42585480213165283,0.48619186878204346,-0.004680007230490446,-0.013496816158294678,0.1301741600036621,-0.06870026141405106,-0.006200470495969057,-0.015476290136575699,1.362036943435669,-3.8036489486694336,-0.2886599898338318,0.505659282207489,6.227485656738281,0.26475879549980164,0.2650772035121918,-0.4127900004386902,0.1551944613456726,-0.3300313949584961,-0.014875696040689945,0.7868245840072632,-0.05859384313225746,1741432331.19436,1741432331379,0.3823540649414063,-1.7819063720703125,-0.8169523115582195,3.13863623046875,2.22692529296875
1741432331.2235463,-1.380273163318634,0.0359903950226959,-0.001783397819804031,-0.999350544582994,-0.355676531791687,0.20092685520648956,-0.5842661261558533,-2.759756565093994,2.993647575378418,11.053058624267578,-0.19855785369873047,0.8920803070068359,0.17032882571220398,-1.36685049533844,0.005912871100008488,-0.5170900821685791,0.19054703414440155,1.3424360752105713,0.002861066721379757,0.5140383243560791,0.06466010212898254,-0.8146410584449768,-0.020027466118335724,0.02079041674733162,1.1541543006896973,-0.39284762740135193,-0.000275929894996807,-0.578507661819458,0.011635004542768002,-0.03452353551983833,0.6452658772468567,-0.14911790192127228,-0.011589485220611095,-0.012361115776002407,0.0640527606010437,-0.08752884715795517,0.5096617341041565,0.0041697220876812935,-0.0019110876601189375,-0.5072784423828125,-0.18009832501411438,-0.0007390170358121395,0.05779039487242699,0.8566259741783142,-2.682154655456543,0.0776090994477272,0.48219314217567444,4.3591156005859375,0.910740077495575,-0.026665659621357918,-0.4109496772289276,-0.022579319775104523,-0.14996756613254547,-0.3266376256942749,-0.2368524819612503,0.19258956611156464,1741432331.19436,1741432331379,0.3823540649414063,-1.7819063720703125,-0.8169523115582195,3.13863623046875,2.22692529296875
1741432331.2427354,-1.395179271697998,0.03950170215764334,0.005712202474442603,-0.9992031756702636,-0.3153337240219116,0.1871691197156906,-0.800793468952179,2.100116491317749,1.2731953859329224,10.293156623840332,-0.19169139862060547,0.8966579437255859,0.17223620414733887,-1.3630356788635254,0.005912871100008488,-0.5170900821685791,0.1806286722421646,1.3435804843902588,0.002861066721379757,0.5159456729888916,0.06847485899925232,-0.8257037997245789,-0.01773861236870289,0.016594186425209045,1.1846723556518555,-0.36905136704444885,-0.00335003063082695,-0.5830853581428528,0.005149920005351305,-0.029564354568719864,0.6452658772468567,-0.1647835373878479,-0.011726907454431057,0.18149542808532715,0.14742602407932281,0.054810743778944016,0.16129648685455322,0.0034375889226794243,-0.0010345361661165953,-0.6634061336517334,0.12116705626249313,0.009934712201356888,0.07705666124820709,0.0018628917168825865,-0.24867644906044006,0.015947764739394188,-0.27192389965057373,0.9669546484947205,1.1944808959960938,-0.055736273527145386,-0.19024764001369476,-0.42263150215148926,0.34826281666755676,0.05787865072488785,-0.89255690574646,-0.173874169588089,1741432331.19436,1741432331379,0.3823540649414063,-1.7819063720703125,-0.8169523115582195,3.13863623046875,2.22692529296875
1741432331.2627594,-1.411929428577423,0.03930706546175348,0.006358985827404505,-0.99920694448349,0.04605519771575928,-0.05766650289297104,-0.8403739333152771,1.6120307445526123,3.4797861576080322,8.05212116241455,-0.18062877655029297,0.9012355804443359,0.17261768877506256,-1.3657060861587524,0.006294346414506435,-0.5144197940826416,0.17452506721019745,1.3447248935699463,0.002861066721379757,0.5151827335357666,0.05855649709701538,-0.8024337887763977,-0.024223696440458298,0.005912871100008488,1.1285953521728516,-0.3489549458026886,0.0006458229618147016,-0.5869001150131226,0.000572213320992887,-0.024605173617601395,0.6555657386779785,-0.18781079351902008,-0.011254210025072098,0.29588761925697327,0.12310781329870224,0.05055597424507141,-0.17243200540542603,-0.00387330143712461,0.16277441382408142,-0.29566314816474915,0.03956132382154465,-0.0021693294402211905,-0.04181712493300438,-0.6014108657836914,1.4901660680770874,-0.3981909453868866,-0.7073286175727844,-3.487866163253784,0.9135692119598389,0.2822290360927582,-0.2245020717382431,-0.21606679260730743,0.34717559814453125,0.6028277277946472,-1.1798492670059204,0.11703254282474518,1741432331.2966807,1741432331479,0.37387551879882813,-1.7891972656250001,-0.8714741392474877,3.134292236328125,2.22530419921875
1741432331.2827802,-1.4239380359649658,0.03532616260895789,-0.0005092327879985235,-0.9993757065875142,0.3813018798828125,-0.210142120718956,-0.5044177174568176,0.47318339347839355,-1.0804245471954346,4.021284580230713,-0.18101024627685547,0.8962764739990234,0.17338064312934875,-1.3695207834243774,0.006294346414506435,-0.5155642032623291,0.17490653693675995,1.3424360752105713,0.002861066721379757,0.5155642032623291,0.03223468363285065,-0.7379644513130188,-0.04558632895350456,-0.010490577667951584,0.9939345121383667,-0.3402980864048004,0.0043422323651611805,-0.5926222801208496,0.002861066721379757,-0.018120087683200836,0.6849393248558044,-0.21367479860782623,-0.0067466082982718945,0.010957454331219196,-0.12983232736587524,0.03739190474152565,-0.24096782505512238,0.0043949587270617485,-0.07322245836257935,0.07970696687698364,-0.20511846244335175,-0.02563236467540264,0.015965372323989868,-1.4002619981765747,3.412813901901245,-1.1586405038833618,-0.6522893905639648,-7.388576984405518,0.3026670217514038,0.07181479036808014,-0.2852148711681366,0.13592372834682465,0.22590158879756927,1.6904685497283936,-1.364240288734436,0.2923232913017273,1741432331.2966807,1741432331479,0.37387551879882813,-1.7891972656250001,-0.8714741392474877,3.134292236328125,2.22530419921875
1741432331.3027897,-1.425619125366211,0.027440351588732755,-0.010730099461551783,-0.9995658517927831,0.5144070386886597,-0.4559768736362457,-0.023543626070022583,3.0929629802703857,-1.0843493938446045,2.84037446975708,-0.18520641326904297,0.8928432464599609,0.17223620414733887,-1.3702837228775024,0.006294346414506435,-0.5170900821685791,0.17910276353359222,1.3397656679153442,0.002861066721379757,0.5151827335357666,-0.004386968910694122,-0.6528953909873962,-0.06160829961299896,-0.010490577667951584,0.8089188933372498,-0.3467691242694855,0.003181919688358903,-0.613603413105011,0.009346150793135166,-0.026131074875593185,0.7257572412490845,-0.24420484900474548,-0.005302865989506245,-0.13398845493793488,-0.09007146954536438,-0.0728909820318222,-0.035961225628852844,0.00861380621790886,-0.08365282416343689,0.334171324968338,-0.13519659638404846,0.0027416814118623734,-0.016130752861499786,-1.8916622400283813,4.228471279144287,-0.8462227582931519,0.0028643463738262653,-9.450601577758789,-0.4087831676006317,-0.07059755176305771,-1.2649645805358887,0.4669598340988159,-0.5661557912826538,2.0491604804992676,-1.5715216398239136,0.09645888954401016,1741432331.2966807,1741432331479,0.37387551879882813,-1.7891972656250001,-0.8714741392474877,3.134292236328125,2.22530419921875
1741432331.322819,-1.4209255278110504,0.025191689064130572,-0.01306939134571786,-0.9995972037835783,-0.010151746682822704,-0.12739263474941254,0.24266278743743896,-23.433317184448242,21.138059616088867,19.53165626525879,-0.20237255096435547,0.8871212005615234,0.17109178006649017,-1.36685049533844,0.006294346414506435,-0.5178530812263489,0.18673227727413177,1.3405286073684692,0.0024795911740511656,0.5140383243560791,-0.035667963325977325,-0.5926222801208496,-0.05893797054886818,0.00476844422519207,0.7204165458679199,-0.3160999119281769,0.004183784127235413,-0.6422140598297119,-0.004386968910694122,-0.02079041674733162,0.7696269154548645,-0.2705470621585846,-0.011619587428867817,-0.5227741003036499,-0.1385292261838913,-0.028777852654457092,0.30758771300315857,0.04408685863018036,-0.04023484140634537,0.5175026059150696,0.0788254663348198,-0.01474043820053339,-0.1781069040298462,-1.3232791423797607,2.41688871383667,0.2643636167049408,1.025791883468628,-1.8281886577606201,2.1650550365448,0.29675108194351196,-1.3694329261779785,-1.791622519493103,0.6860070824623108,2.2513267993927,-1.116139531135559,-0.27447235584259033,1741432331.2966807,1741432331479,0.37387551879882813,-1.7891972656250001,-0.8714741392474877,3.134292236328125,2.22530419921875
1741432331.3428547,-1.4148480743169785,0.023344899195044636,-0.02771968412529438,-0.9993431016390553,0.7161450386047363,-0.10103736072778702,0.2983500063419342,18.381067276000977,-1.1609779596328735,-0.1821964830160141,-0.17109203338623047,0.8970394134521484,0.16346226632595062,-1.362654209136963,0.006294346414506435,-0.5189974904060364,0.19283588230609894,1.3424360752105713,0.002861066721379757,0.5128938555717468,-0.03604944050312042,-0.6162737607955933,-0.048638131469488144,0.002861066721379757,0.7394903302192688,-0.2776867747306824,0.009303029626607895,-0.6422140598297119,-0.020027466118335724,-0.02231631986796856,0.778019368648529,-0.2941252887248993,-0.009968121536076069,0.9565390944480896,0.1990279108285904,-0.3929893374443054,0.18272031843662262,0.0275893434882164,-0.09033926576375961,0.4598672389984131,0.04292221739888191,0.05226820707321167,0.10474269092082977,0.04176050424575806,-1.5788501501083374,0.7095847725868225,-0.3223153054714203,0.33378666639328003,1.5744383335113525,0.08745972067117691,0.18991078436374664,0.00831831619143486,-0.5130056142807007,0.07644534111022949,-1.2864973545074463,0.12051573395729065,1741432331.2966807,1741432331479,0.37387551879882813,-1.7891972656250001,-0.8714741392474877,3.134292236328125,2.22530419921875
1741432331.362862,-1.4132498502731323,0.023259883222084245,-0.029375462241583758,-0.9992977834712675,-0.10593584179878235,0.17969022691249847,0.06266584992408752,-0.7194064259529114,-4.248523235321045,10.70034408569336,-0.19130992889404297,0.8829250335693359,0.16231784224510193,-1.363417148590088,0.005531395319849253,-0.5231937170028687,0.1974135935306549,1.3409100770950317,0.004005493130534887,0.5170900821685791,-0.026131074875593185,-0.6006332635879517,-0.04253452271223068,-0.0009536888683214784,0.7227054238319397,-0.26132917404174805,-0.0012710178270936012,-0.6387808322906494,-0.016975661739706993,-0.04253452271223068,0.7745860815048218,-0.315511554479599,0.00030576452263630927,-0.41835886240005493,-0.6126728653907776,0.009933972731232643,-0.06701568514108658,-0.035298869013786316,-0.21564710140228271,0.24640052020549774,-0.05573619529604912,0.004269800614565611,0.18056264519691467,0.5495002865791321,1.068884253501892,0.41139060258865356,-0.12994767725467682,-1.0290851593017578,0.8392584323883057,-0.6006639003753662,0.13910654187202454,-0.15899533033370972,-0.6659104824066162,0.14990006387233734,-0.9432449340820312,0.29575493931770325,1741432331.3987286,1741432331579,0.3688231201171875,-1.7904466552734375,-0.849579613389472,3.13244140625,2.22421728515625
1741432331.3829005,-1.4135704934597015,0.025230006393206255,-0.016062972522227603,-0.9995526137683544,-0.6663418412208557,0.03033532202243805,-0.06034623831510544,-1.1012777090072632,-0.11678669601678848,16.26213836669922,-0.20656871795654297,0.8909358978271484,0.1680399775505066,-1.3561691045761108,0.005912871100008488,-0.5342565178871155,0.1974135935306549,1.3477766513824463,0.004386968910694122,0.5209048390388489,-0.005531395319849253,-0.5922408103942871,-0.039101243019104004,-0.00858320016413927,0.7070649266242981,-0.24121087789535522,0.0034532391000539064,-0.6399252414703369,-0.01773861236870289,-0.04940108209848404,0.7791637778282166,-0.33715367317199707,-0.01129209715873003,-0.3509489595890045,0.007493321318179369,0.33980295062065125,0.6858007907867432,-0.0015623896615579724,-0.5967288613319397,-0.03349880874156952,0.5751144886016846,0.06012127920985222,0.23329931497573853,1.0916937589645386,-0.12707360088825226,0.02823025919497013,-0.5884891152381897,-0.6246288418769836,1.0660442113876343,0.49264228343963623,-0.054880786687135696,-0.048307597637176514,-0.535948634147644,-0.010137120261788368,-1.2036430835723877,-0.3538278341293335,1741432331.3987286,1741432331579,0.3688231201171875,-1.7904466552734375,-0.849579613389472,3.13244140625,2.22421728515625
1741432331.4029276,-1.416440173983574,0.023002644405368457,-0.003068209527547637,-0.9997306959579941,-0.6117956042289734,-0.10490312427282333,-0.23749792575836182,-5.704791069030762,-1.653767466545105,7.746517658233643,-0.19436168670654297,0.8989467620849609,0.17795833945274353,-1.3393841981887817,0.005912871100008488,-0.5403600931167603,0.1958876997232437,1.3657060861587524,0.004386968910694122,0.5247195959091187,0.02040894143283367,-0.5918593406677246,-0.03223468363285065,-0.038719769567251205,0.7051575779914856,-0.21462002396583557,0.007993864826858044,-0.6403067111968994,-0.007057297509163618,-0.06618601083755493,0.7890821695327759,-0.3612428307533264,-0.007538412231951952,0.3619807958602905,0.17435131967067719,0.5536253452301025,1.0543607473373413,0.02225184254348278,-0.2863597571849823,-0.1003476157784462,1.1646151542663574,0.006066862493753433,0.3308607041835785,1.325181484222412,0.6684682369232178,0.4443419873714447,-1.6594897508621216,-0.18145161867141724,1.3165886402130127,-0.012723742984235287,-0.01774100959300995,0.6249476671218872,-0.6650046110153198,0.8261083364486694,-1.1987884044647217,0.15115845203399658,1741432331.3987286,1741432331579,0.3688231201171875,-1.7904466552734375,-0.849579613389472,3.13244140625,2.22421728515625
1741432331.4229465,-1.4224378317594528,0.024903591024276896,0.012090043204844763,-0.9996167475634852,-0.7934112548828125,-0.01575944386422634,-0.3096793591976166,2.2332799434661865,0.7367503046989441,12.174962997436523,-0.19207286834716797,0.8993282318115234,0.19092851877212524,-1.3306102752685547,0.005912871100008488,-0.5449378490447998,0.19245441257953644,1.3725725412368774,0.004005493130534887,0.5296788215637207,0.03185320645570755,-0.5849927663803101,-0.02727550081908703,-0.048638131469488144,0.6849393248558044,-0.1952899843454361,-0.0017546020681038499,-0.657473087310791,-0.0009536888683214784,-0.0707637146115303,0.8520256280899048,-0.38117262721061707,-0.001285189762711525,0.04351314529776573,0.092021644115448,0.6027053594589233,0.5087041258811951,0.0023741668555885553,-0.1903066337108612,-0.24892368912696838,0.328169047832489,-0.02825247496366501,0.25956928730010986,0.3066208064556122,-0.13963142037391663,0.10783170908689499,-0.17373670637607574,-1.2209898233413696,0.7753809094429016,-0.2532573938369751,-1.2105133533477783,0.030836179852485657,-0.13624581694602966,3.5887560844421387,-0.8433842062950134,0.38233354687690735,1741432331.3987286,1741432331579,0.3688231201171875,-1.7904466552734375,-0.849579613389472,3.13244140625,2.22421728515625
1741432331.443063,-1.4264073967933655,0.026593850085186242,0.019829209872294154,-0.9994496333350106,-0.23149996995925903,0.18718458712100983,-0.18142026662826538,-1.840617299079895,1.2512422800064087,11.0482177734375,-0.17223644256591797,0.8886470794677734,0.1993209719657898,-1.3279399871826172,0.005912871100008488,-0.5422675013542175,0.18902114033699036,1.3767688274383545,0.004005493130534887,0.5334935784339905,0.02727550081908703,-0.5823224186897278,-0.01735713705420494,-0.048638131469488144,0.6815060377120972,-0.18600909411907196,0.0054137432016432285,-0.7158388495445251,-0.006294346414506435,-0.07648584991693497,0.9515907764434814,-0.38357335329055786,0.005155347287654877,0.5593985915184021,-0.31588423252105713,0.37465915083885193,0.14632435142993927,0.002246751682832837,0.15719731152057648,-0.21551495790481567,0.2381243258714676,0.0050720348954200745,0.2463611662387848,-0.1249895766377449,0.2613416612148285,0.6373704671859741,-0.10343969613313675,0.016703927889466286,0.42285990715026855,0.44094282388687134,-2.986340284347534,-0.1454313099384308,-0.34114083647727966,5.25896692276001,0.0049711004830896854,0.21243716776371002,1741432331.3987286,1741432331579,0.3688231201171875,-1.7904466552734375,-0.849579613389472,3.13244140625,2.22421728515625
1741432331.4630492,-1.4256561547517776,0.03152953859628867,0.014815256176503396,-0.999393013974147,0.24572859704494476,0.16896465420722961,0.03690076246857643,1.9596233367919922,-7.109445571899414,6.380868911743164,-0.16651439666748047,0.8863582611083984,0.1989395022392273,-1.3306102752685547,0.005912871100008488,-0.5392156839370728,0.1848248988389969,1.3752429485321045,0.004005493130534887,0.5395971536636353,0.00667582219466567,-0.5891889929771423,-0.02079041674733162,-0.03757534176111221,0.6681544184684753,-0.18317623436450958,0.005252597853541374,-0.777256429195404,0.000572213320992887,-0.08182650804519653,1.0622186660766602,-0.3719581365585327,0.0035203287843614817,0.19344541430473328,-0.07014522701501846,-0.10466530174016953,-0.27358943223953247,-0.004355462733656168,0.06336858123540878,-0.2825411558151245,-0.13986539840698242,0.010446346364915371,0.38486358523368835,-1.231063961982727,-0.3720175623893738,-0.3006291389465332,0.7390421628952026,-0.9294744729995728,0.07522429525852203,-0.16129615902900696,-2.988295555114746,0.30068710446357727,-0.17360831797122955,5.3776116371154785,0.6421605944633484,-0.02154463715851307,1741432331.4997451,1741432331679,0.3789158935546875,-1.7884244384765626,-0.8308220298145441,3.1318088378906253,2.223548095703125
1741432331.4830554,-1.4175268560647964,0.03336907484243279,0.007191321574861972,-0.9994172250557657,0.42630407214164734,0.09808460623025894,0.4085366427898407,-4.431644439697266,-0.5041289925575256,15.354876518249512,-0.16918468475341797,0.8890285491943359,0.19474326074123383,-1.3367139101028442,0.005912871100008488,-0.5415045619010925,0.1806286722421646,1.37142813205719,0.004005493130534887,0.5437933802604675,-0.01201647985726595,-0.5869001150131226,-0.010490577667951584,-0.026131074875593185,0.6513695120811462,-0.1853788048028946,-0.001487448113039136,-0.8096818327903748,-0.0024795911740511656,-0.07572289556264877,1.128213882446289,-0.3530743718147278,0.0017087842570617795,-0.03578823804855347,0.09753603488206863,-0.17448852956295013,-0.409820556640625,0.00014946407463867217,-0.11551734805107117,-0.26042887568473816,-0.27914902567863464,0.0003234518226236105,0.24665288627147675,-0.7603456377983093,0.23723863065242767,0.6798605918884277,0.40683603286743164,-0.5375925898551941,-0.11854081600904465,-0.2715829610824585,-1.1204673051834106,-0.18484804034233093,0.45002490282058716,2.7917089462280273,0.951749324798584,-0.09871875494718552,1741432331.4997451,1741432331679,0.3789158935546875,-1.7884244384765626,-0.8308220298145441,3.1318088378906253,2.223548095703125
1741432331.5032003,-1.4103197008371353,0.03406514047959113,-0.0021251548527122326,-0.9994173552230108,0.40322309732437134,-0.008409237489104271,0.39144831895828247,-0.5767753720283508,-2.834500551223755,8.51114559173584,-0.17338085174560547,0.8974208831787109,0.19512474536895752,-1.3431990146636963,0.005912871100008488,-0.541886031627655,0.17948424816131592,1.366087555885315,0.004005493130534887,0.54417484998703,-0.01201647985726595,-0.5830853581428528,-0.0024795911740511656,-0.024986648932099342,0.647936224937439,-0.19172126054763794,-0.0061635710299015045,-0.7974746227264404,0.0009536888683214784,-0.0715266615152359,1.1316472291946411,-0.3360634744167328,0.00017748896789271384,-0.14249089360237122,0.30046722292900085,0.05213407799601555,-0.36972612142562866,-0.015471262857317924,-0.014309193007647991,-0.04600903391838074,-0.32209306955337524,0.014408273622393608,0.020469089969992638,0.03729086369276047,0.02349391207098961,0.2593923509120941,-0.010356882587075233,-0.3083689212799072,-0.3995797336101532,-0.23631322383880615,0.8249229788780212,0.3281383514404297,0.22557920217514038,-0.3614039719104767,0.8038632869720459,-0.09025497734546661,1741432331.4997451,1741432331679,0.3789158935546875,-1.7884244384765626,-0.8308220298145441,3.1318088378906253,2.223548095703125
