Freshhhhh-LC/Legged_odom/data/2/segments/booster_seg_9.95s.csv
time,yaw,projected_gravity_x,projected_gravity_y,projected_gravity_z,ang_vel_x,ang_vel_y,ang_vel_z,lin_acc_x,lin_acc_y,lin_acc_z,q_0,q_1,q_2,q_3,q_4,q_5,q_6,q_7,q_8,q_9,q_10,q_11,q_12,q_13,q_14,q_15,q_16,q_17,q_18,q_19,q_20,q_21,q_22,dq_0,dq_1,dq_2,dq_3,dq_4,dq_5,dq_6,dq_7,dq_8,dq_9,dq_10,dq_11,dq_12,dq_13,dq_14,dq_15,dq_16,dq_17,dq_18,dq_19,dq_20,dq_21,dq_22,mocap_time,mocap_timestamp,robot_x,robot_y,robot_yaw,ball_x,ball_y
1741432210.6420548,0.23321473598480225,0.018693889237012727,-0.028202393639105296,-0.9994274178239354,-0.7298524379730225,0.16825178265571594,-0.22697442770004272,0.45972940325737,1.5067293643951416,8.332385063171387,-0.14667701721191406,0.17872142791748047,0.36678874492645264,-1.2642335891723633,0.005912871100008488,-0.9561684727668762,0.08411535620689392,1.229519248008728,0.004386968910694122,0.9107728600502014,-0.14667734503746033,-0.7871748208999634,0.02231631986796856,0.21076524257659912,1.3433661460876465,-0.49482670426368713,-0.001385813346132636,-0.508316159248352,0.016594186425209045,0.1512550562620163,0.8859769701957703,-0.49899962544441223,0.04134121537208557,0.0937647670507431,-0.027189021930098534,3.185262441635132,0.06694095581769943,0.0015315687051042914,0.2017669528722763,-4.5352911949157715,0.07170476764440536,-0.011357996612787247,0.20542152225971222,1.1694836616516113,-3.097309112548828,1.2618951797485352,-1.686009407043457,-0.7606630921363831,-0.631068766117096,0.2422647476196289,2.2159206867218018,-0.06187879294157028,-0.584999680519104,-1.3195034265518188,-1.1887727975845337,0.028532007709145546,1741432210.6875703,1741432210959,1.98666650390625,0.42876644897460936,0.6235750281131431,3.455625244140625,0.43205975341796876
1741432210.6442614,0.2201693058013916,0.02511880075473922,-0.012682087373197046,-0.9996040268568861,-0.7535294890403748,0.317173033952713,-0.6340997815132141,2.883188486099243,1.5214742422103882,7.190521717071533,-0.14705848693847656,0.17414379119873047,0.4343098998069763,-1.2672853469848633,0.006294346414506435,-0.9431982636451721,0.021553369238972664,1.233715534210205,0.004386968910694122,0.9164950251579285,-0.12302586436271667,-0.8428702354431152,0.058175019919872284,0.17032882571220398,1.3086519241333008,-0.4904407262802124,-0.006367608439177275,-0.46177613735198975,0.016594186425209045,0.1329442262649536,0.8573662638664246,-0.5226595997810364,0.03994038328528404,-0.009045322425663471,-0.1327238231897354,3.466464042663574,-0.18718338012695312,-0.005908655468374491,0.7349135875701904,-4.172126770019531,0.37351393699645996,0.01084014493972063,0.42696091532707214,1.0206888914108276,-2.7542762756347656,1.8996751308441162,-2.1110293865203857,-1.9622526168823242,0.4039352834224701,-0.33640918135643005,2.1506845951080322,-0.032692622393369675,-1.081713080406189,-1.4298394918441772,-1.2071388959884644,-0.09155528247356415,1741432210.6875703,1741432210959,1.98666650390625,0.42876644897460936,0.6235750281131431,3.455625244140625,0.43205975341796876
1741432210.6463187,0.14264214038848877,0.059203570284310864,0.007045982609499355,-0.9982210633895967,0.14890854060649872,0.4319729506969452,0.3160960376262665,3.697499990463257,0.2349720448255539,5.8240838050842285,-0.08297061920166016,0.3267335891723633,0.4854276478290558,-1.2623261213302612,0.006294346414506435,-0.9145876169204712,-0.11501488089561462,1.230282187461853,0.0024795911740511656,0.969520092010498,0.07648584991693497,-0.9206912517547607,-0.06504157930612564,-0.02384222112596035,0.9370946884155273,-0.35877227783203125,0.00026849767891690135,-0.4343098998069763,-0.01583123579621315,-0.15430685877799988,0.8241779208183289,-0.5152744054794312,-0.011773953214287758,0.06000876426696777,0.08912710845470428,-0.41657668352127075,0.09915388375520706,-0.0033509100321680307,0.14438647031784058,0.17367435991764069,-0.32945898175239563,-0.014644796028733253,0.533284604549408,-1.2965396642684937,0.5820550918579102,1.7280161380767822,1.4159725904464722,-7.719846248626709,2.09617280960083,0.5845999121665955,2.0820300579071045,1.1193944215774536,0.3450157046318054,0.32115480303764343,-1.6538463830947876,0.6936252117156982,1741432210.6875703,1741432210959,1.98666650390625,0.42876644897460936,0.6235750281131431,3.455625244140625,0.43205975341796876
1741432210.6662054,0.1507505178451538,0.05937074240514931,0.009166608994537348,-0.9981939131380249,-0.1704869568347931,-0.13507108390331268,0.3561784029006958,5.552168369293213,1.6617629528045654,8.052233695983887,-0.09517860412597656,0.3542003631591797,0.4663538634777069,-1.2596558332443237,0.006294346414506435,-0.9142061471939087,-0.09098191559314728,1.224560022354126,0.0024795911740511656,0.9706645011901855,0.059319447726011276,-0.9008545279502869,-0.03681239113211632,0.020027466118335724,0.8009079098701477,-0.3308582603931427,0.006995472591370344,-0.3915846347808838,0.018120087683200836,-0.15468832850456238,0.8264667987823486,-0.5256945490837097,-0.0005533265648409724,-0.3644227087497711,0.7162467241287231,-0.935297429561615,0.18818311393260956,-0.003063316224142909,0.024051906540989876,1.8898882865905762,-0.3424229919910431,0.008225799538195133,0.020593535155057907,-0.6884304285049438,0.8917950987815857,1.564772129058838,2.4059436321258545,-6.427920341491699,1.3945258855819702,0.18987201154232025,2.1905853748321533,1.7718063592910767,-0.1301317662000656,0.1372210532426834,-0.2300119549036026,-0.04352634400129318,1741432210.6875703,1741432210959,1.98666650390625,0.42876644897460936,0.6235750281131431,3.455625244140625,0.43205975341796876
1741432210.6861548,0.1615920066833496,0.04954949163038493,0.0149312390489468,-0.9986600552638688,-0.3113613724708557,-0.49229490756988525,0.541240394115448,-8.05648136138916,9.038604736328125,14.729615211486816,-0.09098148345947266,0.3706035614013672,0.4373617172241211,-1.2516448497772217,0.006294346414506435,-0.9130617380142212,-0.04940108209848404,1.2226526737213135,0.0020981156267225742,0.9676127433776855,0.06504157930612564,-0.8630884289741516,-0.01926451548933983,0.04139009863138199,0.8249408602714539,-0.293132483959198,0.013329843990504742,-0.343900203704834,0.01735713705420494,-0.16155488789081573,0.8535515666007996,-0.5196975469589233,-0.02938055992126465,0.06072404235601425,0.5333263278007507,-1.5635401010513306,0.5822588801383972,0.040798697620630264,0.0494893342256546,2.8924057483673096,-0.07562462240457535,-0.04891527071595192,-0.2563305199146271,0.4262123107910156,2.6029398441314697,0.5719596743583679,0.43351516127586365,2.3102996349334717,1.5823808908462524,0.605582058429718,2.176827907562256,-0.12614096701145172,-0.48933854699134827,1.504764437675476,0.35035842657089233,-1.122023582458496,1741432210.6875703,1741432210959,1.98666650390625,0.42876644897460936,0.6235750281131431,3.455625244140625,0.43205975341796876
1741432210.7062292,0.16307032108306885,0.04554311850475456,0.01663466630953736,-0.998823864469423,-0.0859854519367218,-0.352901428937912,0.03348829969763756,2.2301928997039795,-7.7540669441223145,8.869635581970215,-0.07953739166259766,0.3801403045654297,0.38281071186065674,-1.2508819103240967,0.00667582219466567,-0.9157320261001587,0.0024795911740511656,1.2241785526275635,0.0032425422687083483,0.9611276388168335,0.09288929402828217,-0.8344777822494507,-0.007057297509163618,0.0032425422687083483,0.8501182794570923,-0.2926172614097595,0.014574260450899601,-0.33321890234947205,0.01735713705420494,-0.17071031033992767,0.9218356609344482,-0.49494829773902893,-0.03628953546285629,0.3087872564792633,0.37280577421188354,-2.9301764965057373,-0.22217804193496704,0.05698852241039276,-0.10607302188873291,3.371823310852051,0.11440564692020416,0.1449619084596634,-0.40888452529907227,1.497903823852539,0.9375171065330505,0.8146803975105286,-1.8474639654159546,0.45554855465888977,-0.12667040526866913,-0.2760853171348572,0.0842997208237648,-0.07017896324396133,-0.2240447849035263,4.166360855102539,1.4723739624023438,-0.3067295253276825,1741432210.6875703,1741432210959,1.98666650390625,0.42876644897460936,0.6235750281131431,3.455625244140625,0.43205975341796876
1741432210.7261937,0.1604623794555664,0.039803414361387554,0.021254376893694943,-0.9989814511131008,-0.2406342625617981,-0.16974125802516937,-0.2491651028394699,-6.86421537399292,6.189690113067627,13.719831466674805,-0.08716678619384766,0.3805217742919922,0.3122377395629883,-1.2531707286834717,0.005149920005351305,-0.9157320261001587,0.05130846053361893,1.238293170928955,0.005531395319849253,0.9569314122200012,0.11425192654132843,-0.7871748208999634,-0.02536812424659729,-0.023079270496964455,0.8642328381538391,-0.2947339117527008,0.006563659757375717,-0.3740367889404297,0.018501564860343933,-0.1527809500694275,1.056496500968933,-0.45177921652793884,-0.04363134875893593,-0.19025714695453644,0.04116836190223694,-3.645017623901367,-0.10157132893800735,-0.07635516673326492,-0.006427786312997341,3.238332986831665,1.176905632019043,0.09192555397748947,-0.269563764333725,0.8729969263076782,2.6037492752075195,-1.2311090230941772,-1.1613231897354126,0.9431764483451843,-0.03130883350968361,-0.21550455689430237,-2.251483917236328,0.09717218577861786,1.0585883855819702,7.1930437088012695,2.1878199577331543,-0.3620445132255554,1741432210.6875703,1741432210959,1.98666650390625,0.42876644897460936,0.6235750281131431,3.455625244140625,0.43205975341796876
1741432210.7462444,0.14556384086608887,0.03325176725659577,0.017379814282936622,-0.9992958831246147,0.2694540023803711,-0.44735756516456604,-0.848447859287262,-2.9905965328216553,-2.2668416500091553,12.890823364257812,-0.06961917877197266,0.4045543670654297,0.23861294984817505,-1.2527892589569092,0.006294346414506435,-0.9126802682876587,0.10471503436565399,1.2539336681365967,0.005912871100008488,0.951972246170044,0.12912946939468384,-0.7578011751174927,-0.029182879254221916,-0.04329747334122658,0.8730067610740662,-0.30062779784202576,0.008419118821620941,-0.4667353332042694,0.01926451548933983,-0.13752193748950958,1.2239643335342407,-0.41096314787864685,-0.03405799716711044,0.5342913866043091,0.8328230381011963,-3.725635051727295,-0.0841108113527298,-0.008226900361478329,0.03909723088145256,3.6305055618286133,0.857288122177124,0.03304362669587135,-0.3430284261703491,0.6530107855796814,1.516987681388855,-0.13855494558811188,-0.7932837605476379,0.3870980143547058,-0.3174925446510315,0.11873123049736023,-5.020378589630127,0.060185182839632034,0.7672327756881714,8.202282905578613,1.8712282180786133,0.8914428949356079,1741432210.7881563,1741432211059,2.0921184082031252,0.4387515869140625,0.58208095325189,3.430948486328125,0.32326956176757815
1741432210.7662847,0.11995804309844971,0.030566609494278148,0.01474521673384354,-0.9994239645753429,0.12825347483158112,0.027176054194569588,-1.304309368133545,6.172951698303223,3.0824851989746094,7.665863513946533,-0.07877445220947266,0.4003582000732422,0.16346226632595062,-1.2512633800506592,0.005531395319849253,-0.9172579646110535,0.152399480342865,1.2611817121505737,0.005531395319849253,0.9493018984794617,0.14095520973205566,-0.7085908055305481,-0.019645990803837776,-0.04253452271223068,0.8772030472755432,-0.3100278675556183,-0.00035411943099461496,-0.5655375123023987,0.019645990803837776,-0.13942931592464447,1.3704508543014526,-0.3996470868587494,0.0019284419249743223,-0.21926598250865936,-0.010895880870521069,-3.7765755653381348,0.2173149287700653,-0.009080438874661922,-0.22308465838432312,3.1510121822357178,0.5570714473724365,-0.010152059607207775,-0.1323818564414978,0.5096572637557983,2.575409412384033,0.5190874934196472,0.11234044283628464,0.06517642736434937,-0.5114538073539734,-0.5381724834442139,-4.984714031219482,-0.11018363386392593,-0.20463153719902039,6.8333635330200195,0.16352149844169617,1.4114876985549927,1741432210.7881563,1741432211059,2.0921184082031252,0.4387515869140625,0.58208095325189,3.430948486328125,0.32326956176757815
1741432210.7863004,0.09223401546478271,0.024125220733802702,0.012035679291772959,-0.9996364920052343,0.18827062845230103,-0.396744966506958,-1.3449680805206299,-0.029554059728980064,-3.033402681350708,11.789365768432617,-0.08182621002197266,0.4156179428100586,0.09327077120542526,-1.2443968057632446,0.005912871100008488,-0.9180209040641785,0.20580606162548065,1.2657594680786133,0.005912871100008488,0.9485389590263367,0.14171816408634186,-0.6662470698356628,-0.005531395319849253,-0.040627144277095795,0.8710994124412537,-0.32713553309440613,-0.006866689305752516,-0.6589990258216858,0.012779430486261845,-0.152399480342865,1.4490348100662231,-0.4275277256965637,-0.008518137037754059,-0.13150939345359802,0.5141904950141907,-3.300057888031006,0.45392999053001404,0.002056361408904195,-0.0020087547600269318,3.7233753204345703,0.20599204301834106,0.014219776727259159,-0.0332508310675621,-0.052062422037124634,2.019439458847046,0.6938451528549194,0.14044144749641418,-0.27804726362228394,-0.9777678847312927,-0.13932499289512634,-4.326706886291504,-0.38489851355552673,-0.7525936961174011,3.3601267337799072,-1.5925685167312622,-0.6244248151779175,1741432210.7881563,1741432211059,2.0921184082031252,0.4387515869140625,0.58208095325189,3.430948486328125,0.32326956176757815
1741432210.806372,0.07356297969818115,0.018529291585979536,0.009540802259254633,-0.9997827956339175,0.14238770306110382,-0.18774032592773438,-0.7668055891990662,0.1784185916185379,-2.8348636627197266,10.305614471435547,-0.08983707427978516,0.4175252914428711,0.03147173300385475,-1.2394375801086426,0.006294346414506435,-0.917639434337616,0.2660791873931885,1.2669038772583008,0.005149920005351305,0.9485389590263367,0.1371404528617859,-0.6082627773284912,0.009346150793135166,-0.03223468363285065,0.8657587766647339,-0.35761258006095886,-0.010557033121585846,-0.7360570430755615,0.006294346414506435,-0.16193637251853943,1.4547569751739502,-0.4665534496307373,-0.004168652929365635,-0.24811416864395142,0.1097569614648819,-2.918365001678467,0.26038920879364014,0.014380167238414288,0.005426846444606781,4.022493362426758,0.04682277515530586,-0.07565361261367798,-0.015186754055321217,-0.4146101772785187,3.0416676998138428,0.7786644101142883,0.48061683773994446,-0.35601794719696045,-1.6309905052185059,-0.14786167442798615,-3.8413238525390625,-0.35021546483039856,-0.37344905734062195,-0.15279708802700043,-1.8800992965698242,0.5109775066375732,1741432210.7881563,1741432211059,2.0921184082031252,0.4387515869140625,0.58208095325189,3.430948486328125,0.32326956176757815
1741432210.8263485,0.06876921653747559,0.015968102294844033,0.008255744263349827,-0.9998384181435316,0.062413863837718964,-0.17742815613746643,-0.1627330332994461,1.2605259418487549,0.809477686882019,9.896241188049316,-0.09823036193847656,0.4205770492553711,-0.027656977996230125,-1.239819049835205,0.005912871100008488,-0.918402373790741,0.325970858335495,1.2649965286254883,0.004386968910694122,0.9470130205154419,0.11692225188016891,-0.5579079985618591,0.02536812424659729,-0.021553369238972664,0.8493552803993225,-0.39728033542633057,-0.021689509972929955,-0.7970931529998779,-0.008964675478637218,-0.16269932687282562,1.407454013824463,-0.48979589343070984,0.013507820665836334,-0.26725661754608154,0.11669158935546875,-3.2691757678985596,-0.008444161154329777,0.0034366368781775236,-0.08123887330293655,3.9009077548980713,-0.10187911987304688,-0.025778407230973244,-0.14549720287322998,-1.0761542320251465,2.335344076156616,0.7287160754203796,0.6423600316047668,-0.8588848114013672,-2.0057921409606934,-0.6658769845962524,-2.932680130004883,-0.8009217977523804,-0.026194406673312187,-2.771733045578003,-0.9000283479690552,0.7019723653793335,1741432210.7881563,1741432211059,2.0921184082031252,0.4387515869140625,0.58208095325189,3.430948486328125,0.32326956176757815
1741432210.8463614,0.0696113109588623,0.014825112040110257,0.00561417524227832,-0.9998743406495375,0.15299829840660095,0.01951768808066845,0.09208347648382187,3.148843765258789,0.27080750465393066,6.291323184967041,-0.10280799865722656,0.4182882308959961,-0.08869306743144989,-1.2394375801086426,0.005912871100008488,-0.9279392957687378,0.3892957866191864,1.2669038772583008,0.005149920005351305,0.9428167939186096,0.10051880776882172,-0.5033569931983948,0.040245670825242996,-0.0078202486038208,0.8321889042854309,-0.43655624985694885,-0.03051605634391308,-0.8432517051696777,-0.02994582988321781,-0.1672770231962204,1.3235293626785278,-0.48154333233833313,0.0081249438226223,-0.16563506424427032,-0.04315093159675598,-2.9959328174591064,0.013523687608540058,-0.0460829995572567,-0.6461357474327087,4.513419151306152,0.15488994121551514,0.03227508068084717,-0.3403577208518982,-0.7472428679466248,3.134305000305176,0.6737363338470459,0.6070709228515625,-0.8138413429260254,-1.8923630714416504,-0.28629758954048157,-2.2142434120178223,-1.0525293350219727,-0.3223930895328522,-4.251082897186279,0.7253205180168152,-0.20666669309139252,1741432210.7881563,1741432211059,2.0921184082031252,0.4387515869140625,0.58208095325189,3.430948486328125,0.32326956176757815
1741432210.866396,0.0690000057220459,0.017439554144232015,0.0036736471978716318,-0.9998411705203563,0.08272349089384079,0.09931212663650513,-0.025886448100209236,-3.9092273712158203,-3.528362989425659,8.574889183044434,-0.10471534729003906,0.4194326400756836,-0.12493324279785156,-1.2379117012023926,0.005912871100008488,-0.9420538544654846,0.44460976123809814,1.2642335891723633,0.005149920005351305,0.9332799315452576,0.09937438368797302,-0.4533836841583252,0.04444190114736557,-0.002861066721379757,0.8039597272872925,-0.4714457094669342,-0.033349912613630295,-0.8634698987007141,-0.06275273114442825,-0.17071031033992767,1.2205309867858887,-0.4429660141468048,0.009870805777609348,-0.07448223978281021,0.03622882440686226,-1.5898526906967163,0.09431357681751251,-0.016914449632167816,-0.7000455260276794,3.3708269596099854,-0.25051137804985046,0.02976665273308754,-0.6233036518096924,0.05610731616616249,2.308525562286377,0.04960854351520538,0.1975976824760437,-1.3814541101455688,-1.70046865940094,-0.20176294445991516,-0.6845558881759644,-1.7056810855865479,-0.19735845923423767,-5.338167190551758,2.058091163635254,0.07058044523000717,1741432210.7881563,1741432211059,2.0921184082031252,0.4387515869140625,0.58208095325189,3.430948486328125,0.32326956176757815
1741432210.8864212,0.06864786148071289,0.02519996589337875,0.0030813801219612743,-0.9996776814631386,0.0417749248445034,0.40997397899627686,-0.06617575138807297,7.154094219207764,0.4140756130218506,5.267219543457031,-0.10776710510253906,0.4133291244506836,-0.13942931592464447,-1.2363858222961426,0.005912871100008488,-0.9584572911262512,0.47741663455963135,1.2638521194458008,0.005149920005351305,0.9252689480781555,0.12149996310472488,-0.39768826961517334,0.043678950518369675,-0.012779430486261845,0.7848859429359436,-0.5008925199508667,-0.03070707619190216,-0.8653773069381714,-0.10090028494596481,-0.1817730963230133,1.0908293724060059,-0.3972269594669342,0.006589908618479967,-0.0857023075222969,-0.1473800390958786,-0.5716806054115295,0.08365067839622498,-0.009432544000446796,-0.7837677001953125,2.076122760772705,-0.028639832511544228,0.02137729525566101,-0.5888774991035461,1.2928617000579834,2.7541773319244385,0.004021758679300547,-0.6288043260574341,-1.032103419303894,-1.4394100904464722,0.28783556818962097,-0.016401519998908043,-1.9657443761825562,-0.6577359437942505,-6.6814351081848145,2.2969748973846436,-0.23186391592025757,1741432210.7881563,1741432211059,2.0921184082031252,0.4387515869140625,0.58208095325189,3.430948486328125,0.32326956176757815
1741432210.9064426,0.06053268909454346,0.02517491567798773,0.000501511622090501,-0.9996829357884924,0.11824909597635269,-0.02923169732093811,-0.3730822503566742,5.6936540603637695,3.7524895668029785,4.685765743255615,-0.10891151428222656,0.4198141098022461,-0.12340734153985977,-1.235241413116455,0.005912871100008488,-0.968757152557373,0.48962387442588806,1.2596558332443237,0.00476844422519207,0.9180209040641785,0.1516365259885788,-0.3381780683994293,0.03376058489084244,-0.03032730519771576,0.7585641145706177,-0.51819908618927,-0.016884291544556618,-0.84744793176651,-0.1359960287809372,-0.20962081849575043,0.9515907764434814,-0.3520055115222931,-3.3738491765689105e-05,-0.06052645668387413,0.13207188248634338,1.0150690078735352,0.09399831295013428,-0.004933435935527086,-0.42363181710243225,0.585895299911499,-0.3103190064430237,-0.020633790642023087,-0.44066911935806274,1.5078659057617188,3.2669661045074463,-0.644944965839386,-0.7968892455101013,-1.2993128299713135,-0.6445491313934326,0.5098533630371094,1.0526013374328613,-1.6116026639938354,-1.6260411739349365,-6.946131706237793,2.15169095993042,-0.25337231159210205,1741432210.7881563,1741432211059,2.0921184082031252,0.4387515869140625,0.58208095325189,3.430948486328125,0.32326956176757815
1741432210.926502,0.047617554664611816,0.019485359840700267,-0.004956633367597692,-0.9997978558376377,0.2979406714439392,-0.3289774954319,-0.6545924544334412,-1.9147861003875732,-1.526556372642517,9.094799995422363,-0.10967445373535156,0.4400320053100586,-0.08373387902975082,-1.231808066368103,0.005912871100008488,-0.969520092010498,0.4858091175556183,1.2524077892303467,0.00476844422519207,0.9130617380142212,0.17414358258247375,-0.2725642919540405,0.009346150793135166,-0.0394827201962471,0.7406347990036011,-0.507172167301178,-0.03717503324151039,-0.8119707107543945,-0.16422522068023682,-0.24090181291103363,0.8180742859840393,-0.3296147286891937,-0.009120176546275616,-0.018906207755208015,0.5794564485549927,2.120847225189209,0.2495565265417099,-0.0011409217258915305,0.0090187918394804,-0.4032098948955536,-0.5859553813934326,-0.010679985396564007,-0.30738046765327454,1.07041597366333,3.354349136352539,-1.1326318979263306,-0.2238697111606598,-0.651001513004303,0.6879485845565796,-1.0474827289581299,1.7651017904281616,-1.375171422958374,-1.5548175573349,-6.589217662811279,0.8114374876022339,-0.421755313873291,1741432210.7881563,1741432211059,2.0921184082031252,0.4387515869140625,0.58208095325189,3.430948486328125,0.32326956176757815
1741432210.9464645,0.03273022174835205,0.011389598787749713,-0.01628857836851452,-0.9998024601160905,0.6860658526420593,-0.4071498513221741,-0.7572834491729736,-1.0333375930786133,1.4464274644851685,27.31604766845703,-0.11577796936035156,0.4583425521850586,-0.028038453310728073,-1.226467490196228,0.005912871100008488,-0.9657053351402283,0.4648279547691345,1.2440153360366821,0.004386968910694122,0.9126802682876587,0.1813916265964508,-0.22335393726825714,0.007057297509163618,-0.04711223021149635,0.7581826448440552,-0.4962451159954071,-0.03232714906334877,-0.7875562906265259,-0.17681391537189484,-0.2576867341995239,0.7413977384567261,-0.316411554813385,-0.02196694165468216,-0.13957180082798004,0.5809776782989502,2.6748340129852295,0.3372935652732849,-0.0009054674883373082,0.2288818359375,-1.5298582315444946,-0.567459762096405,0.002657140139490366,-0.020383372902870178,0.22864913940429688,2.3488638401031494,0.27091309428215027,-0.5836925506591797,1.4287645816802979,0.48519566655158997,0.28818532824516296,0.8962873220443726,-0.2725692391395569,-0.7819004654884338,-2.200380802154541,0.958178699016571,-0.721347987651825,1741432210.7881563,1741432211059,2.0921184082031252,0.4387515869140625,0.58208095325189,3.430948486328125,0.32326956176757815
1741432210.9700868,0.019202113151550293,0.007851663394378062,-0.026450614842615607,-0.9996192857065078,0.36986711621284485,0.04778963699936867,-0.6706268191337585,0.6268462538719177,-3.6304876804351807,6.086999893188477,-0.13027381896972656,0.4682607650756836,0.03757534176111221,-1.2291377782821655,0.006294346414506435,-0.9588387608528137,0.42668038606643677,1.235241413116455,0.004386968910694122,0.9103913903236389,0.1668955534696579,-0.21152819693088531,0.0078202486038208,-0.05359731614589691,0.8268482685089111,-0.4766812324523926,-0.023194538429379463,-0.7436865568161011,-0.14705882966518402,-0.24128328263759613,0.80510413646698,-0.30478447675704956,-0.03992211073637009,-0.44430166482925415,0.25615447759628296,3.2955899238586426,-0.34046241641044617,0.0007067823316901922,0.2624671459197998,-2.81103515625,-0.5072507262229919,0.006472222972661257,-0.09193401783704758,-0.8654628396034241,0.17745842039585114,-0.22244514524936676,-0.2510771155357361,3.9008898735046387,1.2543147802352905,0.5453157424926758,2.120095729827881,1.3845733404159546,1.333613395690918,2.8978497982025146,0.17615830898284912,-0.8586467504501343,1741432210.7881563,1741432211059,2.0921184082031252,0.4387515869140625,0.58208095325189,3.430948486328125,0.32326956176757815
1741432210.9865332,0.011651277542114258,0.009866740642945468,-0.027831008298123627,-0.9995639461316091,0.10515657812356949,0.043786171823740005,-0.30425557494163513,-8.112571716308594,1.7987428903579712,15.34656047821045,-0.15697765350341797,0.48199462890625,0.10433356463909149,-1.2356228828430176,0.006294346414506435,-0.955024003982544,0.36259251832962036,1.238293170928955,0.005531395319849253,0.9138246774673462,0.1489662081003189,-0.25196459889411926,-0.004005493130534887,-0.08030059933662415,0.951209306716919,-0.4346562623977661,-0.011358310468494892,-0.7318608164787292,-0.11539635062217712,-0.18825818598270416,0.8093003630638123,-0.3160581588745117,-0.04723087698221207,-0.6284646987915039,0.42548471689224243,3.138570547103882,-0.37220513820648193,-0.01684272661805153,0.2233751118183136,-4.435667514801025,0.23264676332473755,0.10362473875284195,0.26217034459114075,-0.6475359201431274,-2.5634539127349854,-0.7002910375595093,-1.7892667055130005,6.666620254516602,2.148085832595825,0.7455136179924011,0.9430361390113831,1.7871711254119873,2.5707616806030273,-0.04771525412797928,-0.45321527123451233,-0.27118587493896484,1741432210.7881563,1741432211059,2.0921184082031252,0.4387515869140625,0.58208095325189,3.430948486328125,0.32326956176757815
1741432211.0065632,0.011829257011413574,0.014896711662631972,-0.020802054111465212,-0.999672627676873,-0.4451657831668854,0.26578396558761597,0.06011081486940384,-0.25304538011550903,-2.001981735229492,10.023577690124512,-0.18177318572998047,0.5018310546875,0.1665140837430954,-1.2409635782241821,0.006294346414506435,-0.9496833682060242,0.290875107049942,1.2447782754898071,0.005531395319849253,0.9134432077407837,0.13828489184379578,-0.33436331152915955,-0.03643091395497322,-0.13065537810325623,1.1224918365478516,-0.3866554796695709,-0.002421213313937187,-0.6979095339775085,-0.08297093212604523,-0.16041046380996704,0.8161669373512268,-0.31392115354537964,-0.0438198521733284,-0.8734211325645447,0.6152788996696472,2.9821431636810303,-0.3565219044685364,-0.006759813521057367,0.2740088999271393,-4.850944519042969,0.47520098090171814,-0.011614278890192509,-0.040694355964660645,-0.4405049979686737,-4.54692268371582,-1.7831547260284424,-2.5576040744781494,8.894210815429688,2.39849591255188,0.342303991317749,1.7938368320465088,1.5033602714538574,1.3178322315216064,0.4173505902290344,0.07119201868772507,0.05686009302735329,1741432211.188937,1741432211459,2.54017236328125,0.4380059814453125,0.42261647254911217,3.337697509765625,-0.0596806869506836
1741432211.026552,0.02573239803314209,0.012782314071497991,-0.006364441950107488,-0.999898047965712,-0.6831845641136169,-0.14598292112350464,0.7317799925804138,-0.10137253254652023,2.1653387546539307,11.198091506958008,-0.19283580780029297,0.5395975112915039,0.22335393726825714,-1.2443968057632446,0.006294346414506435,-0.9462500810623169,0.21839475631713867,1.2524077892303467,0.005912871100008488,0.9138246774673462,0.1356145590543747,-0.44193941354751587,-0.07991912961006165,-0.15964750945568085,1.2930114269256592,-0.3585624694824219,0.008167161606252193,-0.6601434350013733,-0.06847485899925232,-0.15430685877799988,0.8134965896606445,-0.31678274273872375,-0.035336218774318695,-0.35747742652893066,1.0087575912475586,2.911898374557495,-0.2789202928543091,-0.00859686266630888,0.1262476146221161,-4.796633243560791,0.44188523292541504,0.02997754141688347,0.024557089433073997,-0.0919615849852562,-5.49008846282959,-2.110992193222046,-1.0934535264968872,8.038690567016602,0.991344153881073,0.6347976326942444,1.9824211597442627,0.6211847066879272,0.10184288024902344,-0.2660171389579773,-0.16241306066513062,0.536783754825592,1741432211.188937,1741432211459,2.54017236328125,0.4380059814453125,0.42261647254911217,3.337697509765625,-0.0596806869506836
1741432211.0465941,0.04310810565948486,0.008519003498984906,0.0033563838361933755,-0.9999580797548108,-0.4654588997364044,-0.21427495777606964,0.9062630534172058,-0.23975421488285065,2.6413092613220215,8.043146133422852,-0.19703197479248047,0.5598154067993164,0.2805752754211426,-1.2508819103240967,0.006294346414506435,-0.9431982636451721,0.1493476778268814,1.2527892589569092,0.00476844422519207,0.9149690866470337,0.1340886503458023,-0.5525673031806946,-0.11081864684820175,-0.14820325374603271,1.418135404586792,-0.3747929036617279,0.01576666161417961,-0.612077534198761,-0.06580453366041183,-0.15697719156742096,0.8062485456466675,-0.31647124886512756,-0.030409885570406914,-0.14369888603687286,0.6276135444641113,3.0481486320495605,-0.4571722447872162,0.004187403712421656,0.16603675484657288,-4.623213768005371,-0.09170223772525787,-0.07286607474088669,0.07063089311122894,-0.05302709713578224,-5.502224445343018,-1.3728357553482056,0.8758594989776611,5.750239849090576,-1.1328387260437012,0.2622203230857849,2.520460844039917,0.05542465299367905,-0.10284390300512314,-0.2874606251716614,0.10042969882488251,0.22899620234966278,1741432211.188937,1741432211459,2.54017236328125,0.4380059814453125,0.42261647254911217,3.337697509765625,-0.0596806869506836
1741432211.0665853,0.0627143383026123,0.003888079879265371,0.005551350142880983,-0.9999770324094667,-0.023554274812340736,-0.2489924281835556,0.9518037438392639,0.3351987898349762,3.3574674129486084,8.407417297363281,-0.19893932342529297,0.5987262725830078,0.3374151289463043,-1.2554595470428467,0.006294346414506435,-0.9374761581420898,0.08449683338403702,1.2470670938491821,0.0036240178160369396,0.917639434337616,0.1348516047000885,-0.6586175560951233,-0.12188144028186798,-0.11196307092905045,1.4780269861221313,-0.4204486310482025,0.01057023648172617,-0.5685893297195435,-0.06198977679014206,-0.15392538905143738,0.7993820309638977,-0.3129325211048126,-0.019795669242739677,-0.0554770790040493,1.2584154605865479,2.70013689994812,-0.3691937327384949,-0.002241655485704541,0.31360650062561035,-4.2966227531433105,-0.40767598152160645,-0.08486725389957428,0.1706017553806305,-0.030866211280226707,-5.370974063873291,-0.5461866855621338,1.8269909620285034,2.4796864986419678,-2.3915069103240967,-0.4080689251422882,2.1147778034210205,0.3117813766002655,0.23404808342456818,-0.40796715021133423,0.09351194649934769,0.42474496364593506,1741432211.188937,1741432211459,2.54017236328125,0.4380059814453125,0.42261647254911217,3.337697509765625,-0.0596806869506836
1741432211.0866337,0.07234454154968262,0.0013083372956310235,0.0020470456999743345,-0.999997048924357,0.16516198217868805,-0.09068463742733002,0.4524761736392975,-2.804596424102783,3.8981659412384033,9.583909034729004,-0.20313549041748047,0.6242847442626953,0.3850995600223541,-1.2600373029708862,0.006294346414506435,-0.9367132186889648,0.031090257689356804,1.2379117012023926,0.0036240178160369396,0.9195467829704285,0.14019227027893066,-0.7547493577003479,-0.12760357558727264,-0.06046387553215027,1.4707789421081543,-0.46627119183540344,-0.0048431651666760445,-0.5277714133262634,-0.05130846053361893,-0.14515145123004913,0.7951858043670654,-0.3258674144744873,-0.01545795053243637,-0.17911897599697113,0.9074760675430298,2.2965776920318604,-0.15784813463687897,-0.008786981925368309,-0.03599770367145538,-3.42952823638916,-0.6365587711334229,0.02949156053364277,0.15021520853042603,0.3991696834564209,-4.765212059020996,-0.2776881456375122,2.4548466205596924,-0.8959419131278992,-2.155947208404541,-0.7703682780265808,1.9565173387527466,0.5261083841323853,0.4305154085159302,-0.10815616697072983,-0.8335709571838379,0.314914345741272,1741432211.188937,1741432211459,2.54017236328125,0.4380059814453125,0.42261647254911217,3.337697509765625,-0.0596806869506836
1741432211.106622,0.07120311260223389,0.003182580909835005,-0.0033396595839868663,-0.9999893588696909,0.2813962697982788,0.10344289988279343,-0.05574218928813934,1.9842314720153809,-3.740593194961548,11.428771018981934,-0.21229076385498047,0.6574735641479492,0.4201953113079071,-1.2615631818771362,0.00667582219466567,-0.9382390975952148,-0.016594186425209045,1.232571005821228,0.0036240178160369396,0.9229800701141357,0.1508735716342926,-0.8314259648323059,-0.12798504531383514,-0.02689402550458908,1.4040207862854004,-0.482099711894989,-0.012350013479590416,-0.507553219795227,-0.048638131469488144,-0.14400701224803925,0.7982375621795654,-0.3646705150604248,-0.02060079015791416,-0.27139347791671753,1.0284619331359863,1.7664289474487305,-0.1302291601896286,0.04360199719667435,-0.03602910786867142,-3.351945638656616,-0.24236127734184265,-0.012194416485726833,0.2940995991230011,0.4351517856121063,-3.6417129039764404,-0.02470674365758896,1.4716145992279053,-3.865790605545044,-0.42776262760162354,-0.2758442759513855,0.737989604473114,0.09404715150594711,-0.04848543927073479,0.16477875411510468,-2.168456554412842,-0.24676816165447235,1741432211.188937,1741432211459,2.54017236328125,0.4380059814453125,0.42261647254911217,3.337697509765625,-0.0596806869506836
1741432211.1266527,0.07291758060455322,0.013317911179924037,-0.0077205676081035495,-0.9998815060183944,0.19233639538288116,0.6171340942382812,0.12732228636741638,-1.1822291612625122,3.8619813919067383,8.960407257080078,-0.23212814331054688,0.6803617477416992,0.4549095928668976,-1.2661409378051758,0.005912871100008488,-0.9351872801780701,-0.06961929053068161,1.2306636571884155,0.004005493130534887,0.9336614012718201,0.14553292095661163,-0.881017804145813,-0.12760357558727264,-0.010872052982449532,1.2899595499038696,-0.4557991027832031,-0.01403119508177042,-0.4861905872821808,-0.05207141116261482,-0.14438849687576294,0.8093003630638123,-0.4131614863872528,-0.021999385207891464,-0.5905265212059021,0.6917022466659546,1.7156152725219727,-0.23410025238990784,-0.014854490756988525,0.10941896587610245,-3.187309980392456,-0.18578027188777924,0.0158124640583992,0.7372344732284546,-0.3054143190383911,-2.1497461795806885,0.08075657486915588,0.5295065641403198,-5.913651466369629,1.6104347705841064,-0.07272795587778091,1.0581979751586914,-0.1662634164094925,0.04379605874419212,0.5276282429695129,-2.3903982639312744,0.10921638458967209,1741432211.188937,1741432211459,2.54017236328125,0.4380059814453125,0.42261647254911217,3.337697509765625,-0.0596806869506836
1741432211.146643,0.0694347620010376,0.02867036778860525,-0.012595280256218564,-0.9995095641994295,0.2621411979198456,0.7320575714111328,-0.19766288995742798,-0.6648896932601929,-0.5647446513175964,6.854850769042969,-0.24586105346679688,0.7040128707885742,0.47550925612449646,-1.2642335891723633,0.006294346414506435,-0.9294651746749878,-0.1031891331076622,1.227230429649353,0.0032425422687083483,0.9466315507888794,0.1337071806192398,-0.9058136940002441,-0.1180666834115982,-0.012779430486261845,1.1366063356399536,-0.4112470746040344,-0.0099722221493721,-0.4678797721862793,-0.04749370738863945,-0.13828489184379578,0.8157854676246643,-0.4560788869857788,-0.018859509378671646,-0.39735516905784607,0.7054733633995056,0.9424514174461365,0.06931879371404648,0.00012082806642865762,0.3407686948776245,-2.1831061840057373,-0.24056391417980194,-0.005863329395651817,0.7384864091873169,-0.7356858253479004,-1.170913577079773,0.5954062342643738,-0.15849988162517548,-7.75001335144043,2.240654468536377,0.2702144682407379,0.9608770608901978,0.31240126490592957,0.3932769000530243,0.32444486021995544,-2.0936405658721924,0.13425728678703308,1741432211.188937,1741432211459,2.54017236328125,0.4380059814453125,0.42261647254911217,3.337697509765625,-0.0596806869506836
1741432211.1667407,0.0637589693069458,0.043336152136913345,-0.015369093597597326,-0.9989423251018822,0.12278721481561661,0.7597901821136475,-0.29724350571632385,5.575372219085693,-1.1313509941101074,6.276580810546875,-0.2599754333496094,0.7238502502441406,0.47932401299476624,-1.2642335891723633,0.006294346414506435,-0.9195467829704285,-0.11463340371847153,1.226467490196228,0.0036240178160369396,0.9554055333137512,0.1192111074924469,-0.9004730582237244,-0.09594109654426575,-0.010109102353453636,0.9641794562339783,-0.3635176420211792,-0.0015736115165054798,-0.440032035112381,-0.03223468363285065,-0.12340734153985977,0.8215075731277466,-0.49495065212249756,-0.01827506721019745,-0.4533342123031616,0.5954745411872864,0.022569717839360237,0.036125849932432175,0.0053188069723546505,0.45134806632995605,-0.5297791361808777,-0.022049473598599434,0.0062797474674880505,0.5247651934623718,-0.6669389009475708,0.4472396969795227,1.1299413442611694,0.3605545461177826,-8.652375221252441,2.316406726837158,0.45322415232658386,1.5642942190170288,0.9494412541389465,0.7181248664855957,0.28067660331726074,-1.9383537769317627,0.02679435908794403,1741432211.188937,1741432211459,2.54017236328125,0.4380059814453125,0.42261647254911217,3.337697509765625,-0.0596806869506836
1741432211.186709,0.056149840354919434,0.05026465598683177,-0.011880990541561155,-0.9986652624489734,-0.19483201205730438,0.2293456792831421,-0.42072194814682007,4.688629627227783,-2.305305004119873,4.402935028076172,-0.2733268737792969,0.7490272521972656,0.4716945290565491,-1.2630890607833862,0.006294346414506435,-0.9122987985610962,-0.1031891331076622,1.226467490196228,0.0036240178160369396,0.9576943516731262,0.11234454810619354,-0.8802548050880432,-0.07572289556264877,0.013923857361078262,0.8112077713012695,-0.3310299813747406,0.0065618762746453285,-0.4060807228088379,-0.002861066721379757,-0.12188144028186798,0.8226520419120789,-0.5173903703689575,-0.00036932117654941976,-0.39443540573120117,0.7586638927459717,-0.4284478425979614,0.10606314241886139,-0.006098645273596048,0.368660569190979,0.9759283661842346,-0.0021204750519245863,0.014318238943815231,0.10415076464414597,-0.26784074306488037,1.0365583896636963,0.9915696382522583,1.3521569967269897,-7.229065418243408,1.350378394126892,0.42161497473716736,1.8244099617004395,1.612865924835205,-0.19436009228229523,0.06988546252250671,-0.791306734085083,1.0830473899841309,1741432211.188937,1741432211459,2.54017236328125,0.4380059814453125,0.42261647254911217,3.337697509765625,-0.0596806869506836
1741432211.2067583,0.05050671100616455,0.04998414822335344,-0.003164036744357161,-0.9987449993856621,-0.46347397565841675,-0.03140462189912796,-0.3069913983345032,14.975631713867188,8.13879108428955,16.091215133666992,-0.2950716018676758,0.7658119201660156,0.4510948359966278,-1.2581299543380737,0.005912871100008488,-0.9111543297767639,-0.06923781335353851,1.2268489599227905,0.0036240178160369396,0.9580758213996887,0.12226291000843048,-0.8592736721038818,-0.04482337832450867,0.02689402550458908,0.7314793467521667,-0.3131552040576935,0.010535955429077148,-0.3583962619304657,0.015449759550392628,-0.13866636157035828,0.8405813574790955,-0.5146408081054688,-0.01613440364599228,-0.6182867884635925,0.4970107078552246,-1.2251977920532227,0.4104759097099304,-0.00402788957580924,-0.00926173571497202,2.4281346797943115,0.006729707587510347,-0.00012131760740885511,-0.007672381587326527,0.5902299880981445,1.0019186735153198,1.309212565422058,0.38179105520248413,-2.6510324478149414,1.0075442790985107,0.10785218328237534,2.4180870056152344,0.6292598247528076,-0.7944604158401489,1.3042410612106323,0.2776089906692505,-1.2869129180908203,1741432211.188937,1741432211459,2.54017236328125,0.4380059814453125,0.42261647254911217,3.337697509765625,-0.0596806869506836
1741432211.226752,0.046841979026794434,0.043912806559711984,0.007550514416468085,-0.9990068343870806,-0.4630887806415558,-0.1868726760149002,-0.16269193589687347,0.8394715785980225,4.583648681640625,7.079878807067871,-0.3099489212036133,0.786412239074707,0.41409170627593994,-1.2482116222381592,0.005912871100008488,-0.9100099205970764,-0.02231631986796856,1.233715534210205,0.0036240178160369396,0.9538795948028564,0.14171816408634186,-0.8268482685089111,-0.03223468363285065,0.0032425422687083483,0.7906080484390259,-0.29302453994750977,0.015478712506592274,-0.3423742949962616,0.010872052982449532,-0.15926603972911835,0.8978027105331421,-0.499399334192276,-0.03385049104690552,-0.4622687101364136,0.5442642569541931,-2.071622371673584,0.6669982671737671,-0.01347511075437069,0.02055443450808525,3.291405200958252,0.6727273464202881,0.003262221347540617,-0.299405574798584,1.2806564569473267,1.3086820840835571,0.6783329248428345,-1.4773555994033813,2.764677047729492,0.6616485118865967,0.22479356825351715,0.5721662640571594,-0.1585734784603119,-1.0831934213638306,3.169423818588257,0.9318715333938599,-0.7613171339035034,1741432211.188937,1741432211459,2.54017236328125,0.4380059814453125,0.42261647254911217,3.337697509765625,-0.0596806869506836
1741432211.2467813,0.041715383529663086,0.040815743168147525,0.011607027875153655,-0.9990992703498172,-0.24430280923843384,-0.24819044768810272,-0.3945750296115875,-6.786848068237305,-4.4922990798950195,14.478693962097168,-0.3137636184692383,0.8005266189575195,0.34580758213996887,-1.2489745616912842,0.00667582219466567,-0.9100099205970764,0.037193864583969116,1.2440153360366821,0.004386968910694122,0.9466315507888794,0.164988175034523,-0.8070115447044373,-0.03643091395497322,-0.03528648987412453,0.8142595291137695,-0.29734110832214355,0.010709664784371853,-0.3732738196849823,0.01125352829694748,-0.17757686972618103,1.0137712955474854,-0.46104535460472107,-0.042216457426548004,-0.15820953249931335,0.4228053092956543,-3.5433273315429688,-0.20503845810890198,-0.006247040815651417,-0.006550215184688568,4.042223930358887,0.6084017753601074,0.06736692041158676,-0.6070166826248169,0.9592881202697754,1.4707180261611938,-0.5919179916381836,-1.6936004161834717,1.0534881353378296,-0.13729777932167053,-0.3724954426288605,-1.882637858390808,-0.08382908254861832,-0.5717872977256775,6.298091411590576,2.0385313034057617,-0.3504815399646759,1741432211.188937,1741432211459,2.54017236328125,0.4380059814453125,0.42261647254911217,3.337697509765625,-0.0596806869506836
1741432211.266818,0.02752840518951416,0.03608817248698285,0.018567155405025647,-0.999176112878363,-0.22448284924030304,-0.273774653673172,-0.7816230058670044,-2.923856735229492,-0.27086034417152405,12.144043922424316,-0.3225374221801758,0.8157854080200195,0.26798656582832336,-1.2516448497772217,0.005912871100008488,-0.9061951637268066,0.08945601433515549,1.2558410167694092,0.004386968910694122,0.9351872801780701,0.1813916265964508,-0.7726787328720093,-0.04253452271223068,-0.058175019919872284,0.8302815556526184,-0.2953530550003052,0.007920129224658012,-0.44308385252952576,0.0013351644156500697,-0.1813916265964508,1.1633096933364868,-0.419200599193573,-0.03789639100432396,-0.2112821340560913,0.5263400077819824,-3.779736042022705,-0.11270745098590851,0.02888721413910389,0.28181201219558716,3.544208526611328,0.8334622383117676,0.010548933409154415,-0.8038055896759033,0.9038115739822388,1.4717977046966553,-0.11928555369377136,-1.2375426292419434,0.8222660422325134,0.15342314541339874,0.03454601764678955,-3.6312637329101562,-0.3731560707092285,-0.2420855015516281,7.504835605621338,1.9214991331100464,0.5854410529136658,1741432211.188937,1741432211459,2.54017236328125,0.4380059814453125,0.42261647254911217,3.337697509765625,-0.0596806869506836
1741432211.2868068,-0.00013267993927001953,0.031037294406034286,0.018669932081094763,-0.9993438447261485,0.013863606378436089,-0.19829049706459045,-1.4080764055252075,5.148259162902832,-2.1091220378875732,8.082117080688477,-0.3290224075317383,0.8127336502075195,0.19474326074123383,-1.2516448497772217,0.005912871100008488,-0.8939879536628723,0.14133669435977936,1.2638521194458008,0.004386968910694122,0.9195467829704285,0.20084688067436218,-0.7322422862052917,-0.03490501269698143,-0.06733043491840363,0.8421072959899902,-0.28883010149002075,1.064027765096398e-05,-0.5273899435997009,0.0009536888683214784,-0.1989395022392273,1.3067444562911987,-0.4005928933620453,-0.001114959828555584,-0.20212560892105103,-0.002833289559930563,-3.7256481647491455,0.02664300426840782,-0.011588627472519875,0.6154029369354248,3.3799874782562256,0.5440950393676758,-0.005282627884298563,-1.0824320316314697,0.8200439810752869,2.153116226196289,0.4701055884361267,-0.23840783536434174,0.3642854392528534,0.38055476546287537,-0.4687255322933197,-3.952509641647339,-0.13974083960056305,-0.8624321818351746,6.8843674659729,0.6128426194190979,1.7136826515197754,1741432211.188937,1741432211459,2.54017236328125,0.4380059814453125,0.42261647254911217,3.337697509765625,-0.0596806869506836
1741432211.3068209,-0.030005335807800293,0.02162323176846904,0.020016475773036425,-0.9995657940053343,-0.025165347382426262,-0.5009830594062805,-1.4815791845321655,-4.069521903991699,1.6163040399551392,11.290553092956543,-0.3507671356201172,0.816166877746582,0.12340734153985977,-1.2512633800506592,0.005912871100008488,-0.8772030472755432,0.19245441257953644,1.2703371047973633,0.004386968910694122,0.8993285894393921,0.21229113638401031,-0.6822690367698669,-0.014686808921396732,-0.06618601083755493,0.8329518437385559,-0.27550503611564636,-0.006131585221737623,-0.6078813076019287,-0.005531395319849253,-0.21000228822231293,1.3998245000839233,-0.4211117923259735,-0.007655493449419737,-0.6180400252342224,0.1150127723813057,-3.4071691036224365,0.008864114992320538,-0.008741249330341816,0.85496586561203,3.5470690727233887,0.32473236322402954,-0.0006193227018229663,-1.3969767093658447,0.5914638042449951,2.4270715713500977,1.0623692274093628,0.10746407508850098,-0.5092825293540955,0.7644277811050415,-0.2123400717973709,-3.6174709796905518,-0.4304479956626892,-0.4666987955570221,4.188488483428955,-1.254285454750061,-0.5674121975898743,1741432211.3896391,1741432211659,2.758146240234375,0.43984033203125,0.399669055418856,3.3253991699218752,-0.17553726196289063
1741432211.3269796,-0.06186568737030029,0.012406159438160801,0.01989349955835309,-0.9997251301649454,0.045716542750597,-0.39336082339286804,-1.612688422203064,-0.26150184869766235,-7.076680660247803,12.752480506896973,-0.3706035614013672,0.8089189529418945,0.06275273114442825,-1.2516448497772217,0.005912871100008488,-0.8581292629241943,0.2462424635887146,1.2707185745239258,0.004386968910694122,0.8749141693115234,0.21152819693088531,-0.6269550919532776,0.005149920005351305,-0.06008239835500717,0.8260852694511414,-0.25928324460983276,-0.005574165377765894,-0.6727321147918701,-0.012779430486261845,-0.22678720951080322,1.4253833293914795,-0.4588809311389923,-0.00883632805198431,-0.5952865481376648,-0.1780286431312561,-2.931344985961914,-0.025387024506926537,-0.013964907266199589,0.9317077398300171,3.6120612621307373,0.004621059168130159,-0.001258519827388227,-1.636318564414978,-0.2055363804101944,2.7368757724761963,0.9143656492233276,0.3103320300579071,-0.2249816656112671,0.7089337706565857,0.15805509686470032,-3.0336523056030273,-0.4712328612804413,-0.7064601182937622,0.7534021139144897,-1.9070662260055542,0.2602498233318329,1741432211.3896391,1741432211659,2.758146240234375,0.43984033203125,0.399669055418856,3.3253991699218752,-0.17553726196289063
1741432211.3468542,-0.08179962635040283,0.0060240662448578265,0.018082433753111592,-0.999818351609652,0.11813538521528244,-0.262798935174942,-0.8905998468399048,0.013511193916201591,-0.9668352007865906,12.585236549377441,-0.3938732147216797,0.8058671951293945,0.01583123579621315,-1.2527892589569092,0.006294346414506435,-0.8360036611557007,0.2954528033733368,1.2722445726394653,0.0036240178160369396,0.8493552803993225,0.2138170450925827,-0.5838482975959778,0.016594186425209045,-0.049782559275627136,0.8253223299980164,-0.2671704888343811,-0.006292019039392471,-0.7234683632850647,-0.035667963325977325,-0.23403525352478027,1.3895246982574463,-0.4851859211921692,0.015184570103883743,-0.7033030986785889,-0.06392170488834381,-2.3542444705963135,-0.09968594461679459,0.0038373651914298534,1.0944968461990356,3.1321444511413574,0.13303853571414948,-0.05445579066872597,-1.7077937126159668,0.02765585668385029,2.0230557918548584,0.5068243145942688,0.6425555944442749,-0.06414834409952164,-0.6763214468955994,-0.004124279133975506,-2.5203285217285156,-1.1908708810806274,-0.33187979459762573,-2.2776246070861816,-1.0930054187774658,1.2012299299240112,1741432211.3896391,1741432211659,2.758146240234375,0.43984033203125,0.399669055418856,3.3253991699218752,-0.17553726196289063
1741432211.366873,-0.09791362285614014,0.005332225345200083,0.010794657374321035,-0.9999275187457534,0.41468364000320435,0.01165503915399313,-0.7610716223716736,-8.626696586608887,-7.2963128089904785,10.703590393066406,-0.4114217758178711,0.7906084060668945,-0.040245670825242996,-1.2577484846115112,0.006294346414506435,-0.8230335116386414,0.33283740282058716,1.2741519212722778,0.004005493130534887,0.8241779208183289,0.20542457699775696,-0.5472266674041748,0.028038453310728073,-0.045204851776361465,0.8127336502075195,-0.29937034845352173,-0.00997798889875412,-0.7597085237503052,-0.061226826161146164,-0.23632410168647766,1.3078888654708862,-0.48281896114349365,0.010642962530255318,-0.5759373307228088,-0.4487602114677429,-2.664010524749756,-0.39167433977127075,-0.0024068208876997232,0.49674004316329956,2.390777587890625,0.0789676234126091,0.0341489240527153,-1.6598460674285889,-0.548302948474884,1.98279869556427,0.5471497774124146,0.2109871655702591,-0.818488597869873,-1.6979272365570068,-0.17744161188602448,-1.6199244260787964,-1.2909095287322998,-0.11340530961751938,-4.21687126159668,0.39942994713783264,-0.37311041355133057,1741432211.3896391,1741432211659,2.758146240234375,0.43984033203125,0.399669055418856,3.3253991699218752,-0.17553726196289063
1741432211.386927,-0.10775554180145264,0.013231684827218895,0.0045154621240381205,-0.9999022617828403,0.27602002024650574,0.43724554777145386,-0.5449291467666626,3.667550802230835,-2.756502151489258,5.8514323234558105,-0.4320211410522461,0.7745857238769531,-0.07915617525577545,-1.2638521194458008,0.005912871100008488,-0.8184558153152466,0.36907759308815,1.2768222093582153,0.004005493130534887,0.7955672740936279,0.1966506391763687,-0.49229419231414795,0.03833829239010811,-0.038719769567251205,0.7909895181655884,-0.3392771780490875,-0.018092472106218338,-0.7791637778282166,-0.0864042118191719,-0.23937590420246124,1.202601671218872,-0.44690558314323425,0.007847592234611511,-0.6281417608261108,-0.4951896667480469,-1.831062912940979,-0.39416223764419556,-0.027790209278464317,0.2254393994808197,2.5460386276245117,0.2705583870410919,0.01584632508456707,-1.9394659996032715,-0.2699604332447052,2.641756057739258,0.495731920003891,0.32474035024642944,-1.1395965814590454,-2.056865930557251,-0.30396607518196106,-0.9169624447822571,-1.3418405055999756,-0.1885906308889389,-5.42820930480957,1.9853262901306152,-0.05875205993652344,1741432211.3896391,1741432211659,2.758146240234375,0.43984033203125,0.399669055418856,3.3253991699218752,-0.17553726196289063
1741432211.4069605,-0.12058734893798828,0.01993660224786748,0.002763443958541859,-0.9997974271162626,0.08202969282865524,0.3317190706729889,-0.6208508014678955,-0.7579856514930725,-0.7554513812065125,5.498886585235596,-0.4568166732788086,0.7658119201660156,-0.09212634712457657,-1.2676668167114258,0.005912871100008488,-0.8104447722434998,0.39845120906829834,1.2817814350128174,0.004005493130534887,0.7650492191314697,0.20428015291690826,-0.44193941354751587,0.045204851776361465,-0.029564354568719864,0.7703898549079895,-0.37560027837753296,-0.017869042232632637,-0.7883192300796509,-0.11730372905731201,-0.2454795092344284,1.0664149522781372,-0.4016426205635071,0.005125870928168297,-0.7588450312614441,-0.2416924238204956,-0.4642867147922516,-0.19433045387268066,-0.0018694974714890122,0.40748295187950134,1.6124056577682495,0.2958250343799591,-0.0002015511563513428,-1.9340909719467163,0.537264347076416,2.514918565750122,0.332283079624176,0.2570922374725342,-0.9037622213363647,-1.7227253913879395,-0.12067005783319473,-0.22032104432582855,-1.5931532382965088,-0.24242334067821503,-6.984496593475342,2.280533790588379,-0.26580220460891724,1741432211.3896391,1741432211659,2.758146240234375,0.43984033203125,0.399669055418856,3.3253991699218752,-0.17553726196289063
1741432211.426995,-0.13499999046325684,0.02521404860248016,0.00305951443909288,-0.9996773935247655,-0.005810747854411602,0.2512933313846588,-0.7332766652107239,1.918790578842163,-3.312434434890747,6.39113712310791,-0.47283935546875,0.7616157531738281,-0.08525978773832321,-1.2669038772583008,0.005912871100008488,-0.8031967878341675,0.4083695709705353,1.2859776020050049,0.004005493130534887,0.7398717999458313,0.22487983107566833,-0.39883267879486084,0.04100862145423889,-0.035667963325977325,0.7642862796783447,-0.3937509059906006,-0.02443641796708107,-0.7711527943611145,-0.14171816408634186,-0.2599755823612213,0.9203097820281982,-0.35239288210868835,-7.332138193305582e-05,-0.5176000595092773,-0.10723409801721573,0.5281583070755005,0.07913137972354889,-0.008822035975754261,0.3933688700199127,0.5365119576454163,0.3379582166671753,0.005196789279580116,-1.612313985824585,1.096447467803955,2.1709938049316406,-0.33210253715515137,-0.451602578163147,-0.1651197224855423,-0.6993966698646545,-0.4126594364643097,0.8991249799728394,-1.140688419342041,-0.9538434743881226,-7.235912799835205,2.42366886138916,-0.1474471092224121,1741432211.3896391,1741432211659,2.758146240234375,0.43984033203125,0.399669055418856,3.3253991699218752,-0.17553726196289063
1741432211.44703,-0.14988887310028076,0.026001082083353038,0.001357457466467361,-0.9996609930570071,0.16367840766906738,0.02854982390999794,-0.7293556928634644,0.8857496976852417,-2.2618205547332764,9.144607543945312,-0.4747467041015625,0.7604713439941406,-0.0558861680328846,-1.2627075910568237,0.005912871100008488,-0.7913710474967957,0.4076066315174103,1.2913182973861694,0.004005493130534887,0.7227054238319397,0.24929426610469818,-0.3622110188007355,0.01888304017484188,-0.04444190114736557,0.7810711860656738,-0.393777996301651,-0.026861200109124184,-0.7455939650535583,-0.16041046380996704,-0.28896772861480713,0.7711527943611145,-0.30119431018829346,-0.004112765192985535,-0.08723324537277222,-0.03328075632452965,1.631050944328308,0.2966700494289398,-0.009581061080098152,0.5673229694366455,-0.12252289056777954,0.35192614793777466,-0.0030278090853244066,-1.0753229856491089,1.222416877746582,1.8009756803512573,-1.3360397815704346,-0.4901691675186157,1.1230121850967407,-0.007905565202236176,-0.026760652661323547,1.3324083089828491,-0.9782903790473938,-1.397339105606079,-7.30320930480957,2.489243507385254,-0.23536720871925354,1741432211.3896391,1741432211659,2.758146240234375,0.43984033203125,0.399669055418856,3.3253991699218752,-0.17553726196289063
1741432211.4670393,-0.16489851474761963,0.023969731116570307,-0.005541279012859215,-0.9996973273031697,0.3811231255531311,-0.22054608166217804,-0.731329083442688,-1.489504098892212,1.2318047285079956,15.34561538696289,-0.4800872802734375,0.7639045715332031,-0.01430533267557621,-1.2627075910568237,0.005912871100008488,-0.7784008383750916,0.39463645219802856,1.290936827659607,0.004005493130534887,0.7124055624008179,0.2622644305229187,-0.3423742949962616,0.007438773289322853,-0.051689937710762024,0.8295185565948486,-0.39154428243637085,-0.02511182613670826,-0.7154573798179626,-0.16918440163135529,-0.31719690561294556,0.7043945789337158,-0.23225004971027374,-0.022557904943823814,-0.15966881811618805,0.07703007012605667,2.2307677268981934,-0.0705740749835968,-0.026438405737280846,0.6835039854049683,-0.9537544846534729,-0.07105062901973724,-0.002312301890924573,-0.7436110377311707,0.5268346071243286,0.648777425289154,-0.1886225938796997,-0.47912636399269104,2.5834639072418213,0.1898985207080841,0.18317686021327972,1.6227998733520508,0.1071014553308487,-1.3838534355163574,-1.8111027479171753,3.543274164199829,-0.8499139547348022,1741432211.3896391,1741432211659,2.758146240234375,0.43984033203125,0.399669055418856,3.3253991699218752,-0.17553726196289063
1741432211.4873016,-0.18212413787841797,0.020343543043126387,-0.009564464480828242,-0.9997472987088525,0.20207364857196808,-0.0540417842566967,-0.8129499554634094,-3.956782102584839,5.77502965927124,11.35463809967041,-0.5018310546875,0.7673377990722656,0.04406042397022247,-1.2672853469848633,0.005912871100008488,-0.7608529925346375,0.36678874492645264,1.2955145835876465,0.004386968910694122,0.7063019871711731,0.25349050760269165,-0.35152971744537354,0.008201723918318748,-0.05855649709701538,0.8989471197128296,-0.3700163960456848,-0.01694238930940628,-0.6597619652748108,-0.14019227027893066,-0.2977416515350342,0.7017242908477783,-0.18370841443538666,-0.03878805413842201,-0.6470553278923035,0.06546417623758316,3.2819864749908447,-0.3375014662742615,-0.007882524281740189,0.8654604554176331,-2.096665859222412,0.4142741858959198,0.025239087641239166,-0.265747606754303,-0.5004596710205078,-0.4273929297924042,-0.08738360553979874,-0.2798656225204468,3.625446081161499,1.3253109455108643,0.5394075512886047,2.8017637729644775,1.2782447338104248,1.6416066884994507,-0.6274454593658447,2.0676052570343018,-0.47379598021507263,1741432211.3896391,1741432211659,2.758146240234375,0.43984033203125,0.399669055418856,3.3253991699218752,-0.17553726196289063
1741432211.5070896,-0.1955016851425171,0.027067393043367402,-0.01439238312262306,-0.9995299973196841,0.2764865458011627,0.18462468683719635,-0.6227724552154541,-9.797971725463867,-10.76914119720459,12.571695327758789,-0.5262451171875,0.7608528137207031,0.1024261862039566,-1.2810184955596924,0.006294346414506435,-0.7417792081832886,0.3233005404472351,1.301999568939209,0.004386968910694122,0.7043945789337158,0.23708705604076385,-0.3881513774394989,0.0009536888683214784,-0.09021896868944168,0.9992752075195312,-0.3260364532470703,-0.00606379983946681,-0.6315327882766724,-0.10128175467252731,-0.23479819297790527,0.6795986890792847,-0.15690726041793823,-0.03120669350028038,-0.7024651765823364,-0.15463724732398987,2.777090549468994,-1.1540127992630005,0.0010137808276340365,0.941602349281311,-2.9445841312408447,0.3382624387741089,0.020746907219290733,-0.1793811172246933,-0.8674295544624329,-2.240244150161743,-0.5054850578308105,-1.9148579835891724,5.350033760070801,2.303602933883667,0.624131977558136,1.2872921228408813,1.9710220098495483,3.0137243270874023,-0.9721276164054871,1.2950917482376099,0.2182760387659073,1741432211.594328,1741432211859,2.9700090332031253,0.41015054321289063,0.28487033350425506,3.30000244140625,-0.2825644226074219
1741432211.52709,-0.20285844802856445,0.03351158802907752,-0.00864052345910091,-0.9994009779973811,-0.3579941689968109,0.3086605966091156,-0.34182456135749817,-6.501900672912598,1.1118992567062378,11.898796081542969,-0.5567636489868164,0.7787818908691406,0.15468832850456238,-1.2985663414001465,0.005912871100008488,-0.7242313027381897,0.2752346098423004,1.3073402643203735,0.004005493130534887,0.699816882610321,0.22144655883312225,-0.4484245181083679,-0.03604944050312042,-0.14057374000549316,1.1324101686477661,-0.2714836597442627,0.0028556452598422766,-0.6059738993644714,-0.05893797054886818,-0.19436179101467133,0.6830319762229919,-0.13416311144828796,-0.03742767870426178,-0.9844533205032349,0.4723776876926422,2.6359939575195312,-0.9892924427986145,0.008437530137598515,0.8652741312980652,-3.242828845977783,0.38558340072631836,0.004834052175283432,-0.3336448669433594,-0.6341503262519836,-3.213531732559204,-1.9323978424072266,-2.4928247928619385,6.928719520568848,2.796597719192505,0.5195252895355225,1.448882818222046,1.8491663932800293,1.7788760662078857,0.33391112089157104,1.0642822980880737,-0.2329290509223938,1741432211.594328,1741432211859,2.9700090332031253,0.41015054321289063,0.28487033350425506,3.30000244140625,-0.2825644226074219
1741432211.5471036,-0.21050822734832764,0.03570469254317149,0.003835553074499938,-0.9993550237343135,-0.6019912958145142,0.049031540751457214,-0.422648161649704,-7.480611324310303,3.355699062347412,13.325141906738281,-0.5613412857055664,0.8020524978637695,0.20122835040092468,-1.3103920221328735,0.006294346414506435,-0.7085908055305481,0.22449836134910583,1.3138253688812256,0.005149920005351305,0.6948577165603638,0.2149614691734314,-0.5319676399230957,-0.07839322835206985,-0.1806286722421646,1.269741415977478,-0.2395821064710617,0.008210118860006332,-0.5857557058334351,-0.04711223021149635,-0.17528800666332245,0.6776912808418274,-0.12648051977157593,-0.04075155034661293,-0.19729290902614594,0.7190946936607361,2.2539265155792236,-0.8454909920692444,0.0025851894170045853,0.8492377996444702,-3.383558511734009,0.40181341767311096,0.06092583015561104,-0.32062241435050964,-0.297402560710907,-4.469122886657715,-2.089301824569702,-1.6832761764526367,6.653371810913086,1.117802381515503,0.27354562282562256,0.9944004416465759,0.45354923605918884,0.928637683391571,-0.37974804639816284,0.29061359167099,-0.011542829684913158,1741432211.594328,1741432211859,2.9700090332031253,0.41015054321289063,0.28487033350425506,3.30000244140625,-0.2825644226074219
1741432211.5671287,-0.22536170482635498,0.03880162027911331,0.019115571384317007,-0.9990640766208975,-0.7270346283912659,0.1769050508737564,-0.7476513385772705,-2.9525327682495117,2.7584517002105713,11.319599151611328,-0.5697336196899414,0.8073930740356445,0.2450980395078659,-1.3245066404342651,0.005912871100008488,-0.693331778049469,0.17414358258247375,1.317258596420288,0.00476844422519207,0.690280020236969,0.20733195543289185,-0.6258106231689453,-0.11501488089561462,-0.19054703414440155,1.3681620359420776,-0.25828588008880615,0.014279848895967007,-0.5601968169212341,-0.030708782374858856,-0.15774014592170715,0.6696802973747253,-0.12587733566761017,-0.03393557667732239,-0.2915572226047516,0.2032926082611084,2.1129555702209473,-0.8260459899902344,-0.003960317932069302,0.7033370137214661,-3.3541083335876465,0.2641333341598511,-0.020017573609948158,-0.2723051607608795,-0.28990569710731506,-4.778859615325928,-1.7176247835159302,-0.2609274387359619,4.4213056564331055,-1.306235909461975,0.3485463261604309,1.2862677574157715,0.9144725203514099,1.0015383958816528,-0.3686727285385132,0.0010683572618290782,0.31642746925354004,1741432211.594328,1741432211859,2.9700090332031253,0.41015054321289063,0.28487033350425506,3.30000244140625,-0.2825644226074219
1741432211.5871532,-0.23640292882919312,0.040743711319097015,0.02841689070579669,-0.9987654531022591,-0.37029340863227844,0.09298127889633179,-0.5357069969177246,-4.582770824432373,-3.4736168384552,9.033903121948242,-0.5758371353149414,0.8081560134887695,0.2805752754211426,-1.3374768495559692,0.006294346414506435,-0.6795986890792847,0.1203555315732956,1.3214548826217651,0.00476844422519207,0.6876096725463867,0.1997024416923523,-0.7207980751991272,-0.12340734153985977,-0.1817730963230133,1.4047837257385254,-0.3126656413078308,0.017556697130203247,-0.5365453362464905,-0.013160906732082367,-0.13179980218410492,0.6609063744544983,-0.12886546552181244,-0.02843826450407505,-0.20217359066009521,0.0626310482621193,1.7534523010253906,-0.9468020796775818,-0.01427723839879036,0.6593727469444275,-3.6036670207977295,0.2091633677482605,0.0035178351681679487,-0.12445995956659317,-0.593704879283905,-4.613794326782227,-0.20655958354473114,0.34875527024269104,1.3325225114822388,-2.8049376010894775,0.3204302191734314,1.1139686107635498,0.8777657747268677,1.3306795358657837,-0.3694639205932617,-0.19170276820659637,0.3524446487426758,1741432211.594328,1741432211859,2.9700090332031253,0.41015054321289063,0.28487033350425506,3.30000244140625,-0.2825644226074219
1741432211.607144,-0.2356194257736206,0.044802345272672725,0.03219689930940483,-0.9984768948418027,-0.17739041149616241,0.21327564120292664,0.0803278386592865,-4.638766765594482,-1.307546854019165,4.606547832489014,-0.5907144546508789,0.804722785949707,0.30193790793418884,-1.3447248935699463,0.006294346414506435,-0.6719691753387451,0.07267109304666519,1.3195475339889526,0.004386968910694122,0.689517080783844,0.17795833945274353,-0.80357825756073,-0.12226291000843048,-0.15621423721313477,1.3803693056106567,-0.3693397045135498,0.0023407679982483387,-0.5151827335357666,0.000572213320992887,-0.10738536715507507,0.6643396615982056,-0.13756300508975983,-0.01207906473428011,-0.4287126362323761,-0.0784597396850586,0.9565600752830505,-0.33833208680152893,-0.003158341161906719,0.3013228476047516,-3.006885051727295,-0.1862071007490158,-0.03352072089910507,0.15858203172683716,-0.934817910194397,-4.316080093383789,0.06676647067070007,1.527202844619751,-1.631801962852478,-2.7570862770080566,-1.1855404376983643,1.0170515775680542,0.6246151924133301,1.196475863456726,0.25468945503234863,-0.4962812662124634,0.8801770210266113,1741432211.594328,1741432211859,2.9700090332031253,0.41015054321289063,0.28487033350425506,3.30000244140625,-0.2825644226074219
1741432211.6272,-0.22816497087478638,0.05027038940176037,0.035032128000562116,-0.9981210537590857,-0.15586841106414795,0.2449844479560852,0.43734899163246155,-2.1952829360961914,8.536728858947754,2.517603874206543,-0.6036853790283203,0.8066301345825195,0.3110933005809784,-1.3443434238433838,0.006294346414506435,-0.6712062358856201,0.03795681521296501,1.312680959701538,0.004005493130534887,0.6929503083229065,0.16956588625907898,-0.8730067610740662,-0.11196307092905045,-0.1359960287809372,1.3101778030395508,-0.39691245555877686,-0.01831330731511116,-0.5148012638092041,0.0024795911740511656,-0.08869306743144989,0.6776912808418274,-0.1555941253900528,0.0013182254042476416,-0.40061742067337036,0.052893463522195816,0.39936307072639465,0.030051659792661667,-0.0009106001816689968,0.015431522391736507,-2.2112555503845215,-0.4340354800224304,-0.005389463622123003,0.21394537389278412,-0.42513081431388855,-3.403343439102173,0.5170398950576782,0.9515618085861206,-3.7628464698791504,-1.0012049674987793,-0.739985466003418,-0.12846221029758453,0.04239433631300926,0.7371809482574463,0.7547968029975891,-1.0338191986083984,0.5716985464096069,1741432211.594328,1741432211859,2.9700090332031253,0.41015054321289063,0.28487033350425506,3.30000244140625,-0.2825644226074219
1741432211.6472337,-0.22097575664520264,0.057723504137393536,0.034817357868787153,-0.9977252871713421,0.028391612693667412,0.37328335642814636,0.40378957986831665,2.174107789993286,2.5714454650878906,2.6467058658599854,-0.6128406524658203,0.803196907043457,0.309567391872406,-1.3412915468215942,0.006294346414506435,-0.6734950542449951,0.013160906732082367,1.306958794593811,0.004005493130534887,0.697528064250946,0.16002899408340454,-0.9126802682876587,-0.10204470902681351,-0.12760357558727264,1.2071794271469116,-0.38043639063835144,-0.012177194468677044,-0.5334935784339905,-0.0020981156267225742,-0.08564125746488571,0.7089722752571106,-0.18508875370025635,-2.3735665308777243e-05,-0.3111206889152527,-0.07704038918018341,-0.1484852284193039,0.24108725786209106,-0.005305825266987085,-0.12064547836780548,-1.5600080490112305,-0.3559107482433319,0.0015216463943943381,0.3464048504829407,-0.2631145417690277,-1.515055775642395,0.48033514618873596,0.25666704773902893,-5.396078109741211,1.123718023300171,0.32931023836135864,-1.1689975261688232,-0.22185097634792328,0.1979682594537735,1.824871301651001,-1.5930620431900024,-0.038835205137729645,1741432211.6877406,1741432211959,3.0466232910156252,0.41052005004882813,0.2548714511976235,3.293497802734375,-0.3283982238769531
1741432211.6672225,-0.22235161066055298,0.06413560088587211,0.031119504409970078,-0.9974558642588082,0.24028991162776947,0.2634393572807312,-0.13846427202224731,-1.6440678834915161,1.483829379081726,5.01906681060791,-0.6101703643798828,0.7997636795043945,0.3068970739841461,-1.3382397890090942,0.006294346414506435,-0.6788357496261597,-0.0032425422687083483,1.3008551597595215,0.004005493130534887,0.7028687000274658,0.15468832850456238,-0.9225986003875732,-0.09021896868944168,-0.12798504531383514,1.0515373945236206,-0.33431747555732727,-0.00804823450744152,-0.5575265288352966,0.004386968910694122,-0.07915617525577545,0.7719157934188843,-0.22487352788448334,-0.003131229430437088,0.024441396817564964,-0.13325132429599762,-0.06880372017621994,0.0882333517074585,0.008936911821365356,-0.22856545448303223,-1.0446486473083496,-0.37527164816856384,0.009769322350621223,0.3171636760234833,-0.33327195048332214,-0.20106388628482819,0.7498568892478943,-0.15657295286655426,-8.1713285446167,2.410574436187744,0.19411742687225342,-1.291476845741272,0.5322638154029846,0.3432595133781433,3.3351449966430664,-2.0426061153411865,-0.18518459796905518,1741432211.6877406,1741432211959,3.0466232910156252,0.41052005004882813,0.2548714511976235,3.293497802734375,-0.3283982238769531
1741432211.6872704,-0.23483461141586304,0.06705488870673988,0.025043527125185126,-0.9974349420637201,0.36881178617477417,0.1661023199558258,-0.6867151260375977,0.3972948491573334,4.478063583374023,3.690051317214966,-0.6120777130126953,0.7990007400512695,0.31376364827156067,-1.3386212587356567,0.005912871100008488,-0.6776912808418274,-0.009727626107633114,1.298184871673584,0.004005493130534887,0.7047760486602783,0.1520180106163025,-0.883306622505188,-0.07000076025724411,-0.1337071806192398,0.8413442969322205,-0.2862475514411926,0.0006564815994352102,-0.5872815847396851,0.018120087683200836,-0.08106355369091034,0.8543145060539246,-0.26774901151657104,-0.006334349513053894,-0.08368340134620667,-0.04795151576399803,0.36864522099494934,0.016875091940164566,-0.005831806920468807,0.04925918951630592,-0.344010591506958,-0.14232668280601501,0.006690567824989557,0.11874019354581833,-0.08969631791114807,2.223477840423584,1.0545685291290283,-0.19547893106937408,-10.894417762756348,2.235680341720581,0.49906736612319946,-1.3981558084487915,0.7811989784240723,-0.3182273805141449,4.498689651489258,-2.1361279487609863,-0.20279891788959503,1741432211.6877406,1741432211959,3.0466232910156252,0.41052005004882813,0.2548714511976235,3.293497802734375,-0.3283982238769531
1741432211.7072966,-0.26097726821899414,0.06693527076450845,0.021751765276629635,-0.9975201903896646,0.1454145610332489,-0.043950628489255905,-1.376979947090149,-12.576630592346191,-12.464481353759766,22.978483200073242,-0.6197071075439453,0.8073930740356445,0.3217746317386627,-1.3374768495559692,0.005912871100008488,-0.6773098111152649,-0.00858320016413927,1.298184871673584,0.004005493130534887,0.7066834568977356,0.15659570693969727,-0.8306630253791809,-0.04634927958250046,-0.1359960287809372,0.6422140598297119,-0.24608783423900604,-0.00928663369268179,-0.6074998378753662,0.022697795182466507,-0.09174486994743347,0.925650417804718,-0.30633169412612915,-0.009849419817328453,-0.20456242561340332,0.19521398842334747,0.3827861547470093,0.0605015829205513,0.005042249336838722,-0.031318727880716324,0.17232726514339447,-0.012189183384180069,0.005097777117043734,0.07583486288785934,0.3165479898452759,2.167436122894287,1.3883066177368164,0.04810261353850365,-8.784003257751465,2.5243141651153564,-1.3461582660675049,-0.8081073760986328,-0.0932411402463913,-0.6250730156898499,3.4901106357574463,-1.9037017822265625,-0.19065700471401215,1741432211.6877406,1741432211959,3.0466232910156252,0.41052005004882813,0.2548714511976235,3.293497802734375,-0.3283982238769531
1741432211.7273197,-0.28632259368896484,0.06999287458785905,0.02202352816375024,-0.9973043475861061,0.272245854139328,0.5589908361434937,-1.1529393196105957,16.87082290649414,-18.53510093688965,13.966236114501953,-0.6357288360595703,0.8134965896606445,0.3255893886089325,-1.3298473358154297,0.00667582219466567,-0.6723506450653076,0.0020981156267225742,1.299710750579834,0.0024795911740511656,0.7063019871711731,0.17681391537189484,-0.8165484070777893,-0.053215838968753815,-0.11501488089561462,0.6944762468338013,-0.14263494312763214,-0.07385165989398956,-0.5960555672645569,-0.013923857361078262,-0.11348897218704224,0.9626535177230835,-0.34537839889526367,-0.020935339853167534,-0.49257007241249084,0.1683378517627716,-0.05716782063245773,0.5543425679206848,0.04995320364832878,0.22665628790855408,0.883056640625,0.17486931383609772,-0.13019223511219025,0.04572847858071327,1.4115158319473267,0.21760012209415436,-0.8727278709411621,0.2816268503665924,3.0768916606903076,4.942254066467285,-2.4722812175750732,0.8349255919456482,-1.1659265756607056,-1.3595515489578247,1.3154466152191162,-1.8597419261932373,-0.5402492880821228,1741432211.6877406,1741432211959,3.0466232910156252,0.41052005004882813,0.2548714511976235,3.293497802734375,-0.3283982238769531
1741432211.7473629,-0.3127276301383972,0.07210139619520571,0.016923289871146916,-0.9972537244486176,0.2415560483932495,0.004778478294610977,-1.379174828529358,-1.7873746156692505,-6.1907958984375,10.115436553955078,-0.6319141387939453,0.8363847732543945,0.30422675609588623,-1.3210734128952026,0.006294346414506435,-0.6750209927558899,0.03185320645570755,1.300473690032959,0.0032425422687083483,0.7066834568977356,0.19207294285297394,-0.812352180480957,-0.03376058489084244,-0.14820325374603271,0.7120240926742554,-0.07673513889312744,-0.07084370404481888,-0.578507661819458,-0.007438773289322853,-0.13981078565120697,0.9744792580604553,-0.3667421042919159,-0.004877912346273661,0.0805935487151146,0.44569703936576843,-1.263031005859375,0.49696430563926697,-0.0036255382001399994,-0.2224741131067276,1.9961565732955933,0.0234998669475317,0.10577725619077682,-0.063267283141613,0.16746865212917328,0.8206263780593872,1.8002488613128662,-1.5740686655044556,0.1282554566860199,2.894930601119995,0.5928710103034973,0.939136266708374,0.02084357663989067,-0.9336450695991516,0.8164731860160828,-0.9801012873649597,0.9473040699958801,1741432211.6877406,1741432211959,3.0466232910156252,0.41052005004882813,0.2548714511976235,3.293497802734375,-0.3283982238769531
1741432211.7674465,-0.3392913341522217,0.06946052558751518,0.029301004599912195,-0.9971542942366252,-0.5567792057991028,-0.1763588935136795,-1.400852084159851,-11.260880470275879,-17.328123092651367,30.542701721191406,-0.6544208526611328,0.8630886077880859,0.266460657119751,-1.313443899154663,0.005912871100008488,-0.6818875670433044,0.06160829961299896,1.3107736110687256,0.004386968910694122,0.7009612917900085,0.18596932291984558,-0.7726787328720093,-0.005531395319849253,-0.16308079659938812,0.6914244294166565,-0.04637879133224487,-0.03946084901690483,-0.5766003131866455,-0.00476844422519207,-0.15926603972911835,1.0126268863677979,-0.37794986367225647,-0.011881794780492783,-0.6192361116409302,0.7113056778907776,-1.9307937622070312,0.5483859181404114,-0.012830532155930996,-0.30579671263694763,2.0053632259368896,0.8103241920471191,0.048345185816287994,-0.451327919960022,-0.17223772406578064,1.4125218391418457,0.9053140878677368,-0.19143237173557281,-0.39213621616363525,1.526498794555664,1.3015668392181396,-0.09744764864444733,-0.08640581369400024,-1.2704180479049683,2.0959980487823486,-0.34335267543792725,-0.4571819603443146,1741432211.6877406,1741432211959,3.0466232910156252,0.41052005004882813,0.2548714511976235,3.293497802734375,-0.3283982238769531
1741432211.787357,-0.37157440185546875,0.06513670881335867,0.04878152527241608,-0.9966832856815953,-0.7288532853126526,-0.10935094952583313,-1.6240599155426025,-7.219380855560303,6.826827049255371,12.466062545776367,-0.6521320343017578,0.8756771087646484,0.22678720951080322,-1.3008551597595215,0.006294346414506435,-0.6765468716621399,0.09060044586658478,1.3336620330810547,0.004386968910694122,0.6906614899635315,0.2004653960466385,-0.777256429195404,0.0036240178160369396,-0.17414358258247375,0.7345311641693115,-0.04161599278450012,-0.03443481773138046,-0.5914778113365173,-0.02727550081908703,-0.19283588230609894,1.0728999376296997,-0.3746044337749481,-0.006724225357174873,-0.0279006976634264,0.4943264424800873,-1.960707664489746,0.8336557745933533,0.03144693002104759,0.35722851753234863,1.9647748470306396,1.6113113164901733,0.0050264946185052395,-0.6186755895614624,0.7101961374282837,-0.2007744163274765,0.8114635348320007,-1.0933043956756592,1.865885853767395,-0.14616335928440094,0.10100799798965454,-0.7164650559425354,-1.025447964668274,-1.8809008598327637,3.182050943374634,0.09659743309020996,0.545204758644104,1741432211.6877406,1741432211959,3.0466232910156252,0.41052005004882813,0.2548714511976235,3.293497802734375,-0.3283982238769531
1741432211.8073947,-0.3958883285522461,0.06489535235602419,0.05823454112372544,-0.9961914130641243,-0.4220573604106903,-0.021376153454184532,-1.1334832906723022,-5.4872355461120605,-1.798401951789856,11.282853126525879,-0.6544208526611328,0.8733882904052734,0.18711376190185547,-1.2897924184799194,0.005912871100008488,-0.6662470698356628,0.12836651504039764,1.3451063632965088,0.0036240178160369396,0.6822690367698669,0.20199130475521088,-0.7650492191314697,0.00667582219466567,-0.19054703414440155,0.7440680265426636,-0.06862307339906693,-0.04021589457988739,-0.6342030763626099,-0.03147173300385475,-0.24280919134616852,1.1465247869491577,-0.3801898658275604,0.0026469349395483732,-0.0389045774936676,0.0375998355448246,-2.030225992202759,0.6968397498130798,-0.009587244130671024,0.5210458040237427,2.609673261642456,0.5928037166595459,-0.08992566168308258,-0.5808103084564209,-0.11539282649755478,0.7938023805618286,0.05495547503232956,-0.3346590995788574,0.2396155744791031,-1.4995373487472534,-0.3471953868865967,-2.312093734741211,-0.20803244411945343,-2.294574499130249,3.5066006183624268,-0.41909608244895935,0.21370436251163483,1741432211.8877463,1741432212159,3.1616865234375,0.3872365417480469,0.19503849015765684,3.284187255859375,-0.4082718200683594
1741432211.8274043,-0.4076552391052246,0.0640235588308958,0.06373885655608169,-0.9959108103035884,-0.21353664994239807,0.0023624692112207413,-0.5567982792854309,0.046884872019290924,0.6262274384498596,10.411579132080078,-0.6628141403198242,0.8730068206787109,0.14019227027893066,-1.2840702533721924,0.005912871100008488,-0.6536583304405212,0.16994735598564148,1.3493025302886963,0.0032425422687083483,0.6708247661590576,0.1970321238040924,-0.7433050870895386,0.03376058489084244,-0.18635080754756927,0.7429236173629761,-0.1036263108253479,-0.04287821054458618,-0.6746395230293274,-0.04482337832450867,-0.2660791873931885,1.2060348987579346,-0.39894232153892517,-0.007753681391477585,-0.2230769395828247,-0.00511269411072135,-2.6498265266418457,0.28701701760292053,-0.004679390229284763,0.571938693523407,2.7669131755828857,0.23528341948986053,0.008497552014887333,-0.7767153978347778,-0.19125129282474518,1.0371205806732178,1.6979728937149048,0.20208553969860077,-0.0206923708319664,-1.7193715572357178,-0.11108243465423584,-1.8801642656326294,-0.585269570350647,-1.0579214096069336,2.7637691497802734,-1.014492154121399,-0.391010046005249,1741432211.8877463,1741432212159,3.1616865234375,0.3872365417480469,0.19503849015765684,3.284187255859375,-0.4082718200683594
1741432211.8475485,-0.41740602254867554,0.06097621808235142,0.06694960652617474,-0.9958913851491857,-0.13254374265670776,-0.15768100321292877,-0.4542832374572754,1.126573085784912,-2.197072744369507,7.99332857131958,-0.6651029586791992,0.8787288665771484,0.08564125746488571,-1.2836887836456299,0.005912871100008488,-0.6506065726280212,0.20695048570632935,1.3531173467636108,0.004005493130534887,0.6578545570373535,0.1962691694498062,-0.7181277275085449,0.058175019919872284,-0.17185473442077637,0.7406347990036011,-0.13079658150672913,-0.04521378129720688,-0.7009612917900085,-0.04253452271223068,-0.2801937758922577,1.2262531518936157,-0.42156603932380676,-0.000700694159604609,-0.09860049188137054,0.17530441284179688,-2.6281497478485107,0.035182151943445206,-0.015699803829193115,-0.03248603269457817,2.4121835231781006,0.25475773215293884,0.04397182539105415,-0.8859627842903137,-0.056022364646196365,1.4078388214111328,1.1788201332092285,0.6394396424293518,-0.1987934708595276,-1.3448562622070312,-0.07442813366651535,-1.2697373628616333,0.2109016627073288,-0.6829163432121277,0.7028661370277405,-1.040867567062378,0.5447242259979248,1741432211.8877463,1741432212159,3.1616865234375,0.3872365417480469,0.19503849015765684,3.284187255859375,-0.4082718200683594
1741432211.8674634,-0.4298350214958191,0.05366950392303307,0.070904415484412,-0.9960382262812353,-0.1404418796300888,-0.32516229152679443,-0.6865972876548767,0.3388417065143585,-1.0395671129226685,8.23601245880127,-0.6696805953979492,0.8794918060302734,0.04901960864663124,-1.2825443744659424,0.005912871100008488,-0.6548027992248535,0.23785001039505005,1.3561691045761108,0.004005493130534887,0.6456473469734192,0.200083926320076,-0.6826505064964294,0.08220797777175903,-0.16346226632595062,0.7265201807022095,-0.15192173421382904,-0.040752578526735306,-0.7127870321273804,-0.03757534176111221,-0.28782328963279724,1.206416368484497,-0.43484029173851013,0.008283048868179321,-0.13840742409229279,0.03191300481557846,-1.6277154684066772,0.04941464960575104,-0.004854255821555853,-0.1716650128364563,2.0438427925109863,0.13922357559204102,0.013802922330796719,-0.713725209236145,0.29019948840141296,1.7650833129882812,1.1521127223968506,0.36482009291648865,-0.7121393084526062,-1.0038586854934692,0.15994179248809814,-0.48136746883392334,0.13251173496246338,-0.34911227226257324,-1.2862812280654907,-0.577386200428009,0.20708516240119934,1741432211.8877463,1741432212159,3.1616865234375,0.3872365417480469,0.19503849015765684,3.284187255859375,-0.4082718200683594
1741432211.887506,-0.4517713189125061,0.04502419318239858,0.07460786440572968,-0.9961960091252575,-0.1191699430346489,-0.3487860858440399,-1.1736931800842285,-0.40979641675949097,0.5569244027137756,7.741296768188477,-0.6750211715698242,0.8764400482177734,0.03490501269698143,-1.2825443744659424,0.005912871100008488,-0.6548027992248535,0.2615014910697937,1.3542617559432983,0.004005493130534887,0.6372548937797546,0.2141985148191452,-0.6509880423545837,0.10013733059167862,-0.15316243469715118,0.7139315009117126,-0.16630873084068298,-0.04642645642161369,-0.7127870321273804,-0.039101243019104004,-0.30384528636932373,1.1579689979553223,-0.4305841326713562,0.002203551586717367,-0.1614130288362503,-0.07864793390035629,-0.5769182443618774,-0.015191062353551388,-0.004940614569932222,0.005885588936507702,1.4495084285736084,-0.1343381404876709,0.006091182120144367,-0.5633895993232727,0.8043502569198608,1.489475965499878,0.8520451784133911,0.4066578149795532,-0.6533116102218628,-0.7121735215187073,-0.2761039435863495,0.03494343161582947,-0.14710932970046997,-0.8727769255638123,-2.6185617446899414,0.37458863854408264,-0.12983165681362152,1741432211.8877463,1741432212159,3.1616865234375,0.3872365417480469,0.19503849015765684,3.284187255859375,-0.4082718200683594
1741432211.907552,-0.4829282760620117,0.036449779311580055,0.0765261903959265,-0.9964011018518715,-0.03814791887998581,-0.2880555987358093,-1.6237787008285522,-1.0522538423538208,-4.070613861083984,8.762147903442383,-0.6776914596557617,0.8676662445068359,0.03528648987412453,-1.2836887836456299,0.005912871100008488,-0.6532768607139587,0.2756160795688629,1.3485395908355713,0.004005493130534887,0.6300068497657776,0.2283131182193756,-0.6231403350830078,0.11310750246047974,-0.1508735716342926,0.7040131092071533,-0.1804145872592926,-0.0476614348590374,-0.7047760486602783,-0.04901960864663124,-0.3221561014652252,1.0896848440170288,-0.4072098135948181,0.007945911027491093,-0.09759130328893661,-0.2685209810733795,0.0771239623427391,-0.07547550648450851,-0.004596715793013573,0.12248076498508453,0.8291477560997009,-0.4118386209011078,-0.0006204098463058472,-0.48363855481147766,0.6603533625602722,1.3535081148147583,0.4999316930770874,0.04433052986860275,-0.46056926250457764,-0.7061870098114014,-0.013148678466677666,0.5440266728401184,-0.5509423017501831,-0.9377392530441284,-3.5827980041503906,1.320697546005249,0.2116672396659851,1741432211.8877463,1741432212159,3.1616865234375,0.3872365417480469,0.19503849015765684,3.284187255859375,-0.4082718200683594
1741432211.927523,-0.5111464262008667,0.029794784961055462,0.07729900823662458,-0.9965626594021867,0.028492962941527367,-0.21369607746601105,-1.3305398225784302,0.641937255859375,-4.1172709465026855,8.976438522338867,-0.6887540817260742,0.8611812591552734,0.040245670825242996,-1.2855961322784424,0.005912871100008488,-0.647173285484314,0.2798123061656952,1.3420546054840088,0.0036240178160369396,0.6235218048095703,0.2470054179430008,-0.6021591424942017,0.1199740618467331,-0.1497291475534439,0.6956206560134888,-0.19814962148666382,-0.04694189131259918,-0.6769283413887024,-0.06237125024199486,-0.33550775051116943,1.0027084350585938,-0.3677366077899933,0.00960741937160492,-0.3073967695236206,-0.1914874017238617,0.2061142772436142,-0.15179406106472015,-0.014489809982478619,0.25542789697647095,0.20027989149093628,-0.43230459094047546,-0.027877941727638245,-0.4425120949745178,0.8783421516418457,0.9764208197593689,0.33164408802986145,0.10118968784809113,-0.380156010389328,-0.950736403465271,0.044268496334552765,1.555405855178833,-0.6176294088363647,-0.6746346950531006,-4.606218338012695,2.0814459323883057,0.023420454934239388,1741432211.8877463,1741432212159,3.1616865234375,0.3872365417480469,0.19503849015765684,3.284187255859375,-0.4082718200683594
1741432211.9476068,-0.5281001925468445,0.022521353598966686,0.07511663060927119,-0.9969203982455073,0.15290015935897827,-0.33221912384033203,-0.7340232729911804,-5.1006011962890625,-3.687800884246826,7.038020610809326,-0.6986722946166992,0.8566036224365234,0.04901960864663124,-1.2913182973861694,0.005912871100008488,-0.6422140598297119,0.28439003229141235,1.3374768495559692,0.0036240178160369396,0.6185625791549683,0.2576867341995239,-0.5861371755599976,0.12378881871700287,-0.1497291475534439,0.6940947771072388,-0.223322793841362,-0.050030604004859924,-0.6399252414703369,-0.0711451917886734,-0.35114824771881104,0.8955138325691223,-0.3180730640888214,0.005853720009326935,-0.29737481474876404,-0.11802510917186737,0.4148699641227722,-0.44709262251853943,-0.0055368454195559025,0.26022660732269287,0.48726916313171387,-0.23164919018745422,0.009447854943573475,-0.31537747383117676,0.503126323223114,0.9211716055870056,0.0809950903058052,-0.018112478777766228,-0.0020362900104373693,-1.3008701801300049,-0.09192941337823868,1.9063652753829956,-0.45931753516197205,-0.7911581993103027,-5.590723991394043,2.5496461391448975,-0.3043263256549835,1741432211.8877463,1741432212159,3.1616865234375,0.3872365417480469,0.19503849015765684,3.284187255859375,-0.4082718200683594
1741432211.9675632,-0.5348281264305115,0.01712683852649649,0.06967996138389562,-0.997422365090951,0.30375826358795166,-0.26086392998695374,-0.2863422632217407,-0.5528488159179688,-3.985244035720825,7.226776123046875,-0.7055387496948242,0.8451595306396484,0.06160829961299896,-1.297421932220459,0.005912871100008488,-0.6372548937797546,0.30003052949905396,1.3370953798294067,0.0036240178160369396,0.6124590039253235,0.2641718089580536,-0.5590524077415466,0.12455176562070847,-0.1516365259885788,0.7017242908477783,-0.2529306411743164,-0.05223708227276802,-0.5991073250770569,-0.07495994865894318,-0.36297398805618286,0.770008385181427,-0.26650840044021606,0.0008906600414775312,-0.23108044266700745,-0.33083483576774597,0.6532867550849915,-0.35919755697250366,-0.005689069628715515,0.14267845451831818,0.9185728430747986,-0.049521710723638535,-0.00017381033103447407,-0.33258989453315735,0.33611777424812317,1.33695650100708,0.07514722645282745,-0.09358994662761688,0.40936532616615295,-1.5322345495224,-0.13286077976226807,1.9967756271362305,-0.16496610641479492,-0.5513367056846619,-6.341762542724609,2.4870870113372803,-0.23282061517238617,1741432211.8877463,1741432212159,3.1616865234375,0.3872365417480469,0.19503849015765684,3.284187255859375,-0.4082718200683594
1741432211.987616,-0.5385376214981079,0.012128632226731575,0.06270394435965708,-0.9979584719025385,0.36592841148376465,-0.22780583798885345,-0.1889486014842987,-1.2347369194030762,-0.2968219816684723,7.8407487869262695,-0.7097349166870117,0.836766242980957,0.08220797777175903,-1.3023810386657715,0.005912871100008488,-0.6414511203765869,0.30270084738731384,1.3359509706497192,0.0036240178160369396,0.6124590039253235,0.2752346098423004,-0.536163866519928,0.12264438718557358,-0.1504921019077301,0.7169833183288574,-0.2800441086292267,-0.05864233523607254,-0.5655375123023987,-0.07572289556264877,-0.3706035017967224,0.647936224937439,-0.22579573094844818,-0.003592277178540826,-0.1284065544605255,-0.2660411596298218,1.127512812614441,-0.352493017911911,-0.003707860829308629,-0.21854335069656372,0.10564911365509033,-0.04513637349009514,0.008457031100988388,0.051933400332927704,0.6528998613357544,1.0758434534072876,-0.1772468090057373,0.07353822141885757,0.8601420521736145,-1.327498197555542,-0.20195791125297546,1.5103362798690796,-0.062396857887506485,-0.3079516589641571,-5.919546604156494,1.8933098316192627,-0.257931113243103,1741432211.8877463,1741432212159,3.1616865234375,0.3872365417480469,0.19503849015765684,3.284187255859375,-0.4082718200683594
1741432212.0076325,-0.5466786026954651,0.00522320205213141,0.054442034885128644,-0.9985032714006945,0.4028644263744354,-0.4343017339706421,-0.4573190212249756,-10.810759544372559,-4.291601657867432,18.16292381286621,-0.7066831588745117,0.833714485168457,0.11005569249391556,-1.306195855140686,0.005912871100008488,-0.6433585286140442,0.29964902997016907,1.3351880311965942,0.0036240178160369396,0.613603413105011,0.29812315106391907,-0.5243381261825562,0.11005569249391556,-0.1512550562620163,0.7402533292770386,-0.3026418387889862,-0.05214846134185791,-0.5449378490447998,-0.07724879682064056,-0.3858625292778015,0.6006332635879517,-0.18861620128154755,-0.0201114472001791,0.09276816248893738,-0.08752494305372238,1.3842291831970215,-0.23987141251564026,-0.0023267942015081644,-0.06807740777730942,-0.298191100358963,-0.10992429405450821,0.00975092500448227,0.03947024792432785,1.2414231300354004,0.5244470238685608,-0.6840435266494751,-0.02584083005785942,1.2094087600708008,-1.0828825235366821,0.3393068313598633,1.2994362115859985,0.30428817868232727,-0.8942663073539734,-1.2843272686004639,1.7577711343765259,-0.9009202122688293,1741432211.8877463,1741432212159,3.1616865234375,0.3872365417480469,0.19503849015765684,3.284187255859375,-0.4082718200683594
1741432212.027656,-0.5656457543373108,0.005524269612255513,0.051047389873735124,-0.9986809532740323,0.18827490508556366,0.08187633007764816,-1.0452394485473633,3.287487506866455,-0.1730434149503708,9.942955017089844,-0.7200355529785156,0.8325700759887695,0.14476996660232544,-1.309247612953186,0.005912871100008488,-0.6422140598297119,0.28400853276252747,1.3359509706497192,0.004005493130534887,0.6147478222846985,0.31834134459495544,-0.5106050372123718,0.09441519528627396,-0.15812161564826965,0.7623788714408875,-0.31844446063041687,-0.0307429488748312,-0.5327305793762207,-0.056267641484737396,-0.3847180902957916,0.6033035516738892,-0.1726154386997223,-0.0396343395113945,-0.41447627544403076,-0.029711712151765823,1.7559162378311157,-0.221235990524292,0.01710248738527298,0.059050559997558594,-1.1888322830200195,0.09409546852111816,0.03701344504952431,0.08689983189105988,1.0457106828689575,0.6403708457946777,-0.7044253945350647,-0.41649991273880005,1.0854209661483765,-0.6565227508544922,1.319975733757019,0.22445285320281982,0.7864483594894409,0.30857130885124207,-0.08308503776788712,0.5827531218528748,-0.6935744285583496,1741432211.8877463,1741432212159,3.1616865234375,0.3872365417480469,0.19503849015765684,3.284187255859375,-0.4082718200683594
1741432212.0476358,-0.5930584669113159,0.004530195018197904,0.04663302360317299,-0.9989018162175515,0.2067127227783203,0.1125035434961319,-1.431566834449768,-8.041096687316895,1.56023108959198,11.627028465270996,-0.7169828414916992,0.8348588943481445,0.1836804747581482,-1.318021535873413,0.005912871100008488,-0.6383993029594421,0.25616082549095154,1.3367139101028442,0.004005493130534887,0.6158922910690308,0.3381780683994293,-0.5079346895217896,0.08030059933662415,-0.18978407979011536,0.7928969264030457,-0.31307458877563477,-0.017326243221759796,-0.5170900821685791,-0.05397878959774971,-0.3435187339782715,0.6017776727676392,-0.17537574470043182,-0.03611990809440613,0.05160626024007797,-0.005595145281404257,1.9661375284194946,-0.6141334176063538,-0.0426676906645298,0.2514493465423584,-1.971286654472351,0.047144874930381775,0.00020757025049533695,0.10138548910617828,0.9339418411254883,0.06249029189348221,-0.8250055313110352,-1.6241183280944824,1.8960083723068237,0.5106130242347717,0.3876502811908722,1.1328197717666626,-0.08477582782506943,2.2091879844665527,-0.1281370371580124,-0.15966570377349854,0.25713619589805603,1741432212.187744,1741432212459,3.22984521484375,0.28572900390625,-0.06816713216066703,3.27471240234375,-0.4838529968261719
1741432212.067665,-0.6205186247825623,0.008875557103234398,0.04153281345630616,-0.9990977178897523,0.3089649975299835,0.1891152411699295,-1.3317315578460693,6.638210296630859,8.29489803314209,8.833300590515137,-0.7272834777832031,0.838292121887207,0.21992065012454987,-1.3256510496139526,0.006294346414506435,-0.6357290148735046,0.22068360447883606,1.3382397890090942,0.004005493130534887,0.6181811094284058,0.3412298858165741,-0.5453193187713623,0.05436026677489281,-0.23403525352478027,0.8623254895210266,-0.2896425426006317,-0.00981972087174654,-0.48962387442588806,-0.040627144277095795,-0.3107118308544159,0.5983443856239319,-0.1785253882408142,-0.034891076385974884,-0.278395414352417,0.1273009330034256,1.7031285762786865,-0.5686190724372864,0.02189570851624012,0.09059986472129822,-2.399892568588257,0.04193175956606865,0.007008591201156378,0.12282031029462814,0.029732881113886833,-2.556260108947754,-1.4834908246994019,-2.3257246017456055,3.75036883354187,1.1781634092330933,0.6673126220703125,1.04542076587677,0.7525765299797058,1.496185064315796,-0.2986658215522766,-0.13229282200336456,-0.1804998815059662,1741432212.187744,1741432212459,3.22984521484375,0.28572900390625,-0.06816713216066703,3.27471240234375,-0.4838529968261719
1741432212.0927637,-0.6399553418159485,0.009952533591000056,0.034858101089838944,-0.9993427139192693,0.27706727385520935,0.23052765429019928,-0.8569390773773193,-0.25324365496635437,-2.106983184814453,6.896173000335693,-0.7341499328613281,0.8409624099731445,0.2462424635887146,-1.3378583192825317,0.005912871100008488,-0.6376363635063171,0.1840619444847107,1.3363324403762817,0.004005493130534887,0.6212329268455505,0.3282597064971924,-0.6071183085441589,0.01430533267557621,-0.26989394426345825,0.9924086332321167,-0.27277863025665283,0.00717985350638628,-0.4797055125236511,-0.026512550190091133,-0.28896772861480713,0.5918593406677246,-0.1746838092803955,-0.03681402653455734,-0.3026998043060303,0.10259245336055756,1.1866399049758911,-0.7493776679039001,-0.02374934032559395,-0.1523798406124115,-2.3891780376434326,-0.10905979573726654,-0.004423985723406076,0.22186702489852905,-0.6735714077949524,-3.1223933696746826,-2.2021522521972656,-1.5035045146942139,6.884183883666992,0.6332557201385498,0.8038191795349121,0.7869695425033569,0.5695477724075317,1.2359949350357056,-0.06362715363502502,0.3075648546218872,0.049175940454006195,1741432212.187744,1741432212459,3.22984521484375,0.28572900390625,-0.06816713216066703,3.27471240234375,-0.4838529968261719
1741432212.107701,-0.6461595296859741,0.01319819180440517,0.03232883021542068,-0.9993901412711638,0.14407041668891907,0.12391794472932816,-0.3427131772041321,3.4810256958007812,-0.956779420375824,9.920191764831543,-0.7471199035644531,0.842106819152832,0.2569237947463989,-1.3416730165481567,0.006294346414506435,-0.6422140598297119,0.152399480342865,1.3359509706497192,0.004005493130534887,0.6273365616798401,0.30079346895217896,-0.692568838596344,-0.03337911143898964,-0.26798656582832336,1.1526284217834473,-0.28036484122276306,0.011247528716921806,-0.4865720570087433,-0.02040894143283367,-0.26913100481033325,0.5876630544662476,-0.16745628416538239,-0.035047464072704315,-0.31597089767456055,0.03594651073217392,0.36629176139831543,-0.23411895334720612,-0.01659265346825123,-0.21313349902629852,-2.010357618331909,-0.05617842450737953,0.03253060206770897,0.38901135325431824,-1.5391367673873901,-4.652770519256592,-2.211833953857422,0.3004422187805176,8.140800476074219,-0.5414065718650818,0.013008223846554756,-0.711360514163971,0.22004087269306183,0.890015184879303,-0.30312466621398926,0.24533286690711975,0.01271312776952982,1741432212.187744,1741432212459,3.22984521484375,0.28572900390625,-0.06816713216066703,3.27471240234375,-0.4838529968261719
1741432212.1277134,-0.6474436521530151,0.01842478709701467,0.030444005343259594,-0.9993666443098296,0.05968640744686127,0.3911493420600891,-0.005544738844037056,-2.035365343093872,1.7033514976501465,10.261208534240723,-0.7570381164550781,0.8348588943481445,0.2573052644729614,-1.3431990146636963,0.006294346414506435,-0.6448844075202942,0.12684062123298645,1.3325176239013672,0.0036240178160369396,0.6345845460891724,0.272945761680603,-0.7791637778282166,-0.06694895774126053,-0.2462424635887146,1.275844931602478,-0.3054397702217102,0.002311551943421364,-0.4892423748970032,-0.01888304017484188,-0.2439536154270172,0.5910963416099548,-0.16852180659770966,-0.03588853031396866,-0.33057519793510437,-0.26955926418304443,0.02612147107720375,-0.046744972467422485,-0.01746300235390663,-0.1436091661453247,-1.6279048919677734,-0.1978445202112198,-0.051891766488552094,0.4986386001110077,-1.136130928993225,-4.242288589477539,-1.5602314472198486,1.281066656112671,5.476935386657715,-1.340203046798706,-0.3495422303676605,0.11543087661266327,0.0896328017115593,1.4328467845916748,0.3353043794631958,-0.09603732824325562,0.07178934663534164,1741432212.187744,1741432212459,3.22984521484375,0.28572900390625,-0.06816713216066703,3.27471240234375,-0.4838529968261719
1741432212.1477158,-0.6492274403572083,0.02400120262550741,0.027740568015429054,-0.9993269750980961,0.20205578207969666,0.15085254609584808,-0.15369080007076263,0.910142719745636,-0.07021640241146088,12.146531105041504,-0.7475013732910156,0.8379106521606445,0.2580682039260864,-1.3424360752105713,0.006294346414506435,-0.6452658772468567,0.10433356463909149,1.3294658660888672,0.004005493130534887,0.6433585286140442,0.25463491678237915,-0.839436948299408,-0.08564125746488571,-0.22259098291397095,1.3174258470535278,-0.3349111080169678,-0.00028878150624223053,-0.5056458115577698,-0.01926451548933983,-0.22259098291397095,0.5987258553504944,-0.18305037915706635,-0.03149350732564926,0.23426568508148193,0.11588793992996216,0.053062040358781815,-0.007690866477787495,-0.004459277726709843,0.021094541996717453,-1.4063498973846436,-0.1985412836074829,0.0483488105237484,0.56110018491745,-1.1544982194900513,-2.8851723670959473,-0.7567086219787598,1.2020660638809204,1.3036812543869019,-1.3980209827423096,-0.1082240492105484,-1.1149059534072876,-0.07868500053882599,0.8197389245033264,0.2767397165298462,-0.9317997097969055,0.2203657329082489,1741432212.187744,1741432212459,3.22984521484375,0.28572900390625,-0.06816713216066703,3.27471240234375,-0.4838529968261719
