Freshhhhh-LC/Legged_odom/data/2/segments/booster_seg_9.89s.csv
time,yaw,projected_gravity_x,projected_gravity_y,projected_gravity_z,ang_vel_x,ang_vel_y,ang_vel_z,lin_acc_x,lin_acc_y,lin_acc_z,q_0,q_1,q_2,q_3,q_4,q_5,q_6,q_7,q_8,q_9,q_10,q_11,q_12,q_13,q_14,q_15,q_16,q_17,q_18,q_19,q_20,q_21,q_22,dq_0,dq_1,dq_2,dq_3,dq_4,dq_5,dq_6,dq_7,dq_8,dq_9,dq_10,dq_11,dq_12,dq_13,dq_14,dq_15,dq_16,dq_17,dq_18,dq_19,dq_20,dq_21,dq_22,mocap_time,mocap_timestamp,robot_x,robot_y,robot_yaw,ball_x,ball_y
1741432871.8362365,-3.2746747732162476,0.01794213262075972,-0.09422536804808022,-0.9953892002092564,-0.10418281704187393,0.10728491842746735,0.7403613924980164,-0.5343737006187439,-1.779036521911621,12.096940994262695,0.2927827835083008,0.18978404998779297,0.06504157930612564,-1.302762508392334,0.006294346414506435,-0.7829785346984863,0.27065691351890564,1.310010552406311,0.004005493130534887,0.7867932915687561,-0.18711376190185547,-0.5376898050308228,-0.07267109304666519,0.07381551712751389,0.6921873688697815,-0.2782984972000122,0.035271674394607544,-0.8463035225868225,0.059319447726011276,0.09136339277029037,1.361295461654663,-0.528657853603363,0.005780847277492285,-0.19635406136512756,0.2861180901527405,-1.0918231010437012,0.5439040064811707,-0.0035419517662376165,-0.6927988529205322,1.3872098922729492,-0.3553182780742645,-0.030455954372882843,1.0697932243347168,-0.34359151124954224,-0.5288355350494385,-0.11463719606399536,-0.8720815181732178,1.2335032224655151,-1.277288794517517,0.1641455888748169,-2.4287774562835693,0.599273681640625,-0.16712355613708496,1.2781211137771606,0.07176905870437622,0.09735407680273056,1741432871.7865806,1741432871939,-0.16039389038085938,1.053482177734375,-2.363836643884873,-4.7052592773437505,0.19589036560058595
1741432871.8385568,-3.2518726587295532,0.016174195986407614,-0.08942423113114249,-0.995862290816756,-0.2781776785850525,0.010932856239378452,1.1357122659683228,2.3273775577545166,-0.396446168422699,8.50783920288086,0.2805747985839844,0.18825817108154297,0.0394827201962471,-1.294751524925232,0.006294346414506435,-0.7932783961296082,0.2912565767765045,1.3065773248672485,0.004386968910694122,0.7940413355827332,-0.19130998849868774,-0.5365453362464905,-0.07343403995037079,0.05397878959774971,0.7192721366882324,-0.30436408519744873,0.029792165383696556,-0.8543145060539246,0.06084534898400307,0.09632257372140884,1.3033112287521362,-0.5118907690048218,0.012168129906058311,-0.34207361936569214,-0.006775029469281435,-1.4174914360046387,0.447168231010437,0.02480025589466095,-0.47483208775520325,1.386091709136963,-0.23516695201396942,0.022743627429008484,0.2888084352016449,-0.11662580817937851,0.2189299613237381,-0.006888589356094599,-1.0302554368972778,1.436333417892456,-1.3482152223587036,-0.44180041551589966,-0.010407132096588612,0.023566577583551407,0.21330849826335907,-3.735203504562378,0.9816798567771912,0.25547799468040466,1741432871.8882785,1741432872039,-0.2584810485839844,1.0073690185546875,-2.3435681576585328,-4.79840576171875,0.14591578674316408
1741432871.8408284,-2.755483388900757,0.0009282416844457066,-0.024678435323614762,-0.9996950100892539,0.18041498959064484,-0.3112598955631256,-0.6327603459358215,-8.214086532592773,-3.451742649078369,12.9215087890625,-0.09479713439941406,0.033379554748535156,0.25616082549095154,-1.2535521984100342,0.005912871100008488,-0.9157320261001587,0.1192111074924469,1.2485930919647217,0.005149920005351305,0.951972246170044,0.11615930497646332,-0.7024872303009033,-0.0555046908557415,-0.03185320645570755,0.8154039978981018,-0.28263574838638306,0.029814904555678368,-0.4396505653858185,-0.05283436179161072,-0.1371404528617859,1.1446174383163452,-0.4123951494693756,-0.017423594370484352,0.27984291315078735,0.3903845548629761,-3.6375882625579834,-0.1288471817970276,-0.03289792314171791,-0.015228555537760258,3.848701000213623,0.8273721933364868,0.001773556345142424,-0.2713073492050171,0.0237427931278944,1.839756727218628,-0.22907821834087372,-0.8977123498916626,0.2552535831928253,-0.2941720187664032,-0.03370559215545654,-4.346876621246338,0.09297186881303787,1.0917853116989136,7.611954689025879,2.0239145755767822,0.2217274308204651,1741432871.8882785,1741432872039,-0.2584810485839844,1.0073690185546875,-2.3435681576585328,-4.79840576171875,0.14591578674316408
1741432871.8596706,-2.7766484022140503,0.003700262106312575,-0.02404903194364043,-0.9997039322333979,-0.052773866802453995,0.08340955525636673,-1.0906113386154175,7.639912128448486,4.548727035522461,8.52078628540039,-0.10166358947753906,0.02498626708984375,0.17986571788787842,-1.2505004405975342,0.006294346414506435,-0.9157320261001587,0.1684214472770691,1.2577484846115112,0.005149920005351305,0.9477760195732117,0.1184481605887413,-0.657473087310791,-0.05207141116261482,-0.03681239113211632,0.8218890428543091,-0.29042693972587585,0.01607830822467804,-0.5312047004699707,-0.045204851776361465,-0.13103684782981873,1.3052185773849487,-0.396206259727478,-0.004003601148724556,-0.17389708757400513,-0.06718586385250092,-3.789191722869873,0.25560474395751953,0.0019003861816599965,0.008802111260592937,3.2439939975738525,0.6669799089431763,0.01833493448793888,-0.25463390350341797,0.1437636762857437,2.1629011631011963,0.29975080490112305,-0.2724018096923828,0.122755266726017,-0.4985543489456177,-0.6026966571807861,-4.610915184020996,0.28392577171325684,0.25882041454315186,7.6699724197387695,0.4407767057418823,0.6350908875465393,1741432871.8882785,1741432872039,-0.2584810485839844,1.0073690185546875,-2.3435681576585328,-4.79840576171875,0.14591578674316408
1741432871.8796895,-2.802658438682556,-0.0026486799350397524,-0.023971203754989782,-0.9997091406429864,-0.0048437160439789295,-0.3434436023235321,-1.2654021978378296,-4.9158244132995605,-0.47587481141090393,13.929485321044922,-0.10357093811035156,0.02536773681640625,0.10700388997793198,-1.2436338663101196,0.005912871100008488,-0.9153505563735962,0.22030213475227356,1.2638521194458008,0.005531395319849253,0.9458686113357544,0.12417028844356537,-0.6239032745361328,-0.03604944050312042,-0.03681239113211632,0.8173113465309143,-0.3118095099925995,0.014813689514994621,-0.6235218048095703,-0.04100862145423889,-0.135233074426651,1.41317617893219,-0.4189802408218384,-0.008872101083397865,-0.06592075526714325,-0.026496971026062965,-3.6741387844085693,0.4477255642414093,-0.010610879398882389,-0.004119126591831446,3.549485206604004,0.3083876669406891,0.00495431711897254,-0.10763601958751678,0.24052055180072784,1.8764278888702393,0.8365712761878967,0.11424124985933304,-0.10136859863996506,-1.1344236135482788,0.02815902791917324,-4.104368209838867,0.2809741795063019,-0.3092082440853119,4.745206832885742,-1.3808367252349854,-0.32893627882003784,1741432871.8882785,1741432872039,-0.2584810485839844,1.0073690185546875,-2.3435681576585328,-4.79840576171875,0.14591578674316408
1741432871.8996844,-2.8263561725616455,-0.0007180750218582994,-0.021768373996430276,-0.9997627829949536,-0.11301645636558533,0.02747863344848156,-1.0467664003372192,4.9985809326171875,-0.2838592231273651,9.379477500915527,-0.10471534729003906,0.02422332763671875,0.040245670825242996,-1.23600435256958,0.005912871100008488,-0.916876494884491,0.2740901708602905,1.2676668167114258,0.00476844422519207,0.9439612627029419,0.1192111074924469,-0.568970799446106,-0.02040894143283367,-0.03643091395497322,0.8127336502075195,-0.3424280285835266,0.009136687964200974,-0.6929503083229065,-0.03299763426184654,-0.15506981313228607,1.4505608081817627,-0.4576851725578308,-0.005003791768103838,-0.046190980821847916,-0.027407223358750343,-3.383457660675049,0.48870545625686646,0.01769295148551464,-0.044354911893606186,3.615386962890625,0.17822816967964172,-0.03381645679473877,-0.14041191339492798,-0.11673426628112793,2.5868797302246094,0.8218590617179871,0.007398799527436495,-0.4217129945755005,-1.6208983659744263,-0.41171160340309143,-3.4112415313720703,0.4124070107936859,-0.8481523394584656,1.312241792678833,-1.9993007183074951,0.2775847911834717,1741432871.8882785,1741432872039,-0.2584810485839844,1.0073690185546875,-2.3435681576585328,-4.79840576171875,0.14591578674316408
1741432871.9197288,-2.8357168436050415,-0.006564552778501911,-0.016609187803803178,-0.9998405080448163,-0.2789232134819031,-0.28076621890068054,-0.42204898595809937,-3.697136402130127,0.6447628140449524,9.072667121887207,-0.10738563537597656,0.02689361572265625,-0.012397955171763897,-1.232571005821228,0.005149920005351305,-0.918402373790741,0.3282597064971924,1.2672853469848633,0.00476844422519207,0.9412909150123596,0.11043716967105865,-0.5289158225059509,-0.005531395319849253,-0.03452353551983833,0.7993820309638977,-0.3836262822151184,0.003481580875813961,-0.7494087219238281,-0.03337911143898964,-0.16918440163135529,1.419661283493042,-0.48835113644599915,0.010447674430906773,-0.07396623492240906,0.1191209927201271,-2.6286635398864746,0.2162884622812271,-0.13884055614471436,-0.12685465812683105,3.580972671508789,0.0028480261098593473,0.01805754192173481,-0.23263764381408691,-0.5528331398963928,1.9929672479629517,0.7428047060966492,0.15663595497608185,-0.6675108075141907,-2.0938754081726074,-0.26862311363220215,-2.572333812713623,-0.005307472310960293,-0.7832037806510925,-1.9641482830047607,-1.3755455017089844,0.7259075045585632,1741432871.8882785,1741432872039,-0.2584810485839844,1.0073690185546875,-2.3435681576585328,-4.79840576171875,0.14591578674316408
1741432871.9397092,-2.8387264013290405,-0.00646684141953485,-0.011537136612804097,-0.9999125333952125,-0.24477022886276245,0.03824895620346069,-0.19917844235897064,-1.2747126817703247,-3.1374831199645996,6.855377197265625,-0.10700416564941406,0.02307891845703125,-0.0711451917886734,-1.232571005821228,0.007438773289322853,-0.9252689480781555,0.3839551508426666,1.2672853469848633,0.005149920005351305,0.9378576278686523,0.10090028494596481,-0.47436484694480896,0.009727626107633114,-0.034142062067985535,0.7864118218421936,-0.426108181476593,-0.003763834945857525,-0.7883192300796509,-0.037193864583969116,-0.1806286722421646,1.3441290855407715,-0.4915494918823242,0.008386669680476189,-0.005871413741260767,-0.08089547604322433,-2.814743995666504,-0.010516148991882801,0.13611415028572083,-0.47387561202049255,3.799469232559204,-0.04863015562295914,0.0306206364184618,-0.3274379074573517,-0.40537160634994507,2.8409132957458496,0.6984813809394836,0.06453132629394531,-0.6471420526504517,-2.1026487350463867,-0.3355703353881836,-1.9355908632278442,-0.2263735979795456,-0.5286058187484741,-3.960096597671509,0.09255484491586685,-0.061733271926641464,1741432871.8882785,1741432872039,-0.2584810485839844,1.0073690185546875,-2.3435681576585328,-4.79840576171875,0.14591578674316408
1741432871.959782,-2.841930389404297,-0.006851795067413641,-0.006419815432341725,-0.9999559184654936,-0.26635023951530457,-0.06232697144150734,-0.163514643907547,-4.284726619720459,0.4484935998916626,8.985991477966309,-0.10814857482910156,0.02155303955078125,-0.11234454810619354,-1.230282187461853,0.005531395319849253,-0.9424353241920471,0.4377431869506836,1.2634705305099487,0.004386968910694122,0.9298466444015503,0.10051880776882172,-0.43240252137184143,0.01773861236870289,-0.03032730519771576,0.7654306888580322,-0.46462303400039673,-0.008748832158744335,-0.8127336502075195,-0.0551232174038887,-0.18940261006355286,1.2392233610153198,-0.4619118869304657,0.013294731266796589,-0.036396324634552,0.010628432966768742,-1.8180561065673828,0.16387777030467987,0.011867662891745567,-0.800082802772522,3.2861266136169434,-0.3282967805862427,-0.022740691900253296,-0.49674859642982483,0.15658167004585266,1.99603271484375,0.3147693872451782,0.10871739685535431,-1.0778964757919312,-1.8740599155426025,-0.14142288267612457,-1.0782222747802734,-1.0582767724990845,-0.3490811586380005,-5.277474403381348,1.6359295845031738,0.2520430088043213,1741432871.9989426,1741432872139,-0.3563427124023438,0.9827808227539063,-2.42146764873806,-4.8937998046875,0.09836946868896485
1741432871.97976,-2.8455244302749634,-0.0015932483610061011,-0.002992775407006903,-0.9999942524109942,-0.12790518999099731,0.2561631500720978,-0.2047244906425476,2.3602135181427,-1.7528352737426758,3.737166166305542,-0.10509681701660156,0.00514984130859375,-0.13065537810325623,-1.227230429649353,0.005912871100008488,-0.9584572911262512,0.4697871506214142,1.2592743635177612,0.00476844422519207,0.9233615398406982,0.11654078215360641,-0.38204777240753174,0.02079041674733162,-0.038719769567251205,0.7475013136863708,-0.4949406683444977,-0.0030076950788497925,-0.8161669373512268,-0.08487831056118011,-0.20160982012748718,1.119439959526062,-0.41694653034210205,0.010836978442966938,0.07574877887964249,-0.3807167410850525,-0.691922664642334,0.21658620238304138,-0.003585199825465679,-0.7680125832557678,1.9380064010620117,-0.30131834745407104,0.014560162089765072,-0.4316173195838928,0.8157984614372253,2.329516887664795,0.12449437379837036,-0.5209689736366272,-1.0387972593307495,-1.5068261623382568,0.44022202491760254,0.02958778664469719,-1.523077130317688,-0.6325012445449829,-6.092851161956787,2.2393481731414795,-0.09844417124986649,1741432871.9989426,1741432872139,-0.3563427124023438,0.9827808227539063,-2.42146764873806,-4.8937998046875,0.09836946868896485
1741432871.9998527,-2.8502578735351562,0.0024567540701513246,-0.0033626105166662066,-0.9999913285673792,0.04646060988306999,0.25269871950149536,-0.2139403223991394,1.1839956045150757,-2.5469653606414795,6.1845245361328125,-0.10128211975097656,0.00019073486328125,-0.12378881871700287,-1.2260860204696655,0.005912871100008488,-0.969520092010498,0.4842832088470459,1.2527892589569092,0.004386968910694122,0.9187838435173035,0.1363775134086609,-0.3389410376548767,0.010872052982449532,-0.04901960864663124,0.7280460596084595,-0.5148723721504211,-0.003931319806724787,-0.7982375621795654,-0.11654078215360641,-0.22678720951080322,0.9889753460884094,-0.36973145604133606,0.005167356226593256,0.10815492272377014,-0.1312054991722107,0.45070478320121765,0.051917292177677155,-0.006607190240174532,-0.516128659248352,0.7721583843231201,-0.4969693422317505,-0.012219400145113468,-0.28339847922325134,0.9793224334716797,2.404191493988037,-0.4801448583602905,-0.5897213816642761,-0.7849836349487305,-0.8966625928878784,-0.10566569864749908,0.8943343758583069,-1.4874242544174194,-1.3854848146438599,-6.4696197509765625,2.3846023082733154,-0.2633112370967865,1741432871.9989426,1741432872139,-0.3563427124023438,0.9827808227539063,-2.42146764873806,-4.8937998046875,0.09836946868896485
1741432872.0198133,-2.8541676998138428,0.005402267244495496,-0.008353269472354052,-0.9999505179746353,0.3066651523113251,0.04961741343140602,-0.20374886691570282,-1.1419732570648193,-5.563169479370117,6.6535444259643555,-0.09937477111816406,0.00247955322265625,-0.09746700525283813,-1.2260860204696655,0.005912871100008488,-0.9740977883338928,0.4835202693939209,1.2466856241226196,0.004386968910694122,0.9153505563735962,0.14858472347259521,-0.28515297174453735,-0.00019073777366429567,-0.06504157930612564,0.7131685614585876,-0.5103959441184998,-0.00626572547480464,-0.7822155952453613,-0.14400701224803925,-0.2630273997783661,0.8627069592475891,-0.3300991356372833,-0.0028592776507139206,0.07106618583202362,0.06616828590631485,1.4553849697113037,-0.02914099022746086,-0.00022250575420912355,-0.17781567573547363,-0.09944377094507217,-0.4438493847846985,0.01632406935095787,-0.19587016105651855,0.5003712773323059,2.5750927925109863,-0.6872169971466064,-0.649448573589325,-0.8206939101219177,0.43879371881484985,-0.16702063381671906,0.9843133687973022,-1.402861475944519,-1.5665287971496582,-6.093684196472168,1.7902936935424805,-0.41616204380989075,1741432871.9989426,1741432872139,-0.3563427124023438,0.9827808227539063,-2.42146764873806,-4.8937998046875,0.09836946868896485
1741432872.0398686,-2.8555495738983154,0.0024737213189181657,-0.013743038563467513,-0.999902500043819,0.2811175286769867,-0.19223888218402863,-0.08555891364812851,2.5411746501922607,8.181000709533691,9.055933952331543,-0.09288883209228516,0.00705718994140625,-0.051689937710762024,-1.226467490196228,0.005912871100008488,-0.9752422571182251,0.4682612419128418,1.2405821084976196,0.004005493130534887,0.9130617380142212,0.14629587531089783,-0.23403525352478027,-0.025749599561095238,-0.06618601083755493,0.7169833183288574,-0.49671831727027893,0.003264601342380047,-0.7578011751174927,-0.1657511293888092,-0.28591591119766235,0.7642862796783447,-0.31827056407928467,-0.010618958622217178,0.18345320224761963,0.14215196669101715,2.5074636936187744,0.012209088541567326,-0.0073536294512450695,-0.056940995156764984,-1.2661281824111938,-0.3408248722553253,-0.00029396035824902356,-0.0968564823269844,-0.20239660143852234,2.3738207817077637,-1.0850926637649536,-0.08955740928649902,0.4555620849132538,0.5587704181671143,0.4665620028972626,1.2149235010147095,-0.9713176488876343,-1.0067048072814941,-4.669958591461182,0.3598412871360779,-0.3341201841831207,1741432871.9989426,1741432872139,-0.3563427124023438,0.9827808227539063,-2.42146764873806,-4.8937998046875,0.09836946868896485
1741432872.0598338,-2.856485605239868,-0.005467177141011112,-0.0278455091950418,-0.9995972877072934,0.7007456421852112,-0.4671616554260254,0.015722552314400673,-22.005813598632812,-2.1253106594085693,18.214900970458984,-0.08640384674072266,0.02117156982421875,0.010872052982449532,-1.2299007177352905,0.006294346414506435,-0.9744792580604553,0.4404135048389435,1.23753023147583,0.004005493130534887,0.9119172692298889,0.13828489184379578,-0.20847637951374054,-0.026131074875593185,-0.0707637146115303,0.7688639760017395,-0.49076586961746216,0.011597352102398872,-0.7413977384567261,-0.15812161564826965,-0.28439003229141235,0.7528420090675354,-0.31196439266204834,-0.024987295269966125,0.17126326262950897,0.28981664776802063,2.9825963973999023,-0.3759917914867401,0.0173170268535614,0.052380725741386414,-1.8934763669967651,-0.21389947831630707,-0.02022235468029976,-0.14596959948539734,-0.4243009388446808,0.9122815132141113,0.19903482496738434,-0.3783913850784302,2.9967973232269287,0.3184724748134613,0.3987533450126648,0.9921888709068298,0.7228046655654907,0.33794105052948,0.8524628281593323,0.34874773025512695,-0.7513425350189209,1741432872.11905,1741432872339,-0.577011474609375,0.943369384765625,-2.4557432125293337,-5.0775341796875,0.013076962471008301
1741432872.0798593,-2.8574780225753784,-0.001660793489052334,-0.03348619430543269,-0.9994378002436798,0.2275020331144333,0.30721089243888855,0.02956191636621952,6.882142543792725,1.5646488666534424,5.314379692077637,-0.08869266510009766,0.02079010009765625,0.08182650804519653,-1.23753023147583,0.005912871100008488,-0.9744792580604553,0.3885328471660614,1.2371487617492676,0.004005493130534887,0.9111543297767639,0.11959258466959,-0.22793163359165192,-0.03490501269698143,-0.07457847148180008,0.8741512298583984,-0.4645906984806061,0.019163625314831734,-0.7143129706382751,-0.13790340721607208,-0.23823148012161255,0.8020523190498352,-0.3192455470561981,-0.03521689772605896,-0.15116341412067413,-0.027860593050718307,3.5752058029174805,-0.36026516556739807,0.007125874515622854,0.019549570977687836,-3.747161865234375,0.0908757671713829,0.015690911561250687,0.06195038929581642,-0.8787159323692322,-1.2803646326065063,-0.5574344396591187,-0.32851672172546387,5.685852527618408,1.583949327468872,0.36776697635650635,0.6870583295822144,0.8386322259902954,2.624704360961914,1.8743709325790405,-0.4726743996143341,-0.4305894672870636,1741432872.11905,1741432872339,-0.577011474609375,0.943369384765625,-2.4557432125293337,-5.0775341796875,0.013076962471008301
1741432872.0998664,-2.85313618183136,0.0012395158728543637,-0.033484215405283055,-0.9994384778059595,-0.06648023426532745,0.22119009494781494,0.2688492238521576,-4.02052640914917,2.7203257083892822,16.38714027404785,-0.07495975494384766,0.02613067626953125,0.15316243469715118,-1.23905611038208,0.005531395319849253,-0.9725719094276428,0.31681543588638306,1.2436338663101196,0.005149920005351305,0.9126802682876587,0.11425192654132843,-0.30270084738731384,-0.05397878959774971,-0.10700388997793198,1.0320820808410645,-0.4195653200149536,0.029452674090862274,-0.7024872303009033,-0.11654078215360641,-0.20351719856262207,0.8093003630638123,-0.3260003328323364,-0.031632427126169205,0.3741450011730194,0.16540101170539856,3.5615015029907227,-0.11577951163053513,-0.05066784843802452,0.06424888968467712,-4.824260234832764,0.3996342718601227,0.068410724401474,0.02529674768447876,-0.18711204826831818,-3.590601921081543,-1.0847671031951904,-1.722756028175354,8.055929183959961,2.296790599822998,0.5907644033432007,0.9597005248069763,1.2285419702529907,1.2593679428100586,0.37534016370773315,-0.17165488004684448,0.2522141933441162,1741432872.11905,1741432872339,-0.577011474609375,0.943369384765625,-2.4557432125293337,-5.0775341796875,0.013076962471008301
1741432872.1200087,-2.842317819595337,0.007125283369005168,-0.020305130582240354,-0.9997684391942715,-0.725985050201416,0.23541750013828278,0.6402637958526611,3.4442381858825684,3.9943253993988037,9.032190322875977,-0.07381534576416016,0.02918243408203125,0.22106507420539856,-1.2405821084976196,0.006294346414506435,-0.9699015617370605,0.23708705604076385,1.2527892589569092,0.005149920005351305,0.9126802682876587,0.12111848592758179,-0.4091325104236603,-0.08411535620689392,-0.14476996660232544,1.2140458822250366,-0.37603357434272766,0.0230578426271677,-0.6631952524185181,-0.09899290651082993,-0.19169145822525024,0.8184558153152466,-0.3263343870639801,-0.029878851026296616,0.04485473036766052,0.13911668956279755,3.1568093299865723,-0.07708807289600372,0.023624693974852562,0.1907036453485489,-5.347370624542236,0.6576083898544312,0.018478263169527054,0.0008956592064350843,0.4453881084918976,-5.485061168670654,-1.5552445650100708,-1.6567785739898682,8.880229949951172,2.006880760192871,-0.6627917289733887,1.816367745399475,0.6020421981811523,0.4344075620174408,0.30596619844436646,-0.08248665928840637,0.20514966547489166,1741432872.11905,1741432872339,-0.577011474609375,0.943369384765625,-2.4557432125293337,-5.0775341796875,0.013076962471008301
1741432872.1399086,-2.8248900175094604,0.002960808440155956,-0.005976142526640945,-0.9999777594196193,-0.7111158967018127,-0.18503612279891968,0.8939415812492371,1.261923909187317,1.4022493362426758,11.40701961517334,-0.06542301177978516,0.057030677795410156,0.28324559330940247,-1.2428709268569946,0.006294346414506435,-0.959983229637146,0.16079194843769073,1.2573670148849487,0.00476844422519207,0.9134432077407837,0.12989242374897003,-0.5277714133262634,-0.11730372905731201,-0.1489662081003189,1.3712139129638672,-0.3703851103782654,0.0038732020184397697,-0.6250476837158203,-0.09861142933368683,-0.1981765478849411,0.8150225281715393,-0.33119162917137146,-0.015156102366745472,0.27219343185424805,0.7807037830352783,2.823594093322754,-0.17753362655639648,-0.004835805390030146,0.5223289132118225,-5.00687837600708,0.12500517070293427,-0.0320088192820549,0.08064025640487671,0.38277825713157654,-5.935007572174072,-1.6531389951705933,0.1350671499967575,7.287548542022705,-0.09461675584316254,-0.6777926087379456,2.107821464538574,0.03042396530508995,-0.3010976016521454,-0.07900415360927582,-0.2368752360343933,0.7107616066932678,1741432872.11905,1741432872339,-0.577011474609375,0.943369384765625,-2.4557432125293337,-5.0775341796875,0.013076962471008301
1741432872.1632097,-2.8031272888183594,0.0005932974979526248,0.005356333205671463,-0.9999854787409008,-0.502605676651001,-0.11493191123008728,1.1184473037719727,0.10085589438676834,4.194196701049805,12.186860084533691,-0.056649208068847656,0.061608314514160156,0.3416113555431366,-1.2455412149429321,0.006294346414506435,-0.9470130205154419,0.09021896868944168,1.2535521984100342,0.0032425422687083483,0.916113555431366,0.134470134973526,-0.6383993029594421,-0.12417028844356537,-0.1184481605887413,1.4658198356628418,-0.40714800357818604,0.010281016118824482,-0.5796520709991455,-0.09632257372140884,-0.1977950781583786,0.8146410584449768,-0.334522008895874,-0.00783074926584959,0.2262674868106842,0.1978124976158142,2.98502254486084,-0.12844820320606232,-0.005753294564783573,0.6732317209243774,-4.6134209632873535,-0.3006736636161804,-0.07930964976549149,0.19226549565792084,0.19818523526191711,-5.352599620819092,-0.11771787703037262,1.6631066799163818,4.05094575881958,-2.068687677383423,0.33026692271232605,2.2413368225097656,0.19635944068431854,0.05348274111747742,-0.07888052612543106,-0.19552235305309296,0.3707019090652466,1741432872.11905,1741432872339,-0.577011474609375,0.943369384765625,-2.4557432125293337,-5.0775341796875,0.013076962471008301
1741432872.1799648,-2.7832483053207397,-0.003321314177820782,0.005646224923183059,-0.9999785442779504,0.017001133412122726,-0.18609173595905304,0.8895514607429504,-1.4270740747451782,-2.508164405822754,9.299491882324219,-0.048638343811035156,0.059700965881347656,0.3892957866191864,-1.2524077892303467,0.005912871100008488,-0.9351872801780701,0.03223468363285065,1.2451597452163696,0.004005493130534887,0.919165313243866,0.12531471252441406,-0.7337682247161865,-0.1203555315732956,-0.07000076025724411,1.4829862117767334,-0.4565882980823517,0.003283084835857153,-0.5437933802604675,-0.08106355369091034,-0.1844434291124344,0.8070115447044373,-0.34782567620277405,0.002690151333808899,0.2676040530204773,-0.05669303238391876,2.2532570362091064,-0.5237569212913513,-0.015468763187527657,0.5475810170173645,-3.7453978061676025,-0.6161428093910217,0.05971096456050873,0.17545291781425476,-0.5011746287345886,-4.521655082702637,0.23058916628360748,2.6787543296813965,0.20380853116512299,-2.4142184257507324,-0.4796220362186432,1.8933899402618408,0.6983877420425415,0.7739050984382629,-0.3065055310726166,-0.7932788729667664,0.6069886684417725,1741432872.11905,1741432872339,-0.577011474609375,0.943369384765625,-2.4557432125293337,-5.0775341796875,0.013076962471008301
1741432872.2000825,-2.773876667022705,-0.0014292576606449166,0.0036152038531807474,-0.9999924437332711,0.13059525191783905,0.10562366247177124,0.3081459403038025,-1.2713112831115723,1.748024344444275,9.551519393920898,-0.041771888732910156,0.052834510803222656,0.422102689743042,-1.2543151378631592,0.005912871100008488,-0.9287022352218628,-0.01125352829694748,1.2348599433898926,0.0036240178160369396,0.9222171306610107,0.1188296303153038,-0.804341197013855,-0.11005569249391556,-0.025749599561095238,1.427672266960144,-0.4892808496952057,-0.011949097737669945,-0.509079098701477,-0.06961929053068161,-0.1653696447610855,0.8085374236106873,-0.37936651706695557,0.007030798587948084,0.21079879999160767,-0.18907682597637177,1.559048056602478,-0.08681511133909225,-0.005247247871011496,0.2849040627479553,-2.752072811126709,-0.6258889436721802,-0.04246305674314499,0.1779996156692505,-0.26207810640335083,-3.302067756652832,0.6503901481628418,1.9804883003234863,-3.159236431121826,-1.4553306102752686,-0.5414474606513977,1.6108169555664062,0.47320556640625,0.9423815011978149,0.09239127486944199,-1.6700280904769897,0.18468621373176575,1741432872.11905,1741432872339,-0.577011474609375,0.943369384765625,-2.4557432125293337,-5.0775341796875,0.013076962471008301
1741432872.2201843,-2.767756223678589,0.0013118543159005107,-0.001809310068706461,-0.9999975027145463,0.2687618136405945,0.12690049409866333,0.4387647211551666,-7.4387969970703125,1.1918810606002808,9.851754188537598,-0.042153358459472656,0.045205116271972656,0.46139466762542725,-1.2581299543380737,0.006294346414506435,-0.918402373790741,-0.06313420087099075,1.228756308555603,0.0036240178160369396,0.9309910535812378,0.10585946589708328,-0.8520256280899048,-0.10013733059167862,-0.004005493130534887,1.3220034837722778,-0.48350656032562256,-0.012705721892416477,-0.49229419231414795,-0.06885633617639542,-0.16422522068023682,0.8127336502075195,-0.42124316096305847,0.018374333158135414,-0.024489333853125572,-0.18338273465633392,2.0018362998962402,-0.2745649218559265,-0.043986525386571884,0.49780723452568054,-3.4157111644744873,-0.4431445002555847,0.01558706909418106,0.7061712145805359,-0.8419976234436035,-2.231806516647339,0.4434472322463989,0.9258835911750793,-5.5797271728515625,0.6427037715911865,0.009111250750720501,1.0923250913619995,-0.1569172888994217,0.07675640285015106,0.348322331905365,-2.1271989345550537,0.6187866926193237,1741432872.3059433,1741432872439,-0.6699432983398438,0.9024713745117188,-2.3468103543381815,-5.15738525390625,-0.034910545349121094
1741432872.2402046,-2.7623751163482666,0.011789600110029847,-0.006088422819099734,-0.9999119643432723,0.2250356674194336,0.5118986964225769,0.21649843454360962,0.668574869632721,-1.3616377115249634,8.349804878234863,-0.036812782287597656,0.036431312561035156,0.4819943606853485,-1.2566040754318237,0.006294346414506435,-0.9138246774673462,-0.09784847497940063,1.2234156131744385,0.0032425422687083483,0.9466315507888794,0.08602273464202881,-0.8714808821678162,-0.08411535620689392,0.0009536888683214784,1.1781872510910034,-0.4435851275920868,-0.012880767695605755,-0.4659723937511444,-0.07305257022380829,-0.15583276748657227,0.8218890428543091,-0.46342819929122925,0.029416611418128014,0.12885044515132904,-0.17314641177654266,0.8283539414405823,0.15088969469070435,0.023834161460399628,0.19945168495178223,-2.0976226329803467,-0.33352527022361755,-0.03671549633145332,1.0104819536209106,-0.9944651126861572,-0.673187792301178,0.8597162961959839,0.1773471236228943,-7.558162689208984,2.0538153648376465,0.046497561037540436,1.0936713218688965,-0.07277929782867432,0.4733874797821045,0.28085270524024963,-2.111452579498291,0.5881562232971191,1741432872.3059433,1741432872439,-0.6699432983398438,0.9024713745117188,-2.3468103543381815,-5.15738525390625,-0.034910545349121094
1741432872.2601793,-2.7574702501296997,0.023884761089467455,-0.010386397920941884,-0.999660762922066,0.2112729251384735,0.6012462377548218,0.25430071353912354,2.339301347732544,-0.4273824989795685,6.023592948913574,-0.037194252014160156,0.031472206115722656,0.4850461483001709,-1.2558410167694092,0.006294346414506435,-0.9134432077407837,-0.11272602528333664,1.2218897342681885,0.0032425422687083483,0.9618905782699585,0.054741740226745605,-0.8710994124412537,-0.05436026677489281,0.006294346414506435,1.0061417818069458,-0.3972816467285156,-0.005609535612165928,-0.44613564014434814,-0.06237125024199486,-0.13942931592464447,0.8287556171417236,-0.5008062124252319,0.03181580454111099,-0.0024636168964207172,-0.134782075881958,0.055928412824869156,0.03391216695308685,-0.003166183130815625,-0.020264344289898872,-0.6795794367790222,-0.07670392096042633,5.3035011660540476e-05,0.9269655346870422,-1.572143316268921,0.02870022878050804,1.6198817491531372,0.31635433435440063,-8.879634857177734,2.28242826461792,0.3003903031349182,1.1075830459594727,0.6025954484939575,0.9961687922477722,0.46212804317474365,-1.736596941947937,-0.0966016948223114,1741432872.3059433,1741432872439,-0.6699432983398438,0.9024713745117188,-2.3468103543381815,-5.15738525390625,-0.034910545349121094
1741432872.2802153,-2.751595377922058,0.03582749262439916,-0.01135969931831518,-0.9992934243772676,-0.009195814840495586,0.5929273366928101,0.29697129130363464,14.325251579284668,-6.8869948387146,4.931144714355469,-0.039101600646972656,0.02651214599609375,0.4724574685096741,-1.2539336681365967,0.006294346414506435,-0.916113555431366,-0.10509651154279709,1.2218897342681885,0.0032425422687083483,0.9706645011901855,0.02040894143283367,-0.8535515666007996,-0.027656977996230125,0.04139009863138199,0.8424887657165527,-0.348698228597641,0.007529309950768948,-0.4190509021282196,-0.03604944050312042,-0.1199740618467331,0.837911069393158,-0.5308234691619873,0.011140056885778904,-0.06364382058382034,-0.15996621549129486,-0.7893970608711243,0.1660395860671997,0.0011628307402133942,-0.12197474390268326,0.6848376393318176,-0.020213229581713676,0.002547970972955227,0.46152448654174805,-1.6878267526626587,0.7610599398612976,1.0850484371185303,1.8983267545700073,-7.426192760467529,2.720301389694214,0.9131083488464355,1.4500072002410889,1.3756600618362427,0.9774776101112366,0.4717557728290558,-1.465786337852478,-1.3808904886245728,1741432872.3059433,1741432872439,-0.6699432983398438,0.9024713745117188,-2.3468103543381815,-5.15738525390625,-0.034910545349121094
1741432872.3003926,-2.745291829109192,0.034350654617477695,-0.012733675555465297,-0.999328717707141,0.2660914361476898,0.06944310665130615,0.4462627172470093,0.4665811061859131,-10.850083351135254,9.51979923248291,-0.042916297912597656,0.044442176818847656,0.4507133662700653,-1.2474485635757446,0.00667582219466567,-0.9103913903236389,-0.07724879682064056,1.2218897342681885,0.0024795911740511656,0.9710460305213928,-0.0013351644156500697,-0.8127336502075195,-0.01201647985726595,0.10585946589708328,0.8592736721038818,-0.2888166606426239,0.0391397587954998,-0.37899595499038696,-0.029564354568719864,-0.10433356463909149,0.8497368097305298,-0.5315157771110535,0.013315555639564991,-0.17597462236881256,0.545771062374115,-1.248090386390686,0.4011770486831665,0.03684345632791519,0.2981027662754059,2.1018314361572266,-0.003699337597936392,-0.10368999093770981,0.027396688237786293,-0.5242366194725037,2.658360719680786,0.5234107375144958,2.5793964862823486,1.2554600238800049,2.492323398590088,1.5513477325439453,1.9671967029571533,0.40967702865600586,0.7280667424201965,0.41334080696105957,0.27542078495025635,0.4225175082683563,1741432872.3059433,1741432872439,-0.6699432983398438,0.9024713745117188,-2.3468103543381815,-5.15738525390625,-0.034910545349121094
1741432872.3235047,-2.7386077642440796,0.03890770715761557,-0.019198011897483446,-0.9990583699979303,0.33342137932777405,0.1128496453166008,0.22694258391857147,-4.809338569641113,-7.187125205993652,18.331398010253906,-0.040627479553222656,0.044442176818847656,0.39730677008628845,-1.2501189708709717,0.006294346414506435,-0.9157320261001587,-0.02689402550458908,1.2218897342681885,0.001716639962978661,0.970283031463623,0.0020981156267225742,-0.770008385181427,0.0020981156267225742,0.08525978773832321,0.8554589152336121,-0.27999740839004517,0.0474042147397995,-0.35038527846336365,-0.023079270496964455,-0.10013733059167862,0.8848325610160828,-0.5073249936103821,0.0022836558055132627,0.010539035312831402,-0.0554073192179203,-2.930617332458496,-0.2829287648200989,0.028060147538781166,-0.26535892486572266,3.473416566848755,-0.008721028454601765,-0.004533595405519009,-0.11011654883623123,0.12557823956012726,1.6458439826965332,0.5573359131813049,-1.5084120035171509,-0.4441302418708801,0.35257092118263245,0.27653583884239197,1.2415544986724854,0.1409013718366623,0.3687377870082855,2.372264862060547,1.251743197441101,-0.7600359320640564,1741432872.3059433,1741432872439,-0.6699432983398438,0.9024713745117188,-2.3468103543381815,-5.15738525390625,-0.034910545349121094
1741432872.3403509,-2.7356879711151123,0.04011277224741114,-0.022126906451845323,-0.9989501316449678,0.11384503543376923,0.13214389979839325,0.05634713172912598,2.138056993484497,-7.6231689453125,9.83081340789795,-0.052834510803222656,0.048638343811035156,0.3290226459503174,-1.2524077892303467,0.005149920005351305,-0.916113555431366,0.023079270496964455,1.223797082901001,0.0032425422687083483,0.9653238654136658,0.012779430486261845,-0.7223239541053772,-0.015449759550392628,0.06046387553215027,0.8646143078804016,-0.2781899869441986,0.03908427432179451,-0.3721294105052948,-0.037193864583969116,-0.0711451917886734,0.9969863295555115,-0.4759998917579651,-0.010352061130106449,-0.35112762451171875,-0.10997746884822845,-3.4864442348480225,-0.14707784354686737,-0.12607358396053314,-0.004405468236654997,3.293308973312378,0.2424403578042984,0.06664309650659561,-0.3923962414264679,0.4516327977180481,2.287325143814087,-1.5924098491668701,-1.0680261850357056,0.4359910786151886,-0.039368998259305954,-0.35526907444000244,-1.5310109853744507,-0.4282515347003937,1.6317135095596313,6.3258891105651855,1.7033263444900513,-0.5321206450462341,1741432872.3059433,1741432872439,-0.6699432983398438,0.9024713745117188,-2.3468103543381815,-5.15738525390625,-0.034910545349121094
1741432872.3603518,-2.7425421476364136,0.03704929853305394,-0.025751346870140305,-0.9989815902270582,0.22314147651195526,-0.0931820347905159,-0.3560020625591278,-5.767917156219482,-1.6570603847503662,14.675457000732422,-0.044823646545410156,0.06427860260009766,0.2588311731815338,-1.2508819103240967,0.005912871100008488,-0.9138246774673462,0.07495994865894318,1.2421079874038696,0.00476844422519207,0.9588387608528137,0.020027466118335724,-0.6872282028198242,-0.03490501269698143,0.040245670825242996,0.8672846555709839,-0.29544591903686523,0.03392649441957474,-0.4526207447052002,-0.02994582988321781,-0.04444190114736557,1.1751353740692139,-0.4308713376522064,-0.016574077308177948,0.21781332790851593,0.36934128403663635,-3.4995312690734863,0.09999465197324753,0.028449449688196182,0.13187631964683533,3.533855438232422,1.2998617887496948,0.11479194462299347,-0.4371114671230316,0.4641006290912628,1.8214902877807617,-0.7759009599685669,-0.7586106657981873,0.2772144377231598,-1.0156233310699463,-0.2570420801639557,-3.966822624206543,0.46607890725135803,1.2764606475830078,9.02629280090332,2.3126232624053955,-0.4832242727279663,1741432872.401753,1741432872539,-0.7789942626953125,0.8599210205078125,-2.3452390815334923,-5.241716796875,-0.07624263763427734
1741432872.3804016,-2.7518205642700195,0.04012536848045834,-0.030413006599221925,-0.9987316976214899,0.2784338593482971,0.06577631086111069,-0.4738175868988037,-8.89207935333252,-0.11363788694143295,11.885987281799316,-0.053978919982910156,0.058556556701660156,0.1806286722421646,-1.2478300333023071,0.006294346414506435,-0.9142061471939087,0.1325627565383911,1.2592743635177612,0.00476844422519207,0.953498125076294,0.03147173300385475,-0.6498435735702515,-0.03795681521296501,0.04139009863138199,0.8691920638084412,-0.3230346143245697,0.021405087783932686,-0.5617227554321289,-0.01201647985726595,-0.03032730519771576,1.359006643295288,-0.3936217725276947,-0.0075755356810987,-0.23978839814662933,-0.15987823903560638,-4.002866744995117,0.20344631373882294,0.04393596947193146,0.002472846768796444,3.8401806354522705,1.0618653297424316,-0.011581501923501492,-0.3421737551689148,0.5801946520805359,1.7569860219955444,0.1520622968673706,-0.00963574182242155,-0.17072902619838715,-1.401077389717102,-0.5423906445503235,-5.419833660125732,1.049755573272705,0.569159984588623,8.912938117980957,1.6219170093536377,0.7024732232093811,1741432872.401753,1741432872539,-0.7789942626953125,0.8599210205078125,-2.3452390815334923,-5.241716796875,-0.07624263763427734
1741432872.4004428,-2.7626376152038574,0.04169757629221352,-0.0373115318582592,-0.9984333536705117,0.3712972402572632,0.04854760691523552,-0.5042683482170105,0.24971677362918854,-3.1575279235839844,10.94198989868164,-0.057412147521972656,0.058556556701660156,0.10013733059167862,-1.2474485635757446,0.005912871100008488,-0.916113555431366,0.19207294285297394,1.2695741653442383,0.00476844422519207,0.9477760195732117,0.038719769567251205,-0.6002517938613892,-0.03185320645570755,0.04253452271223068,0.8558403849601746,-0.3537214398384094,0.017353106290102005,-0.6692988276481628,0.00667582219466567,-0.021171892061829567,1.4875638484954834,-0.395145446062088,-0.002418813994154334,-0.13674449920654297,-0.026123270392417908,-3.971392869949341,-0.020151956006884575,-0.014366211369633675,-0.08440487831830978,4.01127290725708,0.6147142648696899,0.005931418389081955,-0.43492400646209717,0.29516834020614624,2.5100209712982178,0.1995474100112915,0.04387828707695007,-0.7410962581634521,-1.5283678770065308,-0.04300154373049736,-5.083714962005615,1.0396475791931152,0.45482420921325684,5.805058002471924,-0.36582040786743164,0.05561022087931633,1741432872.401753,1741432872539,-0.7789942626953125,0.8599210205078125,-2.3452390815334923,-5.241716796875,-0.07624263763427734
1741432872.4204345,-2.7724443674087524,0.04073319611051359,-0.04260742209390888,-0.9982611954379144,0.27206408977508545,-0.09933114796876907,-0.4873453378677368,-1.385846495628357,-1.8326613903045654,10.655272483825684,-0.06389713287353516,0.058938026428222656,0.029564354568719864,-1.2470670938491821,0.005912871100008488,-0.918402373790741,0.25158312916755676,1.2741519212722778,0.00476844422519207,0.9435797929763794,0.04634927958250046,-0.5403600931167603,-0.031090257689356804,0.04253452271223068,0.8249408602714539,-0.3862435817718506,0.013889268040657043,-0.7631418108940125,0.018120087683200836,-0.02841992862522602,1.5306706428527832,-0.42534348368644714,-0.008725539781153202,-0.19355075061321259,0.0034275338985025883,-3.4061124324798584,0.07419776171445847,-0.00015265190450008959,-0.15315726399421692,3.836190700531006,0.227085679769516,0.013147332705557346,-0.2998853325843811,0.4071488380432129,3.079472541809082,0.03199795261025429,0.00045169491204433143,-1.671737551689148,-1.620406985282898,-0.2289005070924759,-4.704560279846191,0.4527595341205597,-0.3121972978115082,1.460167646408081,-1.6837689876556396,-0.22090043127536774,1741432872.401753,1741432872539,-0.7789942626953125,0.8599210205078125,-2.3452390815334923,-5.241716796875,-0.07624263763427734
1741432872.4405077,-2.784441828727722,0.03998493352192389,-0.04583485496231478,-0.9981484715020261,0.17190000414848328,-0.053233493119478226,-0.6261252164840698,2.23429274559021,-2.837711811065674,6.472024440765381,-0.06923770904541016,0.052453041076660156,-0.023460745811462402,-1.2447782754898071,0.005912871100008488,-0.9222171306610107,0.3084229826927185,1.2752963304519653,0.00476844422519207,0.9382390975952148,0.04787518084049225,-0.47436484694480896,-0.031090257689356804,0.04291599988937378,0.7845044732093811,-0.41959109902381897,0.004954189993441105,-0.8390554785728455,0.009346150793135166,-0.03757534176111221,1.4993896484375,-0.4555540382862091,0.004678765311837196,-0.17046771943569183,-0.17653383314609528,-2.4766194820404053,0.10547596216201782,-0.021618317812681198,-0.2152564823627472,3.745532751083374,0.07483905553817749,0.005173897836357355,-0.35466843843460083,0.003851909190416336,3.229640007019043,0.003971810918301344,0.02412855066359043,-1.958158254623413,-1.6607980728149414,-0.4234417676925659,-3.602360725402832,-0.6160234808921814,-0.45055681467056274,-2.0786776542663574,-1.3999786376953125,0.7477643489837646,1741432872.401753,1741432872539,-0.7789942626953125,0.8599210205078125,-2.3452390815334923,-5.241716796875,-0.07624263763427734
1741432872.4604442,-2.795948624610901,0.0398946561472633,-0.04812498616642607,-0.9980442886552544,0.14277680218219757,-0.006429820321500301,-0.6141662001609802,0.8192570209503174,-0.6611149311065674,4.833034038543701,-0.07419681549072266,0.049401283264160156,-0.06923781335353851,-1.2440153360366821,0.00667582219466567,-0.9317540526390076,0.3591592311859131,1.2745333909988403,0.00476844422519207,0.9344243407249451,0.054741740226745605,-0.4171435236930847,-0.030708782374858856,0.04940108209848404,0.7429236173629761,-0.45186713337898254,0.005744382739067078,-0.9012359976768494,-0.01735713705420494,-0.045204851776361465,1.415464997291565,-0.46010974049568176,0.012988724745810032,-0.15357288718223572,-0.08065469563007355,-2.243497848510742,0.041278742253780365,0.03029659576714039,-0.501205563545227,3.3008790016174316,-0.11023371666669846,-0.014130990952253342,-0.21389108896255493,0.2901257574558258,2.7616724967956543,-0.0004696551477536559,0.3586536943912506,-2.08583927154541,-1.5560096502304077,0.24290981888771057,-2.9911088943481445,-1.423176646232605,-0.3816502094268799,-4.378875732421875,0.02688131481409073,0.17113128304481506,1741432872.5107503,1741432872639,-0.8853463134765626,0.832187255859375,-2.396934187869871,-5.3217021484375,-0.11759978485107422
1741432872.4804802,-2.804142713546753,0.0420546224662527,-0.05241212429501625,-0.9977396343516202,0.24823947250843048,0.05179353058338165,-0.300542414188385,-2.567343235015869,-1.8478376865386963,7.825427055358887,-0.08030033111572266,0.037957191467285156,-0.1028076633810997,-1.2409635782241821,0.005912871100008488,-0.9462500810623169,0.4018844962120056,1.2669038772583008,0.00476844422519207,0.9344243407249451,0.05054550990462303,-0.36755168437957764,-0.030708782374858856,0.057793546468019485,0.7063019871711731,-0.4765157699584961,0.00028431438840925694,-0.9416723847389221,-0.04558632895350456,-0.0555046908557415,1.3044556379318237,-0.43045926094055176,0.011331907473504543,-0.18909244239330292,-0.34078866243362427,-1.5768780708312988,0.1698809266090393,0.008375003933906555,-0.7592185735702515,2.8794820308685303,-0.5957397222518921,0.0035162721760571003,-0.012569744139909744,-0.21781189739704132,2.5341997146606445,-0.006638973951339722,0.4859861433506012,-1.6678303480148315,-1.1386338472366333,-0.36360621452331543,-1.797842025756836,-1.4455727338790894,-0.5411618947982788,-5.580112457275391,1.6961159706115723,-0.12328995764255524,1741432872.5107503,1741432872639,-0.8853463134765626,0.832187255859375,-2.396934187869871,-5.3217021484375,-0.11759978485107422
1741432872.5005307,-2.811251997947693,0.0486249771845002,-0.0547391544868632,-0.9973160163959416,0.11993212252855301,0.32863950729370117,-0.3642502427101135,6.080995559692383,-3.258297920227051,3.80433988571167,-0.08106327056884766,0.02117156982421875,-0.1203555315732956,-1.2386746406555176,0.005912871100008488,-0.962272047996521,0.44766154885292053,1.2585114240646362,0.00476844422519207,0.9302281141281128,0.053215838968753815,-0.3122377395629883,-0.03185320645570755,0.06237125024199486,0.6815060377120972,-0.49618232250213623,0.004822111222893,-0.9554055333137512,-0.07457847148180008,-0.07305257022380829,1.1690318584442139,-0.3845924735069275,0.007929113693535328,-0.03883444890379906,-0.4716915190219879,-0.6687751412391663,0.19900427758693695,0.005169198382645845,-0.7151013612747192,2.8324618339538574,-0.5511487126350403,0.0028558094054460526,-0.28727999329566956,0.23033703863620758,2.7755672931671143,-0.05869906395673752,0.14934246242046356,-1.2000987529754639,-0.934468150138855,0.478939414024353,-0.7502663731575012,-1.5046906471252441,-0.9916812181472778,-6.9377546310424805,2.321570873260498,-0.22169657051563263,1741432872.5107503,1741432872639,-0.8853463134765626,0.832187255859375,-2.396934187869871,-5.3217021484375,-0.11759978485107422
1741432872.5205545,-2.8166459798812866,0.04956882445318032,-0.05616116618763703,-0.9971904808283995,0.07965511828660965,-0.013670138083398342,-0.27319419384002686,1.9163285493850708,-2.9621028900146484,7.169040203094482,-0.08258914947509766,0.02231597900390625,-0.11577782779932022,-1.23600435256958,0.005912871100008488,-0.9706645011901855,0.4732204079627991,1.2520263195037842,0.00476844422519207,0.9237430095672607,0.06504157930612564,-0.2592126429080963,-0.03681239113211632,0.05397878959774971,0.6639581918716431,-0.5076187252998352,0.007174247410148382,-0.9489204287528992,-0.10585946589708328,-0.09822995215654373,1.0107194185256958,-0.3387098014354706,0.0008304085349664092,-0.04995903745293617,-0.000913915631826967,0.3645368814468384,0.18247246742248535,0.0006799709517508745,-0.3633083403110504,1.5220757722854614,-0.41635626554489136,-0.006381452549248934,-0.4330533444881439,0.6948469281196594,2.5980231761932373,-0.39579346776008606,-0.5244983434677124,-0.831540048122406,-0.4870966672897339,-0.09304706007242203,0.6975834965705872,-1.4759751558303833,-1.2655140161514282,-8.115824699401855,2.2020983695983887,-0.3995853066444397,1741432872.5107503,1741432872639,-0.8853463134765626,0.832187255859375,-2.396934187869871,-5.3217021484375,-0.11759978485107422
1741432872.5405822,-2.823309063911438,0.04619877904743025,-0.05731527749956153,-0.9972866347142506,0.11711443215608597,-0.2538206875324249,-0.3572944402694702,3.5124645233154297,1.9550820589065552,6.727259159088135,-0.08144474029541016,0.02841949462890625,-0.09098191559314728,-1.2333340644836426,0.005912871100008488,-0.9710460305213928,0.47932401299476624,1.2493560314178467,0.00476844422519207,0.9180209040641785,0.08030059933662415,-0.20695048570632935,-0.06580453366041183,0.05207141116261482,0.6689173579216003,-0.5032781362533569,0.015848269686102867,-0.9092469811439514,-0.12912946939468384,-0.12684062123298645,0.84744793176651,-0.3195110559463501,-0.008521018549799919,0.011267246678471565,0.17942491173744202,1.41774582862854,0.20310044288635254,-0.006199760362505913,0.013670161366462708,0.21882064640522003,-0.17147232592105865,0.015245950780808926,-0.3078974485397339,0.6454886794090271,2.3501176834106445,-1.655981421470642,0.015335154719650745,0.428251177072525,0.21351785957813263,0.5688021779060364,2.1841888427734375,-1.0571666955947876,-1.3331106901168823,-8.141963005065918,0.6591999530792236,-0.4281644821166992,1741432872.5107503,1741432872639,-0.8853463134765626,0.832187255859375,-2.396934187869871,-5.3217021484375,-0.11759978485107422
1741432872.5607877,-2.829429268836975,0.036632941186036855,-0.06678172496923362,-0.997094894596394,0.5336012840270996,-0.4611944556236267,-0.30073752999305725,16.896175384521484,16.504846572875977,41.1938591003418,-0.07724857330322266,0.037194252014160156,-0.04787518084049225,-1.227993369102478,0.005912871100008488,-0.9664682745933533,0.4732204079627991,1.2447782754898071,0.004005493130534887,0.9153505563735962,0.08335240930318832,-0.17338064312934875,-0.07534141838550568,0.054741740226745605,0.7173647880554199,-0.4974571168422699,0.024723373353481293,-0.8722438216209412,-0.14019227027893066,-0.1356145590543747,0.7410162687301636,-0.31433048844337463,-0.011541733518242836,0.11998791992664337,0.15212981402873993,2.2239246368408203,0.3586062788963318,-0.007613026071339846,0.2729809582233429,-0.5715692639350891,-0.37881818413734436,-0.05650602653622627,-0.16700798273086548,-0.027988627552986145,1.5275920629501343,0.16621369123458862,0.0058441064320504665,3.0277395248413086,0.38247087597846985,0.5707330107688904,1.410386323928833,-0.40183499455451965,-0.14843083918094635,-3.58585524559021,0.7856019735336304,-0.04054776579141617,1741432872.603098,1741432872739,-0.9966213989257813,0.8143518676757813,-2.453944842272162,-1.1132635498046874,-3.965421630859375
1741432872.580672,-2.8350645303726196,0.033065962601189366,-0.07498865467984442,-0.9966360136913395,0.20353266596794128,0.10939763486385345,-0.3547131419181824,12.489892959594727,2.6220433712005615,5.616089344024658,-0.08220767974853516,0.033379554748535156,0.005912871100008488,-1.232571005821228,0.005912871100008488,-0.9588387608528137,0.44499123096466064,1.236767292022705,0.004005493130534887,0.9084840416908264,0.06237125024199486,-0.1825360506772995,-0.07000076025724411,0.06084534898400307,0.8146410584449768,-0.47738316655158997,0.0373060517013073,-0.8367666006088257,-0.11577782779932022,-0.1024261862039566,0.8222705721855164,-0.2814719080924988,-0.016039500012993813,-0.056871168315410614,-0.20836354792118073,2.892218589782715,-0.42577019333839417,0.0005481399712152779,0.3098319172859192,-2.176111936569214,-0.521075963973999,0.06383292376995087,-0.4411803185939789,-1.2524312734603882,-0.7616759538650513,-0.3430267572402954,0.4243188500404358,5.008789539337158,1.3029322624206543,0.47538939118385315,1.2270199060440063,1.3061857223510742,1.814936876296997,3.915712833404541,1.6862298250198364,-0.18755106627941132,1741432872.603098,1741432872739,-0.9966213989257813,0.8143518676757813,-2.453944842272162,-1.1132635498046874,-3.965421630859375
1741432872.6006606,-2.833887219429016,0.029100226543255805,-0.07565646013273578,-0.9967092238237364,0.08068317919969559,-0.2417633831501007,0.0776645839214325,-9.788825035095215,11.639212608337402,7.5345025062561035,-0.07763004302978516,0.034523963928222656,0.06389715522527695,-1.238293170928955,0.005531395319849253,-0.9538795948028564,0.3850995600223541,1.2379117012023926,0.005531395319849253,0.9100099205970764,0.03681239113211632,-0.23746852576732635,-0.0883115902543068,0.04406042397022247,0.952735185623169,-0.4321048855781555,0.044162653386592865,-0.8196002244949341,-0.09517814964056015,-0.0551232174038887,0.8249408602714539,-0.25797513127326965,-0.015911655500531197,0.15572388470172882,0.04324087128043175,2.8295371532440186,-0.37961673736572266,-0.08881630748510361,0.2559320032596588,-4.208745002746582,0.06331556290388107,0.06562301516532898,0.19880996644496918,-1.2233179807662964,-2.991626739501953,-0.894913375377655,-1.1675119400024414,7.413578987121582,2.257023811340332,0.46862754225730896,1.4355435371398926,1.083260416984558,2.332681655883789,-0.6520297527313232,0.6566984057426453,0.10149852931499481,1741432872.603098,1741432872739,-0.9966213989257813,0.8143518676757813,-2.453944842272162,-1.1132635498046874,-3.965421630859375
1741432872.6207266,-2.822803497314453,0.028674115751744642,-0.07843835945604283,-0.9965065071798077,0.03636571764945984,0.004626444540917873,0.6138846278190613,-1.4826741218566895,-5.705820560455322,13.865152359008789,-0.07076358795166016,0.02994537353515625,0.1203555315732956,-1.2474485635757446,0.006294346414506435,-0.9493018984794617,0.32063019275665283,1.238293170928955,0.0036240178160369396,0.9111543297767639,0.02079041674733162,-0.3263523280620575,-0.1039520874619484,0.012397955171763897,1.1308842897415161,-0.38392388820648193,0.0505586639046669,-0.7749675512313843,-0.06466010212898254,-0.03299763426184654,0.8260852694511414,-0.2506052255630493,-0.00537828030064702,0.15933777391910553,-0.12852336466312408,2.6568193435668945,-0.69672691822052,0.0032958374358713627,0.21655084192752838,-3.9831457138061523,-0.0147742610424757,-0.1323603391647339,-0.13599464297294617,-0.795648455619812,-4.796529769897461,-0.7748039960861206,-1.4412871599197388,8.708207130432129,2.369492769241333,0.19315913319587708,1.7020952701568604,1.5966579914093018,0.814679741859436,0.5518046617507935,0.4539656937122345,0.5101988315582275,1741432872.603098,1741432872739,-0.9966213989257813,0.8143518676757813,-2.453944842272162,-1.1132635498046874,-3.965421630859375
1741432872.640685,-2.801656484603882,0.017863725965623106,-0.06990885841325747,-0.9973934222812882,-0.46230748295783997,-0.4198286533355713,1.1224339008331299,-3.100728988647461,4.015139102935791,11.477791786193848,-0.08220767974853516,0.049401283264160156,0.17719538509845734,-1.2520263195037842,0.005912871100008488,-0.951209306716919,0.2573052644729614,1.2405821084976196,0.0036240178160369396,0.9115357995033264,0.010490577667951584,-0.44308385252952576,-0.12836651504039764,0.008964675478637218,1.2907224893569946,-0.3564304709434509,0.01257398258894682,-0.7536049485206604,-0.071908138692379,-0.020027466118335724,0.8440146446228027,-0.25745704770088196,-0.0025973236188292503,-0.3128664791584015,0.292026162147522,2.7543885707855225,-0.1885424107313156,-0.006648622918874025,-0.10381311178207397,-4.4033331871032715,0.23494546115398407,0.0025076265446841717,0.11036243289709091,-0.512700080871582,-5.760397434234619,-1.075261116027832,0.029681026935577393,7.380430698394775,1.093931794166565,-2.1129465103149414,1.3128172159194946,-0.5324363112449646,0.4587289094924927,0.7949738502502441,-0.43646863102912903,0.25442641973495483,1741432872.603098,1741432872739,-0.9966213989257813,0.8143518676757813,-2.453944842272162,-1.1132635498046874,-3.965421630859375
1741432872.6607118,-2.779183030128479,0.012758537482548576,-0.0640642197002827,-0.9978642169531384,-0.26354992389678955,-0.1991361528635025,1.133879542350769,2.4629967212677,4.906827926635742,6.568899154663086,-0.060463905334472656,0.047112464904785156,0.23823148012161255,-1.2546966075897217,0.006294346414506435,-0.9508277773857117,0.1832990050315857,1.2409635782241821,0.004005493130534887,0.9153505563735962,0.010490577667951584,-0.5563820600509644,-0.12912946939468384,0.022697795182466507,1.3941023349761963,-0.37494245171546936,0.0015409152256324887,-0.7093538045883179,-0.07686731964349747,-0.02841992862522602,0.8535515666007996,-0.2705083191394806,0.006061481777578592,0.5847393274307251,-0.129921555519104,3.245840072631836,-0.30550605058670044,-0.0003891678643412888,0.05045827850699425,-4.939126491546631,-0.09774593263864517,-0.0006693603936582804,0.2407328337430954,0.07698517292737961,-5.481001853942871,0.07489592581987381,0.7911975979804993,4.567918300628662,-1.2986704111099243,-0.11765756458044052,2.1066439151763916,-0.2371535301208496,-0.31910398602485657,0.28489527106285095,-0.7046962976455688,0.4294935166835785,1741432872.7087886,1741432872839,-1.1095806884765624,0.8003511962890625,-2.479628616913259,-5.47591943359375,-0.18886865234375
1741432872.6807134,-2.7597384452819824,0.0026250039348577094,-0.06070439547679163,-0.9981523359308133,-0.18456122279167175,-0.4440094232559204,0.798862099647522,-4.851856231689453,-0.8595824837684631,11.312827110290527,-0.06313419342041016,0.048256874084472656,0.30460822582244873,-1.2600373029708862,0.005912871100008488,-0.9504463076591492,0.11005569249391556,1.236767292022705,0.004005493130534887,0.916113555431366,0.008201723918318748,-0.6570916175842285,-0.12493324279785156,0.04329747334122658,1.4246203899383545,-0.4211117923259735,0.007655493915081024,-0.6746395230293274,-0.07648584991693497,-0.029182879254221916,0.8535515666007996,-0.2915630638599396,0.018740849569439888,0.009961585514247417,-0.007774359546601772,3.1814627647399902,-0.2757737338542938,-0.045316748321056366,-0.027912627905607224,-4.743727207183838,-0.30659037828445435,0.017725154757499695,-0.0024362842086702585,-0.20449192821979523,-5.002074718475342,0.1653466522693634,1.297536015510559,0.97407066822052,-2.377427339553833,0.11107198894023895,1.8096184730529785,-0.03350018337368965,-0.04294678568840027,0.05599445477128029,-1.1119577884674072,0.8071209192276001,1741432872.7087886,1741432872839,-1.1095806884765624,0.8003511962890625,-2.479628616913259,-5.47591943359375,-0.18886865234375
1741432872.7030604,-2.7526005506515503,-0.0012361377356336109,-0.05826389279034571,-0.9983004511470551,-0.09649793803691864,-0.15147516131401062,0.1853868067264557,0.7617312669754028,3.0623507499694824,10.546958923339844,-0.058938026428222656,0.042153358459472656,0.36717021465301514,-1.2604187726974487,0.005912871100008488,-0.9504463076591492,0.04596780240535736,1.2333340644836426,0.004005493130534887,0.917639434337616,0.016594186425209045,-0.7383459210395813,-0.1184481605887413,0.06771191209554672,1.3937208652496338,-0.4670277237892151,-0.005798730067908764,-0.6364919543266296,-0.07572289556264877,-0.029564354568719864,0.8554589152336121,-0.3205062747001648,0.03107255883514881,0.14090128242969513,-0.15312090516090393,3.2737345695495605,-0.035634543746709824,-0.003389654215425253,0.03739391267299652,-4.097437858581543,-0.22320859134197235,0.0006216762703843415,0.07582943886518478,0.5174680948257446,-3.998399019241333,0.47604334354400635,0.9985357522964478,-1.8913692235946655,-2.1495602130889893,-0.5386932492256165,1.8401193618774414,-0.04890170693397522,-0.01652858592569828,0.08469763398170471,-1.5051963329315186,0.4945882558822632,1741432872.7087886,1741432872839,-1.1095806884765624,0.8003511962890625,-2.479628616913259,-5.47591943359375,-0.18886865234375
1741432872.7208967,-2.757110357284546,-0.0006513068923325244,-0.05815004998147709,-0.9983076417049425,-0.03654081001877785,0.0656626895070076,-0.2647196352481842,-0.7040696740150452,-3.5856120586395264,10.962706565856934,-0.055123329162597656,0.02460479736328125,0.4201953113079071,-1.2642335891723633,0.006294346414506435,-0.9496833682060242,-0.016212711110711098,1.23600435256958,0.004005493130534887,0.9206912517547607,0.023460745811462402,-0.8070115447044373,-0.1031891331076622,0.07915617525577545,1.3265812397003174,-0.47866931557655334,-0.014934671111404896,-0.6090257167816162,-0.07839322835206985,-0.03604944050312042,0.8569847941398621,-0.3566526174545288,0.03901802748441696,0.12595179677009583,-0.5687503814697266,2.514341354370117,-0.2631061375141144,0.003117262851446867,0.01841673068702221,-4.410709857940674,0.2622886598110199,0.002963956445455551,0.30416229367256165,0.2716407775878906,-3.2983009815216064,0.6989783048629761,0.5217387676239014,-3.5559725761413574,-0.2487921118736267,-0.30268779397010803,1.4557242393493652,-0.24117545783519745,-0.29671379923820496,0.14545510709285736,-1.8582593202590942,0.36449599266052246,1741432872.7087886,1741432872839,-1.1095806884765624,0.8003511962890625,-2.479628616913259,-5.47591943359375,-0.18886865234375
1741432872.7407777,-2.7559258937835693,0.011294855849077898,-0.0543827975371367,-0.9984562772417144,-0.2008599191904068,0.6246845126152039,0.08228103816509247,0.2303605079650879,4.721775531768799,7.826345443725586,-0.054741859436035156,0.00247955322265625,0.4678797721862793,-1.2653779983520508,0.005912871100008488,-0.9470130205154419,-0.07610437273979187,1.2379117012023926,0.004005493130534887,0.9340428709983826,0.01888304017484188,-0.8535515666007996,-0.08144503086805344,0.07724879682064056,1.2266346216201782,-0.44912752509117126,-0.01429781038314104,-0.5838482975959778,-0.08373387902975082,-0.04291599988937378,0.8600366115570068,-0.39605364203453064,0.0456576868891716,0.023019008338451385,-0.6245981454849243,2.3172905445098877,-0.005800091661512852,-0.007234395947307348,0.11495552211999893,-3.715672254562378,0.04742741957306862,-0.010956190526485443,0.9721714854240417,-0.2646518647670746,-2.2399797439575195,1.083501935005188,-0.09271039068698883,-5.1399455070495605,1.7349677085876465,0.13312886655330658,1.2015100717544556,-0.24645963311195374,-0.4334743320941925,0.13087601959705353,-1.9643996953964233,0.4236283004283905,1741432872.7087886,1741432872839,-1.1095806884765624,0.8003511962890625,-2.479628616913259,-5.47591943359375,-0.18886865234375
1741432872.760837,-2.7532955408096313,0.021196720489848497,-0.052156414784545455,-0.9984139459349002,-0.09468979388475418,0.446484237909317,0.19434265792369843,-2.282754898071289,2.499974489212036,6.890994071960449,-0.050164222717285156,0.00591278076171875,0.4972533881664276,-1.2638521194458008,0.006294346414506435,-0.9412909150123596,-0.11310750246047974,1.2356228828430176,0.0036240178160369396,0.9504463076591492,-0.0009536888683214784,-0.8859769701957703,-0.048638131469488144,0.07495994865894318,1.0999847650527954,-0.40385857224464417,-0.007822439074516296,-0.5582894682884216,-0.08525978773832321,-0.045204851776361465,0.8627069592475891,-0.43331268429756165,0.05267744138836861,0.10837523639202118,0.07114056497812271,1.274800419807434,0.030396360903978348,-0.003437112318351865,0.334681898355484,-2.166667938232422,-0.1415126621723175,0.00709244841709733,1.0486741065979004,-1.1158738136291504,-1.2698081731796265,1.7402430772781372,-0.10105760395526886,-6.491552352905273,2.2822318077087402,0.36257702112197876,1.2697134017944336,-0.08282259851694107,0.019083227962255478,0.07321345061063766,-1.878234624862671,0.40169841051101685,1741432872.8098962,1741432872939,-1.1936477050781251,0.7633096313476563,-2.3851146415505013,-5.54258203125,-0.22863861083984374
1741432872.7808468,-2.746420383453369,0.02936920600661869,-0.05096583620573143,-0.9982684675368602,-0.0719226524233818,0.39230436086654663,0.36130988597869873,7.052404880523682,-1.9806299209594727,5.530884742736816,-0.050927162170410156,0.00362396240234375,0.5018310546875,-1.2638521194458008,0.005912871100008488,-0.9325169920921326,-0.12302586436271667,1.232571005821228,0.0036240178160369396,0.9630350470542908,-0.02994582988321781,-0.8821622133255005,-0.00858320016413927,0.0871671661734581,0.9596017599105835,-0.3558361828327179,-0.0005008590524084866,-0.5231937170028687,-0.07686731964349747,-0.03223468363285065,0.8646143078804016,-0.4667814373970032,0.05231301113963127,-0.035754021257162094,-0.0471741259098053,0.0988558754324913,0.01702764444053173,-0.005581208970397711,0.4605874717235565,-0.43771451711654663,-0.2321510761976242,0.009678815491497517,0.7648259401321411,-1.44804847240448,0.3937522768974304,1.9404453039169312,0.7537270784378052,-7.006839752197266,2.3579039573669434,0.32410943508148193,1.778972864151001,0.5558670163154602,0.6633240580558777,0.0324455164372921,-1.6723036766052246,-0.0022888495586812496,1741432872.8098962,1741432872939,-1.1936477050781251,0.7633096313476563,-2.3851146415505013,-5.54258203125,-0.22863861083984374
1741432872.8008618,-2.736116409301758,0.028266324582799582,-0.048694921180125944,-0.998413651522174,-0.14203578233718872,-0.0877639502286911,0.5334146618843079,3.731541156768799,3.1341514587402344,3.622471570968628,-0.051690101623535156,0.02574920654296875,0.49191272258758545,-1.2627075910568237,0.006294346414506435,-0.9233615398406982,-0.10929274559020996,1.2268489599227905,0.0036240178160369396,0.9691386222839355,-0.06198977679014206,-0.8550774455070496,0.020027466118335724,0.12340734153985977,0.8142595291137695,-0.3240116536617279,0.007192333694547415,-0.4861905872821808,-0.04787518084049225,-0.021553369238972664,0.8623254895210266,-0.4961439371109009,0.03616385906934738,-0.04608573764562607,0.5891221761703491,-0.6595892310142517,0.1152559146285057,-0.008115545846521854,0.44658681750297546,1.1800472736358643,-0.4235308766365051,-0.002155233873054385,0.2699737846851349,-1.5752112865447998,1.4811567068099976,1.2568165063858032,1.9037741422653198,-7.157214164733887,1.4455475807189941,0.40855878591537476,1.9076030254364014,1.5433895587921143,0.6304929852485657,-0.08495023101568222,-1.4991170167922974,-1.164652943611145,1741432872.8098962,1741432872939,-1.1936477050781251,0.7633096313476563,-2.3851146415505013,-5.54258203125,-0.22863861083984374
1741432872.8209116,-2.725037455558777,0.021922121032399718,-0.04247616335507318,-0.998856944790431,-0.33371442556381226,-0.39297735691070557,0.5638711452484131,-9.690972328186035,7.238552093505859,17.922327041625977,-0.053597450256347656,0.038338661193847656,0.4659723937511444,-1.2592743635177612,0.006294346414506435,-0.916876494884491,-0.07648584991693497,1.2226526737213135,0.0036240178160369396,0.968757152557373,-0.07877469807863235,-0.8096818327903748,0.04329747334122658,0.17071031033992767,0.7753490209579468,-0.2897316515445709,0.023324929177761078,-0.42935073375701904,-0.040245670825242996,-0.010490577667951584,0.8688105344772339,-0.5143933892250061,0.011816960759460926,-0.08505718410015106,0.43925416469573975,-1.3717297315597534,0.30188891291618347,-0.00017862235836219043,0.4229485094547272,2.3854410648345947,-0.2349962592124939,-0.0031617898494005203,-0.047476258128881454,-0.6936087012290955,2.6923305988311768,0.6097288131713867,2.237271785736084,-0.11672589182853699,1.802980661392212,1.0264496803283691,2.7293570041656494,-0.005104964133352041,0.6530718207359314,0.2070470005273819,-0.7344926595687866,-0.6439544558525085,1741432872.8098962,1741432872939,-1.1936477050781251,0.7633096313476563,-2.3851146415505013,-5.54258203125,-0.22863861083984374
1741432872.8409364,-2.7146520614624023,0.01666960395287499,-0.04409276320432127,-0.998888358395002,0.09805920720100403,-0.17474153637886047,0.497124582529068,1.3846806287765503,-6.1399946212768555,9.438170433044434,-0.050164222717285156,0.035286903381347656,0.4182879328727722,-1.2585114240646362,0.006294346414506435,-0.9126802682876587,-0.026512550190091133,1.2218897342681885,0.0032425422687083483,0.9653238654136658,-0.06580453366041183,-0.7669565677642822,0.03795681521296501,0.17833982408046722,0.8001449704170227,-0.2836543321609497,0.042764462530612946,-0.38052186369895935,-0.03643091395497322,-0.0032425422687083483,0.8730067610740662,-0.4994414150714874,0.016611406579613686,0.11772768199443817,-0.054215602576732635,-2.5628721714019775,-0.10316271334886551,6.029074575053528e-05,0.13511675596237183,3.42338490486145,-0.046655312180519104,-0.007313806097954512,-0.23467640578746796,0.7186540961265564,1.5237739086151123,-0.1341709941625595,-0.26074621081352234,0.5741627216339111,-0.015576065517961979,0.7826691269874573,2.442796468734741,0.14649249613285065,0.42388907074928284,0.38412490487098694,0.9424657821655273,0.0945398211479187,1741432872.8098962,1741432872939,-1.1936477050781251,0.7633096313476563,-2.3851146415505013,-5.54258203125,-0.22863861083984374
1741432872.860898,-2.707095980644226,0.011328821804028947,-0.045651183671906646,-0.998893201111053,0.07442283630371094,-0.22520963847637177,0.33962482213974,-9.800836563110352,-2.52943754196167,16.30270767211914,-0.054741859436035156,0.039101600646972656,0.35114824771881104,-1.2619446516036987,0.005912871100008488,-0.9145876169204712,0.026131074875593185,1.2218897342681885,0.0036240178160369396,0.9603646993637085,-0.05130846053361893,-0.7223239541053772,0.03032730519771576,0.1363775134086609,0.7997635006904602,-0.2901836037635803,0.04233136028051376,-0.36793315410614014,-0.039101243019104004,0.01430533267557621,0.9439612627029419,-0.4680268466472626,0.002493534702807665,-0.14278535544872284,0.10848696529865265,-3.4401395320892334,-0.21218489110469818,-0.032998278737068176,-0.11041569709777832,3.5090742111206055,-0.009714583866298199,0.007729936391115189,-0.373502641916275,0.7734968066215515,2.4964723587036133,-0.38543298840522766,-1.8801783323287964,0.05150324106216431,-0.1986895352602005,-0.20316870510578156,0.31968316435813904,-0.17751261591911316,0.9987232089042664,4.377355098724365,1.626860499382019,-0.7457978129386902,1741432872.8098962,1741432872939,-1.1936477050781251,0.7633096313476563,-2.3851146415505013,-5.54258203125,-0.22863861083984374
1741432872.8810015,-2.7085611820220947,0.008194972302076447,-0.047193645614271834,-0.9988521423326892,0.0911160334944725,-0.25770479440689087,-0.2785613536834717,-10.592782974243164,-2.096250057220459,15.178423881530762,-0.056649208068847656,0.036049842834472656,0.2763790488243103,-1.2615631818771362,0.006294346414506435,-0.9153505563735962,0.07724879682064056,1.229519248008728,0.004386968910694122,0.9554055333137512,-0.035667963325977325,-0.6860837936401367,0.0024795911740511656,0.11387044936418533,0.7997635006904602,-0.2926953434944153,0.04742076247930527,-0.4201953113079071,-0.031090257689356804,0.0398641936480999,1.0851072072982788,-0.42494234442710876,-0.008671252056956291,-0.05963905155658722,-0.06111540645360947,-3.7655420303344727,0.034995097666978836,0.011003654450178146,-0.011912912130355835,3.1658568382263184,0.744663417339325,0.10458621382713318,-0.29157519340515137,0.7525604367256165,1.7164777517318726,-1.2182421684265137,-1.0906704664230347,0.02634453773498535,-0.1861766129732132,0.21018704771995544,-3.2749457359313965,0.5689519047737122,1.2007557153701782,7.4012770652771,2.1589455604553223,-0.4151432514190674,1741432872.9129136,1741432873039,-1.2919716796875,0.7153179321289063,-2.3723614900200083,-5.60821142578125,-0.2631455078125
1741432872.901002,-2.7252752780914307,0.007521215228454473,-0.050194598803381514,-0.9987111362012816,0.15761391818523407,-0.016664041206240654,-0.8959753513336182,1.8782298564910889,-3.707200288772583,8.863981246948242,-0.054360389709472656,0.036812782287597656,0.20275425910949707,-1.2592743635177612,0.005912871100008488,-0.9153505563735962,0.12455176562070847,1.2478300333023071,0.00667582219466567,0.952735185623169,-0.02231631986796856,-0.6456473469734192,-0.005149920005351305,0.1024261862039566,0.7986190319061279,-0.29879721999168396,0.04174291715025902,-0.5102235674858093,-0.009727626107633114,0.05092698708176613,1.257534146308899,-0.38642826676368713,-0.004770888015627861,0.03974109888076782,-0.11500075459480286,-3.70283842086792,0.18890947103500366,-0.0036291428841650486,-0.024178853258490562,3.206448554992676,1.1004793643951416,0.09016939997673035,-0.18765930831432343,0.7165305018424988,2.005587100982666,-0.23872600495815277,-0.3958057463169098,-0.08844386041164398,-0.3199327886104584,-0.3532381057739258,-4.610927104949951,1.32557213306427,0.30684152245521545,8.614360809326172,1.713589072227478,0.30638816952705383,1741432872.9129136,1741432873039,-1.2919716796875,0.7153179321289063,-2.3723614900200083,-5.60821142578125,-0.2631455078125
1741432872.921004,-2.75187885761261,0.007498527453354998,-0.05024522827232458,-0.9987087609117552,0.016211871057748795,-0.08280686289072037,-1.3059974908828735,0.026356330141425133,-2.862240791320801,13.705916404724121,-0.06275272369384766,0.044823646545410156,0.13065537810325623,-1.2524077892303467,0.005912871100008488,-0.9153505563735962,0.17299915850162506,1.2600373029708862,0.006294346414506435,0.9481574892997742,-0.010490577667951584,-0.6139848828315735,0.004005493130534887,0.1035706102848053,0.7982375621795654,-0.31021881103515625,0.03007117658853531,-0.6155108213424683,0.015449759550392628,0.04291599988937378,1.3994430303573608,-0.38419309258461,-0.003067515091970563,-0.24913620948791504,0.2971532344818115,-3.4953272342681885,0.4807443618774414,-0.0153428353369236,-0.00027331907767802477,3.2937746047973633,0.7611038088798523,0.003473415272310376,-0.3175845444202423,0.621515691280365,1.5869061946868896,0.5177083611488342,0.04475187882781029,0.038773491978645325,-0.6349926590919495,-0.5180647373199463,-5.273855686187744,1.261431097984314,-0.3685718774795532,6.52632999420166,-0.18657399713993073,-0.006314062047749758,1741432872.9129136,1741432873039,-1.2919716796875,0.7153179321289063,-2.3723614900200083,-5.60821142578125,-0.2631455078125
1741432872.9409652,-2.777679920196533,0.009657428418364205,-0.04958987037795359,-0.9987229740184421,-0.03555780276656151,0.08257973194122314,-1.310544490814209,1.7107371091842651,-0.31250014901161194,10.977462768554688,-0.07000064849853516,0.036049842834472656,0.06351567804813385,-1.2451597452163696,0.005912871100008488,-0.916113555431366,0.22640573978424072,1.2669038772583008,0.006294346414506435,0.9462500810623169,-0.006294346414506435,-0.5685893297195435,0.01430533267557621,0.1039520874619484,0.7967116832733154,-0.33317646384239197,0.017191428691148758,-0.7051575779914856,0.03528648987412453,0.02040894143283367,1.4742122888565063,-0.41219085454940796,-0.007975742220878601,-0.19679245352745056,-0.1805589199066162,-3.2250306606292725,0.4398949146270752,-0.007710975594818592,-0.04995355010032654,3.5774405002593994,0.45954304933547974,-0.017770003527402878,-0.08631498366594315,0.0635318011045456,2.300342559814453,0.478389710187912,0.023758307099342346,-0.12622879445552826,-1.2319220304489136,-0.5607236623764038,-4.504063129425049,0.9003567695617676,-1.2806270122528076,3.0967857837677,-1.5503911972045898,-0.11338768154382706,1741432872.9129136,1741432873039,-1.2919716796875,0.7153179321289063,-2.3723614900200083,-5.60821142578125,-0.2631455078125
1741432872.9610415,-2.7974971532821655,0.009131885800083726,-0.045716557596173976,-0.9989127114134098,-0.20736539363861084,-0.10852763056755066,-0.783782958984375,-1.0924158096313477,-1.889509677886963,10.069074630737305,-0.07724857330322266,0.037957191467285156,0.008201723918318748,-1.2386746406555176,0.00667582219466567,-0.916113555431366,0.2809567451477051,1.2680482864379883,0.006294346414506435,0.9439612627029419,-0.006294346414506435,-0.5285343527793884,0.01888304017484188,0.1039520874619484,0.7883192300796509,-0.3713320195674896,0.012018118984997272,-0.7829785346984863,0.04482337832450867,-0.00858320016413927,1.4749752283096313,-0.44581151008605957,0.002313538920134306,-0.26162275671958923,0.05066387727856636,-2.6142539978027344,0.39071953296661377,0.046576835215091705,-0.0038125135470181704,3.672207832336426,0.04257574677467346,-0.018066294491291046,-0.13349027931690216,0.05679565295577049,2.062755823135376,0.21349669992923737,0.002353537594899535,-0.434157133102417,-1.9943894147872925,-0.31536296010017395,-3.831857204437256,0.33083072304725647,-1.328330397605896,-0.47368714213371277,-1.6370059251785278,0.6782007217407227,1741432872.9129136,1741432873039,-1.2919716796875,0.7153179321289063,-2.3723614900200083,-5.60821142578125,-0.2631455078125
1741432872.981042,-2.8037686347961426,0.012314919148400194,-0.04049864763171939,-0.9991036994758703,-0.24341049790382385,0.17057615518569946,-0.2342732697725296,3.616997480392456,1.976218581199646,8.227988243103027,-0.08297061920166016,0.031853675842285156,-0.04596780240535736,-1.2386746406555176,0.005912871100008488,-0.9203097820281982,0.33398184180259705,1.2672853469848633,0.005912871100008488,0.9424353241920471,-0.016975661739706993,-0.47894254326820374,0.02536812424659729,0.10433356463909149,0.777256429195404,-0.4117458760738373,0.0069268848747015,-0.8432517051696777,0.045204851776361465,-0.03376058489084244,1.4223315715789795,-0.46234574913978577,0.009562978520989418,-0.20090728998184204,-0.16979122161865234,-3.0927789211273193,-0.04878198355436325,0.04182856157422066,-0.25150349736213684,3.522108554840088,-0.07828699052333832,0.015981391072273254,-0.12294342368841171,-0.5259478092193604,2.343985080718994,0.3339744806289673,0.025176038965582848,-0.6515242457389832,-2.0333988666534424,-0.24116864800453186,-2.8342692852020264,0.007643945515155792,-1.1769566535949707,-2.9442689418792725,-0.6418883800506592,0.08758856356143951,1741432873.0225918,1741432873139,-1.38725537109375,0.675514404296875,-2.3657723055223645,-1.0853081054687501,-3.9840302734375
1741432873.001009,-2.805511236190796,0.014797216401310796,-0.036150242782922996,-0.9992368099372183,-0.21814554929733276,0.09534520655870438,-0.0384845957159996,1.5060724020004272,0.8351938724517822,6.5902910232543945,-0.08831119537353516,0.02727508544921875,-0.09670405089855194,-1.2386746406555176,0.005149920005351305,-0.9340428709983826,0.3927290737628937,1.2649965286254883,0.006294346414506435,0.9382390975952148,-0.025749599561095238,-0.44575417041778564,0.02727550081908703,0.11081864684820175,0.763523280620575,-0.4507000148296356,0.006617122795432806,-0.8882657885551453,0.03643091395497322,-0.05245288833975792,1.3345922231674194,-0.44927725195884705,0.008588659577071667,-0.17119285464286804,-0.16781537234783173,-2.3498692512512207,0.03459407389163971,-0.09173868596553802,-0.7712518572807312,4.1049275398254395,-0.07850466668605804,-0.010934686288237572,-0.4039628505706787,-0.35358479619026184,1.4709135293960571,0.041837986558675766,0.3981461524963379,-0.7266058325767517,-1.9227067232131958,0.07321543246507645,-2.083652973175049,-0.6124768257141113,-0.8875501155853271,-4.546041488647461,0.8646339178085327,0.05657310411334038,1741432873.0225918,1741432873139,-1.38725537109375,0.675514404296875,-2.3657723055223645,-1.0853081054687501,-3.9840302734375
1741432873.0210474,-2.808664083480835,0.0182732305548523,-0.03219744893345056,-0.999314471689101,-0.18363496661186218,0.23268486559391022,-0.15070372819900513,2.3224472999572754,-0.8404203057289124,6.600805759429932,-0.09403419494628906,0.01811981201171875,-0.12302586436271667,-1.2379117012023926,0.005912871100008488,-0.9493018984794617,0.44499123096466064,1.2623261213302612,0.005912871100008488,0.9309910535812378,-0.01735713705420494,-0.4007400572299957,0.026512550190091133,0.10662241280078888,0.7513160705566406,-0.4830843210220337,0.0049978396855294704,-0.9119172692298889,0.016594186425209045,-0.06733043491840363,1.2270160913467407,-0.4090259075164795,0.010707996785640717,-0.18899866938591003,-0.3519252836704254,-1.161811351776123,0.016291791573166847,0.013538721017539501,-0.7635138630867004,3.140160322189331,-0.2328282594680786,-0.011527486145496368,-0.38786613941192627,0.43559712171554565,2.2357418537139893,-0.037675708532333374,-0.28640004992485046,-0.6419137120246887,-1.5379900932312012,-0.007928240112960339,-0.9573838710784912,-1.1148446798324585,-0.6830316781997681,-5.424476146697998,2.084775924682617,0.037818215787410736,1741432873.0225918,1741432873139,-1.38725537109375,0.675514404296875,-2.3657723055223645,-1.0853081054687501,-3.9840302734375
1741432873.0463204,-2.8114938735961914,0.0222652985286913,-0.029681489260409626,-0.99931139575045,-0.09671252965927124,0.2071516364812851,-0.16082586348056793,1.0101721286773682,-3.1099393367767334,9.444108009338379,-0.09479713439941406,0.01544952392578125,-0.12798504531383514,-1.2379117012023926,0.005912871100008488,-0.9637979865074158,0.47627222537994385,1.2577484846115112,0.005912871100008488,0.924124538898468,0.00019073777366429567,-0.3599221706390381,0.019645990803837776,0.10128175467252731,0.734912633895874,-0.5084601640701294,0.0034295320510864258,-0.9054322242736816,-0.011635004542768002,-0.08449683338403702,1.098077416419983,-0.3607637584209442,0.006061952095478773,-0.025936663150787354,-0.1326913684606552,-0.046416666358709335,-0.0014796970644965768,-0.003658151486888528,-0.6995158195495605,1.9318464994430542,-0.2797200679779053,-0.00948251225054264,-0.437145471572876,1.0285687446594238,2.230839252471924,-0.41325005888938904,-0.3521491289138794,-0.6510829925537109,-1.1507748365402222,0.005781605839729309,0.33767199516296387,-1.4218136072158813,-0.8770517110824585,-6.587658405303955,2.3931007385253906,-0.18572396039962769,1741432873.0225918,1741432873139,-1.38725537109375,0.675514404296875,-2.3657723055223645,-1.0853081054687501,-3.9840302734375
1741432873.0611098,-2.8158152103424072,0.025995803269285297,-0.030734292078246905,-0.999189482281931,0.10506316274404526,0.09649599343538284,-0.23111635446548462,3.9515767097473145,-0.3449926972389221,4.721918106079102,-0.09288883209228516,0.01621246337890625,-0.11005569249391556,-1.2379117012023926,0.005912871100008488,-0.9710460305213928,0.4877164959907532,1.2512633800506592,0.005912871100008488,0.918402373790741,0.02040894143283367,-0.309567391872406,0.002861066721379757,0.08487831056118011,0.7215610146522522,-0.5147605538368225,-0.002272851997986436,-0.8886472582817078,-0.03833829239010811,-0.11654078215360641,0.9569314122200012,-0.3205457031726837,-0.0019377224380150437,0.053399376571178436,0.01743025705218315,1.1026020050048828,-0.03251923993229866,-0.0100964130833745,-0.2632000744342804,0.5656778216362,-0.45688554644584656,0.024805311113595963,-0.32847240567207336,0.91460120677948,2.423912763595581,-0.8287292718887329,-0.7387905120849609,-0.7355648279190063,-0.15495459735393524,-0.36086949706077576,1.0079069137573242,-1.3611174821853638,-1.5866395235061646,-6.918727874755859,1.8408534526824951,-0.37283337116241455,1741432873.0225918,1741432873139,-1.38725537109375,0.675514404296875,-2.3657723055223645,-1.0853081054687501,-3.9840302734375
1741432873.0811048,-2.8207833766937256,0.0233739503926937,-0.03570021166074322,-0.9990891618521432,0.23499144613742828,-0.1699104607105255,-0.26576000452041626,1.695204257965088,1.2952836751937866,5.079926490783691,-0.09021854400634766,0.02117156982421875,-0.0715266615152359,-1.23905611038208,0.005912871100008488,-0.9699015617370605,0.483138769865036,1.2447782754898071,0.005531395319849253,0.9130617380142212,0.034142062067985535,-0.2584496736526489,-0.02994582988321781,0.08106355369091034,0.7200350761413574,-0.5013701319694519,0.01002759300172329,-0.8569847941398621,-0.06694895774126053,-0.13752193748950958,0.8287556171417236,-0.3091174364089966,-0.008807220496237278,0.08836416900157928,0.14432205259799957,2.028151750564575,-0.06665787100791931,-0.0057182954624295235,0.057288896292448044,-0.44707241654396057,-0.39709803462028503,-0.018659494817256927,-0.33701395988464355,0.5452628135681152,2.3991103172302246,-1.7794244289398193,0.09396962076425552,0.12291587889194489,0.6190415620803833,0.7322708368301392,1.7180497646331787,-1.3430392742156982,-1.0262112617492676,-6.2253804206848145,0.2635137438774109,-0.2346600592136383,1741432873.1207526,1741432873239,-1.4872025146484376,0.646734130859375,-2.4142808928271977,-5.72381494140625,-0.32979156494140627
1741432873.1011255,-2.824363350868225,0.015970150943242223,-0.04866305625476265,-0.9986875693803322,0.7568480968475342,-0.3752034902572632,-0.13125188648700714,-6.968442440032959,17.983993530273438,23.032154083251953,-0.08678531646728516,0.033761024475097656,-0.01773861236870289,-1.2417265176773071,0.005912871100008488,-0.9645609259605408,0.46215763688087463,1.238293170928955,0.005149920005351305,0.9126802682876587,0.030708782374858856,-0.22640573978424072,-0.04940108209848404,0.0871671661734581,0.763523280620575,-0.4940030872821808,0.02574763633310795,-0.8237964510917664,-0.08449683338403702,-0.1356145590543747,0.733386754989624,-0.3192407786846161,-0.011165086179971695,0.10165104269981384,0.3676053285598755,2.71866774559021,-0.2570435106754303,0.003120847512036562,0.30786821246147156,-1.4876704216003418,-0.4480796456336975,-0.007391990628093481,-0.04538124054670334,-0.26498207449913025,1.4852705001831055,-0.6298066973686218,0.16294652223587036,2.7171056270599365,0.40889033675193787,0.8280113935470581,1.444425344467163,-0.5725216865539551,0.4319044053554535,-3.864776372909546,-0.12750516831874847,-0.14292097091674805,1741432873.1207526,1741432873239,-1.4872025146484376,0.646734130859375,-2.4142808928271977,-5.72381494140625,-0.32979156494140627
1741432873.1216993,-2.8259817361831665,0.009522890158647684,-0.06463131399191992,-0.997863772172687,0.6097415685653687,-0.1582394540309906,-0.17716103792190552,3.508694887161255,-7.496548175811768,3.8354899883270264,-0.08030033111572266,0.037194252014160156,0.04444190114736557,-1.2543151378631592,0.005531395319849253,-0.9576943516731262,0.42782482504844666,1.2321895360946655,0.00476844422519207,0.9084840416908264,0.011635004542768002,-0.23327229917049408,-0.04634927958250046,0.09441519528627396,0.8714808821678162,-0.47432658076286316,0.03727348893880844,-0.7944228053092957,-0.07000076025724411,-0.09136339277029037,0.8012893795967102,-0.3028820753097534,-0.01824907399713993,0.2519741654396057,0.17361362278461456,3.4570627212524414,-0.8066819906234741,-0.08203663676977158,0.2580060362815857,-2.573796510696411,-0.3828229010105133,0.0012044316390529275,-0.30361098051071167,-1.3358044624328613,-0.6574418544769287,-0.3309819996356964,0.608759880065918,5.519927978515625,1.263723611831665,0.41364574432373047,1.4227689504623413,1.02693772315979,2.2061567306518555,3.575240135192871,0.5057563185691833,-0.3325401842594147,1741432873.1207526,1741432873239,-1.4872025146484376,0.646734130859375,-2.4142808928271977,-5.72381494140625,-0.32979156494140627
1741432873.141177,-2.8223577737808228,0.007097076649745604,-0.0692790597437965,-0.9975720742803715,0.27857503294944763,-0.2900620698928833,0.2673538625240326,0.8895213007926941,7.491238594055176,15.91247844696045,-0.08564090728759766,0.041008949279785156,0.11348897218704224,-1.2535521984100342,0.006294346414506435,-0.9493018984794617,0.36259251832962036,1.232571005821228,0.005912871100008488,0.9092469811439514,-0.01125352829694748,-0.2927824854850769,-0.06008239835500717,0.08411535620689392,1.0114823579788208,-0.4306896924972534,0.043402981013059616,-0.7890821695327759,-0.04558632895350456,-0.0394827201962471,0.8268482685089111,-0.3125675916671753,-0.010034216567873955,-0.011249933391809464,0.14454875886440277,3.5720067024230957,0.16190867125988007,-0.035471219569444656,0.4828704297542572,-4.638058185577393,0.01911025680601597,0.05576718598604202,0.15461847186088562,-1.1320838928222656,-3.1689200401306152,-0.5634910464286804,-0.8512997627258301,7.218466758728027,2.2348361015319824,0.3838197588920593,0.7781064510345459,1.058753490447998,2.5539894104003906,0.7957169413566589,-0.43766364455223083,0.5679401159286499,1741432873.1249392,1741432873339,-1.5988876953125,0.6269430541992188,-2.4389097812335727,-5.78015576171875,-0.36355789184570314
1741432873.1613073,-2.8095873594284058,0.006662372571463149,-0.07040005342756368,-0.9974965891014942,-0.1012602373957634,0.03193454071879387,0.783847987651825,6.270937919616699,1.4256490468978882,10.144648551940918,-0.07267093658447266,0.041390419006347656,0.17948424816131592,-1.2539336681365967,0.007057297509163618,-0.9454871416091919,0.28248265385627747,1.235241413116455,0.005149920005351305,0.9107728600502014,-0.024986648932099342,-0.3774700462818146,-0.07991912961006165,0.057793546468019485,1.179331660270691,-0.38571852445602417,0.041238196194171906,-0.7455939650535583,-0.025749599561095238,-0.013923857361078262,0.8421072959899902,-0.3109922707080841,-0.004141915123909712,0.3324698209762573,-0.11353129893541336,3.0918033123016357,-0.1644279956817627,0.1275862157344818,0.12116874009370804,-5.256908893585205,0.32495641708374023,-0.01859867013990879,0.02120695635676384,-0.622273325920105,-4.6308135986328125,-1.156407117843628,-1.0996577739715576,7.917342662811279,2.1036760807037354,-0.5536676049232483,1.924704909324646,0.8849560022354126,0.9530055522918701,0.8114513158798218,0.10417093336582184,0.18239550292491913,1741432873.1249392,1741432873339,-1.5988876953125,0.6269430541992188,-2.4389097812335727,-5.78015576171875,-0.36355789184570314
1741432873.1811922,-2.7886383533477783,-0.004542597313309275,-0.06335607877927975,-0.9979806471527205,-0.3070794641971588,-0.4794759452342987,1.0327461957931519,0.05582285299897194,2.7790472507476807,12.926736831665039,-0.07953739166259766,0.061226844787597656,0.23937590420246124,-1.2546966075897217,0.005912871100008488,-0.9451056718826294,0.212672621011734,1.2421079874038696,0.005912871100008488,0.9119172692298889,-0.026131074875593185,-0.47817960381507874,-0.09250781685113907,0.04596780240535736,1.3181887865066528,-0.3716471493244171,0.00590734975412488,-0.7154573798179626,-0.037193864583969116,-0.007438773289322853,0.8455405235290527,-0.3143281936645508,-0.0026862756349146366,-0.125229611992836,0.31595510244369507,2.769308090209961,-0.017006298527121544,-0.022977828979492188,0.012182982638478279,-4.643657684326172,0.37502795457839966,-0.0028034888673573732,0.11289841681718826,0.007138695567846298,-5.023162364959717,-0.49707093834877014,-0.4241091012954712,6.444236755371094,0.290348082780838,-1.561800241470337,1.7104099988937378,-0.7202017903327942,0.28349003195762634,0.12341790646314621,-0.13750329613685608,0.16637083888053894,1741432873.1249392,1741432873339,-1.5988876953125,0.6269430541992188,-2.4389097812335727,-5.78015576171875,-0.36355789184570314
1741432873.2012763,-2.7693957090377808,-0.010475510983639188,-0.05831643612642359,-0.9982431852745824,-0.23652882874011993,-0.20187364518642426,0.9535862803459167,-1.1785361766815186,1.1216715574264526,9.999399185180664,-0.061608314514160156,0.060845375061035156,0.30003052949905396,-1.2546966075897217,0.006294346414506435,-0.9405279755592346,0.13981078565120697,1.239819049835205,0.00476844422519207,0.9153505563735962,-0.018120087683200836,-0.5743114352226257,-0.09479667246341705,0.057793546468019485,1.4002059698104858,-0.40321457386016846,0.006333508528769016,-0.6628137826919556,-0.050164032727479935,-0.010872052982449532,0.8463035225868225,-0.31571534276008606,0.003834327682852745,0.48375222086906433,-0.050272755324840546,3.2127573490142822,-0.012552977539598942,0.011782998219132423,0.2530422508716583,-4.898923873901367,-0.1947874277830124,-0.0893072783946991,0.18390512466430664,0.48391976952552795,-4.651306629180908,-0.2086135298013687,0.773088812828064,3.615203619003296,-1.8351837396621704,0.2942444682121277,2.5412180423736572,-0.4114428162574768,-0.16149911284446716,-0.10853134840726852,-0.14331911504268646,0.238414004445076,1741432873.1249392,1741432873339,-1.5988876953125,0.6269430541992188,-2.4389097812335727,-5.78015576171875,-0.36355789184570314
1741432873.2213223,-2.7538522481918335,-0.018709441466226304,-0.05646525415256356,-0.9982292481557071,-0.04755250737071037,-0.4190562963485718,0.634440541267395,-7.042265892028809,-1.2676150798797607,11.599150657653809,-0.059700965881347656,0.06351566314697266,0.3580147922039032,-1.2558410167694092,0.006294346414506435,-0.9351872801780701,0.0711451917886734,1.23600435256958,0.004005493130534887,0.916113555431366,-0.012397955171763897,-0.6631952524185181,-0.0864042118191719,0.0871671661734581,1.41622793674469,-0.45158651471138,0.00414847768843174,-0.6254291534423828,-0.0555046908557415,-0.013542382046580315,0.8363851308822632,-0.3278804123401642,0.01714731752872467,0.10500787198543549,0.11696948856115341,2.794142484664917,-0.1382308453321457,-0.003774074139073491,0.1741081178188324,-4.521101474761963,-0.2757473587989807,0.01730094663798809,0.009617272764444351,0.25156494975090027,-4.485413551330566,0.37008100748062134,1.4627629518508911,0.23764215409755707,-2.4143285751342773,-0.17253103852272034,1.8759880065917969,-0.13131359219551086,-0.16427402198314667,-0.4395953416824341,-0.7281522154808044,0.698863685131073,1741432873.1249392,1741432873339,-1.5988876953125,0.6269430541992188,-2.4389097812335727,-5.78015576171875,-0.36355789184570314
1741432873.2450647,-2.7473037242889404,-0.020269452986267592,-0.056834531931626506,-0.9981778324806408,0.02344076707959175,-0.03553512692451477,0.2020244002342224,0.754001796245575,3.4294381141662598,7.542576789855957,-0.053597450256347656,0.054741859436035156,0.4068436622619629,-1.2558410167694092,0.006294346414506435,-0.9363317489624023,0.010490577667951584,1.2356228828430176,0.004005493130534887,0.9187838435173035,-0.000572213320992887,-0.7318608164787292,-0.07305257022380829,0.11272602528333664,1.3742656707763672,-0.48676782846450806,-0.009578192606568336,-0.5853742361068726,-0.05893797054886818,-0.013160906732082367,0.8310444951057434,-0.3522804379463196,0.027697060257196426,0.17228396236896515,-0.18152810633182526,2.3156638145446777,-0.009020189754664898,-0.003721138695254922,-0.0766509622335434,-4.084498405456543,0.04794277250766754,-0.057368483394384384,0.18584372103214264,0.6410277485847473,-3.340946912765503,0.7246731519699097,1.2064523696899414,-2.5195693969726562,-1.5126854181289673,-0.5534859299659729,2.0317201614379883,-0.13868111371994019,0.010114969685673714,-0.2407788187265396,-1.2303295135498047,0.46703827381134033,1741432873.322639,1741432873439,-1.691056884765625,0.5951516723632813,-2.397935619039428,-5.8073076171875,-0.3801239013671875
1741432873.261347,-2.7436180114746094,-0.016433767646826122,-0.057470247693070055,-0.9982119523984009,0.008527634665369987,0.30063310265541077,0.2796025276184082,-5.831479072570801,2.359365224838257,10.579269409179688,-0.052453041076660156,0.033379554748535156,0.4541466534137726,-1.2577484846115112,0.005912871100008488,-0.9359502792358398,-0.05397878959774971,1.23753023147583,0.004005493130534887,0.9279392957687378,0.000572213320992887,-0.7814526557922363,-0.06084534898400307,0.12302586436271667,1.2876707315444946,-0.4818902015686035,-0.015601635910570621,-0.5582894682884216,-0.06656748056411743,-0.01773861236870289,0.8276112079620361,-0.384701132774353,0.045392170548439026,0.015340926125645638,-0.5576522350311279,2.3545010089874268,-0.1244584396481514,-0.04623996466398239,0.007536602672189474,-4.181343078613281,0.08441204577684402,0.038801323622465134,0.6462165713310242,-0.07766429334878922,-2.2273786067962646,0.611190140247345,0.41992852091789246,-4.6237664222717285,0.5490521192550659,-0.07906056195497513,1.3857944011688232,-0.4560717046260834,-0.21499350666999817,-0.015292772091925144,-1.6381281614303589,0.9112980961799622,1741432873.322639,1741432873439,-1.691056884765625,0.5951516723632813,-2.397935619039428,-5.8073076171875,-0.3801239013671875
1741432873.281357,-2.7403225898742676,-0.0015722897876243337,-0.058137148789303386,-0.9983073674152035,0.05893578752875328,0.693067193031311,0.08541090786457062,3.2726352214813232,0.942031979560852,6.357442378997803,-0.047875404357910156,0.02117156982421875,0.4850461483001709,-1.2554595470428467,0.006294346414506435,-0.9370946884155273,-0.09937438368797302,1.23600435256958,0.0032425422687083483,0.9435797929763794,-0.007438773289322853,-0.8134965896606445,-0.04291599988937378,0.12302586436271667,1.1663614511489868,-0.4426451325416565,-0.015043891035020351,-0.5292973518371582,-0.07381551712751389,-0.018120087683200836,0.8272297382354736,-0.4182560443878174,0.05814651399850845,0.13840758800506592,-0.3403187394142151,1.3776271343231201,0.14000697433948517,0.020172366872429848,-0.019160302355885506,-2.908501386642456,-0.1219281256198883,-0.052440095692873,1.1058249473571777,-0.5005239844322205,-1.6889615058898926,1.026845097541809,-0.05792894586920738,-6.496786594390869,2.037932872772217,0.030990395694971085,1.3960386514663696,-0.1739719957113266,0.0032197062391787767,-0.07827755808830261,-1.63951575756073,0.696727454662323,1741432873.322639,1741432873439,-1.691056884765625,0.5951516723632813,-2.397935619039428,-5.8073076171875,-0.3801239013671875
1741432873.3014255,-2.7378437519073486,0.009263318726571873,-0.05876201065316991,-0.9982290403660707,0.013189641758799553,0.5676057934761047,0.14849235117435455,2.4605712890625,0.3185335099697113,6.094013690948486,-0.047493934631347656,0.02155303955078125,0.4999237060546875,-1.2550780773162842,0.006294346414506435,-0.9363317489624023,-0.12455176562070847,1.233715534210205,0.0036240178160369396,0.9584572911262512,-0.028038453310728073,-0.8237964510917664,-0.01125352829694748,0.12188144028186798,1.024452567100525,-0.39660537242889404,-0.007144311908632517,-0.5037384629249573,-0.0715266615152359,-0.007438773289322853,0.8264667987823486,-0.4488862454891205,0.05779466778039932,0.007041384000331163,0.0006792834610678256,0.5650984048843384,0.025142135098576546,-0.0024912080261856318,-0.007718535140156746,-1.2946900129318237,-0.19918419420719147,0.008806000463664532,0.9473632574081421,-1.0977451801300049,-0.28793975710868835,1.546606421470642,0.044634055346250534,-7.025918006896973,2.283613681793213,0.33869844675064087,1.3034476041793823,0.188374862074852,0.5947985649108887,-0.026832647621631622,-1.50752854347229,-0.21011126041412354,1741432873.322639,1741432873439,-1.691056884765625,0.5951516723632813,-2.397935619039428,-5.8073076171875,-0.3801239013671875
1741432873.3214073,-2.732053518295288,0.01685029240234076,-0.05729919050048403,-0.9982148418120944,-0.08612025529146194,0.3461626172065735,0.3482295572757721,1.7853870391845703,-2.4082531929016113,5.274631023406982,-0.049401283264160156,0.02651214599609375,0.49420157074928284,-1.2531707286834717,0.006294346414506435,-0.9367132186889648,-0.12302586436271667,1.2291377782821655,0.0036240178160369396,0.9691386222839355,-0.056267641484737396,-0.8157854676246643,0.021553369238972664,0.14286258816719055,0.8829251527786255,-0.3497285842895508,0.0007247441681101918,-0.4709315598011017,-0.0551232174038887,0.007438773289322853,0.8245593905448914,-0.4766223728656769,0.04457233101129532,-0.06773558259010315,0.09858153015375137,-0.3915730118751526,0.1624022275209427,0.004900349769741297,0.008448467589914799,0.29410701990127563,-0.35767021775245667,0.006824285723268986,0.6397690773010254,-1.3814120292663574,0.5364223718643188,1.5470434427261353,1.222182035446167,-7.029670715332031,2.273782253265381,0.49537792801856995,1.5947359800338745,0.9077103734016418,0.7337127327919006,-0.15087229013442993,-1.4061640501022339,-0.8918622732162476,1741432873.322639,1741432873439,-1.691056884765625,0.5951516723632813,-2.397935619039428,-5.8073076171875,-0.3801239013671875
1741432873.341451,-2.724378824234009,0.01804563236524838,-0.05200998913537818,-0.9984835082176751,-0.29163581132888794,0.0432187020778656,0.3898797631263733,7.213261604309082,4.788509845733643,6.602419853210449,-0.052834510803222656,0.040246009826660156,0.4728389382362366,-1.2505004405975342,0.006294346414506435,-0.9367132186889648,-0.09899290651082993,1.223797082901001,0.0036240178160369396,0.9718089699745178,-0.07953765243291855,-0.7921339869499207,0.05054550990462303,0.17719538509845734,0.7578011751174927,-0.3217603266239166,0.007857820950448513,-0.43125811219215393,-0.02994582988321781,0.01735713705420494,0.8264667987823486,-0.4964827001094818,0.020820122212171555,-0.11959332972764969,0.34184470772743225,-1.1576465368270874,0.15176193416118622,-0.006383300293236971,0.012646996416151524,1.7261368036270142,-0.3167032301425934,0.00529221398755908,0.1204989105463028,-0.9063519835472107,1.1985491514205933,1.7679600715637207,1.630487322807312,-5.963040828704834,1.2444102764129639,0.3474505543708801,2.0630245208740234,1.1136013269424438,0.34738799929618835,0.17866088449954987,-0.8872537612915039,-0.9311899542808533,1741432873.322639,1741432873439,-1.691056884765625,0.5951516723632813,-2.397935619039428,-5.8073076171875,-0.3801239013671875
