Freshhhhh-LC/Legged_odom/data/2/segments/booster_seg_9.87s.csv
time,yaw,projected_gravity_x,projected_gravity_y,projected_gravity_z,ang_vel_x,ang_vel_y,ang_vel_z,lin_acc_x,lin_acc_y,lin_acc_z,q_0,q_1,q_2,q_3,q_4,q_5,q_6,q_7,q_8,q_9,q_10,q_11,q_12,q_13,q_14,q_15,q_16,q_17,q_18,q_19,q_20,q_21,q_22,dq_0,dq_1,dq_2,dq_3,dq_4,dq_5,dq_6,dq_7,dq_8,dq_9,dq_10,dq_11,dq_12,dq_13,dq_14,dq_15,dq_16,dq_17,dq_18,dq_19,dq_20,dq_21,dq_22,mocap_time,mocap_timestamp,robot_x,robot_y,robot_yaw,ball_x,ball_y
1741432943.3830576,-2.8230313062667847,0.009455688016220327,-0.12126902115125525,-0.9925746392454102,-0.09878560900688171,0.14845779538154602,-0.5165244340896606,1.7736562490463257,1.432578682899475,8.28235912322998,-0.055504798889160156,0.08030033111572266,-0.06771191209554672,-1.2485930919647217,0.005912871100008488,-0.9290837049484253,0.343137264251709,1.2550780773162842,0.004005493130534887,0.9378576278686523,-0.06733043491840363,-0.4690241813659668,-0.0722896158695221,0.15964750945568085,0.727664589881897,-0.3700302243232727,0.018470149487257004,-0.840199887752533,0.054741740226745605,0.08182650804519653,1.495956301689148,-0.513071596622467,0.006430275738239288,-0.18333634734153748,-0.07438655942678452,-2.4812819957733154,0.058588359504938126,-0.0299843680113554,-0.08370639383792877,3.3470330238342285,0.0008581519941799343,0.003949108067899942,-0.3173467814922333,0.6873258352279663,1.496599555015564,-0.5116711854934692,-0.572010338306427,-0.018540404736995697,-2.1359004974365234,0.09888368844985962,-4.407310485839844,-0.38479042053222656,-1.2634977102279663,-2.5165767669677734,-1.4174789190292358,0.12918058037757874,1741432943.3742774,1741432943459,-2.5471337890625,1.0687601318359374,-2.551149580848178,-4.83272607421875,0.8579779663085938
1741432943.3854833,-2.827858805656433,0.016897773779214784,-0.12114841983525251,-0.992490567014482,0.020037580281496048,0.3223661780357361,-0.15795359015464783,-1.0143821239471436,-2.124026298522949,8.096724510192871,-0.06466007232666016,0.06504154205322266,-0.11272602528333664,-1.2459226846694946,0.005912871100008488,-0.9409094452857971,0.386243999004364,1.2543151378631592,0.004005493130534887,0.9344243407249451,-0.06351567804813385,-0.4522392749786377,-0.07457847148180008,0.16117341816425323,0.728427529335022,-0.41776901483535767,0.0231808852404356,-0.9119172692298889,0.04558632895350456,0.07381551712751389,1.407454013824463,-0.5092182755470276,0.011984952725470066,-0.25866562128067017,-0.3624948263168335,-2.1522979736328125,0.22772584855556488,0.00022938965412322432,-0.6055440306663513,2.8537864685058594,-0.053087472915649414,0.012946794740855694,-0.24916067719459534,0.16539280116558075,0.6544821858406067,-0.0761362835764885,0.17319050431251526,0.023783650249242783,-2.4008400440216064,0.19648978114128113,-3.405453681945801,-0.5236217975616455,-0.346979022026062,-4.779046058654785,0.5022934675216675,0.39823639392852783,1741432943.3742774,1741432943459,-2.5471337890625,1.0687601318359374,-2.551149580848178,-4.83272607421875,0.8579779663085938
1741432943.387675,-2.876261591911316,0.02047065699908055,-0.032133073155618565,-0.9992739453281075,-0.02768605947494507,0.36169806122779846,0.23650804162025452,3.42665958404541,1.0808879137039185,6.521663665771484,-0.062371253967285156,0.20923900604248047,0.4674982726573944,-1.2638521194458008,0.006294346414506435,-0.9245060086250305,-0.10891126841306686,1.2241785526275635,0.002861066721379757,0.9565499424934387,0.1192111074924469,-0.9199283123016357,-0.10967422276735306,-0.07000076025724411,1.0328450202941895,-0.38480591773986816,-0.004065035376697779,-0.5682078003883362,-0.1180666834115982,-0.16918440163135529,0.9225986003875732,-0.4687449634075165,0.03150563687086105,0.2578414976596832,0.07070470601320267,0.9472856521606445,0.09374422580003738,0.008576378226280212,0.369238942861557,-0.5095824599266052,-0.015019075945019722,-0.00043787446338683367,0.597181499004364,-1.1277657747268677,-0.06001768261194229,1.6837419271469116,0.3738802671432495,-8.197976112365723,2.2900900840759277,0.4910430312156677,1.0419243574142456,0.34545937180519104,0.3795667290687561,0.8509257435798645,-1.8551865816116333,0.5667908191680908,1741432943.3742774,1741432943459,-2.5471337890625,1.0687601318359374,-2.551149580848178,-4.83272607421875,0.8579779663085938
1741432943.4035661,-2.8715062141418457,0.024384447004915114,-0.029850531928920454,-0.9992568961422409,-0.13243535161018372,0.19342118501663208,0.26207655668258667,4.886183738708496,5.895624160766602,2.309912919998169,-0.060463905334472656,0.22449874877929688,0.4697871506214142,-1.2627075910568237,0.006294346414506435,-0.9222171306610107,-0.10128175467252731,1.2241785526275635,0.002861066721379757,0.9630350470542908,0.09250781685113907,-0.8928435444831848,-0.08411535620689392,-0.04482337832450867,0.8512626886367798,-0.34775689244270325,0.003745109075680375,-0.54112309217453,-0.09060044586658478,-0.16384375095367432,0.9351872801780701,-0.5073340535163879,0.037711042910814285,0.05578002333641052,0.4264697730541229,0.05276177078485489,0.02465706877410412,0.0035769296810030937,0.08542291820049286,0.677650511264801,-0.000740490504540503,-0.007245877757668495,0.3914024233818054,-1.385647177696228,1.4391629695892334,1.1567245721817017,1.3567194938659668,-8.709485054016113,2.0177533626556396,0.1105332151055336,1.4923427104949951,1.509605050086975,0.12472602725028992,0.5719090104103088,-1.9658933877944946,0.1577613651752472,1741432943.3742774,1741432943459,-2.5471337890625,1.0687601318359374,-2.551149580848178,-4.83272607421875,0.8579779663085938
1741432943.423592,-2.8649861812591553,0.020519077463140464,-0.0282747833724582,-0.9993895657276507,0.07641465216875076,-0.0952317863702774,0.45544078946113586,-5.706189155578613,-3.170654296875,14.73694133758545,-0.06389713287353516,0.24204635620117188,0.464446485042572,-1.2592743635177612,0.00667582219466567,-0.9157320261001587,-0.07572289556264877,1.224560022354126,0.0020981156267225742,0.962272047996521,0.07801175117492676,-0.8390554785728455,-0.06466010212898254,-0.0009536888683214784,0.8558403849601746,-0.28215712308883667,0.005015527829527855,-0.4972533881664276,-0.08907453715801239,-0.1512550562620163,0.9416723847389221,-0.5410475134849548,0.014214079827070236,-0.10051439702510834,0.5440667271614075,-0.4515435993671417,0.27094966173171997,0.043643224984407425,0.34970685839653015,1.9240822792053223,0.0074759055860340595,-0.08645123988389969,-0.07540423423051834,-0.2158273607492447,3.155117988586426,0.5235303640365601,1.9653502702713013,1.3252109289169312,3.011838436126709,0.34906044602394104,2.262568712234497,-0.05802272632718086,0.6731647849082947,0.05029561370611191,-1.663083791732788,-1.4562387466430664,1741432943.3742774,1741432943459,-2.5471337890625,1.0687601318359374,-2.551149580848178,-4.83272607421875,0.8579779663085938
1741432943.4487202,-2.8577688932418823,0.02179334430572645,-0.03392539756087844,-0.9991867280665354,0.2865113317966461,-0.08703417330980301,0.25952067971229553,0.5024223327636719,-13.07606315612793,14.64454174041748,-0.040627479553222656,0.24624252319335938,0.4247730076313019,-1.2600373029708862,0.006294346414506435,-0.9145876169204712,-0.02880140393972397,1.224560022354126,0.0013351644156500697,0.9611276388168335,0.0883115902543068,-0.80663001537323,-0.059319447726011276,-0.020027466118335724,0.8436331748962402,-0.2523573040962219,-0.011798129417002201,-0.4499503970146179,-0.0715266615152359,-0.15430685877799988,0.9412909150123596,-0.5515605211257935,-0.00426890142261982,0.5572307109832764,0.21758738160133362,-2.256643056869507,-0.1554902344942093,0.01452644169330597,0.00795474648475647,3.213460922241211,0.0005582770681940019,0.016409635543823242,-0.13366125524044037,0.484536349773407,1.515797734260559,0.46354275941848755,-1.371125340461731,-1.1999162435531616,1.1749498844146729,-0.7392184138298035,2.1569302082061768,0.8147215247154236,-0.112565778195858,-0.017355022951960564,-0.16731221973896027,-0.3724128007888794,1741432943.470357,1741432943659,-2.731358154296875,0.99320068359375,-2.4349878802212497,-5.035365234375,0.5662758178710937
1741432943.4636505,-2.8529915809631348,0.019083678760489362,-0.03428812723697299,-0.9992297721422975,-0.04912455007433891,-0.026268387213349342,0.18436039984226227,14.486196517944336,0.11427808552980423,7.251638889312744,-0.048256874084472656,0.2508201599121094,0.36411839723587036,-1.2592743635177612,0.005531395319849253,-0.9145876169204712,0.01773861236870289,1.2314265966415405,0.004386968910694122,0.9580758213996887,0.09746700525283813,-0.7425421476364136,-0.06427863240242004,-0.0394827201962471,0.8371480703353882,-0.2415066659450531,0.0018464686581864953,-0.42591744661331177,-0.06847485899925232,-0.15354390442371368,0.9927901029586792,-0.5220199227333069,0.005659439135342836,-0.163379967212677,0.15042464435100555,-3.213780641555786,0.08357392251491547,-0.06384318321943283,0.03900443762540817,2.9998722076416016,0.7179059386253357,0.17137084901332855,-0.20388150215148926,0.32563525438308716,3.068965435028076,-1.1419389247894287,-0.5043752789497375,-0.10262327641248703,0.475573867559433,1.137642741203308,0.8950332999229431,0.27835312485694885,0.0014731395058333874,3.242940902709961,1.7038289308547974,0.3666113615036011,1741432943.470357,1741432943659,-2.731358154296875,0.99320068359375,-2.4349878802212497,-5.035365234375,0.5662758178710937
1741432943.4836295,-2.855230450630188,0.005995629754917841,-0.036752280733852755,-0.9993064206161701,0.16532795131206512,-0.6624829173088074,-0.22025957703590393,-13.03867244720459,-4.420884609222412,13.754449844360352,-0.03032684326171875,0.2779045104980469,0.3084229826927185,-1.2539336681365967,0.005912871100008488,-0.9126802682876587,0.06847485899925232,1.2501189708709717,0.006294346414506435,0.954261064529419,0.10662241280078888,-0.7124055624008179,-0.07991912961006165,-0.06504157930612564,0.8421072959899902,-0.24656619131565094,0.0202195905148983,-0.4667353332042694,-0.06313420087099075,-0.16308079659938812,1.1057069301605225,-0.4790920913219452,0.004703343380242586,0.53761225938797,0.7592569589614868,-2.8959710597991943,0.3351079821586609,-0.014773971401154995,0.022053025662899017,3.551480293273926,1.1669903993606567,0.1027979776263237,-0.23414383828639984,0.4657880365848541,1.756689190864563,-0.7884249687194824,-1.368693470954895,0.42381012439727783,-0.4094148278236389,0.5804020762443542,-2.2555675506591797,0.29023924469947815,-0.378145307302475,6.013607978820801,2.178938865661621,-0.07160679250955582,1741432943.470357,1741432943659,-2.731358154296875,0.99320068359375,-2.4349878802212497,-5.035365234375,0.5662758178710937
1741432943.5036929,-2.8706005811691284,0.00746669667021053,-0.03600424933160574,-0.9993237425733978,-0.03577602654695511,-0.0005613925168290734,-0.8370225429534912,2.868551731109619,-3.7992897033691406,7.938365459442139,-0.02422332763671875,0.2607383728027344,0.24052032828330994,-1.2466856241226196,0.006294346414506435,-0.917639434337616,0.1188296303153038,1.2669038772583008,0.006294346414506435,0.9515907764434814,0.11463340371847153,-0.6673914790153503,-0.0879301130771637,-0.07686731964349747,0.8504997491836548,-0.26468273997306824,0.018205460160970688,-0.5403600931167603,-0.046730753034353256,-0.1676585078239441,1.256008267402649,-0.43557870388031006,-0.001480089733377099,0.1706683337688446,-0.4316370189189911,-3.451033115386963,0.5258127450942993,0.013642051257193089,-0.17983023822307587,3.239593505859375,1.1284291744232178,0.04811886325478554,-0.19890658557415009,0.4055388271808624,1.7424848079681396,-0.26058945059776306,-0.4785059094429016,0.151978999376297,-1.0457490682601929,-0.004137958399951458,-4.016587257385254,0.847563624382019,-0.08831968158483505,7.474893569946289,2.0892953872680664,-0.18628215789794922,1741432943.470357,1741432943659,-2.731358154296875,0.99320068359375,-2.4349878802212497,-5.035365234375,0.5662758178710937
1741432943.5237303,-2.8906166553497314,0.0018293046434527333,-0.034858767797435755,-0.9993905742762266,-0.019485244527459145,-0.2182130068540573,-1.0143144130706787,-1.260665774345398,-0.3925819396972656,13.596495628356934,-0.02117156982421875,0.2645530700683594,0.17261768877506256,-1.2371487617492676,0.005149920005351305,-0.9172579646110535,0.16956588625907898,1.2764407396316528,0.006294346414506435,0.9473945498466492,0.13065537810325623,-0.6410696506500244,-0.08449683338403702,-0.07991912961006165,0.8524070978164673,-0.30069226026535034,0.02629651129245758,-0.6292439103126526,-0.03337911143898964,-0.17147326469421387,1.3784618377685547,-0.41954195499420166,-0.003948206547647715,0.06847522407770157,0.015087157487869263,-3.365530490875244,0.6397594213485718,-0.07894208282232285,-0.009976081550121307,3.4094815254211426,0.608466625213623,-0.020083565264940262,-0.23449459671974182,0.8116439580917358,1.6408392190933228,0.21844258904457092,-0.06946704536676407,0.20062974095344543,-1.8920680284500122,0.454074501991272,-4.497189521789551,0.8571706414222717,-0.40731555223464966,5.6560773849487305,0.5515832901000977,-0.07517694681882858,1741432943.571021,1741432943759,-2.822921875,0.972072509765625,-2.4660495767456765,-5.11285498046875,0.4539150085449219
1741432943.5436974,-2.9103583097457886,0.007860526517799851,-0.03736681926593952,-0.9992707005315474,0.11791887879371643,0.23000939190387726,-0.9573413729667664,6.4658284187316895,-5.292962551116943,9.240145683288574,-0.01583099365234375,0.2580680847167969,0.09975585341453552,-1.2306636571884155,0.006294346414506435,-0.917639434337616,0.22373540699481964,1.2791110277175903,0.005912871100008488,0.9477760195732117,0.1371404528617859,-0.5975814461708069,-0.07801175117492676,-0.08220797777175903,0.84897381067276,-0.34267914295196533,0.026550626382231712,-0.7009612917900085,-0.018120087683200836,-0.17223620414733887,1.435683250427246,-0.42828065156936646,0.0004692928632721305,0.17052514851093292,-0.12723872065544128,-3.5641298294067383,0.3774879574775696,0.051193322986364365,0.019147973507642746,3.6882944107055664,-0.023272398859262466,-0.010660403408110142,-0.005525520071387291,0.27744776010513306,1.9102822542190552,0.3568497896194458,-0.1299973577260971,-0.3491891324520111,-2.105393648147583,-0.0829869955778122,-3.538834810256958,0.592352569103241,0.07983652502298355,2.3739497661590576,-0.5858355760574341,0.18302017450332642,1741432943.571021,1741432943759,-2.822921875,0.972072509765625,-2.4660495767456765,-5.11285498046875,0.4539150085449219
1741432943.5637507,-2.9173766374588013,0.005629976340048884,-0.038758752042667585,-0.9992327369069257,0.06705400347709656,-0.09331165999174118,-0.3005545139312744,-2.751713752746582,-0.6005116701126099,9.909393310546875,-0.01621246337890625,0.2553977966308594,0.03299763426184654,-1.231045126914978,0.005531395319849253,-0.917639434337616,0.2821011543273926,1.2749148607254028,0.005912871100008488,0.9470130205154419,0.1371404528617859,-0.5579079985618591,-0.07419699430465698,-0.08068207651376724,0.8340963125228882,-0.3835219144821167,0.025051455944776535,-0.7658121585845947,-0.015449759550392628,-0.16002899408340454,1.428435206413269,-0.44546282291412354,0.0013283321168273687,0.02368302457034588,-0.026301158592104912,-3.2947402000427246,-0.06464102864265442,-0.11326411366462708,-0.056234244257211685,3.8632872104644775,-0.20384307205677032,-0.0054652150720357895,-0.029452800750732422,-0.2069174200296402,2.1254148483276367,0.14205226302146912,0.10319098830223083,-0.7424806356430054,-2.010213613510132,-0.06081850826740265,-2.9672248363494873,0.021956857293844223,0.49981677532196045,-0.7115716934204102,-0.804848313331604,0.08927460014820099,1741432943.571021,1741432943759,-2.822921875,0.972072509765625,-2.4660495767456765,-5.11285498046875,0.4539150085449219
1741432943.5837502,-2.9121443033218384,0.010301270864113402,-0.041221526361150895,-0.999096927021118,0.1383216828107834,0.22680172324180603,0.32496780157089233,3.8936376571655273,2.7194132804870605,7.303557872772217,-0.01735687255859375,0.24280929565429688,-0.03032730519771576,-1.2340970039367676,0.007057297509163618,-0.9210727214813232,0.3377965986728668,1.2741519212722778,0.005912871100008488,0.9473945498466492,0.1180666834115982,-0.5033569931983948,-0.07000076025724411,-0.07839322835206985,0.8173113465309143,-0.4187828004360199,0.01833694614470005,-0.8192187547683716,-0.024986648932099342,-0.14629587531089783,1.3815137147903442,-0.4523015320301056,0.005098408088088036,-0.036333244293928146,-0.3495945632457733,-3.3115179538726807,-0.20751991868019104,0.16857758164405823,-0.1988697052001953,3.660435438156128,-0.10184828191995621,-0.0095077995210886,-0.012588484212756157,-1.0524336099624634,2.512418508529663,0.21583141386508942,0.20894339680671692,-0.901001513004303,-1.7051432132720947,-0.33561646938323975,-2.6315531730651855,-0.5636549592018127,0.8412108421325684,-2.4777207374572754,-0.20324215292930603,0.23903559148311615,1741432943.571021,1741432943759,-2.822921875,0.972072509765625,-2.4660495767456765,-5.11285498046875,0.4539150085449219
1741432943.6038218,-2.906796932220459,0.011507583105750705,-0.04461078970998145,-0.9989381627370716,0.1497022658586502,0.07221543788909912,0.2584933936595917,-1.2080148458480835,-0.18366456031799316,6.633439540863037,-0.01010894775390625,0.23975753784179688,-0.08869306743144989,-1.2348599433898926,0.005531395319849253,-0.9317540526390076,0.39806973934173584,1.2699556350708008,0.006294346414506435,0.9431982636451721,0.09784847497940063,-0.46368351578712463,-0.06160829961299896,-0.05893797054886818,0.7970931529998779,-0.4506583511829376,0.019569361582398415,-0.8684290647506714,-0.04558632895350456,-0.1337071806192398,1.3147554397583008,-0.4393276870250702,0.010303220711648464,0.1895867884159088,-0.11386276036500931,-2.5897467136383057,-0.01701430045068264,-0.07617097347974777,-0.6736524701118469,4.1236443519592285,-0.228887677192688,-0.00698188366368413,-0.35822969675064087,-0.9854774475097656,1.9682393074035645,0.46663907170295715,1.1171005964279175,-0.9363411068916321,-1.6055654287338257,0.1894146054983139,-2.381342887878418,-1.1271612644195557,0.5791536569595337,-3.5303595066070557,0.7986124157905579,0.220784991979599,1741432943.571021,1741432943759,-2.822921875,0.972072509765625,-2.4660495767456765,-5.11285498046875,0.4539150085449219
1741432943.6237864,-2.905433773994446,0.014404394755145792,-0.04758447708786916,-0.9987633508254155,0.14088134467601776,0.13933764398097992,0.028373725712299347,1.402408242225647,0.125771626830101,8.215377807617188,-0.00057220458984375,0.23670578002929688,-0.12073700875043869,-1.2321895360946655,0.006294346414506435,-0.9477760195732117,0.44804301857948303,1.2649965286254883,0.006294346414506435,0.9348058104515076,0.0875486359000206,-0.41371023654937744,-0.04787518084049225,-0.03833829239010811,0.7803082466125488,-0.4775097072124481,0.012189364060759544,-0.9039062857627869,-0.07457847148180008,-0.1337071806192398,1.2346456050872803,-0.40607303380966187,0.007086718454957008,0.2842545509338379,-0.06125194579362869,-1.3975095748901367,0.1539679765701294,0.04711395502090454,-0.7798683047294617,3.0077624320983887,-0.43209558725357056,0.03175133466720581,-0.5598515868186951,-0.42366090416908264,2.5506181716918945,0.5434564352035522,0.9096412658691406,-0.8759610056877136,-1.3317993879318237,-0.450027734041214,-1.6169061660766602,-1.46043860912323,-0.14548683166503906,-3.9483206272125244,1.7300617694854736,-0.2738727033138275,1741432943.571021,1741432943759,-2.822921875,0.972072509765625,-2.4660495767456765,-5.11285498046875,0.4539150085449219
1741432943.6438065,-2.9108177423477173,0.013953083958264232,-0.05008058877241499,-0.9986477086922403,0.13465218245983124,-0.11110441386699677,-0.3399828374385834,-11.406091690063477,-1.3112331628799438,11.899900436401367,0.00972747802734375,0.23594284057617188,-0.12607766687870026,-1.2276118993759155,0.005912871100008488,-0.9618905782699585,0.47436484694480896,1.2592743635177612,0.006294346414506435,0.926413357257843,0.08487831056118011,-0.3728923499584198,-0.04711223021149635,-0.02727550081908703,0.7578011751174927,-0.50087571144104,0.012694966979324818,-0.9061951637268066,-0.10967422276735306,-0.14209964871406555,1.1366063356399536,-0.3623712658882141,0.004968192428350449,0.29540154337882996,-0.0328601598739624,-0.039038658142089844,0.31849828362464905,-0.0018907568883150816,-0.6302568316459656,1.6252020597457886,-0.3513912260532379,0.0046111298725008965,-0.5918066501617432,-0.016301166266202927,2.0306918621063232,-0.053450342267751694,0.42766448855400085,-1.162376046180725,-1.1164621114730835,0.03104204684495926,0.10389140993356705,-1.7719786167144775,-0.540520429611206,-5.120579719543457,2.145298719406128,-0.08189981430768967,1741432943.674066,1741432943859,-2.9211525878906253,0.9609298706054688,-2.484499050670957,-5.17877734375,0.3576629943847656
1741432943.6637979,-2.9214359521865845,0.015259376798772331,-0.052940581784880224,-0.9984810695351171,0.13739433884620667,0.013071493245661259,-0.5488053560256958,3.0838675498962402,-1.2089097499847412,5.548282146453857,0.01544952392578125,0.22869491577148438,-0.10852979123592377,-1.223797082901001,0.005912871100008488,-0.9699015617370605,0.4804684519767761,1.2527892589569092,0.005912871100008488,0.9195467829704285,0.09212634712457657,-0.3084229826927185,-0.05054550990462303,-0.02880140393972397,0.7391088604927063,-0.5106555819511414,0.005997037049382925,-0.8943694233894348,-0.13218127191066742,-0.17032882571220398,1.0141527652740479,-0.3282686471939087,-0.00043016517884097993,0.1612418293952942,-0.24186398088932037,0.9719363451004028,0.13866008818149567,0.00019045489898417145,-0.3496222198009491,0.22348877787590027,-0.49509626626968384,-0.02952025830745697,-0.4471643269062042,0.2950150966644287,3.039142370223999,-0.21486008167266846,-0.11241742968559265,-1.087514877319336,-0.36855682730674744,-0.3267456591129303,0.7642512321472168,-0.9874308705329895,-1.513409972190857,-6.261763095855713,1.5421422719955444,-0.3225148022174835,1741432943.674066,1741432943859,-2.9211525878906253,0.9609298706054688,-2.484499050670957,-5.17877734375,0.3576629943847656
1741432943.6839228,-2.9316165447235107,0.008346318219611534,-0.05541665316171226,-0.9984284318490392,0.1437615603208542,-0.40144336223602295,-0.4373506009578705,-1.8747164011001587,-0.8735900521278381,10.731304168701172,0.02536773681640625,0.23785018920898438,-0.071908138692379,-1.2241785526275635,0.005912871100008488,-0.9691386222839355,0.47665369510650635,1.2474485635757446,0.005912871100008488,0.9149690866470337,0.08907453715801239,-0.25120165944099426,-0.06542305648326874,-0.028038453310728073,0.724612832069397,-0.5052157044410706,0.01783476583659649,-0.8623254895210266,-0.14705882966518402,-0.18825818598270416,0.8768215179443359,-0.32575029134750366,-0.00781825091689825,0.2810986042022705,0.21222186088562012,1.8691043853759766,-0.057410214096307755,-0.016263622790575027,0.09290990978479385,-0.3465377390384674,-0.27248039841651917,-0.01345363911241293,-0.27199700474739075,-0.22386355698108673,2.842315435409546,-0.900566816329956,0.09168428182601929,-0.40412336587905884,0.3187668025493622,0.8503744602203369,1.8258934020996094,-0.7323456406593323,-0.6850922703742981,-6.847818374633789,-0.18362900614738464,-0.23095716536045074,1741432943.674066,1741432943859,-2.9211525878906253,0.9609298706054688,-2.484499050670957,-5.17877734375,0.3576629943847656
1741432943.7038994,-2.9340426921844482,0.0032889967625111204,-0.06266891159131949,-0.9980289524959962,0.4266088604927063,-0.24761863052845,-0.053978331387043,11.286542892456055,4.784553050994873,8.553733825683594,0.035668373107910156,0.23861312866210938,-0.026131074875593185,-1.224560022354126,0.005912871100008488,-0.9653238654136658,0.45910581946372986,1.2470670938491821,0.005912871100008488,0.9138246774673462,0.07267109304666519,-0.21000228822231293,-0.08945601433515549,-0.011635004542768002,0.7536049485206604,-0.4947568476200104,0.03679898381233215,-0.8157854676246643,-0.1489662081003189,-0.1817730963230133,0.7558938264846802,-0.35321077704429626,-0.009418749250471592,0.27791211009025574,0.028558477759361267,2.397165298461914,-0.03475642949342728,-0.012346295639872551,0.2007410228252411,-1.2390059232711792,-0.032717514783144,0.013455335982143879,-0.09352657943964005,-0.9144846796989441,1.7221347093582153,-0.9617909789085388,0.8285222053527832,1.7976633310317993,0.5585284233093262,0.8524159789085388,2.0937461853027344,-0.04201478138566017,0.588401198387146,-5.598803520202637,-1.173639178276062,-0.12257114052772522,1741432943.674066,1741432943859,-2.9211525878906253,0.9609298706054688,-2.484499050670957,-5.17877734375,0.3576629943847656
1741432943.7239535,-2.9301607608795166,-0.0059352098810015585,-0.0762048439516318,-0.9970745182993977,0.5980107188224792,-0.3755873441696167,0.1775698959827423,-17.319000244140625,-7.545548439025879,22.333852767944336,0.051690101623535156,0.24013900756835938,0.02880140393972397,-1.231045126914978,0.005912871100008488,-0.9596017599105835,0.43240252137184143,1.2432523965835571,0.005531395319849253,0.9096284508705139,0.03757534176111221,-0.20656901597976685,-0.08106355369091034,-0.0024795911740511656,0.8318074345588684,-0.4756649434566498,0.05301204323768616,-0.7883192300796509,-0.12378881871700287,-0.15316243469715118,0.7970931529998779,-0.34107282757759094,-0.01857816055417061,0.4669613540172577,0.05704289674758911,2.703526735305786,-0.6322852969169617,-0.005596665199846029,0.21118620038032532,-2.088792562484741,-0.3128388524055481,-0.002475390676409006,-0.36020752787590027,-2.0376386642456055,-0.23753933608531952,0.1489497870206833,0.5229095816612244,4.143301963806152,1.099244475364685,0.7465075254440308,1.6831738948822021,1.5564844608306885,1.6144963502883911,3.1581175327301025,0.41690152883529663,-0.6354777812957764,1741432943.674066,1741432943859,-2.9211525878906253,0.9609298706054688,-2.484499050670957,-5.17877734375,0.3576629943847656
1741432943.7439396,-2.9233280420303345,-0.003153704932665821,-0.07658618252541874,-0.9970579776479305,0.04203462600708008,0.02476460672914982,0.45827510952949524,-0.04370398446917534,5.698583602905273,13.91363525390625,0.036431312561035156,0.23670578002929688,0.08945601433515549,-1.2409635782241821,0.006294346414506435,-0.9569314122200012,0.3751811981201172,1.2428709268569946,0.006294346414506435,0.9092469811439514,0.0020981156267225742,-0.25120165944099426,-0.09517814964056015,0.010490577667951584,0.9554055333137512,-0.4327269494533539,0.059526730328798294,-0.7894636392593384,-0.10700388997793198,-0.09937438368797302,0.8333333134651184,-0.35470789670944214,-0.01793823391199112,-0.4588245451450348,0.041598886251449585,2.8917229175567627,-0.5614100098609924,-0.038765378296375275,0.10600225627422333,-4.0847086906433105,0.1427634060382843,0.0525471530854702,0.07001971453428268,-1.6966910362243652,-2.6583309173583984,-0.609464168548584,0.1717683970928192,6.371775150299072,2.232417345046997,0.41425618529319763,0.09126395732164383,0.5815274119377136,2.6750643253326416,1.113281011581421,-0.8151553273200989,0.2799222767353058,1741432943.7751465,1741432943959,-3.02935498046875,0.9625165405273438,-2.5799509491481962,-5.24306591796875,0.2650498962402344
1741432943.763958,-2.9098058938980103,-0.00329840213817481,-0.07966580922681255,-0.9968161713092198,0.12153910845518112,0.13929246366024017,0.872172474861145,3.2444987297058105,-4.555978775024414,12.65137767791748,0.061989784240722656,0.23250961303710938,0.1497291475534439,-1.2478300333023071,0.00667582219466567,-0.951972246170044,0.30041199922561646,1.2428709268569946,0.005912871100008488,0.9126802682876587,-0.01926451548933983,-0.33512628078460693,-0.10471503436565399,-0.000572213320992887,1.11295485496521,-0.3875446021556854,0.058903299272060394,-0.7585641145706177,-0.08258945494890213,-0.08106355369091034,0.837911069393158,-0.3577316403388977,-0.01133154146373272,0.6378069519996643,-0.06702757626771927,3.132362127304077,-0.5906683802604675,0.10403245687484741,0.2778034508228302,-4.955359935760498,-0.023971231654286385,-0.07172790914773941,0.15387685596942902,-0.8559598922729492,-4.599197864532471,-0.5208348631858826,-0.48562875390052795,7.767165660858154,2.1360902786254883,-0.5098567605018616,1.6978123188018799,1.1981226205825806,0.532883882522583,0.3377014994621277,0.03274175152182579,0.1774505227804184,1741432943.7751465,1741432943959,-3.02935498046875,0.9625165405273438,-2.5799509491481962,-5.24306591796875,0.2650498962402344
1741432943.783974,-2.88971745967865,-0.005789232232545085,-0.06971696092109568,-0.9975500138589966,-0.5230196714401245,-0.07503267377614975,1.0340265035629272,-3.0632071495056152,3.8763504028320312,12.308380126953125,0.050164222717285156,0.24624252319335938,0.21076524257659912,-1.2531707286834717,0.005912871100008488,-0.9481574892997742,0.230601966381073,1.2440153360366821,0.005531395319849253,0.9119172692298889,-0.02880140393972397,-0.44155794382095337,-0.11425192654132843,0.00667582219466567,1.256008267402649,-0.37208184599876404,0.006903895176947117,-0.733386754989624,-0.09021896868944168,-0.0715266615152359,0.8436331748962402,-0.3569936752319336,-0.012174399569630623,-0.3787859082221985,0.4274398982524872,3.1254868507385254,-0.19095933437347412,-0.01891249045729637,0.10809750854969025,-4.662734031677246,0.07888909429311752,0.002366493921726942,0.04153179004788399,-0.4368336498737335,-5.381423473358154,-0.36492443084716797,0.4733594059944153,6.690054416656494,0.44664257764816284,-2.3066771030426025,1.433911681175232,-0.35625553131103516,0.28091689944267273,0.3729706406593323,0.005165731534361839,0.17980456352233887,1741432943.7751465,1741432943959,-3.02935498046875,0.9625165405273438,-2.5799509491481962,-5.24306591796875,0.2650498962402344
1741432943.8040428,-2.8682903051376343,-0.008550832151276595,-0.0635796533536994,-0.9979401339504009,-0.2492886632680893,-0.06088204309344292,1.0942093133926392,6.578384876251221,3.6487510204315186,9.14377212524414,0.07686710357666016,0.2531089782714844,0.2740901708602905,-1.2558410167694092,0.006294346414506435,-0.9473945498466492,0.15735866129398346,1.2409635782241821,0.005531395319849253,0.9145876169204712,-0.03757534176111221,-0.5399786233901978,-0.10204470902681351,0.037193864583969116,1.3506141901016235,-0.4017549157142639,0.004681415390223265,-0.691805899143219,-0.09937438368797302,-0.07724879682064056,0.8455405235290527,-0.36050859093666077,-0.0041853622533380985,0.6989099979400635,0.2544005215167999,3.2569172382354736,-0.2929897606372833,0.014849664643406868,0.029510585591197014,-4.896981239318848,-0.2568332254886627,-0.01418283861130476,0.20233631134033203,-0.385625422000885,-4.816752910614014,0.6198975443840027,1.6430351734161377,4.258457183837891,-1.7450833320617676,0.2138347178697586,2.141974687576294,-0.47559165954589844,-0.191351518034935,-0.08176492899656296,-0.21488898992538452,0.39098161458969116,1741432943.7751465,1741432943959,-3.02935498046875,0.9625165405273438,-2.5799509491481962,-5.24306591796875,0.2650498962402344
1741432943.8240106,-2.8441354036331177,-0.017148285597880817,-0.062059608662323115,-0.9979251180693534,-0.04844735935330391,-0.37003272771835327,1.2135366201400757,-2.2308592796325684,3.2245867252349854,10.327402114868164,0.08716678619384766,0.2595939636230469,0.3377965986728668,-1.2592743635177612,0.006294346414506435,-0.9470130205154419,0.0871671661734581,1.235241413116455,0.004386968910694122,0.9164950251579285,-0.05207141116261482,-0.6227588057518005,-0.08297093212604523,0.08030059933662415,1.3818951845169067,-0.45059770345687866,0.004529733210802078,-0.6555657386779785,-0.1028076633810997,-0.07381551712751389,0.837911069393158,-0.3683897852897644,0.0048321750946342945,0.3177984952926636,0.1937325894832611,3.189659595489502,-0.10718164592981339,-0.023049507290124893,0.013651711866259575,-4.6128363609313965,-0.3873363435268402,-0.06640198081731796,0.09962675720453262,-0.7493352293968201,-3.9504010677337646,1.045589804649353,2.5529448986053467,1.0896713733673096,-2.4759182929992676,-0.17978504300117493,1.8719000816345215,-0.2723199427127838,0.17354866862297058,-0.30292388796806335,-0.4010848104953766,0.6028193235397339,1741432943.7751465,1741432943959,-3.02935498046875,0.9625165405273438,-2.5799509491481962,-5.24306591796875,0.2650498962402344
1741432943.8441114,-2.825109601020813,-0.02242798788546147,-0.06380786568110376,-0.9977101491097661,0.10963883250951767,-0.17071868479251862,0.8625884056091309,1.55138099193573,2.461606740951538,9.615550994873047,0.09670448303222656,0.2576866149902344,0.3900587558746338,-1.2592743635177612,0.006294346414506435,-0.9473945498466492,0.029182879254221916,1.228756308555603,0.0036240178160369396,0.918402373790741,-0.06847485899925232,-0.6841763854026794,-0.06275273114442825,0.12989242374897003,1.3551918268203735,-0.49681994318962097,-0.006015640217810869,-0.6101701259613037,-0.10624094307422638,-0.06847485899925232,0.8321889042854309,-0.3799572288990021,0.01986599527299404,0.28424006700515747,-0.03733808919787407,2.5238897800445557,0.014477701857686043,0.00790595542639494,-0.031124012544751167,-3.725623369216919,-0.4482545256614685,-0.01316357683390379,0.13944783806800842,-0.6883796453475952,-2.929762601852417,1.09627366065979,2.163742780685425,-1.6819686889648438,-2.1804895401000977,-0.4041575491428375,2.1878044605255127,-0.332870751619339,0.3225151002407074,-0.2812131643295288,-0.6148358583450317,0.7244728207588196,1741432943.8775778,1741432944059,-3.117771240234375,0.9368002319335937,-2.463544563083734,-5.3027758789062505,0.17475225830078125
1741432943.8641038,-2.81465220451355,-0.026893788820122166,-0.06768180967376317,-0.9973444223347235,0.20231665670871735,-0.21011438965797424,0.476071834564209,-7.446089744567871,-2.487636089324951,9.950270652770996,0.10929298400878906,0.2576866149902344,0.42820629477500916,-1.2592743635177612,0.006294346414506435,-0.9473945498466492,-0.016594186425209045,1.223034143447876,0.004005493130534887,0.9206912517547607,-0.07267109304666519,-0.7314793467521667,-0.04139009863138199,0.15735866129398346,1.2869077920913696,-0.5107118487358093,-0.011220861226320267,-0.5884260535240173,-0.11081864684820175,-0.06885633617639542,0.8245593905448914,-0.39444828033447266,0.031177403405308723,0.3707967698574066,0.0026815389283001423,1.816377878189087,-0.037841856479644775,0.023038730025291443,-0.007405200973153114,-3.04140567779541,-0.3345739245414734,0.0011810674332082272,0.20912091434001923,-0.20876997709274292,-2.2812016010284424,1.0014872550964355,1.3259005546569824,-3.584115743637085,-0.4063396155834198,-0.25825056433677673,1.107588529586792,-0.2748960256576538,-0.005281463731080294,-0.2370627522468567,-0.6877502202987671,0.6356192827224731,1741432943.8775778,1741432944059,-3.117771240234375,0.9368002319335937,-2.463544563083734,-5.3027758789062505,0.17475225830078125
1741432943.8841217,-2.800101161003113,-0.022468992995788587,-0.06899767518113743,-0.9973637576999445,0.07353275269269943,0.30515235662460327,0.8663235902786255,3.0909440517425537,3.871455669403076,6.272093296051025,0.11425209045410156,0.24280929565429688,0.4663538634777069,-1.2588928937911987,0.005912871100008488,-0.9428167939186096,-0.06656748056411743,1.221508264541626,0.0036240178160369396,0.9325169920921326,-0.08602273464202881,-0.7639048099517822,-0.021171892061829567,0.16880293190479279,1.1900129318237305,-0.48501527309417725,-0.014666962437331676,-0.5521858334541321,-0.12188144028186798,-0.06809338182210922,0.8264667987823486,-0.4116237461566925,0.04115022346377373,0.15300479531288147,-0.47096145153045654,1.8207205533981323,0.10559852421283722,-0.0180655624717474,0.29555413126945496,-3.030167579650879,-0.0791425034403801,0.011958268471062183,0.8232957124710083,-0.7224089503288269,-1.441114902496338,1.1078524589538574,0.34345200657844543,-4.972940921783447,1.5442177057266235,-0.3030466139316559,1.5664488077163696,-0.5076832175254822,-0.07035444676876068,-0.07607214152812958,-0.912716805934906,0.6153469681739807,1741432943.8775778,1741432944059,-3.117771240234375,0.9368002319335937,-2.463544563083734,-5.3027758789062505,0.17475225830078125
1741432943.9041088,-2.7847272157669067,-0.01788939842592809,-0.07160993106805373,-0.99727227335186,0.1451406031847,0.27628275752067566,0.7201641201972961,-1.6757514476776123,-2.9308371543884277,8.4422025680542,0.11882972717285156,0.23975753784179688,0.4861905872821808,-1.2539336681365967,0.006294346414506435,-0.9348058104515076,-0.09250781685113907,1.221508264541626,0.0036240178160369396,0.9477760195732117,-0.10776684433221817,-0.7795453071594238,0.004386968910694122,0.17566949129104614,1.0622186660766602,-0.44132789969444275,-0.013655072078108788,-0.5266270041465759,-0.12455176562070847,-0.06885633617639542,0.8257037997245789,-0.43059051036834717,0.05184520408511162,0.1308651566505432,-0.13781985640525818,0.8576048612594604,0.32408344745635986,0.009210961870849133,0.38145509362220764,-1.5817025899887085,-0.003247010987251997,0.005324317142367363,0.9707810282707214,-1.1923328638076782,-0.8185395002365112,1.3325469493865967,0.30654671788215637,-6.639203071594238,2.1897666454315186,0.15795506536960602,1.394177794456482,-0.14494627714157104,0.1652265340089798,0.11466825008392334,-0.8999236822128296,0.4330933392047882,1741432943.8775778,1741432944059,-3.117771240234375,0.9368002319335937,-2.463544563083734,-5.3027758789062505,0.17475225830078125
1741432943.92413,-2.7696290016174316,-0.010788550852033075,-0.07182291322175112,-0.9973590508472132,0.0009842055151239038,0.39851441979408264,0.7385451197624207,2.7011852264404297,1.2454774379730225,5.137386322021484,0.11921119689941406,0.23441696166992188,0.4892423748970032,-1.2516448497772217,0.005912871100008488,-0.927176296710968,-0.10090028494596481,1.220745325088501,0.0036240178160369396,0.9611276388168335,-0.13752193748950958,-0.7715343236923218,0.03643091395497322,0.19283588230609894,0.9203097820281982,-0.3953023850917816,-0.005826249718666077,-0.4953460097312927,-0.1199740618467331,-0.0555046908557415,0.8264667987823486,-0.4479660391807556,0.05475156754255295,0.0241955928504467,-0.1095278412103653,0.02614697627723217,0.12054528295993805,0.005273979622870684,0.36859941482543945,-0.2715097963809967,-0.0866815373301506,0.0071823978796601295,0.7808747887611389,-1.4831701517105103,0.4747704863548279,1.6114047765731812,1.0679588317871094,-7.132506847381592,2.317450761795044,0.42725512385368347,1.5417839288711548,0.39409902691841125,0.7215669751167297,-0.005638716276735067,-0.8297030329704285,0.1334155648946762,1741432943.8775778,1741432944059,-3.117771240234375,0.9368002319335937,-2.463544563083734,-5.3027758789062505,0.17475225830078125
1741432943.9441981,-2.757120132446289,-0.008587896497454948,-0.06868339981637978,-0.9976015430137488,-0.19620707631111145,0.13622517883777618,0.6297683715820312,2.72712779045105,-1.7150405645370483,8.039755821228027,0.11768531799316406,0.23479843139648438,0.47894254326820374,-1.2512633800506592,0.005912871100008488,-0.9210727214813232,-0.08907453715801239,1.2169305086135864,0.0036240178160369396,0.9676127433776855,-0.164988175034523,-0.7532234787940979,0.059319447726011276,0.23861294984817505,0.7875562906265259,-0.3534756302833557,0.006668890360742807,-0.46101319789886475,-0.09746700525283813,-0.042153049260377884,0.8237964510917664,-0.46364808082580566,0.04887045547366142,-0.04459806904196739,0.0026499272789806128,-0.6256438493728638,0.023825107142329216,0.0017570584313943982,0.22073572874069214,0.9648392796516418,-0.28950804471969604,0.0006000541034154594,0.36109569668769836,-1.2492502927780151,0.969353437423706,1.355697512626648,2.3175272941589355,-6.332157135009766,2.0740370750427246,0.6583516001701355,1.8865077495574951,1.167443871498108,0.7612003684043884,-0.1029355451464653,-0.760347843170166,-0.5100445747375488,1741432943.980711,1741432944159,-3.21550927734375,0.9054486083984375,-2.386494148304584,-5.3611982421875,0.08637762451171875
1741432943.9641976,-2.744143486022949,-0.01271136143819126,-0.06319179733750967,-0.9979204467489594,-0.21816273033618927,-0.2924458384513855,0.6596871018409729,6.268362522125244,1.8235770463943481,13.106331825256348,0.11692237854003906,0.2542533874511719,0.4545281231403351,-1.2489745616912842,0.006294346414506435,-0.9149690866470337,-0.05703059583902359,1.2146416902542114,0.0036240178160369396,0.9660868048667908,-0.17986571788787842,-0.7238498330116272,0.08106355369091034,0.291638046503067,0.7623788714408875,-0.3076118528842926,0.03986172750592232,-0.4072251319885254,-0.09098191559314728,-0.01773861236870289,0.8203631639480591,-0.47683262825012207,0.02104000188410282,-0.03454034402966499,0.6643229126930237,-1.2933342456817627,0.12772689759731293,0.014699192717671394,0.3477679193019867,2.34049391746521,-0.08740739524364471,0.009770005941390991,-0.18450619280338287,-0.6144805550575256,1.7775639295578003,0.5482467412948608,2.6281824111938477,-0.13322670757770538,2.1459922790527344,1.5267603397369385,2.701937198638916,0.2374667376279831,1.2547107934951782,-0.34729230403900146,-0.6843312382698059,-1.5573453903198242,1741432943.980711,1741432944159,-3.21550927734375,0.9054486083984375,-2.386494148304584,-5.3611982421875,0.08637762451171875
1741432943.9842007,-2.730766773223877,-0.01884298075359409,-0.06327967532943467,-0.9978179316721669,0.012155387550592422,-0.19354727864265442,0.6744498014450073,-0.9553371071815491,-0.41237589716911316,10.709699630737305,0.12722206115722656,0.2550163269042969,0.4079881012439728,-1.2550780773162842,0.006294346414506435,-0.9126802682876587,-0.005149920005351305,1.215023159980774,0.0036240178160369396,0.9618905782699585,-0.1836804747581482,-0.6677729487419128,0.07877469807863235,0.30079346895217896,0.7646677494049072,-0.29755690693855286,0.04635950177907944,-0.3534370958805084,-0.07839322835206985,0.0009536888683214784,0.811589241027832,-0.47149857878685,0.021661682054400444,0.286093145608902,0.05736401304602623,-2.4916367530822754,-0.4570281207561493,0.0007689388585276902,0.046589042991399765,3.541999578475952,0.03370597958564758,-0.008685368113219738,-0.24743418395519257,-0.07074941694736481,2.863675355911255,-0.167527973651886,0.02314201183617115,-0.350436270236969,0.26470592617988586,0.10158950090408325,2.52245831489563,0.639457106590271,0.9442028403282166,-0.26199913024902344,0.5055350065231323,0.4338702857494354,1741432943.980711,1741432944159,-3.21550927734375,0.9054486083984375,-2.386494148304584,-5.3611982421875,0.08637762451171875
1741432944.004242,-2.7180384397506714,-0.017537562716432215,-0.063813769550126,-0.9978077152987797,0.07052040845155716,0.0690426304936409,0.5877291560173035,-1.043192982673645,-1.3686621189117432,14.614766120910645,0.12035560607910156,0.2531089782714844,0.3435187339782715,-1.2611817121505737,0.00667582219466567,-0.9142061471939087,0.050164032727479935,1.215786099433899,0.0036240178160369396,0.9584572911262512,-0.1832990050315857,-0.6170367002487183,0.06084534898400307,0.2653162479400635,0.7547493577003479,-0.2997151017189026,0.054073773324489594,-0.3263523280620575,-0.07267109304666519,0.04901960864663124,0.8592736721038818,-0.4479042589664459,0.020639758557081223,-0.17164437472820282,-0.01496020145714283,-3.368515729904175,-0.4123575985431671,0.0431048609316349,-0.04001220315694809,3.702336549758911,0.07357291132211685,0.039980433881282806,-0.2313314825296402,0.17317572236061096,2.202726364135742,-1.0648056268692017,-1.5926858186721802,-0.40737542510032654,-0.11013253778219223,0.45391491055488586,0.9015827775001526,0.1802234649658203,2.5401439666748047,3.083439350128174,1.2712568044662476,-0.32911208271980286,1741432943.980711,1741432944159,-3.21550927734375,0.9054486083984375,-2.386494148304584,-5.3611982421875,0.08637762451171875
1741432944.0242977,-2.7110358476638794,-0.017566451617013142,-0.06646117790465578,-0.9976343676964586,0.17756448686122894,0.0060227117501199245,0.2247842401266098,-5.738385200500488,-0.21808046102523804,9.94168472290039,0.12150001525878906,0.2553977966308594,0.26913100481033325,-1.2661409378051758,0.006294346414506435,-0.9153505563735962,0.10471503436565399,1.229519248008728,0.005149920005351305,0.955024003982544,-0.17757686972618103,-0.5827038884162903,0.023079270496964455,0.22220951318740845,0.7478827834129333,-0.30901074409484863,0.06915110349655151,-0.3713664412498474,-0.06351567804813385,0.10776684433221817,0.9863049983978271,-0.4106195867061615,0.0105355903506279,-0.015636391937732697,0.01907435804605484,-3.8411448001861572,-0.3225204348564148,0.0057104588486254215,-0.05954186990857124,3.6167855262756348,1.0462071895599365,0.11343507468700409,-0.22670823335647583,0.3106754720211029,1.7277238368988037,-2.152865171432495,-2.128573179244995,-0.3549661636352539,-0.5011739134788513,0.7700660824775696,-2.777357816696167,0.7770155668258667,2.9481654167175293,6.974573612213135,1.9875743389129639,-0.4620862603187561,1741432943.980711,1741432944159,-3.21550927734375,0.9054486083984375,-2.386494148304584,-5.3611982421875,0.08637762451171875
1741432944.0442967,-2.7177605628967285,-0.012492533844052106,-0.07113406697911831,-0.9973885306705534,0.23857298493385315,0.2749159336090088,-0.380656898021698,-0.01833430491387844,-1.7378973960876465,9.707083702087402,0.12417030334472656,0.2595939636230469,0.19169145822525024,-1.2653779983520508,0.006294346414506435,-0.9157320261001587,0.15583276748657227,1.2451597452163696,0.005531395319849253,0.952735185623169,-0.17147326469421387,-0.5464637279510498,-0.01430533267557621,0.18673227727413177,0.7413977384567261,-0.31715306639671326,0.06564149260520935,-0.46292057633399963,-0.031090257689356804,0.14705882966518402,1.1694133281707764,-0.36634185910224915,-0.0006019495776854455,0.06676660478115082,0.06423737108707428,-3.815883159637451,0.08772451430559158,0.000572716526221484,0.006129121873527765,3.3478102684020996,0.9478102326393127,-0.0055620246566832066,-0.15135928988456726,0.2996789515018463,1.673600435256958,-1.6611580848693848,-1.7060717344284058,-0.34905678033828735,-0.3872615396976471,-0.21815946698188782,-4.986852645874023,1.7142771482467651,1.7779959440231323,9.267609596252441,2.0761008262634277,-0.49031123518943787,1741432944.0914233,1741432944259,-3.313594482421875,0.861216064453125,-2.3306247857773594,-5.4146552734375,0.0010989196300506593
1741432944.0643437,-2.731277346611023,-0.00836765407471683,-0.07536793137690848,-0.9971206834106148,0.19731943309307098,0.17321737110614777,-0.7007295489311218,-2.0043230056762695,-3.124028205871582,11.442132949829102,0.11844825744628906,0.2672233581542969,0.11615930497646332,-1.2611817121505737,0.005912871100008488,-0.9157320261001587,0.20428015291690826,1.2546966075897217,0.005531395319849253,0.9489204287528992,-0.1668955534696579,-0.5220493078231812,-0.02689402550458908,0.1672770231962204,0.7372015118598938,-0.32465270161628723,0.05074358731508255,-0.5796520709991455,0.00667582219466567,0.15468832850456238,1.350995659828186,-0.35685640573501587,-0.013554331846535206,-0.16567550599575043,0.19269341230392456,-3.712613105773926,0.27482202649116516,-0.008347319439053535,-0.04718932881951332,3.2222445011138916,0.6743162274360657,0.008432186208665371,-0.2986850440502167,0.2289648950099945,1.366455316543579,-0.47755613923072815,-0.7208256125450134,-0.11772781610488892,-0.40092819929122925,-0.9131249189376831,-5.738703727722168,1.9037716388702393,0.03458695113658905,8.819952011108398,0.12088308483362198,-0.5332382321357727,1741432944.0914233,1741432944259,-3.313594482421875,0.861216064453125,-2.3306247857773594,-5.4146552734375,0.0010989196300506593
1741432944.0843008,-2.7451419830322266,0.0012038052667034634,-0.07905328025333155,-0.9968696653695849,0.16674360632896423,0.42047327756881714,-0.7119698524475098,1.707487940788269,-10.962668418884277,11.375097274780273,0.11120033264160156,0.2656974792480469,0.046730753034353256,-1.2550780773162842,0.005912871100008488,-0.9164950251579285,0.25272753834724426,1.2623261213302612,0.005149920005351305,0.9466315507888794,-0.16994735598564148,-0.4873350262641907,-0.02689402550458908,0.15583276748657227,0.735675573348999,-0.33832016587257385,0.028265895321965218,-0.6830319762229919,0.04253452271223068,0.12912946939468384,1.4719233512878418,-0.38437119126319885,-0.011248424649238586,-0.1868402510881424,-0.01427975669503212,-3.516998052597046,0.4451870322227478,-0.006058712489902973,-0.03186944127082825,3.213704824447632,0.45022645592689514,-0.008961690589785576,-0.11138774454593658,-0.03813251107931137,1.6896343231201172,-0.008016889914870262,-0.6283513903617859,-0.1446753442287445,-0.7432640194892883,-0.9621177911758423,-5.125421047210693,1.7308604717254639,-1.453567624092102,5.345200538635254,-1.5743257999420166,0.3732393980026245,1741432944.0914233,1741432944259,-3.313594482421875,0.861216064453125,-2.3306247857773594,-5.4146552734375,0.0010989196300506593
1741432944.104341,-2.7463656663894653,0.005395273113890358,-0.07794558891590708,-0.9969430155212378,-0.0872245654463768,0.19455039501190186,-0.02729398012161255,-5.220584392547607,-3.44482684135437,10.379714965820312,0.09899330139160156,0.2702751159667969,-0.009727626107633114,-1.2516448497772217,0.005912871100008488,-0.9172579646110535,0.30079346895217896,1.2669038772583008,0.005149920005351305,0.9435797929763794,-0.16308079659938812,-0.4537651538848877,-0.028038453310728073,0.12989242374897003,0.727664589881897,-0.3607269525527954,0.02429720014333725,-0.7722972631454468,0.06313420087099075,0.09288929402828217,1.506637692451477,-0.4300626814365387,0.0007503406959585845,-0.36470454931259155,0.1314801722764969,-2.693291664123535,0.18910227715969086,-0.05205811560153961,-0.09190712869167328,3.177445888519287,0.27073147892951965,-0.014094781130552292,-0.2494242787361145,0.2349434345960617,1.748711109161377,-0.0671888068318367,-1.3863893747329712,-0.4140405058860779,-1.1734236478805542,-0.19319874048233032,-4.198257923126221,0.9121625423431396,-1.8160439729690552,1.041236400604248,-2.3193750381469727,0.7129629254341125,1741432944.0914233,1741432944259,-3.313594482421875,0.861216064453125,-2.3306247857773594,-5.4146552734375,0.0010989196300506593
1741432944.1244373,-2.7403411865234375,0.012857743138112913,-0.07004420856536381,-0.9974610204353082,-0.4305074214935303,0.3934575915336609,0.22713182866573334,3.5696961879730225,-3.386155843734741,7.546694755554199,0.09327030181884766,0.2618827819824219,-0.06847485899925232,-1.2505004405975342,0.00667582219466567,-0.9229800701141357,0.34771496057510376,1.2737704515457153,0.005912871100008488,0.9390020370483398,-0.16193637251853943,-0.40989547967910767,-0.030708782374858856,0.09288929402828217,0.7166017889976501,-0.38374394178390503,0.01500751730054617,-0.839436948299408,0.07572289556264877,0.045204851776361465,1.4681086540222168,-0.4684901535511017,0.005075683351606131,-0.19803480803966522,-0.19197078049182892,-3.0295891761779785,0.09710568189620972,0.0831942930817604,-0.3190407454967499,3.1273293495178223,0.43703100085258484,0.09589462727308273,-0.3329276144504547,0.10567044466733932,2.1216466426849365,-0.10836591571569443,-1.8358806371688843,-0.6072376370429993,-1.168863296508789,-0.3926692605018616,-3.208613634109497,0.6652278900146484,-2.2657556533813477,-2.4846742153167725,-1.755326747894287,0.251153826713562,1741432944.0914233,1741432944259,-3.313594482421875,0.861216064453125,-2.3306247857773594,-5.4146552734375,0.0010989196300506593
1741432944.1443734,-2.733837842941284,0.018066376987164613,-0.05975458026948869,-0.9980495960418876,-0.5433725714683533,0.27698272466659546,0.24576085805892944,-0.9630364179611206,-1.0061795711517334,6.508410930633545,0.09098148345947266,0.2599754333496094,-0.11425192654132843,-1.2459226846694946,0.005531395319849253,-0.9397650361061096,0.39768826961517334,1.2794926166534424,0.006294346414506435,0.9309910535812378,-0.1516365259885788,-0.3767071068286896,-0.030708782374858856,0.06427863240242004,0.7036316394805908,-0.41014423966407776,0.01562272198498249,-0.8909361362457275,0.07267109304666519,0.009346150793135166,1.3746471405029297,-0.47565698623657227,0.011041286401450634,-0.07981656491756439,-0.07701972872018814,-2.08442759513855,0.33768847584724426,0.006067692767828703,-0.8163605332374573,3.3319242000579834,0.2789638340473175,0.0025544215459376574,-0.5252730250358582,0.6797040700912476,1.6334075927734375,-0.0013037592871114612,-1.2314262390136719,-0.6031739711761475,-1.3378697633743286,0.04232662543654442,-2.360330104827881,-0.26066845655441284,-1.6754366159439087,-4.863380432128906,-0.07169035822153091,0.5028263330459595,1741432944.1928284,1741432944359,-3.41840673828125,0.83647509765625,-2.35189727905065,-5.468255859375,-0.07905314636230469
1741432944.1644182,-2.7307791709899902,0.027362680522174554,-0.04879558224439111,-0.9984339111168411,-0.5289082527160645,0.4906517267227173,0.1418001353740692,2.518876075744629,0.058726146817207336,5.243546485900879,0.08754825592041016,0.2576866149902344,-0.1363775134086609,-1.23905611038208,0.005912871100008488,-0.9561684727668762,0.43240252137184143,1.2756778001785278,0.005912871100008488,0.9252689480781555,-0.12912946939468384,-0.3435187339782715,-0.030708782374858856,0.04139009863138199,0.693331778049469,-0.4351709485054016,0.009571686387062073,-0.9218356609344482,0.05970092490315437,-0.010872052982449532,1.2525749206542969,-0.44909346103668213,0.017923183739185333,-0.12098392099142075,-0.059502869844436646,-0.973852276802063,0.4478929936885834,0.0015201818896457553,-0.8254279494285583,2.087326765060425,-0.28901344537734985,0.0021940849255770445,-0.34524157643318176,1.1786054372787476,1.6243852376937866,-0.022514797747135162,-1.1393711566925049,-0.5075722932815552,-1.2637183666229248,-0.29844990372657776,-1.3931794166564941,-0.7248167395591736,-0.8721081018447876,-6.194999694824219,1.5736844539642334,0.24996091425418854,1741432944.1928284,1741432944359,-3.41840673828125,0.83647509765625,-2.35189727905065,-5.468255859375,-0.07905314636230469
1741432944.1844459,-2.728121042251587,0.03527818843989726,-0.0410862541382545,-0.9985326079509301,-0.35734641551971436,0.35552507638931274,0.12470640987157822,-1.9363547563552856,2.404989004135132,4.348607540130615,0.08869266510009766,0.2546348571777344,-0.135233074426651,-1.23600435256958,0.005912871100008488,-0.967994213104248,0.4522392749786377,1.2688112258911133,0.005912871100008488,0.9203097820281982,-0.10585946589708328,-0.33283740282058716,-0.038719769567251205,0.02193484455347061,0.6841763854026794,-0.4592495560646057,0.0172666497528553,-0.9218356609344482,0.03681239113211632,-0.026512550190091133,1.11295485496521,-0.40459007024765015,0.012164568528532982,0.010211778804659843,-0.12014897167682648,0.2634328007698059,0.13858678936958313,-0.006099495571106672,-0.5274850130081177,1.2179365158081055,-0.4761546552181244,-0.0007189555326476693,-0.28070545196533203,1.1812682151794434,0.4005860984325409,-0.520311713218689,-0.8163474202156067,-0.4191843867301941,-1.1310192346572876,0.48647961020469666,0.24527938663959503,-1.2562228441238403,-0.8142436146736145,-7.1968536376953125,2.2481491565704346,-0.29431039094924927,1741432944.1928284,1741432944359,-3.41840673828125,0.83647509765625,-2.35189727905065,-5.468255859375,-0.07905314636230469
1741432944.2044466,-2.7236690521240234,0.04436850513556158,-0.04000269832005074,-0.9982140150684876,-0.02935960702598095,0.45997047424316406,0.22359561920166016,3.2139976024627686,2.6096763610839844,6.209479331970215,0.09060001373291016,0.2542533874511719,-0.11654078215360641,-1.23600435256958,0.006294346414506435,-0.9721904397010803,0.4560540020465851,1.2585114240646362,0.005912871100008488,0.918402373790741,-0.08220797777175903,-0.30346378684043884,-0.06618601083755493,0.01583123579621315,0.6948577165603638,-0.4648153483867645,0.019725922495126724,-0.9107728600502014,0.00858320016413927,-0.05245288833975792,0.9515907764434814,-0.36140018701553345,0.0013251494383439422,0.07607919722795486,-0.06042816862463951,1.11832594871521,-0.00882747769355774,0.0035238489508628845,-0.16116303205490112,0.10974704474210739,-0.7373252511024475,0.006905070040374994,-0.14913488924503326,1.008602261543274,1.2154076099395752,-1.5166524648666382,-0.05658700689673424,0.5505207180976868,-0.19347287714481354,0.20529097318649292,0.7323461771011353,-1.4761159420013428,-1.2769943475723267,-7.916738986968994,1.9994174242019653,-0.7873543500900269,1741432944.1928284,1741432944359,-3.41840673828125,0.83647509765625,-2.35189727905065,-5.468255859375,-0.07905314636230469
1741432944.2246113,-2.7156366109848022,0.04610267593380084,-0.046993728403958275,-0.9978307134792144,0.384013831615448,0.08556776493787766,0.49268871545791626,0.730512797832489,3.2350950241088867,7.249911308288574,0.09060001373291016,0.2641716003417969,-0.07763027399778366,-1.23905611038208,0.006294346414506435,-0.9718089699745178,0.4530022144317627,1.2470670938491821,0.005531395319849253,0.918402373790741,-0.07877469807863235,-0.28973066806793213,-0.08411535620689392,0.024605173617601395,0.7272831201553345,-0.4584781229496002,0.0365055650472641,-0.8787289261817932,-0.02841992862522602,-0.0555046908557415,0.7894636392593384,-0.34829577803611755,-0.011629323475062847,0.008102241903543472,0.24026867747306824,2.0434064865112305,-0.2862325608730316,-0.00862925685942173,0.038878247141838074,-0.28159967064857483,-0.71759432554245,-0.015591180883347988,-0.01369334477931261,-0.09545967727899551,0.6541863679885864,-0.7328163385391235,0.3713655173778534,1.9784598350524902,0.4102340340614319,0.9771692752838135,1.8183625936508179,-1.8123680353164673,0.03517550602555275,-7.808259963989258,0.38005563616752625,-0.4552208483219147,1741432944.1928284,1741432944359,-3.41840673828125,0.83647509765625,-2.35189727905065,-5.468255859375,-0.07905314636230469
1741432944.244511,-2.7017637491226196,0.04502338933569055,-0.0664846803595689,-0.996771128038033,0.9948027729988098,-0.044224247336387634,0.7763833999633789,20.978479385375977,-2.900331497192383,29.894277572631836,0.09632301330566406,0.2702751159667969,-0.02193484455347061,-1.2474485635757446,0.006294346414506435,-0.9676127433776855,0.439269095659256,1.2363858222961426,0.005149920005351305,0.9195467829704285,-0.0871671661734581,-0.28744181990623474,-0.09517814964056015,0.05397878959774971,0.8100633025169373,-0.44472628831863403,0.05574304237961769,-0.8512626886367798,-0.0551232174038887,-0.029182879254221916,0.7093538045883179,-0.3352019786834717,0.009331616573035717,0.1669926643371582,0.10945238173007965,2.68456768989563,-0.5248882174491882,-0.0088416812941432,0.23935849964618683,-0.9499691724777222,-0.7371894717216492,-0.03930442035198212,-0.03184260055422783,-0.46122750639915466,-0.06243610754609108,-0.0597955621778965,1.3588939905166626,4.56101655960083,0.7708752155303955,0.7905215620994568,0.868681013584137,-1.0041375160217285,1.2627078294754028,-1.7875021696090698,1.385213851928711,1.348214864730835,1741432944.1928284,1741432944359,-3.41840673828125,0.83647509765625,-2.35189727905065,-5.468255859375,-0.07905314636230469
1741432944.264494,-2.690208077430725,0.04256334665618572,-0.08460041676515849,-0.9955054650802208,0.6410581469535828,0.1545972377061844,0.49906012415885925,12.999028205871582,-3.203763008117676,3.37868070602417,0.07839298248291016,0.2649345397949219,0.04596780240535736,-1.2588928937911987,0.005531395319849253,-0.959983229637146,0.4072251319885254,1.227230429649353,0.005531395319849253,0.9126802682876587,-0.11234454810619354,-0.3263523280620575,-0.09670405089855194,0.09517814964056015,0.9336614012718201,-0.4122474193572998,0.06703441590070724,-0.8276112079620361,-0.034142062067985535,0.005531395319849253,0.7902265787124634,-0.28988412022590637,0.05893734097480774,-0.552438497543335,-0.29882803559303284,3.5268924236297607,-0.5982019305229187,-0.056308407336473465,0.38545531034469604,-2.5202107429504395,-0.6217145323753357,0.06522539258003235,-0.4546065628528595,-1.0421674251556396,-2.320472240447998,-0.5857768058776855,2.136399745941162,6.390764236450195,1.881699562072754,0.41232380270957947,0.6952813863754272,0.9137451648712158,2.1799750328063965,3.53926157951355,2.149165153503418,2.7048158645629883,1741432944.295293,1741432944459,-3.5282780761718753,0.8120316772460938,-2.3237313885754376,-5.522755859375,-0.15786961364746094
1741432944.2845263,-2.6739732027053833,0.03731866667358333,-0.09100098723692686,-0.9951513138410715,0.34630683064460754,-0.11946149170398712,0.7179853320121765,6.351085662841797,-3.5192923545837402,12.243950843811035,0.08220767974853516,0.2706565856933594,0.12111848592758179,-1.2554595470428467,0.005149920005351305,-0.952735185623169,0.3423742949962616,1.223797082901001,0.005531395319849253,0.9130617380142212,-0.11196307092905045,-0.404173344373703,-0.10013733059167862,0.11387044936418533,1.0950255393981934,-0.36995261907577515,0.057681407779455185,-0.8020523190498352,-0.04139009863138199,0.056267641484737396,0.7856488823890686,-0.26496756076812744,0.07181044667959213,0.15277089178562164,0.032509416341781616,3.804410934448242,0.29465192556381226,-0.13867445290088654,0.32882848381996155,-4.647899150848389,-0.16052287817001343,-0.005952348932623863,0.10067979991436005,0.23579032719135284,-3.9575397968292236,-0.09222687780857086,0.6425548195838928,8.05196762084961,1.9750763177871704,-0.6891415119171143,1.740639567375183,-0.37312936782836914,2.05250883102417,-0.5749627351760864,1.185150146484375,-0.1953691691160202,1741432944.295293,1741432944459,-3.5282780761718753,0.8120316772460938,-2.3237313885754376,-5.522755859375,-0.15786961364746094
1741432944.3045392,-2.6476447582244873,0.02845546900111731,-0.09679156982204433,-0.9948978230428042,0.1677982211112976,-0.3195231258869171,1.4221737384796143,1.7798212766647339,2.65492844581604,9.77988052368164,0.08602237701416016,0.2763786315917969,0.19283588230609894,-1.2566040754318237,0.00667582219466567,-0.9470130205154419,0.2641718089580536,1.2241785526275635,0.004386968910694122,0.9126802682876587,-0.10738536715507507,-0.4976348578929901,-0.09784847497940063,0.12111848592758179,1.2518119812011719,-0.3532184660434723,0.0052514211274683475,-0.7566567659378052,-0.045204851776361465,0.05703059583902359,0.8024337887763977,-0.235396146774292,0.02161603420972824,0.07262688130140305,0.1517074853181839,3.4315011501312256,-0.15503594279289246,0.05243012681603432,0.24835710227489471,-5.042875289916992,0.01813400164246559,-0.09310217946767807,-0.1508760005235672,0.15920066833496094,-4.641550064086914,0.15813013911247253,0.5024806261062622,7.473893642425537,0.5552015900611877,-2.4402999877929688,1.992553949356079,-0.35839417576789856,0.10428477078676224,1.1010407209396362,1.444083333015442,-2.3096911907196045,1741432944.295293,1741432944459,-3.5282780761718753,0.8120316772460938,-2.3237313885754376,-5.522755859375,-0.15786961364746094
1741432944.324641,-2.614633798599243,0.013351973136869933,-0.09790041211862048,-0.9951066445966265,0.02537505328655243,-0.6305928230285645,1.5873069763183594,-1.8364132642745972,2.084688901901245,12.247227668762207,0.07534122467041016,0.2828645706176758,0.2599755823612213,-1.2546966075897217,0.005912871100008488,-0.9443427324295044,0.20237277448177338,1.2241785526275635,0.0036240178160369396,0.9111543297767639,-0.09975585341453552,-0.5880445837974548,-0.09670405089855194,0.1501106321811676,1.3601510524749756,-0.38244637846946716,0.0033448957838118076,-0.7215610146522522,-0.06084534898400307,0.06160829961299896,0.8089188933372498,-0.22372324764728546,0.010103675536811352,-0.23911714553833008,0.13824404776096344,3.3158817291259766,0.1567358821630478,-0.013946290127933025,0.14117223024368286,-4.07539701461792,-0.01645199954509735,-0.043117836117744446,-0.03163817897439003,0.377326101064682,-4.408799171447754,0.06045335903763771,1.6306928396224976,4.799659252166748,-1.7737200260162354,0.31157106161117554,1.9927107095718384,-0.5892128944396973,0.054984692484140396,0.2622826397418976,0.34825971722602844,-0.09608057886362076,1741432944.295293,1741432944459,-3.5282780761718753,0.8120316772460938,-2.3237313885754376,-5.522755859375,-0.15786961364746094
1741432944.3446033,-2.580654501914978,-0.0007413611650293845,-0.10151740584095169,-0.9948334869187638,0.20847539603710175,-0.499592125415802,1.7123759984970093,0.07347793877124786,0.9445059299468994,13.541960716247559,0.08564090728759766,0.2801933288574219,0.3282597064971924,-1.2535521984100342,0.006294346414506435,-0.9382390975952148,0.13942931592464447,1.2241785526275635,0.0036240178160369396,0.9142061471939087,-0.09060044586658478,-0.655947208404541,-0.08182650804519653,0.19054703414440155,1.3971542119979858,-0.43135395646095276,0.00498754670843482,-0.6742580533027649,-0.0722896158695221,0.05436026677489281,0.8188372850418091,-0.2342083901166916,0.02328002266585827,0.2337866872549057,-0.06432583183050156,3.2463326454162598,0.04352644830942154,0.030227651819586754,0.33540529012680054,-4.286312580108643,-0.0013193595223128796,-0.006729314103722572,0.1853356510400772,0.2986321747303009,-3.1866488456726074,0.7229943871498108,2.0717127323150635,1.2296593189239502,-2.4916675090789795,-0.08199117332696915,2.3112926483154297,-0.49960198998451233,-0.44887053966522217,0.5556899309158325,-0.7137569785118103,0.5747514367103577,1741432944.295293,1741432944459,-3.5282780761718753,0.8120316772460938,-2.3237313885754376,-5.522755859375,-0.15786961364746094
1741432944.3646212,-2.5574018955230713,-0.011319093832193287,-0.10043984886816147,-0.9948787438045698,-0.07233254611492157,-0.41013237833976746,1.137296199798584,-14.911405563354492,7.827869415283203,16.838424682617188,0.08373355865478516,0.2714195251464844,0.3866254687309265,-1.2527892589569092,0.005912871100008488,-0.9355688095092773,0.07724879682064056,1.2241785526275635,0.004386968910694122,0.9134432077407837,-0.09021896868944168,-0.7047760486602783,-0.06427863240242004,0.22335393726825714,1.3601510524749756,-0.47127723693847656,-0.009478560648858547,-0.648699164390564,-0.08487831056118011,0.045204851776361465,0.8226520419120789,-0.2748987674713135,0.04216063395142555,-0.0597456656396389,-0.2589713931083679,2.783456563949585,0.05670352280139923,0.0015175818698480725,0.07831333577632904,-4.016622543334961,0.009645809419453144,0.06151261925697327,0.004073507152497768,0.07155878841876984,-2.331979751586914,0.8278869390487671,1.5036327838897705,-2.349879026412964,-1.7972240447998047,-0.6570857167243958,1.2171679735183716,-0.5643489956855774,-0.4970230758190155,0.12147944420576096,-2.2276620864868164,1.003796935081482,1741432944.3902113,1741432944519,-3.5880444335937502,0.8018750610351563,-2.295235819198693,-5.5552314453125,-0.2065213623046875
1741432944.3846195,-2.5500402450561523,-0.008515730018879779,-0.0980593433728728,-0.9951441340426654,-0.0842890664935112,0.2745307683944702,0.27937477827072144,0.8399146199226379,-3.5289595127105713,8.82915210723877,0.08525943756103516,0.24891281127929688,0.4339284300804138,-1.2546966075897217,0.00667582219466567,-0.9370946884155273,0.012779430486261845,1.2253230810165405,0.0036240178160369396,0.9153505563735962,-0.08068207651376724,-0.7352941036224365,-0.049782559275627136,0.23785001039505005,1.2747005224227905,-0.47870415449142456,-0.011182540096342564,-0.6055924296379089,-0.0875486359000206,0.04253452271223068,0.8196002244949341,-0.32375168800354004,0.059134773910045624,-0.006568337325006723,-0.7328442335128784,2.4701461791992188,-0.1519831418991089,0.06702271103858948,-0.013728958554565907,-4.651599884033203,0.0995720773935318,-0.05520100146532059,0.22133582830429077,0.48827874660491943,-1.3405730724334717,0.7194074988365173,0.411397248506546,-4.412862300872803,-0.09598691761493683,0.11375002562999725,2.0509190559387207,-0.09548040479421616,-0.08283980190753937,-0.3402490019798279,-2.3970489501953125,0.8272726535797119,1741432944.3902113,1741432944519,-3.5880444335937502,0.8018750610351563,-2.295235819198693,-5.5552314453125,-0.2065213623046875
1741432944.404705,-2.5421900749206543,-0.0002497163924512479,-0.09853999652092015,-0.9951330598102851,0.037045400589704514,0.4636665880680084,0.3907858431339264,-0.8939028978347778,2.792834997177124,6.479368686676025,0.08564090728759766,0.22526168823242188,0.4865720570087433,-1.2581299543380737,0.006294346414506435,-0.9328984618186951,-0.05970092490315437,1.225704550743103,0.004386968910694122,0.9260318875312805,-0.0864042118191719,-0.7616159319877625,-0.03528648987412453,0.23746852576732635,1.1610208749771118,-0.4517587721347809,-0.010875965468585491,-0.572022557258606,-0.09060044586658478,0.03452353551983833,0.8081559538841248,-0.36435791850090027,0.06581240147352219,0.03606536611914635,-0.6487424969673157,2.41135311126709,-0.16286394000053406,-0.012993404641747475,0.17338190972805023,-4.426211833953857,0.022468630224466324,0.06057911738753319,0.8254514336585999,-0.33699220418930054,-1.2625294923782349,0.8213828802108765,0.03140879049897194,-5.9325761795043945,1.5667519569396973,-0.09997037053108215,1.676234483718872,-0.14951404929161072,-0.38840216398239136,-0.4210837781429291,-1.947999119758606,0.2176009863615036,1741432944.3902113,1741432944519,-3.5880444335937502,0.8018750610351563,-2.295235819198693,-5.5552314453125,-0.2065213623046875
1741432944.4246786,-2.5377933979034424,0.011965283582686666,-0.09869338596905526,-0.995045952483979,0.02432399056851864,0.6061914563179016,0.2548348009586334,3.184464454650879,-0.10662349313497543,5.423280239105225,0.08335208892822266,0.21457958221435547,0.5117494463920593,-1.2581299543380737,0.006294346414506435,-0.9298466444015503,-0.10700388997793198,1.2260860204696655,0.0032425422687083483,0.9431982636451721,-0.1035706102848053,-0.7726787328720093,-0.010490577667951584,0.23861294984817505,1.039711594581604,-0.4072098135948181,-0.007945911027491093,-0.5365453362464905,-0.09327077120542526,0.035667963325977325,0.8039597272872925,-0.3976125717163086,0.06313574314117432,-0.08295702189207077,-0.29055318236351013,1.0927377939224243,-0.030502228066325188,0.0033960372675210238,0.19431304931640625,-2.9783267974853516,0.023533767089247704,-0.07050461322069168,1.134749412536621,-0.9369645118713379,-0.39714398980140686,1.339702844619751,0.07475902885198593,-5.9247894287109375,2.2339887619018555,0.22135230898857117,1.6515203714370728,0.04057353734970093,0.07770059257745743,-0.3018762767314911,-1.6217894554138184,-0.06772733479738235,1741432944.3902113,1741432944519,-3.5880444335937502,0.8018750610351563,-2.295235819198693,-5.5552314453125,-0.2065213623046875
1741432944.4446776,-2.5276780128479004,0.016878097739640392,-0.09898351403465079,-0.9949459250462024,-0.005240715574473143,0.23033134639263153,0.5313683152198792,-0.245281383395195,-1.6250371932983398,5.629700183868408,0.07915592193603516,0.21114635467529297,0.5170900821685791,-1.2573670148849487,0.006294346414506435,-0.9229800701141357,-0.12569619715213776,1.2260860204696655,0.0036240178160369396,0.9576943516731262,-0.1325627565383911,-0.7738231420516968,0.03032730519771576,0.25577935576438904,0.9325169920921326,-0.3586011826992035,0.0007165484130382538,-0.5052643418312073,-0.08335240930318832,0.04177157208323479,0.7932783961296082,-0.42497146129608154,0.052217766642570496,-0.13189779222011566,-0.1831093579530716,0.08103405684232712,0.07306632399559021,-0.011149304918944836,0.3357035219669342,-0.9020484089851379,-0.005275372415781021,0.008368379436433315,0.8989092707633972,-1.4797673225402832,-0.0021421597339212894,2.1138916015625,1.0728822946548462,-5.226480484008789,2.440372943878174,0.4193335771560669,1.62388014793396,0.5327857732772827,0.4033549427986145,-0.4967100918292999,-1.3486658334732056,-0.7642582654953003,1741432944.3902113,1741432944519,-3.5880444335937502,0.8018750610351563,-2.295235819198693,-5.5552314453125,-0.2065213623046875
1741432944.464742,-2.5124462842941284,0.018027245461170825,-0.09654189615701277,-0.995165654907509,-0.14892645180225372,0.10698137432336807,0.7908592224121094,3.804567575454712,0.48751577734947205,5.8321213722229,0.06542301177978516,0.21648693084716797,0.5022125840187073,-1.2531707286834717,0.006294346414506435,-0.9210727214813232,-0.1192111074924469,1.2260860204696655,0.0032425422687083483,0.967994213104248,-0.16422522068023682,-0.763523280620575,0.07305257022380829,0.29812315106391907,0.8424887657165527,-0.3096047639846802,0.0026907476130872965,-0.4549095928668976,-0.0715266615152359,0.05207141116261482,0.7867932915687561,-0.4486168622970581,0.032973743975162506,-0.4191879332065582,0.08805707842111588,-0.8883204460144043,0.32069167494773865,-0.0028033095877617598,0.0683179572224617,0.6457728147506714,-0.002278911182656884,0.00856244657188654,0.631510317325592,-1.4877288341522217,0.5799867510795593,2.000865936279297,2.2516841888427734,-4.345274448394775,2.3862192630767822,-0.023910153657197952,2.6434378623962402,0.636844277381897,0.561252772808075,-0.34741607308387756,-1.241341233253479,-1.0693907737731934,1741432944.5010276,1741432944659,-3.703896240234375,0.74904541015625,-2.2709007986953793,-5.61767724609375,-0.3097098083496094
1741432944.4847283,-2.494562268257141,0.012503616648333672,-0.08978142710143826,-0.9958830026254795,-0.3857181668281555,-0.2657502591609955,0.8880296349525452,4.336994171142578,2.4997611045837402,12.041932106018066,0.060845375061035156,0.22068405151367188,0.4724574685096741,-1.2497375011444092,0.006294346414506435,-0.9206912517547607,-0.08869306743144989,1.2260860204696655,0.0032425422687083483,0.969520092010498,-0.18825818598270416,-0.7398717999458313,0.10090028494596481,0.34733349084854126,0.7631418108940125,-0.2746626138687134,0.003535866504535079,-0.404173344373703,-0.054741740226745605,0.0558861680328846,0.7715343236923218,-0.4671878218650818,0.01634315401315689,-0.1591036170721054,0.1545429229736328,-1.5043816566467285,0.18988531827926636,-0.004134707618504763,0.027589861303567886,2.230708360671997,-0.0017875784542411566,0.00867663323879242,0.0561334453523159,-1.0793598890304565,1.3087341785430908,1.648370385169983,2.387058973312378,-4.04311990737915,1.5602092742919922,0.1657206118106842,2.401224136352539,0.6951811909675598,0.12075389921665192,-0.7607685327529907,-0.7853349447250366,-0.46105098724365234,1741432944.5010276,1741432944659,-3.703896240234375,0.74904541015625,-2.2709007986953793,-5.61767724609375,-0.3097098083496094
1741432944.5047793,-2.476112484931946,0.0002551288607326769,-0.0815610608571952,-0.9966683140649719,-0.40560412406921387,-0.5322250127792358,0.8470451235771179,5.91143798828125,3.5281403064727783,10.106704711914062,0.054360389709472656,0.22297286987304688,0.42706188559532166,-1.2489745616912842,0.006294346414506435,-0.9195467829704285,-0.03795681521296501,1.2260860204696655,0.0032425422687083483,0.9676127433776855,-0.1997024416923523,-0.7051575779914856,0.12264438718557358,0.38204777240753174,0.7093538045883179,-0.2598111033439636,0.021484889090061188,-0.3377965986728668,-0.04711223021149635,0.05855649709701538,0.7696269154548645,-0.4569871127605438,0.03425366058945656,-0.19210709631443024,0.03830922022461891,-2.396383047103882,-0.03258370980620384,0.004936114884912968,0.05570947378873825,3.4447944164276123,-0.0033606092911213636,0.0031129661947488785,-0.17537464201450348,-0.5566871166229248,1.7885183095932007,0.7612417936325073,1.7345901727676392,-2.13016676902771,0.6510027647018433,0.9187414050102234,3.4989471435546875,0.2605116367340088,0.22119732201099396,0.0665888786315918,0.4971828758716583,0.6698393821716309,1741432944.5010276,1741432944659,-3.703896240234375,0.74904541015625,-2.2709007986953793,-5.61767724609375,-0.3097098083496094
1741432944.524841,-2.458528995513916,-0.01765571807804525,-0.07560360933948683,-0.9969816296572324,-0.25200018286705017,-0.7900428771972656,0.8745015263557434,-7.768310546875,3.3621397018432617,14.137866973876953,0.049782752990722656,0.23365402221679688,0.3686961233615875,-1.2550780773162842,0.006294346414506435,-0.9153505563735962,0.02384222112596035,1.2260860204696655,0.0032425422687083483,0.9618905782699585,-0.20885786414146423,-0.647173285484314,0.10891126841306686,0.38281071186065674,0.7143129706382751,-0.2622135877609253,0.03631977364420891,-0.29812315106391907,-0.04406042397022247,0.07801175117492676,0.7898451089859009,-0.44860953092575073,0.03814711049199104,-0.15044157207012177,0.25092270970344543,-2.9258644580841064,-0.47915804386138916,-0.006869948003441095,0.18086424469947815,4.241191864013672,-0.0014431073796004057,0.0020480842795222998,-0.3880305588245392,-0.3709147572517395,3.0516746044158936,-0.7785508632659912,-0.3417803645133972,0.2842453718185425,-0.33294424414634705,0.7082420587539673,1.7202162742614746,0.1962578147649765,1.1932257413864136,1.392082691192627,0.4787401258945465,0.1317489594221115,1741432944.5010276,1741432944659,-3.703896240234375,0.74904541015625,-2.2709007986953793,-5.61767724609375,-0.3097098083496094
1741432944.5447967,-2.446251153945923,-0.022658219357474505,-0.07389398727808506,-0.9970086678357891,-0.04689176008105278,-0.19333019852638245,0.5373298525810242,0.09391197562217712,3.0795133113861084,9.771303176879883,0.047875404357910156,0.22945785522460938,0.28973066806793213,-1.2642335891723633,0.006294346414506435,-0.9142061471939087,0.0864042118191719,1.2268489599227905,0.0032425422687083483,0.9576943516731262,-0.21190966665744781,-0.6002517938613892,0.07991912961006165,0.34695202112197876,0.7085908055305481,-0.27713218331336975,0.060619257390499115,-0.30041199922561646,-0.035667963325977325,0.12722209095954895,0.8836880922317505,-0.42223551869392395,0.02980891428887844,-0.07186231017112732,-0.10505439341068268,-4.018718242645264,-0.622377336025238,-0.00011044080747524276,0.026410439983010292,4.025831699371338,0.08178358525037766,0.030040109530091286,-0.26277580857276917,-0.07307393103837967,2.03471302986145,-1.5520275831222534,-1.7157689332962036,-0.31183749437332153,-0.6251270771026611,1.2564423084259033,-0.608547568321228,0.42563867568969727,2.770961046218872,5.351118564605713,1.4909389019012451,-0.5758720636367798,1741432944.5010276,1741432944659,-3.703896240234375,0.74904541015625,-2.2709007986953793,-5.61767724609375,-0.3097098083496094
1741432944.5649326,-2.4427151679992676,-0.023492775004165755,-0.08020398722716754,-0.9965015855258174,0.39213067293167114,0.07070370763540268,0.0485721081495285,-2.045559883117676,2.484714984893799,8.561375617980957,0.046349525451660156,0.21915817260742188,0.20580606162548065,-1.2733889818191528,0.006294346414506435,-0.9157320261001587,0.14476996660232544,1.232571005821228,0.004386968910694122,0.9557870030403137,-0.21076524257659912,-0.5663004517555237,0.04596780240535736,0.31414511799812317,0.7009612917900085,-0.28571099042892456,0.0696491152048111,-0.368314653635025,-0.008201723918318748,0.19359883666038513,1.045433759689331,-0.37737518548965454,0.02056806907057762,-0.043007150292396545,-0.38709068298339844,-4.227247714996338,-0.5526623725891113,-0.021927878260612488,-0.06695758551359177,3.783067226409912,0.38971495628356934,0.06716898828744888,-0.11198963224887848,0.005048241000622511,1.6558938026428223,-1.557500958442688,-1.6519719362258911,-0.4237588942050934,-0.42949116230010986,0.16108295321464539,-3.685267925262451,1.511520504951477,3.2350313663482666,8.218790054321289,2.3273379802703857,-0.5515902638435364,1741432944.5953045,1741432944759,-3.7841787109375002,0.6924671020507812,-2.1957497225447864,-5.56171826171875,-0.42639505004882816
1741432944.5882668,-2.451603651046753,-0.018920831027198007,-0.0958386050651071,-0.9952170436303905,0.7961750030517578,0.19819669425487518,-0.5264171361923218,3.1756033897399902,-3.727649450302124,9.348745346069336,0.042534828186035156,0.21915817260742188,0.12455176562070847,-1.2779666185379028,0.006294346414506435,-0.916113555431366,0.19550621509552002,1.236767292022705,0.004386968910694122,0.9557870030403137,-0.2141985148191452,-0.5376898050308228,0.022697795182466507,0.2935454249382019,0.693331778049469,-0.29261329770088196,0.05822386220097542,-0.482375830411911,0.03452353551983833,0.24357213079929352,1.2453268766403198,-0.3411969542503357,-0.0030653232242912054,-0.10263442993164062,-0.05707048997282982,-3.9602715969085693,-0.2861521542072296,-0.011565200984477997,-0.0335567370057106,3.317474365234375,0.22179025411605835,0.002246022690087557,0.003510409500449896,-0.18066367506980896,1.4428691864013672,-1.2510167360305786,-0.6833687424659729,-0.3119708299636841,-0.31930458545684814,-0.6335911154747009,-5.931738376617432,2.2078967094421387,2.2047502994537354,10.034969329833984,1.5055447816848755,-1.2556192874908447,1741432944.5953045,1741432944759,-3.7841787109375002,0.6924671020507812,-2.1957497225447864,-5.56171826171875,-0.42639505004882816
1741432944.6049075,-2.4673218727111816,-0.011128690407083709,-0.11204821103729128,-0.9936404534101688,0.8108422756195068,0.31403905153274536,-0.809492290019989,3.5884435176849365,2.535921573638916,10.435661315917969,0.031472206115722656,0.21686840057373047,0.05130846053361893,-1.2745333909988403,0.006294346414506435,-0.9172579646110535,0.24280919134616852,1.23905611038208,0.004386968910694122,0.9554055333137512,-0.21877622604370117,-0.5098420977592468,0.012397955171763897,0.2927824854850769,0.6921873688697815,-0.30393707752227783,0.03543078526854515,-0.6109330654144287,0.07915617525577545,0.25463491678237915,1.423475980758667,-0.35104453563690186,-0.01795033924281597,-0.31385910511016846,-0.06407000869512558,-3.6079962253570557,0.2677967846393585,0.0019642531406134367,-0.08290593326091766,3.1054680347442627,0.1594676971435547,0.0034184446558356285,-0.023166360333561897,-0.2033715397119522,1.4162702560424805,-0.3446994423866272,-0.08049478381872177,0.016375776380300522,-0.6142853498458862,-1.1650776863098145,-6.433450698852539,2.242851495742798,0.20116747915744781,8.196647644042969,-0.8284257650375366,-0.4806457757949829,1741432944.5953045,1741432944759,-3.7841787109375002,0.6924671020507812,-2.1957497225447864,-5.56171826171875,-0.42639505004882816
1741432944.62486,-2.485111355781555,-0.0035203194178314366,-0.12330834073568846,-0.9923621619430115,0.47198355197906494,0.29876571893692017,-0.8942529559135437,-0.2674224376678467,-6.583599090576172,9.355470657348633,0.01811981201171875,0.22793197631835938,-0.004386968910694122,-1.2672853469848633,0.005912871100008488,-0.919165313243866,0.28553444147109985,1.2424894571304321,0.004386968910694122,0.9546425342559814,-0.21992065012454987,-0.4861905872821808,0.00667582219466567,0.28706035017967224,0.6979095339775085,-0.32089146971702576,0.019815269857645035,-0.7310978770256042,0.10662241280078888,0.2317463904619217,1.5283818244934082,-0.395894318819046,-0.01466912031173706,-0.3963615596294403,0.33431529998779297,-2.6077284812927246,0.5654180645942688,-0.017228031530976295,-0.13454464077949524,2.7840683460235596,0.2686544954776764,0.01215281430631876,-0.09412872791290283,0.08506914973258972,1.239902138710022,-0.40731996297836304,-0.44092676043510437,0.3330484926700592,-0.9014838933944702,-0.587500274181366,-5.861846446990967,1.0783367156982422,-1.2647675275802612,4.377601623535156,-2.3715360164642334,0.21756872534751892,1741432944.5953045,1741432944759,-3.7841787109375002,0.6924671020507812,-2.1957497225447864,-5.56171826171875,-0.42639505004882816
1741432944.644928,-2.4933080673217773,0.0034903841002333564,-0.12549898212881383,-0.9920876083811674,0.08256292343139648,0.28625330328941345,-0.4052806794643402,1.383870005607605,2.360285997390747,9.08317756652832,0.00247955322265625,0.22983932495117188,-0.04711223021149635,-1.2569855451583862,0.006294346414506435,-0.9214541912078857,0.3248264193534851,1.2474485635757446,0.004386968910694122,0.9481574892997742,-0.21076524257659912,-0.45948728919029236,-0.008201723918318748,0.2637903392314911,0.7013428211212158,-0.34680622816085815,0.008241798728704453,-0.8295185565948486,0.11463340371847153,0.1981765478849411,1.5428777933120728,-0.4475298225879669,-0.0035896035842597485,-0.4283585548400879,0.11427309364080429,-2.1569912433624268,0.5900893807411194,-0.0023990380577743053,-0.16354356706142426,2.59444522857666,0.3265613913536072,0.014157512225210667,-0.4797409176826477,0.42864829301834106,1.3616679906845093,-0.870209276676178,-1.2550448179244995,0.0726684108376503,-1.312772512435913,-0.5870283246040344,-4.847006320953369,0.36902064085006714,-1.8113912343978882,0.04781537875533104,-2.5324039459228516,0.6107762455940247,1741432944.5953045,1741432944759,-3.7841787109375002,0.6924671020507812,-2.1957497225447864,-5.56171826171875,-0.42639505004882816
1741432944.6649585,-2.4996790885925293,0.009960418708378813,-0.12442113188786834,-0.9921795059357431,-0.07080869376659393,0.2757248282432556,-0.21169157326221466,0.13696561753749847,-3.016841173171997,7.309881687164307,-0.00514984130859375,0.23174667358398438,-0.09212634712457657,-1.2485930919647217,0.005912871100008488,-0.9348058104515076,0.361829549074173,1.2531707286834717,0.005149920005351305,0.9412909150123596,-0.1993209719657898,-0.4331654906272888,-0.02193484455347061,0.2309834510087967,0.7032501697540283,-0.37982162833213806,0.0016107342671602964,-0.9004730582237244,0.11196307092905045,0.1684214472770691,1.4787899255752563,-0.48700734972953796,0.009005420841276646,-0.2795245349407196,0.03828386962413788,-2.087066173553467,0.5640198588371277,-0.018898464739322662,-0.8234625458717346,2.41194486618042,0.3985010087490082,0.0074929408729076385,-0.4554663598537445,0.5308727622032166,1.3304284811019897,-0.6558998823165894,-1.5708365440368652,0.14398454129695892,-1.7216976881027222,-0.07345912605524063,-3.3587024211883545,-0.3367398679256439,-1.3368284702301025,-3.763824939727783,-1.725972056388855,0.5540731549263,1741432944.6974523,1741432944859,-3.8824846191406253,0.6513319091796875,-2.2155010640913697,-5.74862841796875,-0.4305838012695313
1741432944.684919,-2.501910448074341,0.01734154540446178,-0.11889290073166847,-0.9927556340603636,-0.29574522376060486,0.36426982283592224,-0.14265736937522888,-2.644353151321411,0.014011511579155922,7.01840353012085,-0.01773834228515625,0.23403549194335938,-0.1199740618467331,-1.239819049835205,0.005912871100008488,-0.951972246170044,0.4030289053916931,1.2577484846115112,0.005149920005351305,0.9317540526390076,-0.17948424816131592,-0.41218432784080505,-0.02536812424659729,0.21953918039798737,0.7131685614585876,-0.4215122163295746,0.007708757184445858,-0.9420538544654846,0.09746700525283813,0.1527809500694275,1.357480764389038,-0.4889364540576935,0.01091109961271286,-0.38128843903541565,0.06155475601553917,-1.1507643461227417,0.6108565330505371,-0.016455579549074173,-0.8902046084403992,2.8249921798706055,0.2230166345834732,0.025211311876773834,-0.6725871562957764,1.0932190418243408,0.9319133162498474,-0.024959120899438858,-0.47947943210601807,0.5710827112197876,-2.1168837547302246,0.2447122037410736,-1.774680256843567,-0.8008912205696106,-0.6902292966842651,-6.385181427001953,0.23376153409481049,0.09338251501321793,1741432944.6974523,1741432944859,-3.8824846191406253,0.6513319091796875,-2.2155010640913697,-5.74862841796875,-0.4305838012695313
1741432944.7049756,-2.5051034688949585,0.02471141403064123,-0.11202039115271184,-0.9933985997486606,-0.3420003354549408,0.29365941882133484,-0.14367525279521942,-9.771042823791504,2.73348331451416,7.07313346862793,-0.02613067626953125,0.23670578002929688,-0.12531471252441406,-1.230282187461853,0.005912871100008488,-0.9653238654136658,0.43087664246559143,1.2573670148849487,0.005149920005351305,0.9237430095672607,-0.15392538905143738,-0.4087510406970978,-0.026512550190091133,0.20580606162548065,0.7337682247161865,-0.464289128780365,-0.0003675556799862534,-0.9451056718826294,0.0722896158695221,0.1489662081003189,1.1957350969314575,-0.4587818384170532,0.01158133801072836,-0.2593064606189728,0.07410020381212234,-0.13737930357456207,0.5874294638633728,-0.0063848234713077545,-0.6791324019432068,1.7055344581604004,-0.03748490661382675,0.020325271412730217,-0.49683699011802673,1.301613688468933,0.12067672610282898,-0.18286606669425964,-0.7610469460487366,1.047192096710205,-2.0713069438934326,-0.4712159335613251,0.1737954169511795,-1.3736790418624878,-0.20120084285736084,-8.256324768066406,1.6471209526062012,0.03891168162226677,1741432944.6974523,1741432944859,-3.8824846191406253,0.6513319091796875,-2.2155010640913697,-5.74862841796875,-0.4305838012695313
1741432944.7249987,-2.506554961204529,0.03356013104389283,-0.1063665064793065,-0.9937604761227448,-0.28054824471473694,0.44600775837898254,-0.09094912558794022,8.488386154174805,5.100326061248779,3.0454511642456055,-0.02880096435546875,0.23670578002929688,-0.11387044936418533,-1.223797082901001,0.005912871100008488,-0.9729533791542053,0.44308385252952576,1.2562226057052612,0.00476844422519207,0.919165313243866,-0.12645913660526276,-0.3927290737628937,-0.04558632895350456,0.19207294285297394,0.7646677494049072,-0.4951234757900238,0.000293076504021883,-0.9222171306610107,0.03757534176111221,0.13065537810325623,1.0004196166992188,-0.42100584506988525,0.0023737805895507336,-0.10133789479732513,-0.0009906160412356257,0.7062487602233887,0.40141740441322327,-0.009565700776875019,-0.32142433524131775,0.6531710624694824,-0.1355665922164917,-0.013660268858075142,-0.2870701551437378,1.3049793243408203,0.8557170629501343,-1.1364166736602783,-0.5794751048088074,1.5272728204727173,-1.4291242361068726,0.32053229212760925,1.2596148252487183,-1.8309900760650635,-0.9235363006591797,-10.063411712646484,1.8223726749420166,-0.4325455129146576,1741432944.6974523,1741432944859,-3.8824846191406253,0.6513319091796875,-2.2155010640913697,-5.74862841796875,-0.4305838012695313
1741432944.7450798,-2.503877639770508,0.036215512745858304,-0.10675780073777026,-0.9936252858186475,0.06718182563781738,0.10098616778850555,0.19149258732795715,24.560062408447266,-16.73421859741211,22.38624382019043,-0.02536773681640625,0.2515830993652344,-0.08449683338403702,-1.222271203994751,0.005912871100008488,-0.9760051965713501,0.44346532225608826,1.2497375011444092,0.00476844422519207,0.916876494884491,-0.10471503436565399,-0.3755626678466797,-0.06542305648326874,0.19169145822525024,0.8096818327903748,-0.5053896903991699,0.012340844608843327,-0.8985656499862671,-0.0024795911740511656,0.11692225188016891,0.84744793176651,-0.36428651213645935,0.024478476494550705,0.11244066059589386,0.39507967233657837,1.6137444972991943,0.07597042620182037,0.004086682572960854,-0.08686216175556183,0.0460321269929409,-0.452441543340683,-0.019330987706780434,-0.18678419291973114,1.128603219985962,1.0954219102859497,-0.16329504549503326,-0.21310462057590485,2.5051887035369873,-0.3692854940891266,0.4076228737831116,0.7320767045021057,-1.8497828245162964,-0.8169571161270142,-5.0539445877075195,3.7429025173187256,2.238874912261963,1741432944.6974523,1741432944859,-3.8824846191406253,0.6513319091796875,-2.2155010640913697,-5.74862841796875,-0.4305838012695313
1741432944.766102,-2.5002620220184326,0.03660915627136932,-0.10449269553489782,-0.9938516218515466,-0.2115650773048401,0.423246830701828,0.13452446460723877,33.434852600097656,-3.5982515811920166,-4.554429054260254,-0.038720130920410156,0.2512016296386719,-0.0398641936480999,-1.2306636571884155,0.005149920005351305,-0.9748607873916626,0.43125811219215393,1.2409635782241821,0.004386968910694122,0.9077210426330566,-0.11768520623445511,-0.36564430594444275,-0.05245288833975792,0.20847637951374054,0.8737697601318359,-0.493440717458725,0.027282370254397392,-0.838674008846283,-0.004005493130534887,0.12302586436271667,0.9111543297767639,-0.28052228689193726,0.08087961375713348,-0.33335694670677185,-0.28143537044525146,2.414987325668335,-0.5641683340072632,-0.0651189461350441,0.07975319772958755,-1.1654808521270752,-0.6235802173614502,0.03616050258278847,-0.46663758158683777,-0.8091135025024414,0.32512640953063965,0.023343374952673912,1.3232438564300537,3.3482019901275635,0.8748329281806946,0.5143626928329468,2.7521626949310303,0.07554743438959122,0.7717313766479492,2.326610565185547,3.6304683685302734,2.063664197921753,1741432944.7992885,1741432944959,-3.9825439453125,0.6027021484375,-2.2322922422343705,-5.748857421875,-0.5155678100585938
1741432944.7851257,-2.489959478378296,0.030288723534256018,-0.10380726725553376,-0.9941361297586984,0.11007445305585861,-0.29588672518730164,0.29811543226242065,11.243487358093262,-12.745742797851562,8.428561210632324,-0.034905433654785156,0.2763786315917969,0.02193484455347061,-1.2394375801086426,0.005149920005351305,-0.9714275002479553,0.3873884081840515,1.2394375801086426,0.00476844422519207,0.9096284508705139,-0.135233074426651,-0.3889143168926239,-0.04749370738863945,0.2286945879459381,0.9786755442619324,-0.4559832513332367,0.03397400304675102,-0.8142595291137695,-0.001716639962978661,0.16918440163135529,0.8802548050880432,-0.2341635823249817,0.07306183129549026,0.13232122361660004,0.498737633228302,2.794567584991455,-0.6482100486755371,-0.16570866107940674,0.17198918759822845,-3.17099928855896,-0.0848771184682846,0.03337008133530617,0.13974568247795105,-0.9544599056243896,-1.3273468017578125,0.34320372343063354,0.8564348220825195,5.671952247619629,1.899316668510437,0.532364547252655,1.4849522113800049,0.29819533228874207,2.1248631477355957,-1.715790033340454,2.1768910884857178,-0.7281045913696289,1741432944.7992885,1741432944959,-3.9825439453125,0.6027021484375,-2.2322922422343705,-5.748857421875,-0.5155678100585938
1741432944.8050435,-2.4729912281036377,0.02970525186606551,-0.1125950994565112,-0.9931968292287043,0.32411572337150574,0.10606002062559128,0.92435622215271,2.6358978748321533,-4.269577503204346,13.675891876220703,-0.02384185791015625,0.2729454040527344,0.08869306743144989,-1.2630890607833862,0.00667582219466567,-0.9653238654136658,0.33245593309402466,1.236767292022705,0.0032425422687083483,0.9111543297767639,-0.15926603972911835,-0.44537270069122314,-0.03299763426184654,0.23899443447589874,1.1289769411087036,-0.41039976477622986,0.04387025162577629,-0.7673380374908447,0.01506828423589468,0.17757686972618103,0.9115357995033264,-0.21814832091331482,0.031788647174835205,0.2075202912092209,-0.14402641355991364,3.353959560394287,-1.683624029159546,0.023577122017741203,0.31919172406196594,-3.4718074798583984,-0.20025889575481415,-0.146549254655838,-0.1471392959356308,-1.2726775407791138,-3.1166608333587646,0.44052621722221375,0.7638440728187561,7.479808330535889,2.291433572769165,0.4264855682849884,1.3648850917816162,0.6641236543655396,0.2941218316555023,1.7352378368377686,0.2887842059135437,-1.948995590209961,1741432944.7992885,1741432944959,-3.9825439453125,0.6027021484375,-2.2322922422343705,-5.748857421875,-0.5155678100585938
1741432944.8250964,-2.4537441730499268,0.020374018913209606,-0.10962421704090698,-0.9937642730504515,-0.14978617429733276,-0.29276132583618164,1.0552421808242798,-20.939863204956055,11.097291946411133,20.01823616027832,-0.050545692443847656,0.2924013137817383,0.15659570693969727,-1.2726260423660278,0.005531395319849253,-0.9573128819465637,0.2756160795688629,1.232571005821228,0.0036240178160369396,0.9092469811439514,-0.1802472025156021,-0.54112309217453,-0.023079270496964455,0.25310903787612915,1.273556113243103,-0.37908634543418884,0.011069820262491703,-0.7585641145706177,0.007057297509163618,0.1974135935306549,0.9260318875312805,-0.2543545663356781,0.01870785467326641,-0.7025339603424072,0.207989901304245,3.436033248901367,-0.39824962615966797,-0.04622163251042366,0.34214428067207336,-3.9859697818756104,-0.30306875705718994,0.037440381944179535,-0.014577591791749,-0.8667516112327576,-4.829433917999268,0.6062802076339722,0.5960627198219299,6.978451728820801,1.3691293001174927,-1.9126192331314087,0.9582498073577881,-0.43962693214416504,1.1080677509307861,0.549896240234375,-2.0609469413757324,-0.4436807334423065,1741432944.7992885,1741432944959,-3.9825439453125,0.6027021484375,-2.2322922422343705,-5.748857421875,-0.5155678100585938
1741432944.8451707,-2.4372211694717407,0.022582881604851203,-0.10884874466956478,-0.9938017731128683,-0.0378284715116024,0.2000199854373932,0.8060128688812256,6.016810417175293,5.054486274719238,9.512544631958008,-0.032235145568847656,0.2847719192504883,0.2283131182193756,-1.2794926166534424,0.006294346414506435,-0.9500648379325867,0.20466163754463196,1.2253230810165405,0.0024795911740511656,0.9122987985610962,-0.19016556441783905,-0.6280995011329651,-0.023079270496964455,0.2615014910697937,1.3780803680419922,-0.3824969232082367,-0.003354713786393404,-0.7051575779914856,-0.0020981156267225742,0.1974135935306549,0.918402373790741,-0.3146691918373108,0.02784954011440277,0.4539591670036316,-0.272377610206604,3.63177752494812,-0.5760576725006104,0.02143983356654644,0.38346001505851746,-4.763091087341309,-0.5273128747940063,-0.05031971260905266,0.22580967843532562,-0.35937175154685974,-4.19650411605835,0.13999491930007935,0.5672162175178528,4.634368419647217,-0.4333164393901825,-0.12508341670036316,2.5574758052825928,-0.5075437426567078,-0.16981539130210876,-0.561874508857727,-3.0211124420166016,0.6501962542533875,1741432944.7992885,1741432944959,-3.9825439453125,0.6027021484375,-2.2322922422343705,-5.748857421875,-0.5155678100585938
1741432944.8651285,-2.422062635421753,0.014804425910880579,-0.10573985325153241,-0.9942836176905429,-0.21578818559646606,-0.2784566879272461,0.7480325698852539,-2.946298837661743,0.4651454985141754,10.538063049316406,-0.033379554748535156,0.2958345413208008,0.30346378684043884,-1.2821629047393799,0.005912871100008488,-0.9405279755592346,0.13027389347553253,1.2154046297073364,0.0032425422687083483,0.9142061471939087,-0.19512474536895752,-0.7013428211212158,-0.01773861236870289,0.2771419882774353,1.4032578468322754,-0.4081132411956787,0.014355328865349293,-0.6746395230293274,-0.022697795182466507,0.19283588230609894,0.8951323628425598,-0.3683392107486725,0.0586012564599514,-0.004473154433071613,0.17483550310134888,3.665952444076538,-0.07842814922332764,-0.029300127178430557,0.40021374821662903,-4.924223899841309,-0.6143834590911865,0.04399234056472778,0.161591574549675,-0.27721530199050903,-3.319505453109741,0.28078779578208923,0.7819675803184509,0.6453239917755127,-1.3081367015838623,0.7888063788414001,1.6261978149414062,-1.1315795183181763,-0.28796881437301636,-1.0149260759353638,-2.5214316844940186,1.7841413021087646,1741432944.7992885,1741432944959,-3.9825439453125,0.6027021484375,-2.2322922422343705,-5.748857421875,-0.5155678100585938
1741432944.8851967,-2.4105772972106934,0.014932348481992468,-0.10193572177761147,-0.9946789097967694,-0.1586127132177353,0.09575135260820389,0.497102290391922,-0.9414913058280945,-1.690826177597046,6.859340190887451,-0.034142494201660156,0.2897310256958008,0.3702220320701599,-1.2802555561065674,0.005912871100008488,-0.9348058104515076,0.061226826161146164,1.211971402168274,0.002861066721379757,0.9172579646110535,-0.1981765478849411,-0.7516975402832031,-0.005149920005351305,0.28896772861480713,1.3658732175827026,-0.426969975233078,-0.006180226802825928,-0.6048294901847839,-0.04329747334122658,0.18711376190185547,0.8779659867286682,-0.4020179212093353,0.06441125273704529,-0.028507376089692116,-0.1453172117471695,3.010472536087036,0.1542505919933319,-0.00871001835912466,0.22559288144111633,-4.38591194152832,-0.1927897334098816,-0.031617287546396255,0.18479251861572266,-0.0026553452480584383,-2.294398546218872,0.7612907290458679,0.49198806285858154,-2.143810510635376,-0.8194937705993652,-1.1584663391113281,3.6364145278930664,-0.9690927863121033,-0.23980526626110077,-1.019445538520813,-1.6501249074935913,-0.1254894882440567,1741432944.7992885,1741432944959,-3.9825439453125,0.6027021484375,-2.2322922422343705,-5.748857421875,-0.5155678100585938
