Freshhhhh-LC/Legged_odom/data/2/segments/booster_seg_9.53s.csv
time,yaw,projected_gravity_x,projected_gravity_y,projected_gravity_z,ang_vel_x,ang_vel_y,ang_vel_z,lin_acc_x,lin_acc_y,lin_acc_z,q_0,q_1,q_2,q_3,q_4,q_5,q_6,q_7,q_8,q_9,q_10,q_11,q_12,q_13,q_14,q_15,q_16,q_17,q_18,q_19,q_20,q_21,q_22,dq_0,dq_1,dq_2,dq_3,dq_4,dq_5,dq_6,dq_7,dq_8,dq_9,dq_10,dq_11,dq_12,dq_13,dq_14,dq_15,dq_16,dq_17,dq_18,dq_19,dq_20,dq_21,dq_22,mocap_time,mocap_timestamp,robot_x,robot_y,robot_yaw,ball_x,ball_y
1741432655.5539305,-1.7569873929023743,0.014499294995580227,0.00045724142592128316,-0.9998947751513204,0.19942089915275574,0.27815455198287964,-0.6830584406852722,-0.10885956883430481,0.6851065158843994,11.508959770202637,0.00705718994140625,0.23937606811523438,0.17071031033992767,-1.2516448497772217,0.005912871100008488,-0.926413357257843,0.134470134973526,1.2379117012023926,0.00476844422519207,0.9569314122200012,-0.14744029939174652,-0.5781261920928955,0.09288929402828217,0.2607385218143463,0.8161669373512268,-0.35132890939712524,0.033238623291254044,-0.5140383243560791,0.04749370738863945,0.2294575423002243,1.2392233610153198,-0.35653677582740784,-0.006078715901821852,0.2319766879081726,0.1621667891740799,-3.7617545127868652,0.19749338924884796,0.001128972740843892,-0.03760124370455742,3.4697587490081787,1.227880835533142,0.055272843688726425,-0.2869024872779846,0.5635278224945068,1.7173852920532227,-0.8636003136634827,0.06446079164743423,-0.06120561435818672,-0.5767481327056885,-0.6897048354148865,-5.488122940063477,1.594937801361084,-0.1484156847000122,10.597776412963867,1.5411783456802368,-0.09839937835931778,1741432655.5203037,1741432655679,-5.45080517578125,-0.5641180419921875,-1.3834186106317397,-6.048931640625,-2.750828125
1741432655.5941663,-1.8037343621253967,0.019144496050325425,-0.008324938030361849,-0.9997820680917265,-0.30009347200393677,0.08981569856405258,-0.37875300645828247,1.931350827217102,2.2613821029663086,7.90636682510376,-0.02040863037109375,0.2527275085449219,-0.043678950518369675,-1.2493560314178467,0.005531395319849253,-0.9290837049484253,0.32940414547920227,1.2730075120925903,0.005531395319849253,0.9355688095092773,-0.12645913660526276,-0.4228656589984894,0.07495994865894318,0.27141985297203064,0.7623788714408875,-0.43552684783935547,0.008602892979979515,-0.8485923409461975,0.12760357558727264,0.10700388997793198,1.5165560245513916,-0.4409547746181488,0.006523411720991135,-0.1296778917312622,-0.05603007227182388,-2.7513928413391113,0.050118498504161835,-0.024198614060878754,-0.08557458966970444,3.6192517280578613,0.7513387203216553,0.060984425246715546,-0.5258836150169373,0.25557804107666016,2.7821953296661377,-0.25247207283973694,-0.11263817548751831,-1.3025078773498535,-1.4052287340164185,-0.4084652066230774,-3.3804931640625,0.39889591932296753,-2.5013933181762695,-1.9537338018417358,-1.4997063875198364,0.6027854681015015,1741432655.612265,1741432655779,-5.4759848632812504,-0.6711851196289063,-1.419214794458632,-6.04323095703125,-2.845715087890625
1741432655.6116767,-1.819907546043396,0.034401098744349747,-0.014560277980927318,-0.9993020377795191,0.25229328870773315,0.010448988527059555,-0.08552809804677963,4.794068336486816,-1.9099055528640747,2.033928394317627,-0.037957191467285156,0.2504386901855469,0.1028076633810997,-1.2508819103240967,0.005912871100008488,-0.9603646993637085,0.37899595499038696,1.23295259475708,0.005149920005351305,0.9084840416908264,-0.05397878959774971,-0.23708705604076385,-0.0398641936480999,0.20885786414146423,0.9203097820281982,-0.47040224075317383,0.05513453856110573,-0.8215075731277466,0.010872052982449532,-0.014686808921396732,0.7730602025985718,-0.29586073756217957,-0.016202380880713463,-0.4837595224380493,-0.13933251798152924,3.755178451538086,-0.28357794880867004,-0.00176004518289119,-0.004236654378473759,-3.5961410999298096,-0.5385110378265381,0.02936961129307747,-0.42408719658851624,-0.397901326417923,-2.7786924839019775,-0.5758698582649231,-0.8560823798179626,7.484188079833984,1.8322798013687134,0.2915025055408478,0.280716210603714,1.4989279508590698,2.8318982124328613,3.36730694770813,0.44289666414260864,-0.10675070434808731,1741432655.612265,1741432655779,-5.4759848632812504,-0.6711851196289063,-1.419214794458632,-6.04323095703125,-2.845715087890625
1741432655.613886,-1.8074142932891846,0.02436381130392046,-0.018001744069889653,-0.9995410656442231,0.0768934041261673,-0.1956653892993927,0.5399675965309143,1.3199251890182495,-0.49901002645492554,13.410833358764648,-0.01964569091796875,0.2553977966308594,0.21076524257659912,-1.2470670938491821,0.005912871100008488,-0.960746169090271,0.2592126429080963,1.2333340644836426,0.004386968910694122,0.9107728600502014,-0.05092698708176613,-0.3728923499584198,-0.0555046908557415,0.1493476778268814,1.188868522644043,-0.40307119488716125,0.0563817024230957,-0.769245445728302,0.04787518084049225,0.054741740226745605,0.8001449704170227,-0.3006478548049927,-0.004499058239161968,0.5068877339363098,-0.13375814259052277,3.2834205627441406,0.18055839836597443,0.05116109922528267,0.005543890409171581,-5.70513916015625,0.010570471175014973,-0.07396738976240158,0.13370531797409058,0.20577795803546906,-4.934870719909668,-0.6695869565010071,-1.950842022895813,9.1770601272583,2.0192744731903076,-0.43382054567337036,2.1484625339508057,1.1182843446731567,1.6139034032821655,0.7244184613227844,-0.0069518121890723705,0.3095327913761139,1741432655.612265,1741432655779,-5.4759848632812504,-0.6711851196289063,-1.419214794458632,-6.04323095703125,-2.845715087890625
1741432655.6179965,-1.7717229723930359,0.004249518520024784,-0.006529231913022407,-0.9999696549010745,-0.2753959596157074,-0.5369226932525635,0.9785335063934326,-2.0223875045776367,2.2035813331604004,10.908671379089355,-0.02498626708984375,0.2687492370605469,0.32063019275665283,-1.2520263195037842,0.005912871100008488,-0.959220290184021,0.12073700875043869,1.2386746406555176,0.004386968910694122,0.9138246774673462,-0.03147173300385475,-0.5601968169212341,-0.05970092490315437,0.11959258466959,1.4101243019104004,-0.4137862026691437,0.012654092162847519,-0.693331778049469,0.03528648987412453,0.08068207651376724,0.8112077713012695,-0.3055650591850281,0.0029373359866440296,0.2550264298915863,-0.017400454729795456,2.73547625541687,-0.3200460970401764,-0.005937616806477308,0.06963241100311279,-4.757489204406738,0.17173463106155396,-0.040165916085243225,0.13639837503433228,0.7272685170173645,-4.918633937835693,-0.03732404485344887,-0.25021499395370483,4.297093868255615,-1.609279751777649,0.11124832183122635,2.692619800567627,-0.2997289299964905,0.2566739618778229,0.04629802331328392,-0.20465287566184998,0.3982994854450226,1741432655.612265,1741432655779,-5.4759848632812504,-0.6711851196289063,-1.419214794458632,-6.04323095703125,-2.845715087890625
1741432655.6380014,-1.7554644346237183,-0.006676377488856404,-0.0028931306951646527,-0.999973527538808,-0.1780104637145996,-0.579323947429657,0.706127941608429,0.8975518941879272,0.9389028549194336,9.62475872039795,-0.01430511474609375,0.2672233581542969,0.3732738196849823,-1.2539336681365967,0.005912871100008488,-0.9546425342559814,0.05741206929087639,1.238293170928955,0.0036240178160369396,0.9145876169204712,-0.02079041674733162,-0.647173285484314,-0.04901960864663124,0.13218127191066742,1.437972068786621,-0.4609670639038086,0.010192266665399075,-0.6406881809234619,0.028038453310728073,0.08487831056118011,0.8020523190498352,-0.31437191367149353,0.014577915892004967,0.29882511496543884,-0.038554899394512177,2.5737578868865967,-0.16034908592700958,-0.0007939137285575271,0.27740710973739624,-4.131832599639893,-0.05744476616382599,-0.03971878066658974,0.008928888477385044,0.555226743221283,-4.521496772766113,0.5171635746955872,0.5460402369499207,0.7638520002365112,-2.4094834327697754,-0.30514663457870483,2.509857416152954,-0.20861656963825226,0.17080850899219513,-0.48824542760849,-0.4576594829559326,0.6186084747314453,1741432655.612265,1741432655779,-5.4759848632812504,-0.6711851196289063,-1.419214794458632,-6.04323095703125,-2.845715087890625
1741432655.6581056,-1.7471154928207397,-0.0166258955919635,0.0009949323889138673,-0.9998612852317599,-0.1892327517271042,-0.44135868549346924,0.37166866660118103,2.6094930171966553,-0.9807292222976685,7.479137420654297,-0.01544952392578125,0.2565422058105469,0.41561761498451233,-1.2543151378631592,0.006294346414506435,-0.9462500810623169,0.005531395319849253,1.23905611038208,0.004005493130534887,0.9153505563735962,-0.005912871100008488,-0.7169833183288574,-0.030708782374858856,0.14057374000549316,1.402876377105713,-0.5034563541412354,-0.005063264165073633,-0.5983443856239319,0.02384222112596035,0.08869306743144989,0.7936598658561707,-0.3291729986667633,0.023808788508176804,0.006483686622232199,-0.2877408564090729,2.012775421142578,-0.014665689319372177,0.003041355637833476,0.38069799542427063,-3.4565718173980713,0.15048766136169434,0.00821430329233408,0.10403994470834732,0.8350815773010254,-3.375816822052002,0.8857704401016235,0.3319191336631775,-2.156604290008545,-1.9426186084747314,-0.7932259440422058,2.0778863430023193,-0.23659883439540863,0.18883880972862244,-0.37597984075546265,-0.8292068243026733,0.3835079073905945,1741432655.612265,1741432655779,-5.4759848632812504,-0.6711851196289063,-1.419214794458632,-6.04323095703125,-2.845715087890625
1741432655.67805,-1.740002453327179,-0.0198505632095835,0.004041104139482402,-0.9997947912534833,-0.10880172997713089,-0.09201840311288834,0.46102121472358704,-3.6819801330566406,2.0406134128570557,8.818033218383789,-0.01697540283203125,0.23670578002929688,0.45719844102859497,-1.2554595470428467,0.006294346414506435,-0.9351872801780701,-0.053215838968753815,1.2424894571304321,0.004005493130534887,0.9229800701141357,0.0020981156267225742,-0.7715343236923218,-0.010490577667951584,0.13904783129692078,1.3200961351394653,-0.5120632648468018,-0.012700701132416725,-0.5632486343383789,0.016594186425209045,0.08945601433515549,0.7928969264030457,-0.35165366530418396,0.033754292875528336,-0.048932768404483795,-0.6249836683273315,2.0334558486938477,-0.05544698238372803,-0.016716672107577324,0.5773509740829468,-3.7879116535186768,0.09545086324214935,0.016836171969771385,0.5422095060348511,0.19558489322662354,-2.4759459495544434,1.0103325843811035,-0.15491485595703125,-4.4246039390563965,-0.045023318380117416,-0.27721893787384033,1.4994127750396729,-0.3338505029678345,-0.002526015741750598,0.02227157913148403,-1.1561352014541626,0.5350316166877747,1741432655.7166255,1741432655879,-5.4848154296875,-0.7624187622070313,-1.3162804212824777,-6.0343476562500005,-2.93355322265625
1741432655.698119,-1.7330915927886963,-0.011683046451592419,0.004163273116538031,-0.9999230838332351,0.010051686316728592,0.4369729459285736,0.24499495327472687,-1.8898606300354004,7.251579284667969,1.6170382499694824,-0.01430511474609375,0.21190929412841797,0.4808499217033386,-1.2535521984100342,0.006294346414506435,-0.9267948269844055,-0.09365224838256836,1.236767292022705,0.0036240178160369396,0.9405279755592346,-0.0036240178160369396,-0.8031967878341675,0.01430533267557621,0.13103684782981873,1.1999313831329346,-0.48007383942604065,-0.015293036587536335,-0.5430304408073425,0.00667582219466567,0.08945601433515549,0.80357825756073,-0.3798261880874634,0.04759393259882927,0.05367773026227951,-0.7393385171890259,1.0465611219406128,0.11088298261165619,0.010926363058388233,0.3937039375305176,-2.6516952514648438,-0.4015960097312927,-0.03138734772801399,1.1765576601028442,-0.42259132862091064,-1.5892047882080078,1.2816996574401855,-0.3951789140701294,-6.4540510177612305,1.8059407472610474,-0.17506541311740875,0.974969208240509,-0.5616594552993774,0.03156431391835213,0.5669897794723511,-1.4416245222091675,0.5346065163612366,1741432655.7166255,1741432655879,-5.4848154296875,-0.7624187622070313,-1.3162804212824777,-6.0343476562500005,-2.93355322265625
1741432655.7188988,-1.7322176098823547,-0.0009886875767706144,0.0013066626061002387,-0.9999986575639536,0.13446450233459473,0.5685011744499207,0.010027931071817875,1.986612319946289,2.9088690280914307,6.520984172821045,-0.01125335693359375,0.20046520233154297,0.49076828360557556,-1.2554595470428467,0.006294346414506435,-0.9206912517547607,-0.1192111074924469,1.2306636571884155,0.004005493130534887,0.9580758213996887,-0.023079270496964455,-0.8104447722434998,0.04634927958250046,0.11959258466959,1.040474534034729,-0.4360361397266388,-0.011708338744938374,-0.5292973518371582,0.0013351644156500697,0.09517814964056015,0.8211261034011841,-0.4091249108314514,0.05617043003439903,0.08270257711410522,-0.3118687868118286,0.3660569489002228,-0.09331265836954117,-0.001692705205641687,0.26184746623039246,-1.3898948431015015,-0.3876610994338989,0.007468065246939659,1.1034767627716064,-0.9981578588485718,-0.014769528061151505,1.5702290534973145,-0.4090886414051056,-7.980933666229248,2.212355852127075,0.32424503564834595,0.6750685572624207,-0.11371652036905289,0.45292627811431885,1.0110960006713867,-1.4173246622085571,0.3631587028503418,1741432655.7166255,1741432655879,-5.4848154296875,-0.7624187622070313,-1.3162804212824777,-6.0343476562500005,-2.93355322265625
1741432655.7381353,-1.7368208765983582,0.009118587067445233,-0.001423910996707144,-0.9999574110167727,0.1322951763868332,0.4751240909099579,-0.23101140558719635,2.1094908714294434,-1.8691656589508057,6.577526569366455,-0.01277923583984375,0.19588756561279297,0.4865720570087433,-1.2550780773162842,0.006294346414506435,-0.9164950251579285,-0.12340734153985977,1.2241785526275635,0.0036240178160369396,0.9710460305213928,-0.04901960864663124,-0.7887006998062134,0.07877469807863235,0.12264438718557358,0.8649957776069641,-0.3952200710773468,-2.5973329229600495e-06,-0.5170900821685791,0.021171892061829567,0.10967422276735306,0.8421072959899902,-0.4377742111682892,0.04981715604662895,-0.044329989701509476,-0.13562685251235962,-0.28814637660980225,0.03309393301606178,0.005853867623955011,0.18752726912498474,-0.052330706268548965,-0.40804553031921387,0.004821571055799723,0.772064208984375,-1.3959333896636963,1.310420036315918,1.4241366386413574,0.4876668155193329,-8.727444648742676,1.9471211433410645,0.59926837682724,0.6393199563026428,1.2488830089569092,0.6844608783721924,1.1336458921432495,-1.4492722749710083,-0.550875723361969,1741432655.7166255,1741432655879,-5.4848154296875,-0.7624187622070313,-1.3162804212824777,-6.0343476562500005,-2.93355322265625
1741432655.7581856,-1.7385282516479492,0.011832356009553338,0.000275481323654326,-0.9999299572776602,-0.07548658549785614,-0.057654786854982376,-0.007247260771691799,-3.8787901401519775,13.856999397277832,16.574338912963867,-0.02498626708984375,0.21419811248779297,0.4663538634777069,-1.2512633800506592,0.006294346414506435,-0.9107728600502014,-0.10547798871994019,1.2211267948150635,0.0036240178160369396,0.9748607873916626,-0.07801175117492676,-0.7551308274269104,0.10738536715507507,0.18749523162841797,0.8211261034011841,-0.32519838213920593,-0.003894818713888526,-0.49267566204071045,0.027656977996230125,0.13027389347553253,0.8707179427146912,-0.46570679545402527,0.02601412683725357,-0.42684173583984375,0.6861620545387268,-1.1157758235931396,0.3305661976337433,0.04562275484204292,0.47321218252182007,1.4404877424240112,-0.14329761266708374,-0.020219711586833,0.08688817918300629,-1.2707723379135132,2.059937000274658,0.9770560264587402,3.9288270473480225,0.06650335341691971,3.4867820739746094,0.05000476911664009,1.4179160594940186,-0.27650588750839233,1.2186801433563232,1.324868083000183,-1.4176353216171265,-1.4048510789871216,1741432655.7166255,1741432655879,-5.4848154296875,-0.7624187622070313,-1.3162804212824777,-6.0343476562500005,-2.93355322265625
1741432655.7781723,-1.732616126537323,0.018720054821822978,-0.006019195723339065,-0.9998066457222177,0.21936500072479248,0.3799407184123993,0.26460808515548706,2.8147974014282227,-0.1841651350259781,2.0174922943115234,-0.01354217529296875,0.21076488494873047,0.4190509021282196,-1.2508819103240967,0.005531395319849253,-0.9107728600502014,-0.05893797054886818,1.222271203994751,0.001716639962978661,0.9729533791542053,-0.07495994865894318,-0.7108796834945679,0.09594109654426575,0.20389868319034576,0.8291370868682861,-0.2871653139591217,-0.0035585653968155384,-0.45910581946372986,0.04100862145423889,0.13866636157035828,0.8886472582817078,-0.4800371825695038,0.0024265674874186516,0.3235156238079071,0.022772150114178658,-2.5791983604431152,-0.09434240311384201,-0.07328802347183228,-0.07554923743009567,3.384676694869995,0.018047252669930458,-0.07319089770317078,-0.13794925808906555,0.3463151454925537,1.6386990547180176,-0.16144989430904388,0.058016080409288406,-0.4146648347377777,1.4587184190750122,-0.0037872253451496363,1.8924654722213745,0.5116497874259949,0.4369385540485382,0.97954922914505,-0.32843226194381714,-0.6569370627403259,1741432655.8249729,1741432655979,-5.4816088867187505,-0.86222509765625,-1.2783531097539813,-6.03292578125,-3.017300048828125
1741432655.7981794,-1.7259783148765564,0.018012991090135447,-0.007604914876465828,-0.9998088304379534,0.0023383265361189842,-0.028411205857992172,0.2614651024341583,-14.988809585571289,-4.751112461090088,20.122203826904297,-0.02384185791015625,0.22564315795898438,0.35114824771881104,-1.2508819103240967,0.005912871100008488,-0.9153505563735962,0.002861066721379757,1.222271203994751,0.0032425422687083483,0.967994213104248,-0.06427863240242004,-0.6719691753387451,0.09441519528627396,0.1680399775505066,0.8245593905448914,-0.2783982753753662,0.008517429232597351,-0.44499123096466064,0.030708782374858856,0.134470134973526,0.9328984618186951,-0.4595688283443451,0.0015356355579569936,-0.26701614260673523,0.4545428156852722,-3.5410382747650146,-0.023554610088467598,-0.07292477041482925,-0.19502787292003632,3.909228801727295,-0.01065346784889698,0.09464307129383087,-0.32258525490760803,0.6506758332252502,2.361478328704834,-0.24635766446590424,-1.7709065675735474,0.187395378947258,0.2888340950012207,1.0671639442443848,0.5878899693489075,-0.759926438331604,-0.22710122168064117,2.8741888999938965,1.2372382879257202,-0.2441183179616928,1741432655.8249729,1741432655979,-5.4816088867187505,-0.86222509765625,-1.2783531097539813,-6.03292578125,-3.017300048828125
1741432655.81858,-1.727745532989502,0.01823286630972532,-0.00679665891549705,-0.9998106660831931,-0.02983381412923336,-0.12363927811384201,-0.21987009048461914,-4.273370742797852,3.6773557662963867,10.681991577148438,-0.02422332763671875,0.24204635620117188,0.2817196846008301,-1.2508819103240967,0.005912871100008488,-0.9153505563735962,0.058175019919872284,1.2291377782821655,0.004005493130534887,0.9596017599105835,-0.050164032727479935,-0.6467918157577515,0.06733043491840363,0.15697719156742096,0.8344777822494507,-0.29270699620246887,0.029268808662891388,-0.4819943606853485,0.02536812424659729,0.11463340371847153,1.054207682609558,-0.4225386679172516,-0.01286254171282053,-0.0012195413000881672,0.6482768058776855,-3.445878028869629,0.030258148908615112,0.04855171591043472,0.04218733683228493,3.6498420238494873,0.6455737352371216,0.11812790483236313,-0.5846309065818787,0.7774317860603333,1.1206395626068115,-1.0594127178192139,-0.6760542988777161,0.4438733458518982,-0.9366188645362854,0.919213593006134,-2.581437587738037,-0.2807801365852356,-1.0349305868148804,6.38545560836792,1.9304111003875732,-0.6764883995056152,1741432655.8249729,1741432655979,-5.4816088867187505,-0.86222509765625,-1.2783531097539813,-6.03292578125,-3.017300048828125
1741432655.8385365,-1.7425209283828735,0.020592286297641347,-0.007495909970876278,-0.9997598557047309,0.036502521485090256,0.2823392450809479,-0.7937504649162292,0.8329561948776245,-2.9014899730682373,11.142407417297363,-0.01697540283203125,0.23937606811523438,0.20962081849575043,-1.2497375011444092,0.005531395319849253,-0.9153505563735962,0.11234454810619354,1.2478300333023071,0.005149920005351305,0.954261064529419,-0.03185320645570755,-0.6147478222846985,0.053215838968753815,0.1501106321811676,0.846684992313385,-0.32370609045028687,0.01879839412868023,-0.5651560425758362,0.024986648932099342,0.09479667246341705,1.2190051078796387,-0.3814426362514496,-0.011361880227923393,0.18546733260154724,-0.10248120129108429,-3.6530110836029053,0.1176455020904541,-0.03001527674496174,-0.007642841897904873,3.657123565673828,1.2478548288345337,0.023561961948871613,-0.332777202129364,0.8074491024017334,1.6826395988464355,-0.7246164083480835,-0.12848472595214844,0.6318661570549011,-1.5591340065002441,-0.7822760343551636,-4.578752040863037,0.14357581734657288,-1.0855989456176758,8.751812934875488,1.888390064239502,0.4826946258544922,1741432655.8249729,1741432655979,-5.4816088867187505,-0.86222509765625,-1.2783531097539813,-6.03292578125,-3.017300048828125
1741432655.8583035,-1.7605204582214355,0.022395589724831196,-0.010089546598197281,-0.9996982737858059,0.17562146484851837,0.0046262056566774845,-0.8982775211334229,3.6695139408111572,3.1177947521209717,13.849931716918945,-0.02193450927734375,0.24929428100585938,0.1348516047000885,-1.2466856241226196,0.006294346414506435,-0.9153505563735962,0.17147326469421387,1.2604187726974487,0.00476844422519207,0.9493018984794617,-0.01583123579621315,-0.5880445837974548,0.05207141116261482,0.152399480342865,0.8432517051696777,-0.3594716191291809,0.006871333345770836,-0.6666285395622253,0.03643091395497322,0.071908138692379,1.3754100799560547,-0.369711697101593,0.001865532249212265,-0.1274494081735611,0.27679330110549927,-3.7431752681732178,0.18124604225158691,-0.011770146898925304,-0.03454064950346947,3.9427244663238525,0.7121051549911499,0.00528138829395175,-0.35115671157836914,0.8327945470809937,1.2842154502868652,0.10816957801580429,0.18804016709327698,-0.21743741631507874,-1.8475648164749146,-0.17832842469215393,-5.149656295776367,0.5878670811653137,-1.0998666286468506,7.421237945556641,0.2731172740459442,0.35380464792251587,1741432655.8249729,1741432655979,-5.4816088867187505,-0.86222509765625,-1.2783531097539813,-6.03292578125,-3.017300048828125
1741432655.8783147,-1.7798821926116943,0.026711426892334425,-0.012630720714007223,-0.9995633869683405,0.1322552114725113,0.31360307335853577,-0.9264058470726013,0.1518552452325821,-2.871431350708008,8.05014419555664,-0.02498626708984375,0.24586105346679688,0.06389715522527695,-1.2459226846694946,0.005912871100008488,-0.917639434337616,0.2313649207353592,1.2680482864379883,0.00476844422519207,0.9435797929763794,-0.0078202486038208,-0.54112309217453,0.054741740226745605,0.15583276748657227,0.837911069393158,-0.3952193856239319,0.01749628223478794,-0.7509346008300781,0.04711223021149635,0.04711223021149635,1.4692530632019043,-0.38721928000450134,-0.009199095889925957,-0.10401592403650284,-0.07543456554412842,-3.5132553577423096,0.0536322258412838,-0.00887688435614109,-0.13727393746376038,3.9733638763427734,0.5205455422401428,-0.0011182473972439766,-0.31721264123916626,0.23502056300640106,2.523573398590088,0.08513205498456955,0.014587054029107094,-0.39816901087760925,-1.727152943611145,0.25428107380867004,-4.053104400634766,0.49716028571128845,-1.3623168468475342,4.001335144042969,-1.0182439088821411,-0.5313573479652405,1741432655.9180193,1741432656079,-5.481609375,-0.9692391967773438,-1.3646468035633523,-6.0283583984375,-3.09367578125
1741432655.898305,-1.793670415878296,0.027447702541941472,-0.011788046874516678,-0.9995537332110032,-0.054085422307252884,-0.09546415507793427,-0.6104154586791992,-2.3302090167999268,1.5927188396453857,11.806398391723633,-0.035668373107910156,0.2588310241699219,0.005149920005351305,-1.2428709268569946,0.00667582219466567,-0.919165313243866,0.28973066806793213,1.2691926956176758,0.00476844422519207,0.9386205673217773,-0.0036240178160369396,-0.49420157074928284,0.054741740226745605,0.15545128285884857,0.8134965896606445,-0.424959659576416,-0.002896778052672744,-0.8249408602714539,0.056267641484737396,0.019645990803837776,1.487945318222046,-0.4129739999771118,-0.0036127862986177206,-0.34733647108078003,0.4196926951408386,-2.955634832382202,0.22954227030277252,0.04274876415729523,-0.08359333872795105,3.7907116413116455,0.056999571621418,-0.0010919057531282306,-0.3504534363746643,0.32712820172309875,2.338615894317627,-0.0016484296647831798,0.009309682995080948,-1.2504141330718994,-1.454946756362915,-0.974423885345459,-3.733377456665039,0.3113589584827423,-1.3162599802017212,0.38464248180389404,-1.2457679510116577,0.7006652355194092,1741432655.9180193,1741432656079,-5.481609375,-0.9692391967773438,-1.3646468035633523,-6.0283583984375,-3.09367578125
1741432655.918337,-1.8032897114753723,0.028383173565317322,-0.0076342163979477035,-0.9995679637715238,-0.21373584866523743,0.12640655040740967,-0.41461682319641113,3.2626638412475586,1.526867151260376,7.38046932220459,-0.035668373107910156,0.2538719177246094,-0.045204851776361465,-1.2405821084976196,0.00476844422519207,-0.9233615398406982,0.3442816734313965,1.2718631029129028,0.005149920005351305,0.9340428709983826,-0.0036240178160369396,-0.4350728690624237,0.0551232174038887,0.1520180106163025,0.7909895181655884,-0.44863972067832947,0.0016735331155359745,-0.8749141693115234,0.053215838968753815,-0.011635004542768002,1.4463645219802856,-0.4286805987358093,0.011028626933693886,-0.044048972427845,-0.08594314754009247,-2.7030231952667236,0.1447013020515442,-0.04790017381310463,-0.2473389208316803,3.5460822582244873,0.1643332988023758,0.0068396334536373615,-0.2873117923736572,-0.11540286242961884,2.999216318130493,0.03366819769144058,-0.20392368733882904,-1.1629835367202759,-1.0681257247924805,0.38185831904411316,-2.3545806407928467,-0.17688165605068207,-1.677445650100708,-2.434480905532837,-0.6327193379402161,0.5048551559448242,1741432655.9180193,1741432656079,-5.481609375,-0.9692391967773438,-1.3646468035633523,-6.0283583984375,-3.09367578125
1741432655.938378,-1.8072112202644348,0.02791040741057443,-0.0020601475517352114,-0.9996083057629328,-0.290169894695282,-0.06790406256914139,-0.2043001800775528,-0.007693206425756216,-1.129119634628296,9.605987548828125,-0.039101600646972656,0.2546348571777344,-0.08983749151229858,-1.2394375801086426,0.005531395319849253,-0.9355688095092773,0.39883267879486084,1.2699556350708008,0.00476844422519207,0.9306095838546753,-0.0032425422687083483,-0.3847180902957916,0.0551232174038887,0.1508735716342926,0.7608529925346375,-0.46381673216819763,0.002198529429733753,-0.9130617380142212,0.0394827201962471,-0.045204851776361465,1.3643473386764526,-0.4243302643299103,0.0034761130809783936,-0.11526690423488617,0.006249002180993557,-2.102044105529785,0.11555439233779907,-0.14483925700187683,-0.6896021366119385,3.867147922515869,-0.12383883446455002,-0.017637014389038086,-0.2554164230823517,0.09332110732793808,2.3922338485717773,-0.034525107592344284,-0.019168542698025703,-1.5584450960159302,-0.7632629871368408,-0.11997870355844498,-1.8162012100219727,-0.8121466636657715,-1.652340292930603,-4.309655666351318,0.4150923788547516,-0.3434118628501892,1741432655.9180193,1741432656079,-5.481609375,-0.9692391967773438,-1.3646468035633523,-6.0283583984375,-3.09367578125
1741432655.9583778,-1.8127586245536804,0.026641129613351633,0.004810754645980828,-0.9996334862601697,-0.30489251017570496,0.007829293608665466,-0.2931523025035858,0.5627727508544922,0.9952479600906372,8.940455436706543,-0.042153358459472656,0.2538719177246094,-0.11463340371847153,-1.236767292022705,0.005912871100008488,-0.9508277773857117,0.4488059878349304,1.2653779983520508,0.00476844422519207,0.9237430095672607,0.008201723918318748,-0.3400854468345642,0.048638131469488144,0.14744029939174652,0.7280460596084595,-0.4780413806438446,-0.0016377241117879748,-0.9298466444015503,0.012779430486261845,-0.07534141838550568,1.2571526765823364,-0.3961538076400757,0.008166179992258549,-0.10478200763463974,-0.0420951172709465,-1.1116753816604614,0.1638803482055664,0.06734251230955124,-0.7549180388450623,2.949331045150757,-0.3833385109901428,-0.006215314380824566,-0.36683031916618347,0.6630468964576721,2.3647496700286865,-0.3775075078010559,-0.2713230848312378,-1.6748048067092896,-0.7145017385482788,-0.1198577731847763,-0.6787447929382324,-1.4269506931304932,-1.5777934789657593,-5.493686676025391,1.5327072143554688,0.2976077198982239,1741432655.9180193,1741432656079,-5.481609375,-0.9692391967773438,-1.3646468035633523,-6.0283583984375,-3.09367578125
1741432655.9784696,-1.8175890445709229,0.027883677684025575,0.006917274209028988,-0.999587240733059,-0.09498554468154907,0.059783101081848145,-0.25373131036758423,-1.2748314142227173,-0.7290554046630859,6.313083648681641,-0.034142494201660156,0.24700546264648438,-0.11768520623445511,-1.2363858222961426,0.005912871100008488,-0.9626535177230835,0.47627222537994385,1.2588928937911987,0.00476844422519207,0.919165313243866,0.029182879254221916,-0.290875107049942,0.03757534176111221,0.13141833245754242,0.6940947771072388,-0.49075090885162354,0.0029057913925498724,-0.9214541912078857,-0.021171892061829567,-0.11158160120248795,1.1316472291946411,-0.35323065519332886,0.009565331973135471,0.24599815905094147,-0.2158217430114746,0.008156581781804562,0.010515809990465641,-0.0014602377777919173,-0.5530925989151001,1.7067240476608276,-0.39132916927337646,0.008497493341565132,-0.3197406828403473,1.099244236946106,2.3158962726593018,-0.6832351088523865,-0.7647883892059326,-1.7849154472351074,-0.6338686347007751,0.09234214574098587,0.8156001567840576,-1.7043991088867188,-1.8370729684829712,-6.498083114624023,2.186307668685913,-0.1546163260936737,1741432656.020394,1741432656179,-5.5070732421875,-1.0757539062500001,-1.2626780336885068,-6.02399560546875,-3.168460205078125
1741432655.9984233,-1.8207640051841736,0.03314908039126919,0.006075072459211116,-0.9994319546441511,0.07722491770982742,0.31915226578712463,-0.13493014872074127,5.938346862792969,0.7936853170394897,6.433040618896484,-0.037194252014160156,0.23861312866210938,-0.10433356463909149,-1.236767292022705,0.005912871100008488,-0.969520092010498,0.4835202693939209,1.2524077892303467,0.004386968910694122,0.916113555431366,0.05741206929087639,-0.23708705604076385,0.023079270496964455,0.10967422276735306,0.6654840707778931,-0.4924052953720093,-0.000652695307508111,-0.8978027105331421,-0.054741740226745605,-0.15735866129398346,0.9840161800384521,-0.3113764822483063,-0.00020686726202256978,-0.07968618720769882,-0.23345643281936646,0.8011881113052368,-0.029843172058463097,0.0010109905852004886,-0.27380117774009705,0.2812766134738922,-0.49596908688545227,-0.006094540003687143,-0.23573552072048187,1.3381924629211426,2.670078754425049,-0.647487223148346,-1.0894629955291748,-1.4609603881835938,0.07206036150455475,-0.11711464077234268,1.1215671300888062,-1.7059307098388672,-2.4273831844329834,-7.50943660736084,1.937695860862732,-0.47646185755729675,1741432656.020394,1741432656179,-5.5070732421875,-1.0757539062500001,-1.2626780336885068,-6.02399560546875,-3.168460205078125
1741432656.0184596,-1.8241377472877502,0.03329516519690413,4.013545042325092e-06,-0.9994455622786077,0.3013198673725128,-0.02934642694890499,-0.0669497400522232,-1.0165904760360718,-1.1813684701919556,6.523345470428467,-0.032998085021972656,0.23556137084960938,-0.0707637146115303,-1.2379117012023926,0.005912871100008488,-0.967231273651123,0.47817960381507874,1.2459226846694946,0.004386968910694122,0.9142061471939087,0.07839322835206985,-0.18749523162841797,0.001716639962978661,0.08945601433515549,0.650225043296814,-0.48566263914108276,0.007545695640146732,-0.8577477931976318,-0.08373387902975082,-0.19283588230609894,0.8363851308822632,-0.2905036509037018,-0.008331944234669209,0.07135546952486038,-0.1076740175485611,1.8258397579193115,-0.13968977332115173,0.0032860832288861275,0.16197729110717773,-0.5217727422714233,-0.45224085450172424,-0.013773188926279545,-0.15772198140621185,0.9440540671348572,2.5491838455200195,-1.1698533296585083,-0.9743781089782715,-0.41900190711021423,0.3520517349243164,0.39363032579421997,2.107304573059082,-1.3654600381851196,-1.6137155294418335,-7.207090377807617,0.7302845120429993,-0.3027696907520294,1741432656.020394,1741432656179,-5.5070732421875,-1.0757539062500001,-1.2626780336885068,-6.02399560546875,-3.168460205078125
1741432656.0384583,-1.8253379464149475,0.028720375972960597,-0.009753626521314089,-0.9995398975396903,0.5377863645553589,-0.25715726613998413,-0.0021453972440212965,2.869205951690674,2.9974782466888428,5.209627151489258,-0.03032684326171875,0.24204635620117188,-0.02040894143283367,-1.2405821084976196,0.005912871100008488,-0.9611276388168335,0.45681697130203247,1.2405821084976196,0.004386968910694122,0.9134432077407837,0.0883115902543068,-0.15506981313228607,-0.02880140393972397,0.0871671661734581,0.6803616285324097,-0.4770504832267761,0.011048569343984127,-0.811589241027832,-0.09517814964056015,-0.20847637951374054,0.7112611532211304,-0.30365124344825745,-0.013521086424589157,0.07718538492918015,0.20309606194496155,2.7007601261138916,-0.18280816078186035,-0.007784282322973013,0.31019407510757446,-1.5021554231643677,-0.3532360792160034,0.0052984412759542465,-0.044215355068445206,0.4753531217575073,1.3919481039047241,-1.3010156154632568,-0.044404275715351105,2.100389242172241,0.4498317241668701,0.16878002882003784,2.230729341506958,-0.380742609500885,-0.4556591808795929,-5.971431255340576,-0.7580626010894775,-0.35456225275993347,1741432656.020394,1741432656179,-5.5070732421875,-1.0757539062500001,-1.2626780336885068,-6.02399560546875,-3.168460205078125
1741432656.0585136,-1.8267539143562317,0.021673522574770773,-0.02295708018944136,-0.9995014911886707,0.5641469359397888,-0.3810087740421295,-0.09086322039365768,-35.801048278808594,-19.201004028320312,18.371789932250977,-0.02307891845703125,0.2531089782714844,0.0398641936480999,-1.2447782754898071,0.005912871100008488,-0.9588387608528137,0.422102689743042,1.2356228828430176,0.004005493130534887,0.9100099205970764,0.08335240930318832,-0.16384375095367432,-0.018120087683200836,0.0715266615152359,0.7852674126625061,-0.4591221511363983,0.02457609958946705,-0.7791637778282166,-0.07724879682064056,-0.17338064312934875,0.733386754989624,-0.28892025351524353,-0.045178912580013275,0.2146162986755371,0.43158525228500366,2.8669240474700928,-0.4066830277442932,-0.016146168112754822,0.08693395555019379,-2.454023838043213,-0.33350005745887756,-0.005370366852730513,-0.31873801350593567,-0.5291680097579956,-0.8621472716331482,0.48150238394737244,-0.8949081301689148,5.78508186340332,1.0154873132705688,0.647497296333313,1.9117909669876099,1.222672700881958,2.2116994857788086,2.459681510925293,0.8589465022087097,-1.7513827085494995,1741432656.020394,1741432656179,-5.5070732421875,-1.0757539062500001,-1.2626780336885068,-6.02399560546875,-3.168460205078125
1741432656.078509,-1.826736569404602,0.023402264165141226,-0.018772223221869236,-0.9995498675240037,-0.19952885806560516,-0.12416735291481018,0.06317868828773499,-4.349625110626221,5.836147785186768,3.211775302886963,-0.042916297912597656,0.24624252319335938,0.10738536715507507,-1.2443968057632446,0.00667582219466567,-0.9573128819465637,0.3614480793476105,1.238293170928955,0.005149920005351305,0.9088655114173889,0.07000076025724411,-0.22678720951080322,-0.03795681521296501,0.04940108209848404,0.9416723847389221,-0.4172859191894531,0.03308580815792084,-0.7711527943611145,-0.04711223021149635,-0.12149996310472488,0.770008385181427,-0.26565438508987427,-0.10479395091533661,-0.5909590125083923,0.010404306463897228,3.4504196643829346,0.11645504832267761,0.043913859874010086,0.07468049973249435,-4.302742004394531,0.3175564408302307,0.08822242170572281,0.022052288055419922,-0.5061706304550171,-3.5369856357574463,-1.0544663667678833,-1.6039936542510986,8.05675983428955,2.1947884559631348,0.4810081124305725,0.4611908197402954,1.496780276298523,2.4775922298431396,0.8213964104652405,1.0637474060058594,-2.4986538887023926,1741432656.132858,1741432656279,-5.536208984375,-1.1820162353515624,-1.3135361986368987,-6.0168261718750005,-3.2360483398437503
1741432656.0985591,-1.8224031329154968,0.021513901311120232,-0.019706968670931725,-0.9995743031091677,0.04506796598434448,-0.0405082143843174,0.31716418266296387,-3.080101251602173,-7.270410537719727,12.784420013427734,-0.01544952392578125,0.24662399291992188,0.17223620414733887,-1.2413450479507446,0.006294346414506435,-0.952735185623169,0.2805752754211426,1.2432523965835571,0.004386968910694122,0.9142061471939087,0.06389715522527695,-0.31795987486839294,-0.05893797054886818,-0.0024795911740511656,1.1278324127197266,-0.36797428131103516,0.041769497096538544,-0.7280460596084595,-0.011635004542768002,-0.07381551712751389,0.761997401714325,-0.2455744743347168,-0.0729668140411377,0.7472022771835327,-0.0022922498174011707,3.0638840198516846,0.05036665499210358,0.05932984873652458,0.2808879315853119,-5.508307456970215,0.1323786973953247,-0.08018855005502701,0.34315675497055054,-0.2098342925310135,-4.613541126251221,-1.1001685857772827,-2.33720326423645,9.42717456817627,2.4849960803985596,0.43815162777900696,2.3517611026763916,1.7219864130020142,2.384082555770874,-0.01045348308980465,1.0892926454544067,2.214104413986206,1741432656.132858,1741432656279,-5.536208984375,-1.1820162353515624,-1.3135361986368987,-6.0168261718750005,-3.2360483398437503
1741432656.1185706,-1.8062293529510498,0.01122101037428965,-0.012665588460040315,-0.999856825648123,-0.3746159076690674,-0.6234138607978821,0.8226417303085327,-6.466735363006592,2.7459683418273926,10.376029014587402,-0.03070831298828125,0.2695121765136719,0.23403525352478027,-1.2440153360366821,0.005531395319849253,-0.9462500810623169,0.20313572883605957,1.2421079874038696,0.0036240178160369396,0.9130617380142212,0.05359731614589691,-0.422102689743042,-0.08907453715801239,-0.021171892061829567,1.2872892618179321,-0.33614546060562134,0.014813396148383617,-0.7021057605743408,-0.0020981156267225742,-0.04711223021149635,0.7726787328720093,-0.22786827385425568,-0.0365927517414093,-0.4245278537273407,0.7956540584564209,2.8355579376220703,-0.07722340524196625,-0.07448533922433853,0.2409507781267166,-4.90051794052124,0.0006455232505686581,0.042310889810323715,-0.12784798443317413,-0.5636627078056335,-5.209873676300049,-1.4285345077514648,-0.6179311275482178,7.435571670532227,1.2172483205795288,-1.6247673034667969,1.1731288433074951,0.2076946496963501,1.1515443325042725,0.46271878480911255,0.681714653968811,1.2179287672042847,1741432656.132858,1741432656279,-5.536208984375,-1.1820162353515624,-1.3135361986368987,-6.0168261718750005,-3.2360483398437503
1741432656.1386058,-1.7862773537635803,0.001989202659021956,-0.010131171323391194,-0.999946699799743,-0.07274402678012848,-0.38543590903282166,0.9871112108230591,0.33857816457748413,1.0262179374694824,9.055316925048828,-0.01621246337890625,0.2672233581542969,0.2939268946647644,-1.2459226846694946,0.006294346414506435,-0.9412909150123596,0.13866636157035828,1.2421079874038696,0.0036240178160369396,0.9138246774673462,0.04558632895350456,-0.5193789601325989,-0.09822995215654373,-0.009346150793135166,1.3845654726028442,-0.3541661500930786,0.004890896379947662,-0.6647211313247681,-0.005531395319849253,-0.03757534176111221,0.7860303521156311,-0.23222729563713074,-0.037058908492326736,0.37330687046051025,0.03541270270943642,2.953554630279541,-0.20432816445827484,-0.00646695913746953,0.2618994414806366,-4.280648231506348,-0.07859599590301514,-0.018367301672697067,0.06554179638624191,-0.24750244617462158,-4.714068412780762,-0.32475516200065613,0.7359334826469421,4.304902076721191,-1.247097134590149,-0.03149866685271263,1.958918571472168,-0.17865584790706635,0.46126776933670044,0.7021640539169312,-0.30516141653060913,0.09596072137355804,1741432656.132858,1741432656279,-5.536208984375,-1.1820162353515624,-1.3135361986368987,-6.0168261718750005,-3.2360483398437503
1741432656.1586232,-1.7723584175109863,-0.0047558026856512605,-0.011599196912455088,-0.9999214173982879,0.06321518868207932,-0.36429134011268616,0.5213480591773987,-3.153703212738037,-3.064159631729126,11.229461669921875,-0.00057220458984375,0.2641716003417969,0.34924086928367615,-1.2508819103240967,0.005531395319849253,-0.9363317489624023,0.07801175117492676,1.2363858222961426,0.004005493130534887,0.9130617380142212,0.040245670825242996,-0.6147478222846985,-0.09479667246341705,0.015449759550392628,1.4158464670181274,-0.40423059463500977,0.006952537223696709,-0.6353475451469421,-0.0009536888683214784,-0.02727550081908703,0.7913710474967957,-0.2522169053554535,-0.025696732103824615,0.48676827549934387,-0.08940056711435318,2.730175495147705,-0.3680992126464844,-0.05772356316447258,0.19913047552108765,-3.9520277976989746,-0.3863674998283386,0.06094202399253845,-0.12057730555534363,-0.34158164262771606,-4.831752777099609,0.31648245453834534,1.2526829242706299,1.0854965448379517,-2.5397322177886963,-0.017051830887794495,1.3054391145706177,0.14321331679821014,0.4851650893688202,0.2541109025478363,-1.1307052373886108,0.47090819478034973,1741432656.132858,1741432656279,-5.536208984375,-1.1820162353515624,-1.3135361986368987,-6.0168261718750005,-3.2360483398437503
1741432656.1786373,-1.7667075991630554,-0.0061893682627436955,-0.011106756835406954,-0.9999191625692084,-0.045941609889268875,-0.012204769067466259,0.14314496517181396,-0.9673764705657959,4.211371898651123,9.120345115661621,0.00247955322265625,0.2588310241699219,0.39501792192459106,-1.2520263195037842,0.005912871100008488,-0.9378576278686523,0.021171892061829567,1.2348599433898926,0.004005493130534887,0.9153505563735962,0.04444190114736557,-0.700579822063446,-0.08907453715801239,0.04177157208323479,1.3876173496246338,-0.45578715205192566,-0.004127168096601963,-0.612840473651886,0.0024795911740511656,-0.01926451548933983,0.8024337887763977,-0.2871076762676239,-0.023038800805807114,0.11988242715597153,-0.14368115365505219,2.1824371814727783,-0.051565080881118774,-0.010989214293658733,-0.09423258155584335,-3.8957784175872803,0.0481514148414135,-0.0325043760240078,0.2134649008512497,0.30946409702301025,-4.0763068199157715,0.27466675639152527,1.1796377897262573,-1.7892286777496338,-2.544754981994629,-0.6565502285957336,1.1165841817855835,-0.02415934018790722,0.3685447573661804,0.5636273622512817,-1.8107465505599976,0.14616788923740387,1741432656.132858,1741432656279,-5.536208984375,-1.1820162353515624,-1.3135361986368987,-6.0168261718750005,-3.2360483398437503
1741432656.1987062,-1.7674310803413391,-0.00199210488724475,-0.01289202929324229,-0.99991490992925,0.09253747016191483,0.259265273809433,-0.026442863047122955,-2.3781092166900635,-0.7392379641532898,10.045470237731934,0.00438690185546875,0.24433517456054688,0.4350728690624237,-1.2558410167694092,0.006294346414506435,-0.9367132186889648,-0.04749370738863945,1.2371487617492676,0.00476844422519207,0.9245060086250305,0.048638131469488144,-0.7734416723251343,-0.08030059933662415,0.05092698708176613,1.3170443773269653,-0.4813045263290405,-0.008695227093994617,-0.5941481590270996,-0.0020981156267225742,-0.02040894143283367,0.812352180480957,-0.32791006565093994,-0.019285419955849648,0.0732923075556755,-0.39749881625175476,2.0563180446624756,-0.34008949995040894,-0.027040235698223114,0.10998586565256119,-4.336511135101318,0.07235711812973022,0.06426377594470978,0.6707837581634521,0.16541071236133575,-3.4992072582244873,0.4392777979373932,0.40674257278442383,-3.849403142929077,-0.9030271768569946,-0.23662778735160828,0.9009506106376648,-0.27019691467285156,-0.09609276056289673,0.55129474401474,-2.0493195056915283,0.16361060738563538,1741432656.2321863,1741432656379,-5.56011376953125,-1.273271240234375,-1.4035209332396967,-6.0109560546875,-3.298323974609375
1741432656.2186682,-1.7684407234191895,0.011325880876030071,-0.013810350860557803,-0.9998404865934817,0.05176790803670883,0.719214916229248,-0.08353457599878311,1.0214592218399048,0.6148223280906677,10.432262420654297,0.00934600830078125,0.22755050659179688,0.4697871506214142,-1.2588928937911987,0.005912871100008488,-0.9367132186889648,-0.09403372555971146,1.23600435256958,0.0024795911740511656,0.9397650361061096,0.042153049260377884,-0.8180742859840393,-0.06313420087099075,0.0551232174038887,1.2113755941390991,-0.4638175368309021,-0.015166555531322956,-0.5788891315460205,-0.009346150793135166,-0.022697795182466507,0.8222705721855164,-0.36796942353248596,-0.015378697775304317,0.1443064957857132,-0.4754704236984253,1.635266661643982,-0.04957078769803047,0.0019470632541924715,-0.010516035370528698,-2.962845802307129,-0.08348161727190018,-0.17434053122997284,1.07431960105896,-0.39427536725997925,-2.019584894180298,0.9973788857460022,0.17042744159698486,-5.619444847106934,1.1495811939239502,-0.3148832321166992,0.7478445172309875,-0.295962929725647,-0.06031833589076996,0.4344921410083771,-2.0000147819519043,0.1971677839756012,1741432656.2321863,1741432656379,-5.56011376953125,-1.273271240234375,-1.4035209332396967,-6.0109560546875,-3.298323974609375
1741432656.238704,-1.7675544619560242,0.02460956577472237,-0.015361575973910723,-0.999579107052552,0.08194296061992645,0.6084223389625549,0.08236296474933624,-0.9264002442359924,-0.8469483256340027,7.418503284454346,0.01049041748046875,0.23022079467773438,0.4842832088470459,-1.2581299543380737,0.006294346414506435,-0.9367132186889648,-0.1180666834115982,1.233715534210205,0.0024795911740511656,0.9557870030403137,0.018501564860343933,-0.84744793176651,-0.031090257689356804,0.05970092490315437,1.0702296495437622,-0.42082589864730835,-0.012408788315951824,-0.5617227554321289,-0.013160906732082367,-0.019645990803837776,0.8321889042854309,-0.40520352125167847,-0.011009723879396915,0.037136632949113846,0.07829464972019196,0.5605296492576599,-0.0070054433308541775,-0.0031856242567300797,0.008936053141951561,-1.252537727355957,-0.16472354531288147,0.017848554998636246,1.0420315265655518,-1.2213568687438965,-1.1181186437606812,1.666723370552063,0.22436295449733734,-7.186655521392822,2.1459858417510986,0.2847711741924286,0.8321875333786011,-0.16429048776626587,0.19479212164878845,0.48261842131614685,-1.8287901878356934,0.29480522871017456,1741432656.2321863,1741432656379,-5.56011376953125,-1.273271240234375,-1.4035209332396967,-6.0109560546875,-3.298323974609375
1741432656.2587466,-1.7630661725997925,0.034114133082554544,-0.016445988891532072,-0.9992826203699359,0.042264919728040695,0.4349205791950226,0.26231878995895386,1.2952841520309448,0.05877683684229851,4.860857009887695,0.00972747802734375,0.23022079467773438,0.4808499217033386,-1.2569855451583862,0.006294346414506435,-0.9367132186889648,-0.11692225188016891,1.229519248008728,0.0024795911740511656,0.967231273651123,-0.012779430486261845,-0.841725766658783,0.008201723918318748,0.08030059933662415,0.916113555431366,-0.3749193847179413,-0.0027347393333911896,-0.535400927066803,-0.004386968910694122,-0.010490577667951584,0.8424887657165527,-0.44161224365234375,-0.005865749903023243,-0.023179354146122932,0.018359350040555,-0.28529849648475647,0.1075969934463501,-0.0017383354716002941,-0.0005877168150618672,0.23164696991443634,-0.34457138180732727,0.0069633056409657,0.7393133044242859,-1.5795307159423828,0.48946794867515564,1.944653868675232,1.3087800741195679,-7.946407318115234,2.25349497795105,0.4527931213378906,1.4616883993148804,0.602912962436676,0.42879387736320496,0.4798486828804016,-1.758924961090088,0.3490621745586395,1741432656.2321863,1741432656379,-5.56011376953125,-1.273271240234375,-1.4035209332396967,-6.0109560546875,-3.298323974609375
1741432656.2787445,-1.7546314597129822,0.035391928711044324,-0.014158162378331906,-0.9992732148017284,-0.18845045566558838,0.003951684571802616,0.394290030002594,-2.5888760089874268,-8.844635963439941,17.510385513305664,0.00553131103515625,0.2527275085449219,0.46101319789886475,-1.2535521984100342,0.005912871100008488,-0.9374761581420898,-0.09212634712457657,1.2241785526275635,0.0024795911740511656,0.9699015617370605,-0.040245670825242996,-0.8196002244949341,0.038719769567251205,0.12188144028186798,0.7738231420516968,-0.33670589327812195,0.005336555186659098,-0.5025940537452698,0.023079270496964455,-0.002861066721379757,0.8493552803993225,-0.47925814986228943,-0.006034488789737225,-0.15955767035484314,0.5667737722396851,-1.0718532800674438,0.21235990524291992,-0.014053544960916042,-0.01852387562394142,1.8873242139816284,-0.3364671468734741,0.007315183058381081,0.13509951531887054,-1.3081748485565186,1.1067688465118408,1.546368956565857,2.03991436958313,-6.75160026550293,1.9270758628845215,0.3737192451953888,1.7658205032348633,1.495430588722229,0.23766642808914185,0.36829671263694763,-1.8073080778121948,-0.15703047811985016,1741432656.2321863,1741432656379,-5.56011376953125,-1.273271240234375,-1.4035209332396967,-6.0109560546875,-3.298323974609375
1741432656.2988005,-1.742613971233368,0.026658295240157778,-0.010311563730211259,-0.9995914200053572,-0.1066138818860054,-0.3937486410140991,0.6424224376678467,-2.0447731018066406,3.3579812049865723,12.575916290283203,0.00896453857421875,0.2660789489746094,0.43202105164527893,-1.2470670938491821,0.006294346414506435,-0.9328984618186951,-0.04787518084049225,1.223034143447876,0.0024795911740511656,0.9683756828308105,-0.048638131469488144,-0.7745860815048218,0.05397878959774971,0.15888457000255585,0.7761120200157166,-0.29412877559661865,0.02035008743405342,-0.4556725323200226,0.020027466118335724,-0.00019073777366429567,0.8676661252975464,-0.4928186535835266,0.0005923399585299194,0.10858380794525146,0.41899919509887695,-1.5933022499084473,0.4414309561252594,-0.00280876480974257,0.2377718687057495,3.135517120361328,0.016637032851576805,0.0037221747916191816,-0.12907418608665466,-0.08383813500404358,2.76753568649292,0.23696553707122803,1.5030419826507568,1.0567156076431274,1.8204411268234253,0.7873082756996155,2.354111433029175,-0.16118836402893066,0.0716090276837349,0.8457242846488953,-0.3370136618614197,0.44118648767471313,1741432656.2321863,1741432656379,-5.56011376953125,-1.273271240234375,-1.4035209332396967,-6.0109560546875,-3.298323974609375
1741432656.3228016,-1.7318089604377747,0.02165337534616402,-0.01293522785529141,-0.9996818550001044,0.1417112499475479,-0.33345553278923035,0.5116493105888367,-0.6939964294433594,-0.5636982321739197,9.53425121307373,0.02231597900390625,0.2592124938964844,0.3759441375732422,-1.2466856241226196,0.00667582219466567,-0.9294651746749878,0.01125352829694748,1.2260860204696655,0.0024795911740511656,0.9668498039245605,-0.03299763426184654,-0.7387273907661438,0.051689937710762024,0.14515145123004913,0.7864118218421936,-0.292022168636322,0.03177890181541443,-0.4175249934196472,0.020027466118335724,-0.0078202486038208,0.8958953022956848,-0.47012588381767273,-0.0025647201109677553,0.3176867663860321,-0.17293117940425873,-2.9089577198028564,-0.10090344399213791,0.0403861328959465,0.1808595210313797,4.020120143890381,0.18394427001476288,0.030305417254567146,-0.15583549439907074,0.7328732013702393,1.2788910865783691,-0.06406182795763016,-1.0744273662567139,0.07743078470230103,-0.016310887411236763,0.35161101818084717,1.5963901281356812,-0.04430703446269035,-0.3284494876861572,1.7774978876113892,1.3440158367156982,-0.5401186943054199,1741432656.2321863,1741432656379,-5.56011376953125,-1.273271240234375,-1.4035209332396967,-6.0109560546875,-3.298323974609375
1741432656.3388124,-1.7217761278152466,0.014995103283294592,-0.014850895421222723,-0.9997772740879396,0.07559853047132492,-0.1732499897480011,0.4167049527168274,-4.391766548156738,-0.7539381980895996,9.116196632385254,0.01888275146484375,0.2538719177246094,0.3057526648044586,-1.2493560314178467,0.005531395319849253,-0.924887478351593,0.07038223743438721,1.2306636571884155,0.002861066721379757,0.9611276388168335,-0.018501564860343933,-0.6956206560134888,0.03185320645570755,0.11387044936418533,0.8009079098701477,-0.2933041751384735,0.030635535717010498,-0.42706188559532166,0.013923857361078262,0.000572213320992887,0.9920271635055542,-0.43315109610557556,-0.024021094664931297,-0.0682358369231224,-0.16000287234783173,-3.596024751663208,-0.2136903554201126,-0.05371510237455368,0.16429199278354645,3.7947001457214355,0.4064843952655792,0.018019290640950203,-0.4029017686843872,0.6002280712127686,2.4267194271087646,-1.463716745376587,-1.393884539604187,0.8224994540214539,-0.09311588853597641,-0.04933938384056091,-0.7203038930892944,-0.24110543727874756,0.5973060131072998,5.49642276763916,1.9032423496246338,-1.1139521598815918,1741432656.2321863,1741432656379,-5.56011376953125,-1.273271240234375,-1.4035209332396967,-6.0109560546875,-3.298323974609375
1741432656.3588362,-1.7303824424743652,0.008927245320886748,-0.019059984912877727,-0.9997784860988466,0.24253958463668823,-0.43451860547065735,-0.5366827845573425,-7.280847549438477,-1.5062601566314697,10.489847183227539,0.02460479736328125,0.2626457214355469,0.23556114733219147,-1.2508819103240967,0.005912871100008488,-0.9237430095672607,0.1184481605887413,1.2428709268569946,0.005149920005351305,0.955024003982544,-0.007057297509163618,-0.6696802973747253,0.01583123579621315,0.09670405089855194,0.805867075920105,-0.30169689655303955,0.028596261516213417,-0.4968718886375427,0.016212711110711098,0.01430533267557621,1.1453803777694702,-0.3925631642341614,-0.020044730976223946,0.1488460749387741,0.3827970027923584,-3.318035125732422,-0.141825869679451,-0.012730246409773827,0.05833398550748825,3.2298078536987305,0.8523596525192261,0.161789208650589,-0.3784140646457672,0.6217390298843384,1.1902676820755005,-0.6623190641403198,-0.8493748903274536,0.2755475342273712,-0.43504613637924194,0.054340533912181854,-4.159604072570801,0.17549502849578857,0.7638967037200928,7.762571811676025,1.9080455303192139,0.5536102652549744,1741432656.2321863,1741432656379,-5.56011376953125,-1.273271240234375,-1.4035209332396967,-6.0109560546875,-3.298323974609375
1741432656.3819268,-1.7529465556144714,0.009187163063874449,-0.023428585433344272,-0.999683298559814,0.18380071222782135,0.07944503426551819,-1.1465528011322021,2.292048215866089,1.8444019556045532,12.556692123413086,0.02880096435546875,0.2531089782714844,0.17032882571220398,-1.2508819103240967,0.005531395319849253,-0.927176296710968,0.16384375095367432,1.2527892589569092,0.005149920005351305,0.9504463076591492,0.0078202486038208,-0.6330586671829224,0.013923857361078262,0.09594109654426575,0.8192187547683716,-0.3128724694252014,0.023768644779920578,-0.5884260535240173,0.02727550081908703,0.01430533267557621,1.3033112287521362,-0.37660709023475647,0.003982159774750471,0.11725190281867981,-0.18092885613441467,-3.495617389678955,0.10894732177257538,0.014607029967010021,-0.18442478775978088,2.944627523422241,0.6019728779792786,-0.00437487568706274,-0.32172298431396484,0.6624669432640076,1.9221577644348145,0.04266633093357086,-0.0006459254072979093,0.5740063786506653,-0.6417641043663025,-0.40290379524230957,-4.430470943450928,0.5292597413063049,-0.1526942402124405,7.724448204040527,0.43654459714889526,0.9281027913093567,1741432656.2321863,1741432656379,-5.56011376953125,-1.273271240234375,-1.4035209332396967,-6.0109560546875,-3.298323974609375
1741432656.3988864,-1.778516173362732,0.006164269598167999,-0.024170576658532523,-0.9996888440931584,0.04582303389906883,-0.3257705867290497,-1.255228042602539,-1.4500768184661865,-1.2727878093719482,13.790674209594727,0.02079010009765625,0.2607383728027344,0.10471503436565399,-1.2447782754898071,0.006294346414506435,-0.9279392957687378,0.21076524257659912,1.2585114240646362,0.005531395319849253,0.9454871416091919,0.012397955171763897,-0.5998703241348267,0.01735713705420494,0.09670405089855194,0.8203631639480591,-0.33405083417892456,0.015028145164251328,-0.6818875670433044,0.039101243019104004,0.00667582219466567,1.4127947092056274,-0.3980185091495514,-0.009100524708628654,-0.17500180006027222,0.1648063063621521,-3.1586976051330566,0.3992384076118469,0.03027968294918537,0.0022784515749663115,3.2345926761627197,0.24730126559734344,0.0428265742957592,-0.29854705929756165,0.25394853949546814,1.4716906547546387,0.20809879899024963,0.06519592553377151,0.009066695347428322,-1.1836130619049072,-0.23053723573684692,-4.776610374450684,0.4535476565361023,-0.2791012227535248,4.823807716369629,-1.288685917854309,-0.8533396124839783,1741432656.2321863,1741432656379,-5.56011376953125,-1.273271240234375,-1.4035209332396967,-6.0109560546875,-3.298323974609375
1741432656.41894,-1.8007665276527405,0.004495156691406182,-0.02403826708660854,-0.9997009329203372,0.010676557198166847,0.010234805755317211,-1.0045024156570435,0.2008466124534607,0.8978089094161987,9.489119529724121,0.01087188720703125,0.2550163269042969,0.045204851776361465,-1.236767292022705,0.005912871100008488,-0.9279392957687378,0.2603570520877838,1.2638521194458008,0.005531395319849253,0.9431982636451721,0.013160906732082367,-0.5495155453681946,0.02193484455347061,0.09746700525283813,0.8215075731277466,-0.3663713037967682,0.01423934381455183,-0.7574197053909302,0.04444190114736557,-0.011635004542768002,1.4532310962677002,-0.43288472294807434,-0.007730451878160238,-0.3122134804725647,-0.11950989067554474,-2.8031063079833984,0.5386194586753845,-0.020533153787255287,0.015997083857655525,3.2895572185516357,0.34444257616996765,-0.01505095325410366,-0.12835726141929626,-0.05938394367694855,2.739454746246338,0.22441703081130981,0.024318203330039978,-0.024250881746411324,-1.690728783607483,-0.3121887147426605,-3.660292863845825,0.33278268575668335,-0.9734804034233093,1.4627149105072021,-1.7539047002792358,0.5652173161506653,1741432656.2321863,1741432656379,-5.56011376953125,-1.273271240234375,-1.4035209332396967,-6.0109560546875,-3.298323974609375
1741432656.4389727,-1.8073630928993225,0.002430374669812892,-0.023465650790393425,-0.9997216895276143,-0.08219641447067261,-0.19179466366767883,-0.285745769739151,-3.644685983657837,-3.827512741088867,10.283124923706055,0.00858306884765625,0.2599754333496094,-0.0078202486038208,-1.236767292022705,0.006294346414506435,-0.9283207654953003,0.3114747703075409,1.2638521194458008,0.00476844422519207,0.9420538544654846,-0.00019073777366429567,-0.5079346895217896,0.028038453310728073,0.10204470902681351,0.8104447722434998,-0.40704700350761414,0.003861913224682212,-0.8234149813652039,0.046730753034353256,-0.029182879254221916,1.430724024772644,-0.4581379294395447,0.012183151207864285,-0.08127274364233017,0.1614496260881424,-2.6489667892456055,-0.07900616526603699,-0.027830883860588074,-0.05296596884727478,3.436044454574585,-0.04400133341550827,-0.018497012555599213,-0.14441145956516266,-0.745324969291687,1.9865248203277588,0.25291508436203003,0.37822794914245605,-0.5584120750427246,-2.072139263153076,-0.3158213198184967,-3.2756576538085938,0.05004103109240532,-0.7670375108718872,-1.5780812501907349,-1.0557941198349,0.8515064120292664,1741432656.2321863,1741432656379,-5.56011376953125,-1.273271240234375,-1.4035209332396967,-6.0109560546875,-3.298323974609375
1741432656.458975,-1.8063525557518005,0.00236545282545993,-0.019649083833391187,-0.9998041398881278,-0.17348036170005798,0.07869496196508408,0.013590741902589798,-1.2395414113998413,0.1680203676223755,6.524587631225586,0.00057220458984375,0.2565422058105469,-0.06504157930612564,-1.23905611038208,0.006294346414506435,-0.9313725233078003,0.36488136649131775,1.2661409378051758,0.005531395319849253,0.9386205673217773,-0.014686808921396732,-0.4674982726573944,0.03643091395497322,0.10662241280078888,0.8016708493232727,-0.44881540536880493,0.0011801084037870169,-0.8718623518943787,0.04291599988937378,-0.04291599988937378,1.3654917478561401,-0.45967864990234375,0.006757745053619146,-0.22709698975086212,-0.09216341376304626,-2.7162930965423584,-0.1283588856458664,0.08181727677583694,-0.21719397604465485,3.625791072845459,0.2230059802532196,0.07679218798875809,-0.27632254362106323,-0.5491831302642822,2.3068413734436035,0.45948174595832825,0.14647828042507172,-0.39029139280319214,-2.0745010375976562,-0.1225365623831749,-2.340019941329956,-0.2504032850265503,-0.7432951331138611,-3.5537352561950684,0.16123029589653015,-0.23752257227897644,1741432656.2321863,1741432656379,-5.56011376953125,-1.273271240234375,-1.4035209332396967,-6.0109560546875,-3.298323974609375
1741432656.4790063,-1.8060213923454285,0.006642559587779186,-0.01639640944023965,-0.999843504834427,-0.18286766111850739,0.18069306015968323,0.005295405164361,10.724530220031738,-0.9024107456207275,6.59821891784668,0.00019073486328125,0.2569236755371094,-0.10547798871994019,-1.2386746406555176,0.005912871100008488,-0.9431982636451721,0.4205767810344696,1.2665224075317383,0.005149920005351305,0.9313725233078003,-0.016975661739706993,-0.42515450716018677,0.0394827201962471,0.11120012402534485,0.7890821695327759,-0.48826566338539124,-0.005045419093221426,-0.9019989371299744,0.03032730519771576,-0.056267641484737396,1.270504355430603,-0.43155738711357117,0.009685710072517395,-0.03885328024625778,-0.010634778067469597,-1.8816758394241333,0.03410665690898895,0.03499243035912514,-0.5446157455444336,3.4744622707366943,-0.09299816191196442,-0.021413324400782585,-0.446770578622818,0.005477656610310078,1.7491917610168457,0.04963386431336403,0.3265143930912018,-0.737083911895752,-2.005241870880127,-0.3725903034210205,-1.2859653234481812,-0.7446799278259277,-0.6318303346633911,-5.070173263549805,1.6119440793991089,0.30702415108680725,1741432656.2321863,1741432656379,-5.56011376953125,-1.273271240234375,-1.4035209332396967,-6.0109560546875,-3.298323974609375
1741432656.499005,-1.8054435849189758,0.011978247595126236,-0.012998183753267896,-0.99984377219827,-0.15675202012062073,0.370712012052536,0.0016249117907136679,3.3895297050476074,2.234875202178955,6.9667558670043945,0.00057220458984375,0.24547958374023438,-0.12417028844356537,-1.23753023147583,0.005912871100008488,-0.9538795948028564,0.4549095928668976,1.2646150588989258,0.005149920005351305,0.924887478351593,-0.004005493130534887,-0.38128480315208435,0.037193864583969116,0.10585946589708328,0.7799267768859863,-0.5204934477806091,0.00029449348221533,-0.9039062857627869,0.0036240178160369396,-0.07267109304666519,1.1545357704162598,-0.3861124813556671,0.008733674883842468,0.01429065689444542,-0.35390758514404297,-0.7961254715919495,0.04016759991645813,-0.00801367312669754,-0.587878942489624,2.002659320831299,-0.042350176721811295,-0.017089614644646645,-0.4301066994667053,0.7788658142089844,2.427147626876831,-0.12121876329183578,-0.40215280652046204,-0.48629647493362427,-1.5498552322387695,0.4164558947086334,0.03662843629717827,-1.3740524053573608,-0.9344326853752136,-5.8725199699401855,2.2741777896881104,-0.08921679854393005,1741432656.2321863,1741432656379,-5.56011376953125,-1.273271240234375,-1.4035209332396967,-6.0109560546875,-3.298323974609375
1741432656.5190597,-1.8093088865280151,0.014188202865775629,-0.013241703642193568,-0.9998116583557585,0.06424885988235474,0.013899124227464199,-0.19706083834171295,2.640967845916748,-1.0355312824249268,6.870333671569824,0.00019073486328125,0.2512016296386719,-0.11768520623445511,-1.23753023147583,0.005912871100008488,-0.961509108543396,0.4694056510925293,1.2627075910568237,0.00476844422519207,0.919165313243866,0.014686808921396732,-0.33245593309402466,0.024223696440458298,0.09517814964056015,0.7593270540237427,-0.5379269123077393,-0.0003280278469901532,-0.89131760597229,-0.025749599561095238,-0.10166323184967041,1.019874930381775,-0.34041911363601685,0.0011203609174117446,-0.01639709621667862,0.11014019697904587,0.5568144917488098,0.0008194741676561534,-0.005346938036382198,-0.31091398000717163,0.8337852358818054,-0.1869063377380371,-0.017176980152726173,-0.3412741422653198,0.9390454292297363,2.4394400119781494,-0.7105587124824524,-0.5581530332565308,-1.1074227094650269,-0.6746677756309509,-0.28515976667404175,0.6852522492408752,-1.4460337162017822,-1.5865566730499268,-6.783373832702637,2.1290159225463867,-0.4531598389148712,1741432656.2321863,1741432656379,-5.56011376953125,-1.273271240234375,-1.4035209332396967,-6.0109560546875,-3.298323974609375
1741432656.53904,-1.8156988024711609,0.011411381938363208,-0.019344284764899293,-0.9997477576915046,0.35358569025993347,-0.0857156440615654,-0.3035655617713928,5.159143924713135,-1.7946325540542603,4.274827480316162,0.00019073486328125,0.2599754333496094,-0.0864042118191719,-1.238293170928955,0.005912871100008488,-0.9657053351402283,0.4690241813659668,1.2546966075897217,0.004386968910694122,0.9157320261001587,0.024223696440458298,-0.26951247453689575,-0.0024795911740511656,0.09212634712457657,0.7444495558738708,-0.5285886526107788,-0.006928298156708479,-0.8611810207366943,-0.05207141116261482,-0.1337071806192398,0.8863584399223328,-0.3158760964870453,-0.007711183279752731,-0.019063064828515053,0.25323864817619324,1.675959825515747,-0.06986720860004425,0.006512477528303862,-0.17452695965766907,-0.12820369005203247,-0.5703523755073547,-0.02714897319674492,-0.17000697553157806,0.4417564272880554,3.1886630058288574,-1.6015805006027222,0.12526874244213104,-0.5890623927116394,0.62303227186203,0.14873594045639038,1.75441312789917,-1.262384057044983,-1.438926100730896,-6.547147750854492,0.951457679271698,-0.41794952750205994,1741432656.2321863,1741432656379,-5.56011376953125,-1.273271240234375,-1.4035209332396967,-6.0109560546875,-3.298323974609375
1741432656.5591133,-1.8214807510375977,0.0028991190617701523,-0.030529322011408577,-0.9995296671966217,0.6361989974975586,-0.5376430749893188,-0.26645857095718384,-9.881120681762695,-0.4578501582145691,12.339694023132324,0.00095367431640625,0.2786674499511719,-0.0398641936480999,-1.2402005195617676,0.005912871100008488,-0.9641794562339783,0.45643550157546997,1.2436338663101196,0.004386968910694122,0.9142061471939087,0.018501564860343933,-0.22373540699481964,-0.029182879254221916,0.09861142933368683,0.7539864182472229,-0.5169743895530701,0.0042234016582369804,-0.8329518437385559,-0.071908138692379,-0.14591439068317413,0.7825970649719238,-0.31719475984573364,-0.01717102900147438,0.004500965587794781,0.6165388226509094,2.492427110671997,-0.14170798659324646,-0.00884326733648777,0.12774048745632172,-0.9166325330734253,-0.724886417388916,-0.0018618397880345583,-0.09548835456371307,-0.37413498759269714,2.082893133163452,-1.2485078573226929,0.24032658338546753,0.8963204622268677,0.47250616550445557,0.6360958218574524,1.293055534362793,-0.9536795616149902,-0.3398340940475464,-4.8933000564575195,-0.06897883117198944,-0.6174308657646179,1741432656.2321863,1741432656379,-5.56011376953125,-1.273271240234375,-1.4035209332396967,-6.0109560546875,-3.298323974609375
1741432656.579103,-1.8242273330688477,-0.00541813348932805,-0.04780680344481284,-0.9988419060961954,0.7932030558586121,-0.3049805462360382,-0.16300459206104279,-8.50039291381836,-13.835683822631836,16.05730438232422,0.00667572021484375,0.2862977981567383,0.01926451548933983,-1.2489745616912842,0.005912871100008488,-0.961509108543396,0.43011367321014404,1.23295259475708,0.0036240178160369396,0.9100099205970764,0.0032425422687083483,-0.20733195543289185,-0.026131074875593185,0.09479667246341705,0.8276112079620361,-0.5038283467292786,0.01428732369095087,-0.7963302135467529,-0.06542305648326874,-0.11959258466959,0.8230335116386414,-0.30098187923431396,-0.04945778101682663,0.14577080309391022,0.30209651589393616,3.1391234397888184,-0.7731841206550598,-0.024656133726239204,0.08725792169570923,-1.9946930408477783,-0.6810588836669922,-0.02697281539440155,-0.3538464605808258,-0.9351837635040283,0.39662542939186096,-0.018560227006673813,-0.0985177606344223,4.226615905761719,0.8563841581344604,0.4533853232860565,2.243317127227783,0.5403800010681152,1.668981909751892,2.752930164337158,0.8481402397155762,-1.8565715551376343,1741432656.2321863,1741432656379,-5.56011376953125,-1.273271240234375,-1.4035209332396967,-6.0109560546875,-3.298323974609375
1741432656.5991275,-1.8228400945663452,-0.005080355363124057,-0.05130842262218642,-0.9986699333400438,0.2114645093679428,-0.15263018012046814,0.13674846291542053,-8.097776412963867,0.886954665184021,11.664748191833496,-0.01316070556640625,0.2885866165161133,0.08373387902975082,-1.2516448497772217,0.006294346414506435,-0.9618905782699585,0.3763256371021271,1.2333340644836426,0.005531395319849253,0.9092469811439514,-0.023079270496964455,-0.25196459889411926,-0.04253452271223068,0.08373387902975082,0.9573128819465637,-0.4645906984806061,0.019163625314831734,-0.7887006998062134,-0.046730753034353256,-0.07991912961006165,0.8463035225868225,-0.28031086921691895,-0.098304882645607,-0.5723782777786255,0.15114308893680573,3.3244283199310303,-0.015123927034437656,-0.016024883836507797,0.006248206831514835,-3.7698943614959717,0.15939603745937347,0.16326060891151428,0.0616607703268528,-1.2288219928741455,-2.7418127059936523,-0.7749723196029663,-0.8423999547958374,6.790595531463623,2.0654382705688477,0.25603431463241577,0.4317419230937958,1.0103508234024048,1.9448819160461426,0.36127811670303345,0.8706125617027283,-1.6896841526031494,1741432656.2321863,1741432656379,-5.56011376953125,-1.273271240234375,-1.4035209332396967,-6.0109560546875,-3.298323974609375
1741432656.6191778,-1.8128488063812256,-0.0024581913293746523,-0.05655883208826252,-0.9983962418840526,0.18764230608940125,0.29898741841316223,0.5958287119865417,0.8375436067581177,-4.520276069641113,10.959512710571289,0.00553131103515625,0.2866792678833008,0.14667734503746033,-1.2527892589569092,0.00667582219466567,-0.9626535177230835,0.308041512966156,1.236767292022705,0.005912871100008488,0.9119172692298889,-0.04100862145423889,-0.33169299364089966,-0.054741740226745605,0.05130846053361893,1.1278324127197266,-0.41772037744522095,0.027665195986628532,-0.7497901916503906,-0.024223696440458298,-0.045204851776361465,0.8508812189102173,-0.2636064887046814,-0.060739126056432724,0.4699576795101166,-0.06536708027124405,2.8115437030792236,-0.2255719006061554,0.07717283070087433,-0.04650617390871048,-4.602811336517334,0.19997893273830414,-0.041199762374162674,0.10804206132888794,-0.8766640424728394,-4.261326789855957,-0.7390944361686707,-1.5351927280426025,8.391523361206055,2.2613000869750977,0.2432887703180313,2.03808331489563,1.0415784120559692,1.5178959369659424,0.7142422199249268,0.9864794015884399,2.060152530670166,1741432656.2321863,1741432656379,-5.56011376953125,-1.273271240234375,-1.4035209332396967,-6.0109560546875,-3.298323974609375
1741432656.6391637,-1.792034089565277,-0.007211670631320261,-0.050248273473817905,-0.9987107202887159,-0.28531500697135925,-0.2792361378669739,1.090430736541748,-4.3192925453186035,5.965081691741943,10.833720207214355,-0.01354217529296875,0.3145265579223633,0.20656901597976685,-1.2543151378631592,0.005912871100008488,-0.9618905782699585,0.24242770671844482,1.2409635782241821,0.005912871100008488,0.9119172692298889,-0.0558861680328846,-0.4346913993358612,-0.07267109304666519,0.04177157208323479,1.281567096710205,-0.3882259726524353,0.009806153364479542,-0.726901650428772,-0.026512550190091133,-0.03757534176111221,0.8607995510101318,-0.2572152018547058,-0.0457022562623024,-0.5844103097915649,0.7961136698722839,3.0997252464294434,-0.0380464531481266,-0.022661106660962105,0.09444160014390945,-4.335219860076904,0.2843625843524933,0.010181870311498642,0.0464228093624115,-0.7241522073745728,-5.155085563659668,-0.6456810832023621,-0.34800460934638977,7.442492485046387,1.1045714616775513,-0.9395736455917358,1.13355553150177,-0.3397018611431122,0.2240545004606247,0.2747920751571655,0.09256435185670853,0.3826393187046051,1741432656.2321863,1741432656379,-5.56011376953125,-1.273271240234375,-1.4035209332396967,-6.0109560546875,-3.298323974609375
1741432656.6592202,-1.7701104879379272,-0.010998245244179935,-0.04737303668116374,-0.9988167169191523,-0.10322770476341248,-0.09206216037273407,1.1062986850738525,-0.15559300780296326,0.9217137098312378,11.68334674835205,0.00438690185546875,0.3217744827270508,0.26798656582832336,-1.2562226057052612,0.006294346414506435,-0.9603646993637085,0.17261768877506256,1.239819049835205,0.005149920005351305,0.9142061471939087,-0.06313420087099075,-0.534637987613678,-0.06847485899925232,0.049782559275627136,1.3822766542434692,-0.40299278497695923,0.005815176293253899,-0.689517080783844,-0.039101243019104004,-0.039101243019104004,0.8676661252975464,-0.2687174677848816,-0.03834635019302368,0.42857491970062256,0.21694537997245789,3.2726926803588867,-0.18874482810497284,-0.0010897614993155003,0.06700088828802109,-4.619243621826172,-0.11153919994831085,-0.0395999513566494,0.16541846096515656,-0.16448281705379486,-4.959660053253174,0.2587977647781372,0.5011035799980164,4.56681489944458,-1.0564106702804565,0.12226268649101257,1.986219048500061,-0.5410410165786743,-0.03899167850613594,0.4556702971458435,-0.6100347638130188,0.5111266374588013,1741432656.2321863,1741432656379,-5.56011376953125,-1.273271240234375,-1.4035209332396967,-6.0109560546875,-3.298323974609375
1741432656.679217,-1.7535787224769592,-0.013274475341072765,-0.04683255767877591,-0.9988145472737586,-0.018100382760167122,-0.14110371470451355,0.6504284143447876,0.22484131157398224,0.8284445405006409,11.937653541564941,0.01239776611328125,0.3297853469848633,0.33054855465888977,-1.2569855451583862,0.005912871100008488,-0.9576943516731262,0.1031891331076622,1.23753023147583,0.004386968910694122,0.9138246774673462,-0.06504157930612564,-0.6265735626220703,-0.06313420087099075,0.0715266615152359,1.416990876197815,-0.4445045292377472,0.011926131322979927,-0.6570916175842285,-0.04177157208323479,-0.0398641936480999,0.8707179427146912,-0.29726460576057434,-0.03154594451189041,0.2588118612766266,0.25699159502983093,3.343482732772827,-0.06330763548612595,-0.027294153347611427,0.13968294858932495,-4.516091346740723,-0.17784027755260468,-0.032160744071006775,-0.10048338770866394,-0.17105349898338318,-4.642598628997803,0.38094058632850647,1.3352290391921997,1.2164777517318726,-2.132145881652832,0.019724518060684204,1.5424182415008545,-0.22814252972602844,-0.05797744542360306,0.06425472348928452,-1.5941274166107178,0.33893945813179016,1741432656.2321863,1741432656379,-5.56011376953125,-1.273271240234375,-1.4035209332396967,-6.0109560546875,-3.298323974609375
1741432656.6992543,-1.7467714548110962,-0.012476047925391259,-0.04647067134900745,-0.998841741685106,-0.023216918110847473,0.1421288400888443,0.2022596001625061,-0.3844055235385895,4.799112796783447,8.755457878112793,0.01506805419921875,0.3274965286254883,0.3850995600223541,-1.2569855451583862,0.005912871100008488,-0.951209306716919,0.042153049260377884,1.2363858222961426,0.00476844422519207,0.9145876169204712,-0.05436026677489281,-0.7059205174446106,-0.05283436179161072,0.09899290651082993,1.3906691074371338,-0.4813699722290039,-0.007611183915287256,-0.621614396572113,-0.045204851776361465,-0.040627144277095795,0.8707179427146912,-0.3387562036514282,-0.030145296826958656,0.0974801629781723,-0.05445312336087227,2.7622158527374268,-0.02033405378460884,-0.018947383388876915,0.347485214471817,-4.072974681854248,-0.03528239205479622,-0.010591494850814342,0.04611596837639809,0.7557124495506287,-3.737272024154663,0.5169402956962585,1.1970462799072266,-1.6822627782821655,-1.6455152034759521,-0.9969581365585327,1.8944990634918213,-0.2840399742126465,-0.021025309339165688,0.003558642463758588,-2.1268560886383057,0.15533150732517242,1741432656.2321863,1741432656379,-5.56011376953125,-1.273271240234375,-1.4035209332396967,-6.0109560546875,-3.298323974609375
1741432656.719281,-1.7509726285934448,-0.008465247635778472,-0.04836154543042137,-0.9987940230628366,0.11181394010782242,0.16122572124004364,-0.18728205561637878,7.067413330078125,-1.31370210647583,7.721131801605225,0.01964569091796875,0.3286409378051758,0.43125811219215393,-1.2577484846115112,0.00667582219466567,-0.9412909150123596,-0.023460745811462402,1.2424894571304321,0.004386968910694122,0.917639434337616,-0.03681239113211632,-0.7696269154548645,-0.04558632895350456,0.11387044936418533,1.3235293626785278,-0.4924825131893158,-0.009890113025903702,-0.5895704627037048,-0.054741740226745605,-0.048256658017635345,0.8665217161178589,-0.38181841373443604,-0.02098199352622032,0.13082484900951385,0.028493279591202736,2.2744452953338623,-0.07596797496080399,0.0469629243016243,0.5179216861724854,-4.535455703735352,0.3867204785346985,0.008692612871527672,0.29779741168022156,0.7917459607124329,-3.0764527320861816,0.30629459023475647,0.6912456750869751,-3.618263006210327,-0.24254785478115082,0.018364088609814644,1.3438966274261475,-0.5129176378250122,-0.4711851477622986,-0.25735169649124146,-2.1439528465270996,0.529119610786438,1741432656.2321863,1741432656379,-5.56011376953125,-1.273271240234375,-1.4035209332396967,-6.0109560546875,-3.298323974609375
1741432656.7393236,-1.748026967048645,-0.002206456454131635,-0.049537528007000356,-0.9987698257701179,0.06490512937307358,0.40166160464286804,0.20522920787334442,0.3493186831474304,1.4600242376327515,6.270854949951172,0.01964569091796875,0.3236818313598633,0.4716945290565491,-1.2596558332443237,0.005912871100008488,-0.9294651746749878,-0.07763027399778366,1.2402005195617676,0.004005493130534887,0.9298466444015503,-0.0398641936480999,-0.813878059387207,-0.03376058489084244,0.12302586436271667,1.2243458032608032,-0.4658915102481842,-0.011223477311432362,-0.5537117719650269,-0.06809338182210922,-0.057793546468019485,0.8653773069381714,-0.4222230613231659,-0.01482465397566557,-0.004045798908919096,-0.15818573534488678,1.7620575428009033,-0.026574959978461266,-0.012140671722590923,0.5233662128448486,-3.3396568298339844,-0.2527671754360199,-0.06185903400182724,0.9841368198394775,-0.2550176978111267,-2.012803554534912,0.702214241027832,0.35983729362487793,-5.261507987976074,1.6548717021942139,-0.12069422751665115,1.996987223625183,-0.6634204387664795,-0.37002265453338623,-0.051654376089572906,-2.024751901626587,0.4045225977897644,1741432656.2321863,1741432656379,-5.56011376953125,-1.273271240234375,-1.4035209332396967,-6.0109560546875,-3.298323974609375
1741432656.7593515,-1.740307629108429,0.005492359725329949,-0.05236337802423349,-0.9986129934196424,0.14958253502845764,0.3604259788990021,0.4326801598072052,2.818176031112671,1.1437735557556152,7.573643207550049,0.02269744873046875,0.3221559524536133,0.4892423748970032,-1.2546966075897217,0.005912871100008488,-0.9210727214813232,-0.10547798871994019,1.23447847366333,0.0024795911740511656,0.9458686113357544,-0.05970092490315437,-0.8291370868682861,-0.00858320016413927,0.1325627565383911,1.1007477045059204,-0.42106693983078003,-0.0083758644759655,-0.5220493078231812,-0.0722896158695221,-0.06198977679014206,0.8573662638664246,-0.4605885148048401,-0.006465938873589039,0.08364354819059372,-0.015091195702552795,0.7036756873130798,0.30544358491897583,-0.009044556878507137,0.3652591109275818,-1.5583221912384033,-0.36760368943214417,-0.024908296763896942,0.9914298057556152,-1.2125030755996704,-0.6096609830856323,1.3273588418960571,0.47526609897613525,-6.402541160583496,2.238936424255371,0.1928631216287613,1.4692604541778564,-0.0990268737077713,-0.0858294814825058,-0.3816733658313751,-1.9176008701324463,0.28037065267562866,1741432656.2321863,1741432656379,-5.56011376953125,-1.273271240234375,-1.4035209332396967,-6.0109560546875,-3.298323974609375
1741432656.7793121,-1.7254817485809326,0.009059994396821864,-0.053854691022182176,-0.9985076808700246,0.0417591854929924,0.19007669389247894,0.7779940962791443,3.89503812789917,0.4352647364139557,6.428309440612793,0.02574920654296875,0.3252077102661133,0.4892423748970032,-1.2516448497772217,0.005912871100008488,-0.9157320261001587,-0.10814831405878067,1.228756308555603,0.002861066721379757,0.9584572911262512,-0.09403372555971146,-0.8257037997245789,0.026512550190091133,0.15659570693969727,0.9576943516731262,-0.37384331226348877,-0.0009519143495708704,-0.4797055125236511,-0.06771191209554672,-0.05359731614589691,0.8524070978164673,-0.4951826333999634,-0.0013934861635789275,0.08629399538040161,0.11520067602396011,-0.17700980603694916,0.21863685548305511,-0.00664808414876461,0.20354343950748444,0.0560830757021904,-0.43540897965431213,-0.0016878298483788967,0.7734876871109009,-1.6726773977279663,0.4785548746585846,1.6897021532058716,1.3257439136505127,-7.048020362854004,2.35229229927063,0.33749550580978394,2.275034189224243,0.33184778690338135,0.40725070238113403,-0.3551960289478302,-1.74872624874115,0.374258428812027,1741432656.2321863,1741432656379,-5.56011376953125,-1.273271240234375,-1.4035209332396967,-6.0109560546875,-3.298323974609375
1741432656.7993708,-1.7079118490219116,0.0069713810144266765,-0.051360647428275494,-0.9986558384861625,-0.18352024257183075,-0.1208873838186264,0.8691081404685974,3.335880994796753,0.9548255205154419,5.265511512756348,0.02994537353515625,0.3400850296020508,0.4724574685096741,-1.2485930919647217,0.005912871100008488,-0.9138246774673462,-0.08945601433515549,1.2234156131744385,0.002861066721379757,0.9649423956871033,-0.1203555315732956,-0.80357825756073,0.049782559275627136,0.1989395022392273,0.8222705721855164,-0.334146648645401,0.003714378224685788,-0.42515450716018677,-0.046730753034353256,-0.04787518084049225,0.8371480703353882,-0.5236003398895264,-0.0002211200335295871,0.11333052814006805,0.4721533954143524,-0.9302529692649841,0.16277238726615906,-0.006199014838784933,0.06549015641212463,1.4864002466201782,-0.3170669376850128,0.007370085921138525,0.3189155161380768,-1.205712914466858,1.176154613494873,0.8834559321403503,2.2245030403137207,-6.663574695587158,1.7961965799331665,0.24356010556221008,2.760437250137329,1.271352767944336,0.16926956176757812,-0.7793868184089661,-1.2735652923583984,-0.02262178249657154,1741432656.2321863,1741432656379,-5.56011376953125,-1.273271240234375,-1.4035209332396967,-6.0109560546875,-3.298323974609375
1741432656.8195512,-1.6894172728061676,-0.0003713878310126314,-0.04281843115552134,-0.9990828013855803,-0.43746480345726013,-0.31472864747047424,0.9469131827354431,1.730815052986145,-5.250443458557129,10.704703330993652,0.038720130920410156,0.3461894989013672,0.44537270069122314,-1.2455412149429321,0.005912871100008488,-0.9149690866470337,-0.05130846053361893,1.2218897342681885,0.002861066721379757,0.9630350470542908,-0.12684062123298645,-0.778019368648529,0.07686731964349747,0.23517967760562897,0.7215610146522522,-0.3122941851615906,0.012656782753765583,-0.3568703830242157,-0.028038453310728073,-0.04901960864663124,0.8257037997245789,-0.5255460739135742,0.005690277088433504,0.22571736574172974,0.1799524873495102,-1.450514316558838,0.24943944811820984,-0.013137809000909328,-0.04225586727261543,2.7024266719818115,-0.06371938437223434,0.0007694227970205247,-0.1429770588874817,-0.1578933298587799,1.1831449270248413,1.1916954517364502,1.646209955215454,-4.260675430297852,1.084442377090454,0.5629702806472778,3.465883255004883,0.7898885607719421,-0.07755431532859802,-0.30553877353668213,0.28999534249305725,0.5002317428588867,1741432656.2321863,1741432656379,-5.56011376953125,-1.273271240234375,-1.4035209332396967,-6.0109560546875,-3.298323974609375
1741432656.839541,-1.6750976145267487,-0.012748536822836252,-0.034628504188568006,-0.9993189388311117,-0.3122144341468811,-0.5916275382041931,0.7183738946914673,-5.872747421264648,2.1981799602508545,16.44910430908203,0.055504798889160156,0.3637371063232422,0.4079881012439728,-1.2394375801086426,0.005912871100008488,-0.9130617380142212,-0.0032425422687083483,1.222271203994751,0.002861066721379757,0.9576943516731262,-0.12378881871700287,-0.7375829815864563,0.0722896158695221,0.2466239482164383,0.7463569045066833,-0.2963126003742218,0.030996615067124367,-0.30537116527557373,-0.027656977996230125,-0.04711223021149635,0.8344777822494507,-0.5091133117675781,-0.004086760804057121,0.45588576793670654,0.4865449368953705,-1.9697405099868774,0.36699628829956055,-0.007076954934746027,0.09304210543632507,3.2845253944396973,0.007886216975748539,0.005415409803390503,-0.3770831227302551,0.2952934801578522,2.282865524291992,-0.36156561970710754,0.12888041138648987,1.7340567111968994,0.5200285911560059,0.9012519717216492,2.2761306762695312,0.03828950598835945,0.22737102210521698,0.6564328074455261,0.814678430557251,-0.5130420327186584,1741432656.2321863,1741432656379,-5.56011376953125,-1.273271240234375,-1.4035209332396967,-6.0109560546875,-3.298323974609375
1741432656.8595726,-1.6636436879634857,-0.016917738480925447,-0.03231727283242444,-0.9993344705359491,-0.11945335566997528,-0.13852524757385254,0.4792709946632385,-0.43220484256744385,-0.5589447617530823,11.524187088012695,0.08525943756103516,0.3595409393310547,0.34809643030166626,-1.2466856241226196,0.006294346414506435,-0.9153505563735962,0.05054550990462303,1.2234156131744385,0.002861066721379757,0.9554055333137512,-0.11234454810619354,-0.7063019871711731,0.06046387553215027,0.20351719856262207,0.7612344622612,-0.3055054545402527,0.038264498114585876,-0.291638046503067,-0.021171892061829567,-0.02079041674733162,0.9023804068565369,-0.4828093945980072,-0.016793280839920044,0.8569559454917908,-0.08445601165294647,-2.9622766971588135,-0.574924111366272,-0.00909010786563158,-0.11129745841026306,3.497283697128296,0.12581060826778412,0.0025548734702169895,-0.12166699022054672,0.5726220011711121,1.2824807167053223,-0.6982375383377075,-2.1989688873291016,0.3726445138454437,-0.4930591583251953,0.2850141227245331,0.17548252642154694,0.303920179605484,1.6612424850463867,4.004199504852295,1.389501929283142,-0.4954686462879181,1741432656.2321863,1741432656379,-5.56011376953125,-1.273271240234375,-1.4035209332396967,-6.0109560546875,-3.298323974609375
1741432656.8796382,-1.6582783162593842,-0.016981396408715665,-0.03486837694297058,-0.9992476312032834,0.18617510795593262,0.11074651777744293,0.1982259750366211,4.241464614868164,8.95798397064209,5.917632579803467,0.10776710510253906,0.3618297576904297,0.27180132269859314,-1.2554595470428467,0.005912871100008488,-0.9153505563735962,0.10166323184967041,1.230282187461853,0.004005493130534887,0.9557870030403137,-0.10013733059167862,-0.6738765835762024,0.03376058489084244,0.1665140837430954,0.7654306888580322,-0.30885401368141174,0.036065880209207535,-0.3412298858165741,-0.010490577667951584,0.03452353551983833,1.046196699142456,-0.44157955050468445,-0.024326428771018982,0.6837848424911499,0.03638014197349548,-3.8637022972106934,-0.5510135293006897,-0.03543677553534508,-0.011356012895703316,3.3861732482910156,0.5827444791793823,0.07074239104986191,0.020515810698270798,0.5096707344055176,1.7809007167816162,-1.4802601337432861,-1.930713176727295,0.2263496220111847,-0.1520135998725891,0.10594182461500168,-2.7412266731262207,0.6319302916526794,2.838909149169922,7.670271873474121,2.139240264892578,-0.39398401975631714,1741432656.2321863,1741432656379,-5.56011376953125,-1.273271240234375,-1.4035209332396967,-6.0109560546875,-3.298323974609375
1741432656.899596,-1.665300339460373,-0.013239140342651211,-0.046876124986353504,-0.9988129725175036,0.6115136742591858,0.1246323436498642,-0.42176228761672974,5.824685096740723,1.1076991558074951,10.98283576965332,0.13904762268066406,0.3740367889404297,0.19398032128810883,-1.2630890607833862,0.005912871100008488,-0.9145876169204712,0.14820325374603271,1.23905611038208,0.004005493130534887,0.9557870030403137,-0.09594109654426575,-0.6498435735702515,0.005531395319849253,0.14362554252147675,0.7642862796783447,-0.31459859013557434,0.039482373744249344,-0.44193941354751587,0.01583123579621315,0.07915617525577545,1.2174792289733887,-0.4004036486148834,-0.019185924902558327,0.897747278213501,0.3781003952026367,-3.837008237838745,-0.4855514168739319,-0.03535056859254837,0.017489654943346977,3.0968027114868164,0.4920958876609802,0.011760844849050045,-0.01417615544050932,0.21769563853740692,1.1425272226333618,-1.116978406906128,-0.8455948233604431,-0.05321056768298149,-0.3406630754470825,0.11298046261072159,-5.328620910644531,1.2788939476013184,2.029832124710083,8.743560791015625,1.8500350713729858,0.647194504737854,1741432656.2321863,1741432656379,-5.56011376953125,-1.273271240234375,-1.4035209332396967,-6.0109560546875,-3.298323974609375
1741432656.9196126,-1.6769879162311554,-0.006653763616406708,-0.05923508814085142,-0.9982218850349268,0.5741980671882629,0.3669285774230957,-0.6384794116020203,-0.41222989559173584,1.8570595979690552,10.630313873291016,0.15659618377685547,0.3759441375732422,0.11615930497646332,-1.2638521194458008,0.005912871100008488,-0.916876494884491,0.19474326074123383,1.2447782754898071,0.004005493130534887,0.9554055333137512,-0.09555962681770325,-0.6147478222846985,0.002861066721379757,0.1367589831352234,0.763523280620575,-0.3208330571651459,0.02382415533065796,-0.5529488325119019,0.045204851776361465,0.09403372555971146,1.3731212615966797,-0.39277318120002747,-0.002138929907232523,0.5785263180732727,0.058378685265779495,-3.829435110092163,0.0015622328501194715,-0.016204405575990677,-0.13175927102565765,3.0786666870117188,0.3901219069957733,0.0025949194096028805,-0.039721082895994186,-0.12488999962806702,1.9303066730499268,-0.012672264128923416,-0.31650039553642273,-0.06340648978948593,-0.31409183144569397,-1.0586732625961304,-5.416390895843506,1.3918076753616333,0.5178599953651428,7.379220008850098,-0.02352042682468891,0.4307674467563629,1741432656.2321863,1741432656379,-5.56011376953125,-1.273271240234375,-1.4035209332396967,-6.0109560546875,-3.298323974609375
1741432656.939641,-1.6910509169101715,-0.0034715475167937417,-0.06590535107483866,-0.9978198399799139,0.2650667726993561,0.0014108719769865274,-0.7189598083496094,-3.097416877746582,-3.2457079887390137,10.730754852294922,0.16918468475341797,0.3908214569091797,0.04634927958250046,-1.2604187726974487,0.005912871100008488,-0.918402373790741,0.24204623699188232,1.2512633800506592,0.004386968910694122,0.952735185623169,-0.10013733059167862,-0.5819409489631653,0.005149920005351305,0.1333257108926773,0.7593270540237427,-0.32966896891593933,0.0059713879600167274,-0.6601434350013733,0.06427863240242004,0.08487831056118011,1.4665827751159668,-0.42507854104042053,-0.011708651669323444,0.34746721386909485,0.4887256622314453,-3.5156054496765137,0.2802879512310028,-0.0028981410432606936,-0.05193452164530754,3.1682002544403076,0.465934693813324,0.0551861971616745,-0.2628194987773895,-0.17466464638710022,1.5662516355514526,0.04126666858792305,-0.23982803523540497,-0.21814803779125214,-0.4522897005081177,-0.5785602331161499,-5.159115791320801,0.7938550710678101,-0.47231635451316833,4.076662063598633,-1.8219462633132935,-0.46691954135894775,1741432656.2321863,1741432656379,-5.56011376953125,-1.273271240234375,-1.4035209332396967,-6.0109560546875,-3.298323974609375
1741432656.95963,-1.7020618617534637,-0.0004613164474079975,-0.06612210987721805,-0.997811431971252,-0.005916331894695759,0.13365104794502258,-0.46708276867866516,4.750478267669678,-2.127903461456299,5.7872633934021,0.19130992889404297,0.3866252899169922,-0.005149920005351305,-1.2539336681365967,0.005912871100008488,-0.9164950251579285,0.28858625888824463,1.2608002424240112,0.004386968910694122,0.9435797929763794,-0.10433356463909149,-0.5357823967933655,0.00476844422519207,0.12188144028186798,0.7547493577003479,-0.3375559151172638,-0.0009419716661795974,-0.7478827834129333,0.07724879682064056,0.06160829961299896,1.4868009090423584,-0.4704795777797699,-0.001554638845846057,0.6442238092422485,-0.04055456817150116,-2.411860466003418,0.4231436848640442,0.000379126810003072,0.12778279185295105,3.1184487342834473,0.6049991250038147,-0.014378455467522144,-0.6321088075637817,-0.32554924488067627,2.329864501953125,-0.03858474642038345,-0.6773099303245544,-0.3074988126754761,-0.3659265637397766,-0.4300016164779663,-4.358698844909668,0.720127522945404,-1.2275590896606445,0.4681026339530945,-2.2365458011627197,0.8260770440101624,1741432656.2321863,1741432656379,-5.56011376953125,-1.273271240234375,-1.4035209332396967,-6.0109560546875,-3.298323974609375
1741432656.9796512,-1.7047243118286133,-0.0016992081627354686,-0.06223911616606136,-0.9980598204068167,-0.23897039890289307,-0.09914015978574753,-0.16659824550151825,-1.7659205198287964,-0.6445155143737793,9.952995300292969,0.21114635467529297,0.3904399871826172,-0.04940108209848404,-1.2527892589569092,0.005912871100008488,-0.9111543297767639,0.33283740282058716,1.2661409378051758,0.004386968910694122,0.927176296710968,-0.11692225188016891,-0.4980163276195526,0.00476844422519207,0.10624094307422638,0.7459754347801208,-0.3430483043193817,-0.005896569695323706,-0.8241779208183289,0.08297093212604523,0.04291599988937378,1.4448386430740356,-0.5009747743606567,0.012015308253467083,0.587351381778717,0.1120147556066513,-2.4732086658477783,0.04325425624847412,-0.017598839476704597,0.27038487792015076,2.8941662311553955,0.33337053656578064,0.015451855957508087,-1.1913244724273682,-0.6122984886169434,1.8180781602859497,-0.007192686200141907,-0.6813808083534241,-0.33215588331222534,-0.2923961281776428,-0.04548891261219978,-3.7743656635284424,0.2664816975593567,-0.8086404204368591,-2.441006660461426,-1.2348926067352295,0.5831587314605713,1741432656.2321863,1741432656379,-5.56011376953125,-1.273271240234375,-1.4035209332396967,-6.0109560546875,-3.298323974609375
1741432656.9996805,-1.7060922980308533,-6.57460040637686e-05,-0.05576286671556528,-0.998444038678746,-0.3016692101955414,0.10021847486495972,-0.032689474523067474,-0.14436104893684387,3.88910174369812,8.335649490356445,0.23670578002929688,0.3854808807373047,-0.09060044586658478,-1.2520263195037842,0.005912871100008488,-0.9153505563735962,0.3709849715232849,1.2695741653442383,0.004386968910694122,0.9058136940002441,-0.12760357558727264,-0.4686427116394043,0.009346150793135166,0.10128175467252731,0.7520790696144104,-0.3571384847164154,0.0024241155479103327,-0.8794918656349182,0.07991912961006165,0.03643091395497322,1.3563363552093506,-0.49293091893196106,0.012551067396998405,0.745259702205658,-0.14123888313770294,-1.9223124980926514,0.06778839975595474,0.004227627534419298,-0.14182820916175842,2.539815664291382,0.2648284137248993,-0.006048679351806641,-1.4385281801223755,-0.44788190722465515,1.2829712629318237,0.29888197779655457,-0.2681841254234314,0.38231566548347473,-0.806918740272522,0.2446209341287613,-2.4885308742523193,-0.21172665059566498,-0.20288537442684174,-4.715642929077148,0.7837626934051514,0.07385622709989548,1741432656.2321863,1741432656379,-5.56011376953125,-1.273271240234375,-1.4035209332396967,-6.0109560546875,-3.298323974609375
1741432657.0274801,-1.7065270841121674,0.0032876850017569885,-0.0520306263396758,-0.9986400778308621,-0.16505387425422668,0.18157750368118286,0.017699016258120537,-6.625651836395264,-1.2758400440216064,9.444622039794922,0.2691307067871094,0.3839550018310547,-0.11005569249391556,-1.2516448497772217,0.005912871100008488,-0.9111543297767639,0.40951400995254517,1.2733889818191528,0.004386968910694122,0.8768215179443359,-0.12531471252441406,-0.45643550157546997,0.0078202486038208,0.09365224838256836,0.7650492191314697,-0.3850440979003906,-0.010284450836479664,-0.8989471197128296,0.06885633617639542,0.03604944050312042,1.2312123775482178,-0.4519027769565582,0.015010522678494453,0.9556928873062134,-0.0024784619454294443,-0.8055196404457092,0.00014144663873594254,-0.0012017767876386642,0.26223820447921753,2.3507585525512695,0.18977469205856323,-0.012903962284326553,-1.9063448905944824,0.16599950194358826,0.7583186626434326,-0.1773054152727127,-0.44606664776802063,0.7840380668640137,-1.497424840927124,-0.6995987892150879,-0.6224315166473389,-0.6053597331047058,-0.03335312753915787,-6.648628234863281,2.1150455474853516,-0.007611083332449198,1741432656.2321863,1741432656379,-5.56011376953125,-1.273271240234375,-1.4035209332396967,-6.0109560546875,-3.298323974609375
1741432657.0397365,-1.6994623839855194,0.01452017025592925,-0.04995977900411113,-0.9986456754713351,-0.0986565425992012,0.5558006763458252,0.41462886333465576,4.348842620849609,-1.2385632991790771,5.213129997253418,0.2927827835083008,0.3751811981201172,-0.11539635062217712,-1.2520263195037842,0.005912871100008488,-0.9058136940002441,0.42896926403045654,1.2741519212722778,0.004005493130534887,0.848210871219635,-0.11692225188016891,-0.4373617172241211,-0.0013351644156500697,0.071908138692379,0.7860303521156311,-0.4214063584804535,-0.0023251709062606096,-0.8970397710800171,0.048256658017635345,0.03604944050312042,1.0603113174438477,-0.4061289131641388,0.009541704319417477,0.7048880457878113,-0.23744454979896545,-0.10716293007135391,-0.050865091383457184,0.0009891324443742633,0.3437930643558502,1.1861460208892822,0.09356814622879028,0.003177270293235779,-2.034926414489746,0.44113826751708984,0.7712510228157043,-0.6568548679351807,-1.0293173789978027,1.0472089052200317,-1.7883051633834839,0.4883096516132355,0.22426772117614746,-1.161608099937439,-0.015618495643138885,-8.949503898620605,2.265603542327881,-0.3325808048248291,1741432656.2321863,1741432656379,-5.56011376953125,-1.273271240234375,-1.4035209332396967,-6.0109560546875,-3.298323974609375
1741432657.0598385,-1.6836403012275696,0.02248095933012739,-0.0503158969106457,-0.998480303754498,0.0312032550573349,0.5070939064025879,0.8605474233627319,1.5324350595474243,0.370410293340683,6.359594821929932,0.3141450881958008,0.3725109100341797,-0.1024261862039566,-1.2539336681365967,0.006294346414506435,-0.8901731967926025,0.4373617172241211,1.2764407396316528,0.004005493130534887,0.8184558153152466,-0.10700388997793198,-0.42744335532188416,-0.034142062067985535,0.06427863240242004,0.8207446336746216,-0.4451731741428375,-0.006515671499073505,-0.8604180812835693,0.015449759550392628,0.039101243019104004,0.8569847941398621,-0.3585546016693115,0.0002201402821810916,0.6137678623199463,-0.0771443322300911,0.6913559436798096,-0.16563068330287933,0.020829753950238228,0.8199041485786438,0.3751249313354492,0.14437127113342285,-0.0027983481995761395,-1.8385009765625,0.5387229919433594,0.5872107744216919,-1.7147905826568604,-0.06752865761518478,2.082834243774414,-0.9785811901092529,-0.32903361320495605,2.199005365371704,-1.7836328744888306,0.2600013017654419,-10.256179809570312,2.3737359046936035,-0.3027154803276062,1741432656.2321863,1741432656379,-5.56011376953125,-1.273271240234375,-1.4035209332396967,-6.0109560546875,-3.298323974609375
1741432657.0798311,-1.6616612374782562,0.022304953706559407,-0.05677881034001433,-0.9981375935894413,0.34860560297966003,-0.261069118976593,1.1151292324066162,-30.385892868041992,5.507469654083252,10.043357849121094,0.3496227264404297,0.4072256088256836,-0.07572289556264877,-1.2600373029708862,0.005912871100008488,-0.8661402463912964,0.4358358085155487,1.2772036790847778,0.004005493130534887,0.7887006998062134,-0.10547798871994019,-0.42782482504844666,-0.02689402550458908,0.06046387553215027,0.881780743598938,-0.4433824419975281,-0.0026263578329235315,-0.8260852694511414,-0.01926451548933983,0.023079270496964455,0.7913710474967957,-0.25951486825942993,0.011792464181780815,1.0382611751556396,1.2375946044921875,1.4444106817245483,-0.5752516388893127,-0.02490798570215702,1.2329201698303223,-0.12870275974273682,-0.002121605444699526,0.002737807109951973,-2.0434646606445312,-0.19299276173114777,-0.2880094647407532,0.8959131836891174,-0.07784788310527802,3.12789249420166,0.23867681622505188,0.45287612080574036,2.1097707748413086,-1.1085138320922852,-1.2261542081832886,-0.5954414010047913,5.10737943649292,0.6041051149368286,1741432656.2321863,1741432656379,-5.56011376953125,-1.273271240234375,-1.4035209332396967,-6.0109560546875,-3.298323974609375
