Freshhhhh-LC/Legged_odom/data/2/segments/booster_seg_9.88s.csv
time,yaw,projected_gravity_x,projected_gravity_y,projected_gravity_z,ang_vel_x,ang_vel_y,ang_vel_z,lin_acc_x,lin_acc_y,lin_acc_z,q_0,q_1,q_2,q_3,q_4,q_5,q_6,q_7,q_8,q_9,q_10,q_11,q_12,q_13,q_14,q_15,q_16,q_17,q_18,q_19,q_20,q_21,q_22,dq_0,dq_1,dq_2,dq_3,dq_4,dq_5,dq_6,dq_7,dq_8,dq_9,dq_10,dq_11,dq_12,dq_13,dq_14,dq_15,dq_16,dq_17,dq_18,dq_19,dq_20,dq_21,dq_22,mocap_time,mocap_timestamp,robot_x,robot_y,robot_yaw,ball_x,ball_y
1741432907.1747892,-2.498055577278137,-0.011332829959066579,-0.001624593700103311,-0.9999344616825787,-0.4432990550994873,0.11737778037786484,-0.036863986402750015,-2.145677328109741,-0.25199511647224426,6.926699161529541,-0.13790321350097656,0.16041088104248047,0.4491874575614929,-1.2577484846115112,0.005912871100008488,-0.9355688095092773,-0.0398641936480999,1.2432523965835571,0.005149920005351305,0.924887478351593,0.04558632895350456,-0.8398184180259705,-0.022697795182466507,0.03147173300385475,1.341458797454834,-0.5224062204360962,-0.0095447963103652,-0.5548561811447144,-0.0722896158695221,-0.02880140393972397,0.8611810207366943,-0.4298279881477356,0.060003262013196945,-0.04960589483380318,-0.27108216285705566,2.845440149307251,-0.16794544458389282,-0.03575008362531662,0.43150466680526733,-4.323225021362305,0.2674565017223358,-0.013011434115469456,0.6446129083633423,0.8296397924423218,-2.6759531497955322,1.2934551239013672,-1.92341947555542,-3.8501267433166504,-0.00016992601740639657,0.17039750516414642,1.2089556455612183,-0.6077678203582764,-0.9944705367088318,0.4023800492286682,-1.0885411500930786,0.4584536552429199,1741432907.2179856,1741432907339,-2.34253955078125,0.4205495910644531,-2.0437953635088415,-3.897069580078125,-0.6355142822265625
1741432907.1771164,-2.4947372674942017,-0.00115311003813009,0.006417522783341897,-0.9999787426433451,-0.35317960381507874,0.44616228342056274,0.11918661743402481,-0.9543709754943848,1.8701808452606201,5.694112300872803,-0.13637733459472656,0.13752174377441406,0.4827573001384735,-1.2531707286834717,0.006294346414506435,-0.9313725233078003,-0.09136339277029037,1.238293170928955,0.005149920005351305,0.9416723847389221,0.043678950518369675,-0.8722438216209412,0.0024795911740511656,-0.011635004542768002,1.2163348197937012,-0.49913153052330017,-0.005138149484992027,-0.5445563197135925,-0.08907453715801239,-0.042153049260377884,0.882543683052063,-0.45880645513534546,0.06759580969810486,0.04977304860949516,-0.5330528020858765,1.4666367769241333,0.2708858251571655,0.03666437417268753,0.2315690666437149,-3.246075391769409,-0.3598552942276001,-0.0002172913373215124,1.2324026823043823,-0.2956850528717041,-1.3495088815689087,1.2599316835403442,-2.107077121734619,-6.878620624542236,1.3175599575042725,0.1067327931523323,0.2781195342540741,-0.7268195748329163,-0.643778920173645,1.126724123954773,-1.4999843835830688,0.23389120399951935,1741432907.2179856,1741432907339,-2.34253955078125,0.4205495910644531,-2.0437953635088415,-3.897069580078125,-0.6355142822265625
1741432907.1792145,-2.3917042016983032,0.007779060635185176,-0.08830035333094842,-0.996063518967171,0.5113357305526733,0.31114694476127625,-0.8672106266021729,11.063887596130371,-6.222440242767334,7.099400520324707,-0.02155303955078125,0.2946901321411133,0.09632257372140884,-1.2638521194458008,0.005912871100008488,-0.917639434337616,0.1958876997232437,1.2432523965835571,0.0032425422687083483,0.9557870030403137,-0.11692225188016891,-0.6006332635879517,0.024605173617601395,0.23670557141304016,0.7459754347801208,-0.29775139689445496,0.04682192951440811,-0.5621042251586914,0.054741740226745605,0.1840619444847107,1.3937208652496338,-0.36041295528411865,-0.010712695308029652,-0.22404539585113525,-0.2304372787475586,-3.918034076690674,0.21831631660461426,-0.02482835203409195,-0.08912785351276398,3.1819751262664795,0.781424880027771,0.008821433410048485,-0.03430839627981186,-0.08960093557834625,2.3376312255859375,-0.08532553166151047,0.6804212927818298,-0.19727468490600586,0.009367480874061584,-1.0320061445236206,-5.566363334655762,2.148080825805664,-0.04997090622782707,7.659358501434326,-0.16856075823307037,-0.4873487055301666,1741432907.2179856,1741432907339,-2.34253955078125,0.4205495910644531,-2.0437953635088415,-3.897069580078125,-0.6355142822265625
1741432907.1991115,-2.413663864135742,0.003569265932365724,-0.09301902692222408,-0.9956579337157649,0.21586228907108307,-0.2738979458808899,-1.0976102352142334,-4.214451789855957,-0.5950013995170593,11.73276424407959,-0.032235145568847656,0.3118562698364258,0.029182879254221916,-1.2554595470428467,0.005912871100008488,-0.9187838435173035,0.2443350851535797,1.2527892589569092,0.004386968910694122,0.953498125076294,-0.11120012402534485,-0.5663004517555237,0.024986648932099342,0.23899443447589874,0.7406347990036011,-0.3052087128162384,0.03340191766619682,-0.6734950542449951,0.08030059933662415,0.1657511293888092,1.4875638484954834,-0.397614985704422,-0.013436158187687397,-0.33577871322631836,0.42764776945114136,-3.3879892826080322,0.5655087828636169,0.003399714594706893,-0.05145089328289032,3.211980104446411,0.594010055065155,0.0657423734664917,-0.19327177107334137,0.29604217410087585,1.8365510702133179,-0.09892648458480835,0.009668274782598019,-0.07317448407411575,-0.4476291239261627,-0.4809114634990692,-5.3307976722717285,1.0819426774978638,-0.9628897905349731,4.083521366119385,-2.0552937984466553,-0.07765953242778778,1741432907.2179856,1741432907339,-2.34253955078125,0.4205495910644531,-2.0437953635088415,-3.897069580078125,-0.6355142822265625
1741432907.2191184,-2.4364739656448364,0.007421217723709081,-0.09337553764664934,-0.9956033017706883,0.010719032026827335,0.060949862003326416,-1.07195246219635,2.7286317348480225,-4.287106990814209,7.890657901763916,-0.036812782287597656,0.3057527542114258,-0.018501564860343933,-1.2451597452163696,0.005531395319849253,-0.9214541912078857,0.2924010157585144,1.2596558332443237,0.004386968910694122,0.9481574892997742,-0.10738536715507507,-0.5209048390388489,0.015449759550392628,0.2294575423002243,0.7421606779098511,-0.32720687985420227,0.02100122533738613,-0.7661936283111572,0.09327077120542526,0.12302586436271667,1.5054932832717896,-0.4481639266014099,-0.004193190950900316,-0.14751788973808289,-0.10997648537158966,-2.241422176361084,0.6773366928100586,-0.022046174854040146,-0.12887105345726013,3.226717472076416,0.362642765045166,0.006925822235643864,-0.4002512991428375,0.24602912366390228,2.0720765590667725,-0.4697403311729431,-0.4954257607460022,-0.06484957039356232,-1.2650622129440308,-0.7339985966682434,-4.494536399841309,0.6238154768943787,-2.048570156097412,0.3397611081600189,-2.5124058723449707,0.4402540922164917,1741432907.2179856,1741432907339,-2.34253955078125,0.4205495910644531,-2.0437953635088415,-3.897069580078125,-0.6355142822265625
1741432907.2391226,-2.4500662088394165,0.006061196001036536,-0.09032846166306861,-0.9958935841326726,-0.16334538161754608,-0.09887797385454178,-0.7048653364181519,-0.1191534698009491,-1.037835955619812,7.996943473815918,-0.043297767639160156,0.3076601028442383,-0.061226826161146164,-1.2386746406555176,0.005531395319849253,-0.9260318875312805,0.3385595381259918,1.2619446516036987,0.004386968910694122,0.9428167939186096,-0.10051880776882172,-0.49267566204071045,0.006294346414506435,0.22030213475227356,0.7421606779098511,-0.36665859818458557,0.016626454889774323,-0.846684992313385,0.09136339277029037,0.086785688996315,1.4585717916488647,-0.4857701063156128,0.009172260761260986,-0.21258282661437988,0.046685848385095596,-2.2596311569213867,0.40511977672576904,-0.0795949250459671,-0.3337898850440979,2.9907889366149902,0.12050555646419525,0.021194953471422195,-0.3656046390533447,0.3139258623123169,1.3640869855880737,-0.4327412545681,-0.3725067675113678,0.06030241772532463,-2.1297454833984375,-0.04687176272273064,-3.5831072330474854,-0.1277327686548233,-1.6258924007415771,-2.8255178928375244,-1.6292681694030762,0.6700884103775024,1741432907.2179856,1741432907339,-2.34253955078125,0.4205495910644531,-2.0437953635088415,-3.897069580078125,-0.6355142822265625
1741432907.2591994,-2.457936406135559,0.009894205867587862,-0.0867380612173379,-0.9961820182208205,-0.16284717619419098,0.15357986092567444,-0.2987212538719177,-0.9317135810852051,-0.37921932339668274,7.762117385864258,-0.049782752990722656,0.3007936477661133,-0.10204470902681351,-1.2356228828430176,0.005912871100008488,-0.9439612627029419,0.37975889444351196,1.2634705305099487,0.004386968910694122,0.9378576278686523,-0.09746700525283813,-0.4674982726573944,0.00476844422519207,0.2149614691734314,0.7459754347801208,-0.41565871238708496,0.02535509504377842,-0.9012359976768494,0.08373387902975082,0.06237125024199486,1.3643473386764526,-0.48597952723503113,0.012383655644953251,-0.2059319168329239,-0.17968130111694336,-1.9370474815368652,0.1705915480852127,0.0029320809990167618,-0.8770575523376465,2.7371826171875,0.0836469978094101,-0.0003950958780478686,-0.34667444229125977,0.1963992416858673,1.412634015083313,-0.03863925859332085,-0.20049336552619934,0.2602500021457672,-2.4358248710632324,0.46216967701911926,-2.5898447036743164,-0.420371413230896,-1.1321383714675903,-4.94659948348999,0.29786181449890137,0.09564787149429321,1741432907.2179856,1741432907339,-2.34253955078125,0.4205495910644531,-2.0437953635088415,-3.897069580078125,-0.6355142822265625
1741432907.2791586,-2.4605655670166016,0.018789966221784003,-0.08129322059824123,-0.9965130954754934,-0.2839401066303253,0.4701777398586273,-0.13210907578468323,0.9067127108573914,-0.5130770802497864,10.501774787902832,-0.053597450256347656,0.2878236770629883,-0.12455176562070847,-1.2321895360946655,0.005912871100008488,-0.9603646993637085,0.42553597688674927,1.2638521194458008,0.004386968910694122,0.9294651746749878,-0.08487831056118011,-0.44308385252952576,0.005149920005351305,0.2138170450925827,0.7536049485206604,-0.45960161089897156,0.026750821620225906,-0.9233615398406982,0.07000076025724411,0.05359731614589691,1.2365529537200928,-0.4501751661300659,0.013657459989190102,-0.12122225761413574,-0.36835670471191406,-0.9405282139778137,0.2476954460144043,0.021238239482045174,-0.7910246849060059,2.9297125339508057,-0.014630462042987347,-0.02355041913688183,-0.5580074191093445,0.6755355596542358,1.1841002702713013,-0.018403101712465286,-0.11231537163257599,0.34070178866386414,-2.173509359359741,0.15371644496917725,-0.7618811130523682,-0.785418689250946,-0.35274651646614075,-6.461634635925293,1.9475253820419312,0.05773776024580002,1741432907.3277135,1741432907439,-2.42768408203125,0.36053726196289065,-2.123734547300707,-3.987227783203125,-0.7270145263671876
1741432907.299159,-2.460304021835327,0.03014774659110823,-0.07514055208915159,-0.9967171167423664,-0.28645962476730347,0.5048242807388306,0.01635194942355156,3.1995842456817627,-1.6670488119125366,6.388427734375,-0.058175086975097656,0.2836275100708008,-0.12798504531383514,-1.227230429649353,0.005912871100008488,-0.9725719094276428,0.4514763057231903,1.2619446516036987,0.004386968910694122,0.9218356609344482,-0.06198977679014206,-0.41523614525794983,-0.0009536888683214784,0.20313572883605957,0.7623788714408875,-0.49704357981681824,0.02464981935918331,-0.9283207654953003,0.04329747334122658,0.04329747334122658,1.0706111192703247,-0.40453866124153137,0.009713206440210342,-0.15312650799751282,-0.12297801673412323,-0.006456299219280481,0.32629793882369995,-0.014818694442510605,-0.5192943811416626,1.6246320009231567,-0.1423591822385788,0.031682830303907394,-0.5155923366546631,1.1771314144134521,1.2927253246307373,-0.28465208411216736,-0.7159425616264343,0.3916970491409302,-1.83097243309021,-0.28745293617248535,-0.00369579647667706,-1.517127513885498,-0.5361395478248596,-8.370367050170898,2.2540831565856934,-0.3035127520561218,1741432907.3277135,1741432907439,-2.42768408203125,0.36053726196289065,-2.123734547300707,-3.987227783203125,-0.7270145263671876
1741432907.3192074,-2.4618250131607056,0.03596379877797638,-0.07116324690516565,-0.9968161302202987,-0.17264604568481445,0.27365240454673767,-0.09085699170827866,2.8165056705474854,2.483888864517212,2.809717893600464,-0.055504798889160156,0.2809562683105469,-0.10471503436565399,-1.225704550743103,0.005912871100008488,-0.9775310754776001,0.46063172817230225,1.2596558332443237,0.004386968910694122,0.9164950251579285,-0.039101243019104004,-0.3759441375732422,-0.025749599561095238,0.18711376190185547,0.768482506275177,-0.5169727206230164,0.00030422426061704755,-0.9054322242736816,0.0078202486038208,0.015449759550392628,0.9023804068565369,-0.36409521102905273,-0.0022376428823918104,0.038281723856925964,-0.11082565784454346,1.2664668560028076,0.0372869074344635,-0.006739464588463306,-0.17005226016044617,0.3664375841617584,-0.2089933454990387,0.0006652058218605816,-0.3466777503490448,1.1012132167816162,2.0645830631256104,-1.358286738395691,-0.7417690753936768,0.2458246797323227,-0.8194660544395447,-1.0849535465240479,1.263850450515747,-1.716116189956665,-1.476912260055542,-8.007281303405762,1.8205087184906006,-0.7012317776679993,1741432907.3277135,1741432907439,-2.42768408203125,0.36053726196289065,-2.123734547300707,-3.987227783203125,-0.7270145263671876
1741432907.339241,-2.464415431022644,0.03250176908159086,-0.07322594761107244,-0.9967856317197933,0.14489851891994476,-0.2519882321357727,-0.1427079439163208,11.078904151916504,25.197288513183594,38.21930694580078,-0.044442176818847656,0.3011751174926758,-0.06046387553215027,-1.2268489599227905,0.005912871100008488,-0.9752422571182251,0.45796138048171997,1.2524077892303467,0.004005493130534887,0.9126802682876587,-0.028038453310728073,-0.33131152391433716,-0.057793546468019485,0.19207294285297394,0.7841230034828186,-0.513069748878479,0.02924206666648388,-0.8821622133255005,-0.02689402550458908,-0.016975661739706993,0.7845044732093811,-0.33329054713249207,-0.00589090446010232,0.30749067664146423,0.48873016238212585,2.263885974884033,-0.07156627625226974,-0.000131406937725842,0.14177824556827545,-0.3125982880592346,-0.5602809190750122,-0.009107977151870728,-0.253282368183136,0.48747381567955017,2.349261522293091,-1.2257367372512817,0.39850854873657227,1.0402648448944092,0.3397819399833679,1.5569390058517456,0.7717254161834717,-1.6092716455459595,-1.578916311264038,-4.455896377563477,1.8772987127304077,0.043575093150138855,1741432907.3277135,1741432907439,-2.42768408203125,0.36053726196289065,-2.123734547300707,-3.987227783203125,-0.7270145263671876
1741432907.359274,-2.466794013977051,0.02169986908060594,-0.08059043452226115,-0.9965110624300152,0.31554150581359863,-0.37366971373558044,-0.19478699564933777,-6.6241841316223145,-6.026668071746826,11.698328971862793,-0.049019813537597656,0.3130006790161133,-0.0013351644156500697,-1.238293170928955,0.005912871100008488,-0.9718089699745178,0.438506156206131,1.2409635782241821,0.004005493130534887,0.9077210426330566,-0.04139009863138199,-0.30155640840530396,-0.0551232174038887,0.1970321238040924,0.8352407217025757,-0.5017871260643005,0.047517139464616776,-0.8329518437385559,-0.03681239113211632,-0.006294346414506435,0.846684992313385,-0.29864275455474854,-0.01040390133857727,-0.06912494450807571,0.15444248914718628,3.001727819442749,-0.9152703881263733,-0.021006137132644653,0.13239461183547974,-1.6109510660171509,-0.7801257967948914,0.03501942381262779,-0.2621660828590393,-0.8379299640655518,1.2927215099334717,-0.17975108325481415,0.54179847240448,2.818526029586792,0.685710072517395,0.7196968793869019,2.7690858840942383,-0.2114047259092331,1.0730031728744507,3.003699541091919,1.2328516244888306,-0.34539273381233215,1741432907.3277135,1741432907439,-2.42768408203125,0.36053726196289065,-2.123734547300707,-3.987227783203125,-0.7270145263671876
1741432907.3793228,-2.4646095037460327,0.01580698520111758,-0.08473027742211618,-0.9962785350025477,0.2510640323162079,-0.4847363233566284,0.06271909177303314,-18.557960510253906,-4.9365081787109375,12.362098693847656,-0.049782752990722656,0.3198671340942383,0.07000076025724411,-1.2459226846694946,0.005912871100008488,-0.9637979865074158,0.3919661343097687,1.238293170928955,0.00476844422519207,0.9081025123596191,-0.06961929053068161,-0.31490805745124817,-0.057793546468019485,0.1985580176115036,0.9401465058326721,-0.46673569083213806,0.054388727992773056,-0.8165484070777893,-0.030708782374858856,0.0394827201962471,0.8588922023773193,-0.3007773756980896,-0.003201195504516363,-0.0012365911388769746,0.19461748003959656,3.674755811691284,-0.3966265022754669,-0.04333837330341339,0.4242793619632721,-3.195129156112671,-0.10595542937517166,0.09362324327230453,-0.011100907810032368,-1.3957915306091309,-1.1666457653045654,-0.08127603679895401,-0.23568707704544067,5.579590320587158,1.9231199026107788,0.4115636646747589,0.827345609664917,0.573344349861145,2.230592727661133,0.21786631643772125,-0.1593344658613205,0.5297774076461792,1741432907.4265141,1741432907539,-2.51955810546875,0.2937578125,-2.139834565487625,-4.0502036132812504,-0.7984407348632813
1741432907.3993032,-2.4545438289642334,0.012342330544948155,-0.09003047579939298,-0.9958625308264462,0.1336905062198639,-0.004131384193897247,0.5657846331596375,7.373453140258789,-2.7913973331451416,7.069434642791748,-0.039864540100097656,0.3149080276489258,0.13828489184379578,-1.2566040754318237,0.006294346414506435,-0.9557870030403137,0.33627068996429443,1.2371487617492676,0.002861066721379757,0.9077210426330566,-0.08945601433515549,-0.3747997283935547,-0.061226826161146164,0.17757686972618103,1.0938811302185059,-0.42037197947502136,0.06214902177453041,-0.76276034116745,-0.0013351644156500697,0.06923781335353851,0.8848325610160828,-0.2992324233055115,0.001720826723612845,0.28140684962272644,-0.15528470277786255,3.5755624771118164,-0.7471146583557129,-0.015198709443211555,0.3613913059234619,-3.7466535568237305,-0.06529989093542099,-0.1920400708913803,-0.10453092306852341,-0.8814740777015686,-3.2480998039245605,-0.3599887788295746,-1.0345643758773804,7.733994007110596,2.3197200298309326,0.35309654474258423,2.392204523086548,1.2997689247131348,1.3544260263442993,1.3186620473861694,0.08746509999036789,0.1079413890838623,1741432907.4265141,1741432907539,-2.51955810546875,0.2937578125,-2.139834565487625,-4.0502036132812504,-0.7984407348632813
1741432907.4193451,-2.4309781789779663,0.00020303709467605472,-0.0839926408934161,-0.9964663541995223,-0.30077624320983887,-0.47929883003234863,1.2717947959899902,-2.3146097660064697,2.636554718017578,12.39419937133789,-0.055886268615722656,0.3336000442504883,0.20237277448177338,-1.2581299543380737,0.005912871100008488,-0.9489204287528992,0.2756160795688629,1.238293170928955,0.0036240178160369396,0.9069581031799316,-0.10090028494596481,-0.4728389382362366,-0.06275273114442825,0.15888457000255585,1.260585904121399,-0.38754791021347046,0.02851494587957859,-0.7391088604927063,-0.007057297509163618,0.0864042118191719,0.8875028491020203,-0.30170512199401855,0.0010786321945488453,-0.43439701199531555,0.3083348274230957,2.8348701000213623,-0.05334976688027382,-0.022011518478393555,0.3232043385505676,-4.0758137702941895,0.13876678049564362,0.038509856909513474,0.032016459852457047,-0.4196791350841522,-4.828155994415283,0.08529173582792282,-0.9541008472442627,7.66014289855957,1.4464046955108643,-2.1673102378845215,1.5462336540222168,-0.433679461479187,0.7045132517814636,0.12275972962379456,-0.10406684130430222,0.16121390461921692,1741432907.4265141,1741432907539,-2.51955810546875,0.2937578125,-2.139834565487625,-4.0502036132812504,-0.7984407348632813
1741432907.4393177,-2.402066946029663,-0.002469116175681306,-0.0795838730703343,-0.9968251153599792,-0.18369001150131226,0.014179783873260021,1.4233042001724243,4.458644866943359,-4.118736743927002,7.219719409942627,-0.042534828186035156,0.3301668167114258,0.2595941126346588,-1.2600373029708862,0.006294346414506435,-0.9473945498466492,0.20771344006061554,1.239819049835205,0.0032425422687083483,0.9088655114173889,-0.10013733059167862,-0.568970799446106,-0.06160829961299896,0.1493476778268814,1.3769359588623047,-0.3910616338253021,-0.004349826835095882,-0.6818875670433044,-0.023079270496964455,0.07915617525577545,0.8932250142097473,-0.3022701144218445,0.008452191948890686,0.31994178891181946,-0.07018934190273285,2.8839430809020996,-0.19625060260295868,-0.005878133699297905,0.06572311371564865,-4.586158275604248,0.011014329269528389,0.009606939740478992,0.13343630731105804,0.07163821905851364,-4.613949298858643,-0.08716615289449692,-0.42059025168418884,5.293123245239258,-0.5519023537635803,-0.91628098487854,2.6720004081726074,-0.7030676603317261,-0.3449277877807617,0.12704265117645264,-0.13578647375106812,0.23638597130775452,1741432907.4265141,1741432907539,-2.51955810546875,0.2937578125,-2.139834565487625,-4.0502036132812504,-0.7984407348632813
1741432907.4593472,-2.375159740447998,-0.011576350177685477,-0.07401957416868411,-0.9971895961934472,-0.26613450050354004,-0.4146589934825897,1.2994595766067505,-3.6930105686187744,0.6414138674736023,13.90450382232666,-0.036431312561035156,0.3397035598754883,0.31986725330352783,-1.2596558332443237,0.006294346414506435,-0.9470130205154419,0.13828489184379578,1.2371487617492676,0.0036240178160369396,0.9103913903236389,-0.0875486359000206,-0.6589990258216858,-0.06046387553215027,0.16269932687282562,1.421950101852417,-0.42596787214279175,0.013847178779542446,-0.6437399983406067,-0.038719769567251205,0.07038223743438721,0.884069561958313,-0.3177436590194702,0.01832934468984604,0.1768290400505066,0.41548952460289,2.7892720699310303,0.018666516989469528,-0.011868597008287907,-0.006012905389070511,-4.600322246551514,-0.20457769930362701,0.019990375265479088,0.11634006351232529,0.4855039417743683,-4.121512413024902,0.03385375440120697,0.7229614853858948,1.6193718910217285,-1.8484996557235718,0.8335434794425964,1.9744365215301514,-0.6275426745414734,-0.4368022382259369,-0.3766912519931793,-0.9411489963531494,0.5731337666511536,1741432907.4265141,1741432907539,-2.51955810546875,0.2937578125,-2.139834565487625,-4.0502036132812504,-0.7984407348632813
1741432907.4793756,-2.364078164100647,-0.012903646082051568,-0.0698746202570238,-0.9974723221030876,-0.15191520750522614,0.03074835240840912,0.4858285188674927,3.371579885482788,0.6940150260925293,9.277433395385742,-0.02918243408203125,0.3290224075317383,0.3763256371021271,-1.2596558332443237,0.006294346414506435,-0.9477760195732117,0.07267109304666519,1.233715534210205,0.0036240178160369396,0.9145876169204712,-0.0711451917886734,-0.7299534678459167,-0.04901960864663124,0.17452506721019745,1.4017318487167358,-0.4596259593963623,-0.00048058785614557564,-0.5804150700569153,-0.05359731614589691,0.06275273114442825,0.881780743598938,-0.35223740339279175,0.016594912856817245,0.22808124125003815,-0.232713982462883,2.6937453746795654,0.00962405651807785,0.04934163764119148,-0.004096243530511856,-4.313419818878174,-0.21780453622341156,-0.006403955165296793,0.31080690026283264,0.9884355068206787,-3.3886091709136963,0.5523553490638733,0.6064382195472717,-1.4222487211227417,-1.5453944206237793,-1.1128994226455688,3.288301706314087,-0.7477126717567444,-0.36139073967933655,-0.23644764721393585,-1.8354846239089966,-0.14227639138698578,1741432907.4265141,1741432907539,-2.51955810546875,0.2937578125,-2.139834565487625,-4.0502036132812504,-0.7984407348632813
1741432907.4994054,-2.3649704456329346,-0.01250747760978722,-0.06757566161227123,-0.9976357516456116,-0.10681698471307755,-0.036980267614126205,-0.05898933857679367,-11.850534439086914,3.6680619716644287,10.475371360778809,-0.02384185791015625,0.3271150588989258,0.4365987777709961,-1.2657594680786133,0.006294346414506435,-0.9439612627029419,0.01125352829694748,1.233715534210205,0.0036240178160369396,0.916876494884491,-0.050164032727479935,-0.7848859429359436,-0.03376058489084244,0.17948424816131592,1.3345922231674194,-0.4682455062866211,-0.015686938539147377,-0.5502784848213196,-0.06275273114442825,0.05397878959774971,0.8611810207366943,-0.39817115664482117,0.03136618807911873,0.16084712743759155,-0.07161946594715118,3.2967100143432617,-0.4787946939468384,-0.010358043946325779,0.2706008553504944,-4.070196151733398,0.09491930156946182,0.04053719341754913,0.17251130938529968,0.9172772765159607,-2.7367730140686035,0.7713879942893982,0.30967509746551514,-3.6602067947387695,-0.23594777286052704,-0.3069443702697754,1.3451690673828125,-0.35763663053512573,-0.5053337812423706,-0.9910951852798462,-2.356194496154785,1.2110036611557007,1741432907.5336385,1741432907639,-2.61039892578125,0.233831787109375,-2.147646929181932,-4.1041484375,-0.8681287231445313
1741432907.5195408,-2.3661816120147705,-0.004703597517002086,-0.06590316802373983,-0.9978149370573848,-0.07088218629360199,0.5151920318603516,-0.032025452703237534,-2.26855731010437,5.963521480560303,3.8164265155792236,-0.02193450927734375,0.3103303909301758,0.4861905872821808,-1.2661409378051758,0.006294346414506435,-0.9363317489624023,-0.0551232174038887,1.23753023147583,0.004005493130534887,0.926413357257843,-0.048256658017635345,-0.8268482685089111,-0.013923857361078262,0.18596932291984558,1.2350270748138428,-0.44285619258880615,-0.008343135938048363,-0.49153125286102295,-0.07495994865894318,0.05207141116261482,0.8531700372695923,-0.43869638442993164,0.046169061213731766,0.04773268476128578,-0.5838322639465332,2.2139880657196045,0.0691295638680458,0.008893518708646297,0.3625578284263611,-4.267575740814209,0.16724929213523865,0.0007428479730151594,0.8208666443824768,0.062084801495075226,-1.9124348163604736,1.0799460411071777,0.15740157663822174,-5.2135910987854,1.5696767568588257,0.3589167296886444,2.8422203063964844,-0.5238637924194336,-0.05657834932208061,-0.5689913630485535,-1.9901307821273804,0.3909974992275238,1741432907.5336385,1741432907639,-2.61039892578125,0.233831787109375,-2.147646929181932,-4.1041484375,-0.8681287231445313
1741432907.5394552,-2.367735743522644,0.0016205394532514783,-0.0651112856404159,-0.9978766929506533,-0.05728921294212341,0.2358759194612503,-0.012743682600557804,3.1739046573638916,-0.8126280307769775,7.3807783126831055,-0.02231597900390625,0.3118562698364258,0.5125123858451843,-1.2669038772583008,0.005912871100008488,-0.9294651746749878,-0.1031891331076622,1.2363858222961426,0.0036240178160369396,0.9447242021560669,-0.05893797054886818,-0.837911069393158,0.019645990803837776,0.1848248988389969,1.1137179136276245,-0.3970455229282379,-0.002713040914386511,-0.4663538634777069,-0.07343403995037079,0.04634927958250046,0.8272297382354736,-0.4708811640739441,0.04508513584733009,-0.005014209542423487,-0.03460448235273361,1.256880283355713,-0.07902480661869049,-0.031712815165519714,0.36954572796821594,-2.910776138305664,-0.1098250225186348,-0.01431283075362444,1.1437948942184448,-0.7859910726547241,-0.4544166028499603,1.7043856382369995,-0.009942754171788692,-6.225262641906738,2.3042290210723877,0.36759263277053833,1.2595287561416626,0.14874111115932465,-0.1919412761926651,-1.1750729084014893,-1.5466973781585693,0.10875067859888077,1741432907.5336385,1741432907639,-2.61039892578125,0.233831787109375,-2.147646929181932,-4.1041484375,-0.8681287231445313
1741432907.5594914,-2.36592960357666,0.010939558688989423,-0.0624745708356998,-0.9979866001377901,-0.15780383348464966,0.4528777599334717,0.1469695121049881,-1.9131311178207397,-3.1190686225891113,4.4785895347595215,-0.02498626708984375,0.3023195266723633,0.5174715518951416,-1.2646150588989258,0.006294346414506435,-0.9229800701141357,-0.12264438718557358,1.233715534210205,0.0032425422687083483,0.9596017599105835,-0.0875486359000206,-0.8344777822494507,0.05664911866188049,0.1962691694498062,0.9748607873916626,-0.3479284346103668,0.003302914323285222,-0.40989547967910767,-0.06923781335353851,0.06237125024199486,0.8154039978981018,-0.49715983867645264,0.031131137162446976,-0.06783538311719894,-0.23512916266918182,0.05909591540694237,0.26514458656311035,-0.00489452201873064,0.29884639382362366,-1.014386773109436,-0.20007802546024323,0.0036630569957196712,0.9353156089782715,-1.3405112028121948,0.5139921307563782,1.8128951787948608,0.5797211527824402,-6.7957353591918945,2.42916202545166,0.26608866453170776,2.6826276779174805,0.17705312371253967,0.9176008701324463,-0.8656206727027893,-1.3750697374343872,-1.0447641611099243,1741432907.5336385,1741432907639,-2.61039892578125,0.233831787109375,-2.147646929181932,-4.1041484375,-0.8681287231445313
1741432907.5795336,-2.357057571411133,0.01046410849503986,-0.055461877579158006,-0.9984059708198858,-0.375715047121048,-0.15410012006759644,0.4816899299621582,-6.499697685241699,-3.4285614490509033,8.085384368896484,-0.02994537353515625,0.3103303909301758,0.5052643418312073,-1.2577484846115112,0.005912871100008488,-0.9206912517547607,-0.11387044936418533,1.2291377782821655,0.0032425422687083483,0.967994213104248,-0.12111848592758179,-0.8127336502075195,0.08335240930318832,0.22106507420539856,0.8352407217025757,-0.31241822242736816,0.006484991405159235,-0.3694590628147125,-0.049782559275627136,0.07000076025724411,0.7951858043670654,-0.5195642709732056,0.023996051400899887,-0.14359313249588013,0.262046217918396,-0.642431914806366,0.4645650088787079,-0.02019553631544113,0.12621496617794037,0.8439812064170837,-0.35832902789115906,0.0008809276623651385,0.46650975942611694,-1.6033982038497925,1.0963914394378662,1.570318341255188,1.2998367547988892,-7.050727844238281,1.5266692638397217,0.05146914720535278,2.1610708236694336,1.0812609195709229,0.20161543786525726,-0.8174916505813599,-1.0316780805587769,-0.002708391984924674,1741432907.5336385,1741432907639,-2.61039892578125,0.233831787109375,-2.147646929181932,-4.1041484375,-0.8681287231445313
1741432907.5996785,-2.343482255935669,0.009120388170405454,-0.04666910453532855,-0.9988687667564201,-0.4788753092288971,-0.0009953109547495842,0.645298182964325,-3.257124900817871,5.618648052215576,17.353805541992188,-0.03108978271484375,0.3221559524536133,0.4720759987831116,-1.2497375011444092,0.005912871100008488,-0.9203097820281982,-0.08373387902975082,1.2234156131744385,0.002861066721379757,0.9706645011901855,-0.14057374000549316,-0.778782308101654,0.11043716967105865,0.2500572204589844,0.7520790696144104,-0.2877475321292877,0.019672702997922897,-0.3068970739841461,-0.04482337832450867,0.0711451917886734,0.8089188933372498,-0.5153891444206238,0.04017586633563042,-0.04735111445188522,0.3241584002971649,-1.7788335084915161,0.5777972340583801,-0.010410257615149021,0.05309207737445831,2.1318564414978027,-0.3485696613788605,-0.006925048306584358,0.1164180338382721,-0.8574565649032593,1.623612642288208,0.9058119058609009,1.7187901735305786,-2.325723171234131,1.4972074031829834,0.7566258907318115,2.963012218475342,-0.22572621703147888,0.15229642391204834,0.8332359194755554,0.3254183828830719,0.7086453437805176,1741432907.6275969,1741432907739,-2.6775966796875,0.15593844604492188,-2.0533535789312123,-4.1594931640625,-0.9305275268554688
1741432907.619675,-2.327069640159607,0.0005309820158491379,-0.0424766496795369,-0.9990973187283113,-0.10230647027492523,-0.20029421150684357,0.8570601344108582,-3.792008399963379,-0.40724635124206543,7.6964616775512695,-0.02574920654296875,0.3313112258911133,0.4224841594696045,-1.2451597452163696,0.006294346414506435,-0.9138246774673462,-0.03490501269698143,1.2211267948150635,0.0024795911740511656,0.9683756828308105,-0.1363775134086609,-0.733386754989624,0.09174486994743347,0.26760509610176086,0.7951858043670654,-0.26582735776901245,0.06862039119005203,-0.2801937758922577,-0.05359731614589691,0.07343403995037079,0.8367666006088257,-0.5012822151184082,0.0361599437892437,0.18930171430110931,0.23543153703212738,-2.8237648010253906,0.07834684103727341,-0.013380355201661587,0.2101527899503708,3.3965744972229004,-0.13129302859306335,-0.06874040514230728,-0.1503753513097763,0.36083337664604187,1.9548490047454834,-0.6321839094161987,0.1442265510559082,1.556901216506958,1.0433510541915894,3.149921178817749,1.154692530632019,-0.47762376070022583,0.08297836035490036,1.595312237739563,0.9049597978591919,-0.2879064083099365,1741432907.6275969,1741432907739,-2.6775966796875,0.15593844604492188,-2.0533535789312123,-4.1594931640625,-0.9305275268554688
1741432907.6396854,-2.31582248210907,0.001823098203749484,-0.042627776501893755,-0.9990893598589888,-0.005886598024517298,0.05444220080971718,0.44803211092948914,-4.640268325805664,-9.19746208190918,14.255144119262695,-0.02803802490234375,0.3267335891723633,0.34542611241340637,-1.2505004405975342,0.006294346414506435,-0.9145876169204712,0.018120087683200836,1.2211267948150635,0.002861066721379757,0.9657053351402283,-0.12188144028186798,-0.7040131092071533,0.0715266615152359,0.22297245264053345,0.7867932915687561,-0.253448486328125,0.09868108481168747,-0.2924010157585144,-0.05130846053361893,0.0879301130771637,0.9428167939186096,-0.4660378098487854,0.02703363262116909,-0.07881435751914978,-0.03439445048570633,-3.916626214981079,-0.3546440899372101,-0.025965964421629906,-0.04792463406920433,3.439117670059204,-0.006886259652674198,0.08528705686330795,-0.23652583360671997,0.7546010613441467,1.7350691556930542,-1.2458020448684692,-2.0546927452087402,-0.3892580568790436,0.5986588001251221,0.16425849497318268,-0.959854781627655,0.15897731482982635,0.9414553046226501,6.009097099304199,1.8480594158172607,-0.3282197117805481,1741432907.6275969,1741432907739,-2.6775966796875,0.15593844604492188,-2.0533535789312123,-4.1594931640625,-0.9305275268554688
1741432907.6597815,-2.3131457567214966,0.005181463533130564,-0.04428363810888883,-0.9990055614617448,0.1513323336839676,0.10644684731960297,-0.04543887451291084,-5.322912216186523,-3.6628570556640625,14.443915367126465,-0.02384185791015625,0.3297853469848633,0.2641718089580536,-1.2524077892303467,0.006294346414506435,-0.9145876169204712,0.06923781335353851,1.222271203994751,0.0032425422687083483,0.9603646993637085,-0.09746700525283813,-0.6765468716621399,0.037193864583969116,0.18787670135498047,0.7879377603530884,-0.2417593002319336,0.061354272067546844,-0.36602577567100525,-0.03528648987412453,0.12378881871700287,1.113336443901062,-0.4216066598892212,0.01583104394376278,0.09465114772319794,0.00493579963222146,-4.0126166343688965,-0.09651876240968704,0.020802492275834084,0.04796622693538666,3.2918174266815186,0.10890557616949081,0.0125401197001338,-0.4074622094631195,1.191125512123108,1.113978624343872,-1.7300078868865967,-1.7717878818511963,0.14876027405261993,0.485379695892334,-1.1528964042663574,-4.212918758392334,1.2212529182434082,1.881097674369812,8.61972713470459,2.2537641525268555,-0.4993342161178589,1741432907.6275969,1741432907739,-2.6775966796875,0.15593844604492188,-2.0533535789312123,-4.1594931640625,-0.9305275268554688
1741432907.6797593,-2.3255120515823364,0.008779888857016948,-0.05289476563998822,-0.998561494010033,0.44720137119293213,0.16241374611854553,-0.6133567094802856,-3.252452850341797,-5.138606548309326,12.405145645141602,-0.01621246337890625,0.3358888626098633,0.18863965570926666,-1.2531707286834717,0.006294346414506435,-0.9149690866470337,0.11196307092905045,1.231808066368103,0.004005493130534887,0.9565499424934387,-0.07267109304666519,-0.648699164390564,0.021171892061829567,0.17833982408046722,0.7967116832733154,-0.24980773031711578,0.06084153801202774,-0.46253910660743713,0.005149920005351305,0.14019227027893066,1.2979705333709717,-0.38611429929733276,-0.0023288698866963387,0.18907371163368225,0.13440778851509094,-3.8829619884490967,-0.012888812460005283,0.015342850238084793,-0.0496731773018837,2.9551186561584473,0.7214259505271912,0.06012304872274399,-0.21267113089561462,1.268032193183899,1.3792924880981445,-0.6546405553817749,-0.29894039034843445,0.32848286628723145,-0.6479865312576294,-0.07781996577978134,-4.755581855773926,1.9717373847961426,0.6769262552261353,9.105945587158203,1.499343991279602,-1.0603505373001099,1741432907.6275969,1741432907739,-2.6775966796875,0.15593844604492188,-2.0533535789312123,-4.1594931640625,-0.9305275268554688
1741432907.699754,-2.341940760612488,0.010700328963340857,-0.05958340210062619,-0.9981659787601416,0.3505859076976776,0.01499639917165041,-0.8519517779350281,-2.0346012115478516,-0.48992422223091125,13.9884672164917,-0.02918243408203125,0.3492412567138672,0.11081864684820175,-1.2520263195037842,0.005912871100008488,-0.9157320261001587,0.16308079659938812,1.2482116222381592,0.004005493130534887,0.954261064529419,-0.04634927958250046,-0.6185625791549683,0.015449759550392628,0.1813916265964508,0.7997635006904602,-0.2812338173389435,0.04287702590227127,-0.570496678352356,0.037193864583969116,0.13103684782981873,1.436446189880371,-0.3893566131591797,-0.01332727912813425,-0.38302236795425415,0.40312260389328003,-3.777085542678833,0.07727354764938354,-0.015743007883429527,-0.04520255699753761,3.5131278038024902,1.091020941734314,0.011255462653934956,-0.16059139370918274,1.3336387872695923,1.5241234302520752,-0.3324669599533081,0.09586262702941895,0.13811907172203064,-1.672205924987793,-1.05357825756073,-5.301754951477051,1.5199581384658813,-0.5990210175514221,6.368082046508789,-0.4646814167499542,-0.27455827593803406,1741432907.731282,1741432907839,-2.7522050781250003,0.05529027557373047,-2.014178321635489,-4.2134365234375,-0.990344482421875
1741432907.7198045,-2.360451102256775,0.015437253356488635,-0.06483830216400543,-0.9977763706268538,0.24691079556941986,0.19902607798576355,-0.9164092540740967,2.1985628604888916,-2.0319244861602783,8.555353164672852,-0.031472206115722656,0.3480968475341797,0.04139009863138199,-1.2508819103240967,0.005912871100008488,-0.917639434337616,0.21877622604370117,1.2592743635177612,0.004005493130534887,0.9481574892997742,-0.029182879254221916,-0.578507661819458,0.005912871100008488,0.1680399775505066,0.7986190319061279,-0.3237353563308716,0.025516977533698082,-0.6696802973747253,0.059319447726011276,0.10051880776882172,1.5047303438186646,-0.4224700927734375,-0.0028203369583934546,-0.08792582154273987,0.004776833578944206,-3.47151517868042,0.0904773622751236,0.0030179377645254135,-0.10216208547353745,3.712693929672241,0.691877543926239,0.007762066554278135,-0.49022504687309265,0.731905460357666,2.0278079509735107,-0.455558717250824,-0.7189624309539795,-0.10548937320709229,-2.236137628555298,-1.006117582321167,-4.735074520111084,0.9841480851173401,-1.5261398553848267,2.7459394931793213,-1.8100953102111816,0.5829194784164429,1741432907.731282,1741432907839,-2.7522050781250003,0.05529027557373047,-2.014178321635489,-4.2134365234375,-0.990344482421875
1741432907.7400513,-2.379580855369568,0.018160209103785737,-0.06297931130975172,-0.9978495944541221,-0.1252475529909134,0.07372120767831802,-0.8604345321655273,-2.6066250801086426,0.09788918495178223,8.014765739440918,-0.042916297912597656,0.3492412567138672,-0.012397955171763897,-1.2470670938491821,0.005912871100008488,-0.9206912517547607,0.2744716703891754,1.2657594680786133,0.004386968910694122,0.9416723847389221,-0.02040894143283367,-0.5388342142105103,-0.0020981156267225742,0.16041046380996704,0.7898451089859009,-0.37187474966049194,0.021075278520584106,-0.76276034116745,0.06275273114442825,0.06237125024199486,1.503204345703125,-0.4641142189502716,0.003550078719854355,-0.3526385426521301,0.0531357079744339,-2.547091484069824,0.27968278527259827,-0.010143673978745937,-0.15583498775959015,3.7167251110076904,0.4288025200366974,0.007696693297475576,-0.4080914258956909,0.4643103778362274,2.016014814376831,-0.3861881494522095,-0.29179996252059937,-0.45515093207359314,-2.366518020629883,-0.10908327251672745,-4.584992408752441,0.16833145916461945,-1.9405803680419922,-0.5417468547821045,-2.0307068824768066,0.26763638854026794,1741432907.731282,1741432907839,-2.7522050781250003,0.05529027557373047,-2.014178321635489,-4.2134365234375,-0.990344482421875
1741432907.7601202,-2.394312620162964,0.02370229402635168,-0.05961474042449527,-0.9979400202326832,-0.11753585934638977,0.2416542023420334,-0.7251471877098083,-0.08736058324575424,-2.5788471698760986,6.409555912017822,-0.048256874084472656,0.3404664993286133,-0.06580453366041183,-1.2421079874038696,0.006294346414506435,-0.9283207654953003,0.3271152675151825,1.2684297561645508,0.004005493130534887,0.9378576278686523,-0.01888304017484188,-0.49382010102272034,-0.0036240178160369396,0.15888457000255585,0.7799267768859863,-0.4142092168331146,0.01817788928747177,-0.8424887657165527,0.06275273114442825,0.03223468363285065,1.4490348100662231,-0.4855528771877289,0.0059633865021169186,-0.1663491427898407,-0.22741736471652985,-2.559563636779785,0.2629101872444153,0.017578763887286186,-0.4812339246273041,3.446918487548828,0.07088590413331985,0.0054227616637945175,-0.26202303171157837,-0.027582060545682907,2.222576141357422,-0.043000638484954834,-0.038703449070453644,-0.5030881762504578,-2.0481181144714355,-0.3034769892692566,-4.043673992156982,-0.04525449499487877,-1.3525772094726562,-3.0220823287963867,-0.8589487075805664,0.18308398127555847,1741432907.731282,1741432907839,-2.7522050781250003,0.05529027557373047,-2.014178321635489,-4.2134365234375,-0.990344482421875
1741432907.7801056,-2.400452494621277,0.028215338252143694,-0.057888702639461234,-0.997924242011405,-0.09544716030359268,0.18240277469158173,-0.24648571014404297,0.35597047209739685,0.31120607256889343,6.260729789733887,-0.053597450256347656,0.3385591506958008,-0.10738536715507507,-1.2413450479507446,0.006294346414506435,-0.9439612627029419,0.3728923499584198,1.2646150588989258,0.004005493130534887,0.9344243407249451,-0.02994582988321781,-0.45796138048171997,-0.002861066721379757,0.1680399775505066,0.7734416723251343,-0.4466143548488617,0.009654765948653221,-0.9065766334533691,0.0555046908557415,0.010872052982449532,1.3624398708343506,-0.4717934727668762,0.011005007661879063,-0.1668437421321869,-0.07987555116415024,-1.998573899269104,0.04436914622783661,0.002761188196018338,-0.7962287068367004,2.9711408615112305,-0.27484309673309326,-0.005362879950553179,-0.24159568548202515,-0.48682042956352234,1.7203104496002197,0.06089172139763832,0.45030638575553894,-0.31925472617149353,-1.6052756309509277,-0.38449767231941223,-2.9915966987609863,-0.48048752546310425,-0.9742920398712158,-4.502487659454346,1.0234365463256836,0.24408401548862457,1741432907.731282,1741432907839,-2.7522050781250003,0.05529027557373047,-2.014178321635489,-4.2134365234375,-0.990344482421875
1741432907.8001313,-2.4037041664123535,0.03169013752332487,-0.05506894597674423,-0.9979795320409949,-0.13896061480045319,0.157191202044487,-0.1895172894001007,1.1825063228607178,-2.822781562805176,3.9363136291503906,-0.056267738342285156,0.3313112258911133,-0.12912946939468384,-1.23905611038208,0.005912871100008488,-0.9584572911262512,0.42553597688674927,1.2638521194458008,0.004386968910694122,0.9287022352218628,-0.030708782374858856,-0.422102689743042,-0.0024795911740511656,0.17223620414733887,0.7673380374908447,-0.4730795621871948,0.008840491995215416,-0.9439612627029419,0.03757534176111221,-0.004005493130534887,1.2548638582229614,-0.429592490196228,0.012442017905414104,-0.0909852609038353,-0.21722562611103058,-0.8740455508232117,0.1966571807861328,0.00019163360411766917,-0.6848198175430298,3.503288507461548,-0.0591888427734375,0.01189848966896534,-0.47373175621032715,0.1137423887848854,1.9787793159484863,-0.04829949885606766,0.09425678104162216,-0.2459871470928192,-1.303970456123352,-0.08632664382457733,-1.573467493057251,-1.018993616104126,-0.7300994992256165,-5.494922161102295,2.1563518047332764,0.0882609561085701,1741432907.8317533,1741432908039,-2.918967529296875,-0.09518100738525391,-2.0602052311213908,-4.31140478515625,-1.103600830078125
1741432907.8201923,-2.405992865562439,0.03575067422845816,-0.05227716084271698,-0.9979924788025385,-0.1183265820145607,0.17816074192523956,-0.10050022602081299,0.5589467883110046,0.6628559827804565,7.477897644042969,-0.061608314514160156,0.3274965286254883,-0.12951095402240753,-1.23753023147583,0.005912871100008488,-0.9691386222839355,0.45986875891685486,1.2596558332443237,0.004005493130534887,0.9222171306610107,-0.01773861236870289,-0.37975889444351196,-0.010109102353453636,0.1672770231962204,0.7623788714408875,-0.4972461760044098,0.014288044534623623,-0.9496833682060242,0.00858320016413927,-0.021553369238972664,1.1205843687057495,-0.3830729126930237,0.0071268328465521336,-0.15468764305114746,-0.11917762458324432,0.06172141060233116,0.06875278055667877,-0.005605899728834629,-0.47233346104621887,2.051198959350586,-0.3503979444503784,-0.008649716153740883,-0.4809941351413727,0.7808390855789185,2.113784074783325,-0.3086961805820465,-0.3138467073440552,-0.25100886821746826,-1.2011547088623047,0.3974616527557373,-0.26901495456695557,-1.5125218629837036,-0.8828831911087036,-6.756349086761475,2.3726205825805664,-0.31343889236450195,1741432907.8317533,1741432908039,-2.918967529296875,-0.09518100738525391,-2.0602052311213908,-4.31140478515625,-1.103600830078125
1741432907.840162,-2.4074231386184692,0.03572239127545494,-0.05010349297458821,-0.9981049798259243,-0.10443055629730225,-0.02448808029294014,-0.09006623923778534,0.39017000794410706,0.1628420650959015,7.719484329223633,-0.058938026428222656,0.3339815139770508,-0.10814831405878067,-1.23753023147583,0.005912871100008488,-0.9714275002479553,0.47703516483306885,1.2562226057052612,0.004005493130534887,0.9157320261001587,0.0020981156267225742,-0.33321890234947205,-0.02841992862522602,0.15468832850456238,0.7585641145706177,-0.5095459222793579,0.013035872019827366,-0.9363317489624023,-0.022697795182466507,-0.05054550990462303,0.9657053351402283,-0.34067973494529724,-0.0002741790085565299,0.061572618782520294,0.17507882416248322,1.1883957386016846,-0.005044746212661266,0.00091152562526986,-0.06328345090150833,0.9348660707473755,-0.19093048572540283,-0.001460837316699326,-0.4559355080127716,0.9773086309432983,2.2402870655059814,-0.950162947177887,-0.6755772829055786,-0.24187037348747253,-0.5006189346313477,-0.14129196107387543,0.8888339400291443,-1.5259544849395752,-1.5029284954071045,-7.768195629119873,1.9583419561386108,-0.5201445817947388,1741432907.8317533,1741432908039,-2.918967529296875,-0.09518100738525391,-2.0602052311213908,-4.31140478515625,-1.103600830078125
1741432907.8602035,-2.4096925258636475,0.032238879076927004,-0.05304195569550796,-0.9980717437197884,0.20921939611434937,-0.21557113528251648,-0.11014268547296524,0.6209119558334351,-0.7720244526863098,7.895169734954834,-0.053978919982910156,0.3389406204223633,-0.06618601083755493,-1.2386746406555176,0.005912871100008488,-0.968757152557373,0.47550925612449646,1.2516448497772217,0.004005493130534887,0.9111543297767639,0.01773861236870289,-0.28782328963279724,-0.06351567804813385,0.152399480342865,0.770008385181427,-0.5080443620681763,0.027192721143364906,-0.8985656499862671,-0.056267641484737396,-0.07534141838550568,0.8077744841575623,-0.3276031017303467,-0.01115654967725277,0.14198236167430878,0.15600912272930145,2.130241632461548,-0.1316356062889099,0.005528558511286974,0.1478065401315689,-0.13711431622505188,-0.36471933126449585,-0.013320503756403923,-0.29752466082572937,0.6816872358322144,2.1489500999450684,-1.957183599472046,0.11075984686613083,0.7950048446655273,0.061192311346530914,0.7342212200164795,1.950361728668213,-1.6466209888458252,-1.0605558156967163,-7.646542549133301,0.36184754967689514,-0.512533962726593,1741432907.8317533,1741432908039,-2.918967529296875,-0.09518100738525391,-2.0602052311213908,-4.31140478515625,-1.103600830078125
1741432907.8802912,-2.4097565412521362,0.021359205071795135,-0.06408207702829963,-0.9977160276162953,0.6305497288703918,-0.6768441796302795,0.08071952313184738,-25.741355895996094,-4.738735675811768,14.809444427490234,-0.045968055725097656,0.3511486053466797,-0.009727626107633114,-1.2451597452163696,0.006294346414506435,-0.9630350470542908,0.45910581946372986,1.2451597452163696,0.004005493130534887,0.9092469811439514,0.018120087683200836,-0.2580682039260864,-0.06542305648326874,0.1501106321811676,0.8196002244949341,-0.5024165511131287,0.038831111043691635,-0.8665217161178589,-0.0707637146115303,-0.07419699430465698,0.7681010365486145,-0.3033067286014557,-0.009551407769322395,0.21630795300006866,0.40862762928009033,2.74664044380188,-0.613983690738678,0.015786124393343925,0.3357583284378052,-1.1661540269851685,-0.46781277656555176,-0.002228032099083066,-0.20081351697444916,-0.09659187495708466,1.1728880405426025,0.5787234902381897,-0.3140794038772583,2.8443171977996826,0.38514333963394165,0.7198359966278076,1.7157553434371948,-0.3184119164943695,0.3619078993797302,0.42727431654930115,1.5528054237365723,0.12856611609458923,1741432907.8317533,1741432908039,-2.918967529296875,-0.09518100738525391,-2.0602052311213908,-4.31140478515625,-1.103600830078125
1741432907.9002435,-2.411604404449463,0.022130934347337674,-0.06414211132817327,-0.997695349943698,-0.1176481544971466,0.12810422480106354,0.05840184539556503,9.623228073120117,2.3186728954315186,-4.063663959503174,-0.07343387603759766,0.3377962112426758,0.05664911866188049,-1.2550780773162842,0.005912871100008488,-0.9576943516731262,0.4186694025993347,1.2402005195617676,0.004386968910694122,0.9077210426330566,-0.002861066721379757,-0.2653162479400635,-0.06923781335353851,0.15506981313228607,0.9092469811439514,-0.47110220789909363,0.04783674702048302,-0.8302815556526184,-0.0555046908557415,-0.03299763426184654,0.8314259648323059,-0.27884286642074585,-0.044695667922496796,-0.895649790763855,-0.4221891462802887,3.3057403564453125,-0.3888820707798004,0.027335118502378464,0.22601689398288727,-3.0398082733154297,-0.1328616887331009,0.01779017597436905,-0.0036800215020775795,-0.9965305328369141,-0.8327333927154541,-0.40815186500549316,0.22646304965019226,4.747411251068115,1.7834949493408203,0.32684677839279175,0.9920571446418762,0.7091566920280457,2.139641284942627,2.2650163173675537,1.0889753103256226,-1.8941466808319092,1741432907.942801,1741432908139,-3.008770263671875,-0.16531642150878906,-2.0791751619655634,-4.36068994140625,-1.1582410888671875
1741432907.9202592,-2.4062153100967407,0.01639895763788773,-0.06445228800473558,-0.9977860375648406,0.10532760620117188,-0.1769656389951706,0.38449472188949585,-9.608352661132812,4.051455497741699,13.180789947509766,-0.055886268615722656,0.3435182571411133,0.12493324279785156,-1.2520263195037842,0.005912871100008488,-0.9515907764434814,0.35114824771881104,1.2440153360366821,0.005531395319849253,0.9130617380142212,-0.01888304017484188,-0.3221561014652252,-0.07877469807863235,0.12340734153985977,1.0465781688690186,-0.4245058000087738,0.05641411244869232,-0.7982375621795654,-0.01888304017484188,0.00476844422519207,0.8188372850418091,-0.27579250931739807,-0.040058478713035583,0.3614896237850189,0.04700012877583504,3.4536921977996826,0.15576942265033722,-0.02331085503101349,0.2975342869758606,-4.607795238494873,0.1274430900812149,0.06544413417577744,0.4029146730899811,-0.5701252818107605,-3.146015167236328,-0.34476912021636963,-1.7100731134414673,7.269604682922363,2.3399128913879395,0.5023587346076965,2.066624879837036,1.9621189832687378,1.8216139078140259,-0.6993670463562012,0.12645721435546875,0.8533966541290283,1741432907.942801,1741432908139,-3.008770263671875,-0.16531642150878906,-2.0791751619655634,-4.36068994140625,-1.1582410888671875
1741432907.9402852,-2.395815134048462,0.017929852314408693,-0.05768349537319748,-0.9981739000582583,-0.5310770869255066,0.09028531610965729,0.563065230846405,7.03410005569458,2.636678695678711,11.768808364868164,-0.06275272369384766,0.3484783172607422,0.19016556441783905,-1.2569855451583862,0.006294346414506435,-0.9489204287528992,0.28248265385627747,1.2394375801086426,0.0036240178160369396,0.9111543297767639,-0.024223696440458298,-0.41256579756736755,-0.0875486359000206,0.09021896868944168,1.202601671218872,-0.3850976228713989,0.03969593718647957,-0.7593270540237427,-0.004005493130534887,0.0398641936480999,0.8302815556526184,-0.26852166652679443,-0.011857778765261173,-0.10965505987405777,0.13029125332832336,3.2061564922332764,-0.18774250149726868,-0.0014299218310043216,0.03802550584077835,-4.636579990386963,-0.2842749059200287,-0.10508334636688232,-0.17624349892139435,-0.2304953932762146,-4.719353675842285,-0.6818590760231018,-1.3305906057357788,7.759507179260254,1.799377202987671,-1.2989434003829956,1.6198418140411377,0.5180472731590271,1.5644497871398926,0.8042595386505127,0.30293235182762146,1.2050659656524658,1741432907.942801,1741432908139,-3.008770263671875,-0.16531642150878906,-2.0791751619655634,-4.36068994140625,-1.1582410888671875
1741432907.9603481,-2.3801050186157227,0.013199255282141014,-0.04801098090587668,-0.9987595933819371,-0.42374423146247864,-0.1804242730140686,0.7244758605957031,-1.8391740322113037,0.6281989216804504,12.050046920776367,-0.062371253967285156,0.3545818328857422,0.25272753834724426,-1.2550780773162842,0.006294346414506435,-0.9481574892997742,0.20656901597976685,1.2405821084976196,0.004386968910694122,0.9126802682876587,-0.02193484455347061,-0.5151827335357666,-0.09441519528627396,0.07724879682064056,1.3284885883331299,-0.37511467933654785,0.0010851618135347962,-0.726901650428772,-0.00667582219466567,0.04139009863138199,0.8405813574790955,-0.27732235193252563,-0.0007861286867409945,0.04993023723363876,0.21555936336517334,2.8683359622955322,0.017699655145406723,0.010830079205334187,-0.024946248158812523,-5.153449535369873,0.026582062244415283,0.035043343901634216,0.1003803163766861,0.13788801431655884,-5.121762752532959,-0.07806172221899033,-0.47807201743125916,5.851118087768555,0.1479531079530716,-1.5113370418548584,2.0000340938568115,-0.24041996896266937,0.030184632167220116,0.32568079233169556,-0.5474693179130554,0.5378226637840271,1741432907.942801,1741432908139,-3.008770263671875,-0.16531642150878906,-2.0791751619655634,-4.36068994140625,-1.1582410888671875
1741432907.9803226,-2.3617202043533325,0.009197305669496635,-0.04309446984812287,-0.999028666373959,-0.2680625319480896,-0.16792362928390503,0.9280678629875183,3.4722418785095215,3.935500144958496,11.5824613571167,-0.050927162170410156,0.3557262420654297,0.31528952717781067,-1.2577484846115112,0.006294346414506435,-0.9485389590263367,0.12951095402240753,1.238293170928955,0.0032425422687083483,0.9145876169204712,-0.016594186425209045,-0.6067368388175964,-0.09250781685113907,0.08258945494890213,1.3975356817245483,-0.4069271385669708,0.009759293869137764,-0.6788357496261597,-0.012397955171763897,0.04177157208323479,0.8382925391197205,-0.29271432757377625,0.011758383363485336,0.32598158717155457,0.09067048132419586,2.8066139221191406,-0.08766868710517883,-0.010452473536133766,-0.012461213394999504,-5.028552532196045,-0.17714478075504303,-0.08134111762046814,0.05789397284388542,0.2903538644313812,-4.63601541519165,0.29502230882644653,0.46368709206581116,2.887756824493408,-1.8377165794372559,0.44256529211997986,2.3736424446105957,-0.29544752836227417,0.020075948908925056,-0.11741334944963455,-0.7687709927558899,0.6180524230003357,1741432907.942801,1741432908139,-3.008770263671875,-0.16531642150878906,-2.0791751619655634,-4.36068994140625,-1.1582410888671875
1741432908.000383,-2.3451507091522217,0.0029614871385066394,-0.03838515194142536,-0.9992586300374704,-0.2513067424297333,-0.2667827904224396,0.7575829029083252,-2.211594343185425,1.8269180059432983,10.235820770263672,-0.049019813537597656,0.3549633026123047,0.3702220320701599,-1.2573670148849487,0.005912871100008488,-0.9489204287528992,0.061226826161146164,1.23447847366333,0.002861066721379757,0.9138246774673462,-0.013923857361078262,-0.6914244294166565,-0.08335240930318832,0.10509651154279709,1.405928134918213,-0.4539490044116974,0.007078859489411116,-0.6376363635063171,-0.01773861236870289,0.0394827201962471,0.8352407217025757,-0.3107423186302185,0.02145804464817047,0.07461247593164444,-0.012543848715722561,2.5902597904205322,-0.00662471866235137,-0.0162553321570158,-0.05997638404369354,-4.310583591461182,-0.2346615493297577,0.0038955328054726124,-0.05393088236451149,0.02596968039870262,-3.8879120349884033,0.5664833784103394,0.92275071144104,-0.004075112286955118,-2.3469884395599365,-0.2952633798122406,2.028383493423462,-0.3069884479045868,-0.053009796887636185,-0.14749862253665924,-0.9711577892303467,0.4685559868812561,1741432908.0454588,1741432908239,-3.072313720703125,-0.24400129699707032,-1.9928048769683346,-4.4160751953125,-1.2089010009765626
1741432908.0203578,-2.3374598026275635,0.0017591580057189817,-0.034497651822524164,-0.9994032306240773,-0.1918654888868332,-0.015055356547236443,0.26732903718948364,-0.20592434704303741,1.155266284942627,8.725597381591797,-0.047112464904785156,0.3500041961669922,0.41180285811424255,-1.2573670148849487,0.005912871100008488,-0.9496833682060242,0.0078202486038208,1.230282187461853,0.0032425422687083483,0.9138246774673462,-0.0024795911740511656,-0.7654306888580322,-0.06466010212898254,0.1188296303153038,1.3670176267623901,-0.4828541576862335,-0.01332822721451521,-0.5941481590270996,-0.021553369238972664,0.03833829239010811,0.8321889042854309,-0.3372042179107666,0.02643774077296257,0.07449758052825928,-0.14107920229434967,1.9617736339569092,-0.01526726596057415,-0.005056541878730059,-0.058051697909832,-3.383782386779785,-0.3080235719680786,0.01803903840482235,-0.0087018683552742,0.6877132654190063,-3.5147175788879395,0.9058457016944885,0.6139504313468933,-2.2247653007507324,-1.1844288110733032,-0.8086907267570496,2.1231234073638916,-0.1622038632631302,-0.06605121493339539,-0.16546550393104553,-1.4106597900390625,0.21585506200790405,1741432908.0454588,1741432908239,-3.072313720703125,-0.24400129699707032,-1.9928048769683346,-4.4160751953125,-1.2089010009765626
1741432908.0404172,-2.3345993757247925,0.0032250278137988322,-0.031024962814970015,-0.9995134070526168,-0.17665795981884003,0.07183855772018433,0.23477032780647278,-5.50537633895874,0.6020148396492004,10.044792175292969,-0.049019813537597656,0.3439006805419922,0.4499503970146179,-1.2581299543380737,0.006294346414506435,-0.9462500810623169,-0.048256658017635345,1.231808066368103,0.0032425422687083483,0.917639434337616,0.0024795911740511656,-0.8241779208183289,-0.0394827201962471,0.1184481605887413,1.2922483682632446,-0.474529892206192,-0.012784774415194988,-0.5663004517555237,-0.02384222112596035,0.03490501269698143,0.8276112079620361,-0.37409746646881104,0.03651144355535507,-0.045664165169000626,-0.1605907529592514,1.980359435081482,-0.09301035106182098,-0.028445346280932426,0.22510334849357605,-3.901251792907715,0.10693424195051193,0.014441726729273796,0.34597763419151306,0.04235626384615898,-2.7702229022979736,1.2457414865493774,-0.01523440983146429,-3.9947733879089355,0.715565025806427,0.21045348048210144,1.277441382408142,-0.1276244968175888,-0.15573491156101227,-0.2267611026763916,-1.880661129951477,0.4491604268550873,1741432908.0454588,1741432908239,-3.072313720703125,-0.24400129699707032,-1.9928048769683346,-4.4160751953125,-1.2089010009765626
1741432908.060394,-2.328612446784973,0.009397810752623725,-0.02559276044594169,-0.9996282767938363,-0.24533630907535553,0.3609732985496521,0.2278757393360138,-2.8671553134918213,0.9295519590377808,9.617116928100586,-0.048638343811035156,0.3385591506958008,0.47856107354164124,-1.2558410167694092,0.005912871100008488,-0.9405279755592346,-0.09098191559314728,1.229519248008728,0.0032425422687083483,0.9313725233078003,-0.007438773289322853,-0.8543145060539246,-0.010490577667951584,0.11387044936418533,1.1861982345581055,-0.4335707426071167,-0.009450780227780342,-0.5327305793762207,-0.031090257689356804,0.034142062067985535,0.8283741474151611,-0.41416609287261963,0.043945472687482834,-0.010978925973176956,-0.1541731059551239,1.22049081325531,0.2675914168357849,0.004220156464725733,0.3119688928127289,-2.6658408641815186,-0.15233446657657623,9.849228263192344e-06,1.072989821434021,-0.485575795173645,-1.193876028060913,1.569625735282898,-0.28557854890823364,-5.63503360748291,2.0769834518432617,0.1704714596271515,1.6522541046142578,-0.33296099305152893,-0.025681205093860626,-0.01849125325679779,-2.030560255050659,0.3625250458717346,1741432908.0454588,1741432908239,-3.072313720703125,-0.24400129699707032,-1.9928048769683346,-4.4160751953125,-1.2089010009765626
1741432908.0804439,-2.3268195390701294,0.015848738611674747,-0.023814899161747626,-0.9995907502885042,-0.059221722185611725,0.2426276057958603,0.11923377960920334,1.3044873476028442,1.7282040119171143,6.673775672912598,-0.045205116271972656,0.3339815139770508,0.4884794354438782,-1.2546966075897217,0.006294346414506435,-0.9309910535812378,-0.11730372905731201,1.225704550743103,0.0032425422687083483,0.9485389590263367,-0.029182879254221916,-0.8646143078804016,0.02727550081908703,0.10967422276735306,1.041237473487854,-0.3864328861236572,-0.002926877001300454,-0.5033569931983948,-0.03032730519771576,0.03643091395497322,0.8283741474151611,-0.452465683221817,0.05183449760079384,0.07575513422489166,-0.09623806923627853,0.3930034339427948,0.0018977016443386674,-0.013188788667321205,0.47045841813087463,-1.3952027559280396,-0.23470713198184967,0.008822892792522907,1.1067932844161987,-1.1221442222595215,-0.2983955442905426,1.9280027151107788,-0.24671782553195953,-7.29126501083374,2.352475166320801,0.30556225776672363,1.3530919551849365,0.07334892451763153,0.21864035725593567,-0.02242581732571125,-1.9289510250091553,0.17024150490760803,1741432908.0454588,1741432908239,-3.072313720703125,-0.24400129699707032,-1.9928048769683346,-4.4160751953125,-1.2089010009765626
1741432908.1004648,-2.3246856927871704,0.020163721058818362,-0.023104099914703878,-0.9995297018699312,-0.04851345717906952,0.24089296162128448,0.14007170498371124,1.6690418720245361,0.7943718433380127,4.158561706542969,-0.042916297912597656,0.3294038772583008,0.4812313914299011,-1.2543151378631592,0.006294346414506435,-0.9229800701141357,-0.11768520623445511,1.224560022354126,0.0032425422687083483,0.9626535177230835,-0.05893797054886818,-0.8390554785728455,0.06008239835500717,0.12073700875043869,0.8733882904052734,-0.3458252549171448,0.0035430111456662416,-0.4671168029308319,-0.016594186425209045,0.051689937710762024,0.8337147831916809,-0.48471635580062866,0.04058900848031044,0.05016111955046654,-0.13849851489067078,-0.5163897275924683,0.0768706202507019,-0.004464269150048494,0.36154720187187195,0.0561070591211319,-0.043450381606817245,-0.01171579398214817,0.9195390939712524,-1.4838669300079346,1.554790735244751,1.386291742324829,0.7984156608581543,-8.362405776977539,1.8025703430175781,0.36076074838638306,1.8806060552597046,0.871354877948761,0.8650041818618774,0.31418874859809875,-1.5603550672531128,-0.7718070149421692,1741432908.1471217,1741432908339,-3.138719482421875,-0.334069091796875,-1.9726890023828099,-4.45275390625,-1.260807373046875
1741432908.1204498,-2.320773720741272,0.017320629178766634,-0.01797050776077158,-0.9996884798054201,-0.3418132960796356,-0.32744836807250977,0.19499920308589935,-6.707257270812988,6.89049768447876,12.77565860748291,-0.055123329162597656,0.3549633026123047,0.45986875891685486,-1.2512633800506592,0.005912871100008488,-0.9199283123016357,-0.09822995215654373,1.2241785526275635,0.0032425422687083483,0.9691386222839355,-0.08945601433515549,-0.8070115447044373,0.08411535620689392,0.1684214472770691,0.7848859429359436,-0.2988757789134979,0.006947331130504608,-0.42706188559532166,-0.00667582219466567,0.06160829961299896,0.8447775840759277,-0.5112295150756836,0.012816439382731915,-0.27977311611175537,0.8822097182273865,-1.0662795305252075,0.2593036890029907,-0.015775157138705254,0.2661256790161133,1.5214529037475586,-0.03500186651945114,-0.006195811554789543,0.25746721029281616,-1.499514102935791,1.604127287864685,1.1818228960037231,2.817335605621338,-1.6993646621704102,2.685802459716797,0.11706564575433731,2.0909128189086914,-0.37133467197418213,0.6313806176185608,0.7139879465103149,-1.2612507343292236,-1.3060076236724854,1741432908.1471217,1741432908339,-3.138719482421875,-0.334069091796875,-1.9726890023828099,-4.45275390625,-1.260807373046875
1741432908.1405056,-2.3091174364089966,0.020441991301923427,-0.023913113621097395,-0.9995050214924168,0.2156538963317871,0.30163201689720154,0.5280755758285522,9.81760025024414,3.0665807723999023,0.5102021098136902,-0.041008949279785156,0.3458080291748047,0.4194323718547821,-1.2482116222381592,0.005912871100008488,-0.9138246774673462,-0.056267641484737396,1.2241785526275635,0.0013351644156500697,0.9699015617370605,-0.08564125746488571,-0.7505531311035156,0.0707637146115303,0.18749523162841797,0.8230335116386414,-0.25194084644317627,0.01660417951643467,-0.3858625292778015,-0.0036240178160369396,0.06313420087099075,0.8661402463912964,-0.5053511261940002,0.017489207908511162,0.4104914665222168,-0.18345296382904053,-2.259239912033081,0.07684836536645889,-0.04222945496439934,0.14898018538951874,3.0525925159454346,0.014789850451052189,-0.10565217584371567,0.08972366154193878,0.4982486963272095,2.3953440189361572,-0.41884729266166687,0.16380709409713745,1.0636062622070312,2.129296064376831,0.7082451581954956,1.9206509590148926,0.17802833020687103,-0.10368053615093231,1.2025200128555298,0.6136279106140137,0.37404757738113403,1741432908.1471217,1741432908339,-3.138719482421875,-0.334069091796875,-1.9726890023828099,-4.45275390625,-1.260807373046875
1741432908.160481,-2.3009214401245117,0.01664151916030546,-0.02747580342261463,-0.9994839368725837,0.07407359033823013,-0.15507087111473083,0.2717553377151489,-6.318174362182617,-11.292342185974121,19.829891204833984,-0.049019813537597656,0.3610668182373047,0.34733349084854126,-1.2524077892303467,0.005912871100008488,-0.9172579646110535,-0.00019073777366429567,1.224560022354126,0.002861066721379757,0.9691386222839355,-0.07495994865894318,-0.7192721366882324,0.06466010212898254,0.14744029939174652,0.7925154566764832,-0.23042945563793182,0.029225913807749748,-0.38052186369895935,-0.0024795911740511656,0.06198977679014206,0.9370946884155273,-0.47345513105392456,0.007067100144922733,-0.16960078477859497,0.3748728632926941,-3.743799924850464,-0.1915077269077301,-0.07474233210086823,-0.14466731250286102,3.60697340965271,0.0029394938610494137,0.12148340791463852,-0.09225372225046158,0.46941155195236206,1.7836449146270752,-0.35673531889915466,-1.8557186126708984,-1.2859396934509277,0.8652052879333496,0.37278681993484497,-0.1184559166431427,-0.03324383869767189,-0.09271726757287979,4.083494186401367,1.581303358078003,-0.5772125124931335,1741432908.1471217,1741432908339,-3.138719482421875,-0.334069091796875,-1.9726890023828099,-4.45275390625,-1.260807373046875
1741432908.1805148,-2.299033284187317,0.020704672966100474,-0.024635909144532068,-0.9994820601181339,-0.10428140312433243,0.14754436910152435,-0.14218418300151825,-0.6099626421928406,0.9970375299453735,11.195698738098145,-0.058938026428222656,0.3641185760498047,0.27218279242515564,-1.2505004405975342,0.005912871100008488,-0.9149690866470337,0.049782559275627136,1.2268489599227905,0.0032425422687083483,0.9668498039245605,-0.05283436179161072,-0.6876096725463867,0.02727550081908703,0.12607766687870026,0.8146410584449768,-0.23651334643363953,0.043602075427770615,-0.42973220348358154,-0.005531395319849253,0.06580453366041183,1.0801479816436768,-0.43409276008605957,-0.00789608433842659,-0.25179383158683777,0.01918063871562481,-3.583132028579712,0.10381254553794861,0.012412184849381447,0.16561222076416016,3.290252447128296,0.29376542568206787,0.013892114162445068,-0.2098299264907837,1.2801001071929932,0.8301109075546265,-1.6215795278549194,-1.0341242551803589,1.0029971599578857,-0.6922755241394043,0.8272609710693359,-2.881336212158203,0.15109384059906006,-0.13399432599544525,7.682215213775635,2.10418438911438,-0.5646957755088806,1741432908.1471217,1741432908339,-3.138719482421875,-0.334069091796875,-1.9726890023828099,-4.45275390625,-1.260807373046875
1741432908.200544,-2.3099554777145386,0.021324230700840583,-0.028401959274222455,-0.9993691039322773,0.1983824372291565,0.13863340020179749,-0.587236762046814,5.082363605499268,-3.0304934978485107,18.682655334472656,-0.039864540100097656,0.3759441375732422,0.20428015291690826,-1.2493560314178467,0.005531395319849253,-0.9134432077407837,0.09708552807569504,1.2443968057632446,0.005149920005351305,0.962272047996521,-0.024986648932099342,-0.6658655405044556,0.018501564860343933,0.11005569249391556,0.8268482685089111,-0.27715975046157837,0.04405103623867035,-0.5201418995857239,0.013923857361078262,0.05130846053361893,1.2499046325683594,-0.39274078607559204,-0.0055278087966144085,0.5044379234313965,0.10527285933494568,-3.434861660003662,0.054064225405454636,-0.04837638884782791,-0.067900650203228,3.2490363121032715,1.1465023756027222,0.13294783234596252,-0.3159902095794678,1.3016042709350586,1.278080701828003,-0.6519051790237427,-0.5041404366493225,0.6016734838485718,-2.0773096084594727,-0.22091345489025116,-4.526196479797363,1.0375218391418457,-0.6661837100982666,8.600486755371094,1.8835254907608032,0.4078861474990845,1741432908.1471217,1741432908339,-3.138719482421875,-0.334069091796875,-1.9726890023828099,-4.45275390625,-1.260807373046875
1741432908.2205408,-2.3211179971694946,0.02685837596873652,-0.02826707149688538,-0.9992395109828833,-0.016110554337501526,0.2438659816980362,-0.6655179858207703,1.1228854656219482,-1.0006544589996338,12.296699523925781,-0.053597450256347656,0.3816661834716797,0.13027389347553253,-1.2474485635757446,0.00667582219466567,-0.917639434337616,0.1516365259885788,1.2615631818771362,0.005149920005351305,0.9554055333137512,-0.0009536888683214784,-0.6376363635063171,0.012397955171763897,0.10852979123592377,0.8306630253791809,-0.3229525685310364,0.039739493280649185,-0.6197070479393005,0.031090257689356804,0.03299763426184654,1.3941023349761963,-0.38239985704421997,-0.0023830290883779526,-0.3197703957557678,0.15696612000465393,-3.647824287414551,0.13709047436714172,0.01317894458770752,-0.23117105662822723,3.620957136154175,1.1670479774475098,-0.003998555708676577,-0.4440576136112213,1.0557643175125122,1.559843897819519,-0.18485420942306519,-0.10844714939594269,0.04853753745555878,-2.3182733058929443,-0.14794284105300903,-4.940540313720703,0.8204994797706604,-0.7349966764450073,6.656952381134033,0.1856851577758789,-0.03985798731446266,1741432908.1471217,1741432908339,-3.138719482421875,-0.334069091796875,-1.9726890023828099,-4.45275390625,-1.260807373046875
1741432908.2406225,-2.335897922515869,0.03033356286740764,-0.028354783153064726,-0.9991375687242031,0.01708120107650757,0.16252106428146362,-0.6969503164291382,1.6660212278366089,4.873410701751709,9.224028587341309,-0.058556556701660156,0.3854808807373047,0.06046387553215027,-1.2466856241226196,0.005912871100008488,-0.9203097820281982,0.21114671230316162,1.2718631029129028,0.005531395319849253,0.9473945498466492,0.018501564860343933,-0.5941481590270996,0.013923857361078262,0.10509651154279709,0.8249408602714539,-0.3621170222759247,0.03197126463055611,-0.7051575779914856,0.05130846053361893,0.016212711110711098,1.4700160026550293,-0.40387898683547974,-0.007889926433563232,-0.12482396513223648,0.10461343079805374,-3.418348789215088,0.01686975732445717,-0.00023407125263474882,-0.1226707398891449,3.9895951747894287,0.6217588782310486,-0.0004958916106261313,-0.5434097051620483,0.9551873803138733,2.227358341217041,0.04199978709220886,-0.1477031409740448,-0.3036883771419525,-1.869228482246399,-0.587314248085022,-4.297422885894775,0.926668107509613,-0.9267751574516296,3.2084391117095947,-1.2416714429855347,-0.2847546935081482,1741432908.1471217,1741432908339,-3.138719482421875,-0.334069091796875,-1.9726890023828099,-4.45275390625,-1.260807373046875
1741432908.2606475,-2.3561166524887085,0.029629538880012893,-0.02689440613218725,-0.9991990699277872,-0.057417962700128555,-0.08465758711099625,-1.0081745386123657,1.8577150106430054,-3.286052703857422,8.117374420166016,-0.060082435607910156,0.3923473358154297,0.002861066721379757,-1.2443968057632446,0.005912871100008488,-0.9233615398406982,0.26951247453689575,1.2760592699050903,0.005912871100008488,0.9412909150123596,0.020027466118335724,-0.5460822582244873,0.015449759550392628,0.1035706102848053,0.8100633025169373,-0.39549875259399414,0.014616572298109531,-0.7795453071594238,0.06351567804813385,-0.010109102353453636,1.4776455163955688,-0.43287956714630127,0.0003933324769604951,-0.052072931081056595,0.19253918528556824,-2.6743216514587402,0.1549648493528366,-0.004936301149427891,-0.18868865072727203,3.9130325317382812,0.20462699234485626,0.03644562512636185,-0.4472975432872772,-0.06797823309898376,2.396010398864746,0.10336930304765701,-0.05835970863699913,-0.8564854264259338,-1.6334413290023804,-0.8114490509033203,-3.567152976989746,0.39306673407554626,-1.269973874092102,-0.0048802695237100124,-1.4157085418701172,0.48858943581581116,1741432908.1471217,1741432908339,-3.138719482421875,-0.334069091796875,-1.9726890023828099,-4.45275390625,-1.260807373046875
1741432908.2806113,-2.3712317943573,0.029925741273760607,-0.02294979419370061,-0.9992886254509669,-0.18299438059329987,0.014536313712596893,-0.6880146861076355,1.1024717092514038,1.5219075679779053,6.519270420074463,-0.07038211822509766,0.3900585174560547,-0.03643091395497322,-1.2417265176773071,0.005912871100008488,-0.9313725233078003,0.3248264193534851,1.2764407396316528,0.005531395319849253,0.9363317489624023,0.02079041674733162,-0.49191272258758545,0.01583123579621315,0.1039520874619484,0.7921339869499207,-0.42138156294822693,0.009194431826472282,-0.8436331748962402,0.05664911866188049,-0.02994582988321781,1.4368276596069336,-0.4474215507507324,0.00933128036558628,-0.3265399634838104,-0.04001166298985481,-1.8815633058547974,0.10919030010700226,-0.004431294742971659,-0.37035778164863586,3.6376988887786865,0.0077773029915988445,-0.024611204862594604,-0.28270959854125977,0.0716979131102562,2.6326217651367188,0.0015798696549609303,0.028175843879580498,-0.9089155793190002,-1.2563897371292114,-0.22205016016960144,-3.015904188156128,-0.4627368748188019,-0.9568482637405396,-2.2716619968414307,-0.5570285320281982,0.2330235093832016,1741432908.1471217,1741432908339,-3.138719482421875,-0.334069091796875,-1.9726890023828099,-4.45275390625,-1.260807373046875
1741432908.3006444,-2.381698489189148,0.031051547943861127,-0.019735644179921574,-0.9993229236433504,-0.13804537057876587,0.03937162831425667,-0.43481549620628357,1.0603904724121094,-3.859729766845703,9.162505149841309,-0.07763004302978516,0.3866252899169922,-0.07457847148180008,-1.2413450479507446,0.006294346414506435,-0.9401465058326721,0.3725108802318573,1.2714815139770508,0.005531395319849253,0.9336614012718201,0.016594186425209045,-0.44651713967323303,0.016212711110711098,0.1039520874619484,0.7734416723251343,-0.4424207806587219,0.005977117456495762,-0.8958953022956848,0.04177157208323479,-0.05245288833975792,1.3635843992233276,-0.4374947249889374,0.0038835434243083,-0.25593429803848267,-0.1036926731467247,-1.957016944885254,0.04973166808485985,0.002570896875113249,-0.5431057810783386,3.0693671703338623,-0.39137524366378784,-0.0022976871114224195,-0.10781267285346985,-0.2507123053073883,2.175954580307007,0.00862104631960392,0.005137596745043993,-0.8926690816879272,-1.0492697954177856,-0.11026883125305176,-2.4598400592803955,-0.7684421539306641,-1.077305793762207,-3.9646832942962646,0.7391297817230225,-0.20329946279525757,1741432908.1471217,1741432908339,-3.138719482421875,-0.334069091796875,-1.9726890023828099,-4.45275390625,-1.260807373046875
1741432908.3206947,-2.3831676244735718,0.031046519364948885,-0.017254499612845208,-0.9993689988579955,-0.12596140801906586,0.0016171019524335861,-0.1217912957072258,-0.6035560965538025,-1.0044420957565308,8.413798332214355,-0.07953739166259766,0.3843364715576172,-0.1039520874619484,-1.239819049835205,0.005912871100008488,-0.954261064529419,0.4247730076313019,1.2665224075317383,0.005149920005351305,0.9309910535812378,0.015449759550392628,-0.4037918746471405,0.013160906732082367,0.1039520874619484,0.7555122971534729,-0.46223825216293335,0.011432550847530365,-0.9260318875312805,0.01506828423589468,-0.07305257022380829,1.267833948135376,-0.4013616740703583,0.010052545927464962,-0.05353768542408943,-0.06986529380083084,-1.2590640783309937,0.1166677251458168,-0.01043121051043272,-0.6323544383049011,3.805396795272827,-0.28667786717414856,-0.0082405349239707,-0.29241934418678284,0.14024204015731812,2.13812255859375,-0.15678802132606506,-0.004521615337580442,-0.9485885500907898,-1.0061650276184082,0.2773473858833313,-1.2640913724899292,-1.3994710445404053,-1.0176351070404053,-4.803825378417969,1.9662724733352661,0.24540747702121735,1741432908.352573,1741432908439,-3.2118798828125,-0.418104248046875,-1.9814570874838138,-4.50835302734375,-1.303708740234375
1741432908.3407118,-2.383969306945801,0.032039690176382224,-0.015278725665552913,-0.9993698108285232,-0.08977088332176208,0.0893995389342308,-0.009580247104167938,-0.5702939629554749,0.29147541522979736,10.717187881469727,-0.08182621002197266,0.3828105926513672,-0.10967422276735306,-1.2386746406555176,0.005912871100008488,-0.9630350470542908,0.4659723937511444,1.2615631818771362,0.005149920005351305,0.924887478351593,0.023460745811462402,-0.3553444743156433,0.006294346414506435,0.09937438368797302,0.7330052852630615,-0.4824727475643158,0.00920841470360756,-0.9287022352218628,-0.02040894143283367,-0.09746700525283813,1.1472877264022827,-0.3529471755027771,0.007739504799246788,-0.06335554271936417,-0.03125136345624924,-0.21439947187900543,0.04058638587594032,-0.008730997331440449,-0.4530380964279175,2.416532516479492,-0.33417657017707825,-0.0020172931253910065,-0.3160404860973358,0.5025522112846375,2.4668145179748535,-0.3306083381175995,-0.3763478696346283,-1.129830002784729,-1.050788164138794,-0.025037726387381554,0.025557994842529297,-1.8268190622329712,-1.1859145164489746,-6.182740688323975,2.479249954223633,-0.26254427433013916,1741432908.352573,1741432908439,-3.2118798828125,-0.418104248046875,-1.9814570874838138,-4.50835302734375,-1.303708740234375
1741432908.3607385,-2.3835318088531494,0.035153863259615226,-0.014690886810464288,-0.9992739282812528,-0.03134265914559364,0.12052524834871292,0.005674887914210558,0.2573111355304718,-2.175569772720337,7.773266315460205,-0.07686710357666016,0.3789958953857422,-0.10051880776882172,-1.2386746406555176,0.005912871100008488,-0.967994213104248,0.4842832088470459,1.2585114240646362,0.005149920005351305,0.919165313243866,0.04291599988937378,-0.30346378684043884,-0.005912871100008488,0.0864042118191719,0.7112611532211304,-0.4970458745956421,0.009878935292363167,-0.9203097820281982,-0.05130846053361893,-0.12951095402240753,1.0084306001663208,-0.30586209893226624,0.0007193328347057104,0.1390020102262497,-0.1078658476471901,0.7065222859382629,0.016072118654847145,-0.013071444816887379,-0.16508881747722626,1.1023696660995483,-0.16922207176685333,-0.005041679833084345,-0.378805547952652,1.0228047370910645,2.488870859146118,-0.7206444144248962,-0.677802562713623,-1.1166938543319702,-0.6202173829078674,0.003967580385506153,0.6206207871437073,-1.4502147436141968,-1.6728897094726562,-7.006285667419434,2.21085524559021,-0.3409167528152466,1741432908.352573,1741432908439,-3.2118798828125,-0.418104248046875,-1.9814570874838138,-4.50835302734375,-1.303708740234375
1741432908.3807764,-2.384238362312317,0.0352963751494446,-0.01591704115056566,-0.999250125695424,0.10003248602151871,-0.01780598610639572,-0.05708344280719757,2.815983772277832,-1.132906436920166,7.697751045227051,-0.07610416412353516,0.3786144256591797,-0.06961929053068161,-1.2386746406555176,0.005912871100008488,-0.9641794562339783,0.4827573001384735,1.2543151378631592,0.00476844422519207,0.9153505563735962,0.06275273114442825,-0.25387197732925415,-0.02231631986796856,0.0722896158695221,0.7013428211212158,-0.49627867341041565,0.02068725787103176,-0.8871213793754578,-0.07953765243291855,-0.1646067053079605,0.8619440197944641,-0.28450846672058105,-0.007784813176840544,0.03183169290423393,-0.014898608438670635,1.5975825786590576,-0.008011318743228912,-0.00360032613389194,0.2153426557779312,-0.2783704102039337,-0.36417174339294434,0.0036957990378141403,-0.24832217395305634,0.9621875882148743,2.3446006774902344,-0.8523266911506653,-0.7076941728591919,-0.35517317056655884,0.07355459779500961,0.6412951946258545,1.839103102684021,-1.441140055656433,-1.5001139640808105,-7.234714508056641,0.796520471572876,-0.40696829557418823,1741432908.352573,1741432908439,-3.2118798828125,-0.418104248046875,-1.9814570874838138,-4.50835302734375,-1.303708740234375
1741432908.4007707,-2.3865472078323364,0.030435588692639775,-0.02103553433011153,-0.9993153562496571,0.2991231083869934,-0.2607010006904602,-0.09861696511507034,-3.0732085704803467,3.0857951641082764,7.405479907989502,-0.07038211822509766,0.3824291229248047,-0.02040894143283367,-1.23905611038208,0.005912871100008488,-0.9603646993637085,0.4640650153160095,1.2501189708709717,0.005149920005351305,0.9126802682876587,0.07495994865894318,-0.21686884760856628,-0.053215838968753815,0.08030059933662415,0.7227054238319397,-0.4933639168739319,0.025087948888540268,-0.841725766658783,-0.09861142933368683,-0.1840619444847107,0.7288090586662292,-0.3002505600452423,-0.00838303193449974,0.13444946706295013,0.10635021328926086,2.674006223678589,-0.038698453456163406,-0.0014141309075057507,0.12235363572835922,-1.4136905670166016,-0.19408206641674042,0.004452329594641924,-0.10572919994592667,0.5275583863258362,1.6766893863677979,-1.4080536365509033,0.4773116409778595,1.4229028224945068,0.19872227311134338,0.21986135840415955,2.276608467102051,-0.808590292930603,-0.750529408454895,-6.393701553344727,-1.0789257287979126,0.011499730870127678,1741432908.352573,1741432908439,-3.2118798828125,-0.418104248046875,-1.9814570874838138,-4.50835302734375,-1.303708740234375
1741432908.4208071,-2.3882516622543335,0.023741365049104114,-0.034881690710980635,-0.9991094110450309,0.7230377197265625,-0.43764030933380127,0.003848451655358076,-32.57552719116211,-10.473176956176758,18.287193298339844,-0.06313419342041016,0.3881511688232422,0.0398641936480999,-1.2443968057632446,0.006294346414506435,-0.962272047996521,0.43163958191871643,1.2463041543960571,0.00476844422519207,0.9111543297767639,0.07648584991693497,-0.21076524257659912,-0.04634927958250046,0.07953765243291855,0.8077744841575623,-0.4768100678920746,0.03880373388528824,-0.8104447722434998,-0.09212634712457657,-0.15850308537483215,0.7154573798179626,-0.29485219717025757,-0.019562026485800743,0.19416499137878418,0.16401872038841248,2.7777929306030273,-0.49968624114990234,0.021652134135365486,-0.12547948956489563,-2.2544517517089844,-0.33839017152786255,0.0005457043880596757,-0.22529882192611694,-0.009303188882768154,-0.13885317742824554,0.5904669761657715,-0.0473666675388813,4.7447428703308105,0.9138389825820923,0.6862610578536987,1.6500544548034668,0.7580902576446533,1.5693849325180054,1.2148642539978027,0.654522716999054,-0.5328850150108337,1741432908.446692,1741432908639,-3.374262939453125,-0.5613493041992188,-2.014520802905815,-4.597599609375,-1.383631103515625
1741432908.440788,-2.3931868076324463,0.025469722544037985,-0.03338646996438358,-0.9991179294041556,-0.15452802181243896,0.051016923040151596,-0.15851670503616333,2.1934328079223633,8.611348152160645,5.621906280517578,-0.09517860412597656,0.3877696990966797,0.10700388997793198,-1.2485930919647217,0.006294346414506435,-0.9630350470542908,0.3759441375732422,1.2409635782241821,0.005531395319849253,0.9077210426330566,0.06008239835500717,-0.25158312916755676,-0.0558861680328846,0.07648584991693497,0.9370946884155273,-0.4398348927497864,0.05068692937493324,-0.7986190319061279,-0.06351567804813385,-0.10471503436565399,0.7768749594688416,-0.295217365026474,-0.02523242123425007,-1.0307625532150269,-0.07882268726825714,3.4079065322875977,-0.11516769230365753,0.04930819943547249,0.012785961851477623,-4.049769878387451,-0.2608061134815216,0.065068818628788,-0.15306057035923004,-0.6698850989341736,-2.4986395835876465,-0.6256105899810791,-0.3572135269641876,6.712301731109619,2.0358824729919434,0.36895880103111267,0.09657908976078033,1.116377830505371,2.897568702697754,2.213146924972534,-0.28873419761657715,-0.004194173961877823,1741432908.446692,1741432908639,-3.374262939453125,-0.5613493041992188,-2.014520802905815,-4.597599609375,-1.383631103515625
1741432908.4608161,-2.391132116317749,0.021161691993406975,-0.03194283175337739,-0.999265649510455,-0.031595345586538315,-0.10654030740261078,0.10060860216617584,2.8443198204040527,-0.2753107249736786,14.351226806640625,-0.07419681549072266,0.3934917449951172,0.17338064312934875,-1.2451597452163696,0.005149920005351305,-0.9618905782699585,0.2958342730998993,1.2417265176773071,0.005531395319849253,0.9111543297767639,0.05970092490315437,-0.33245593309402466,-0.07267109304666519,0.031090257689356804,1.1057069301605225,-0.39129066467285156,0.06104239448904991,-0.7673380374908447,-0.026131074875593185,-0.06427863240242004,0.7864118218421936,-0.30619072914123535,-0.01597560942173004,0.46314969658851624,0.13036544620990753,3.1865627765655518,0.17373903095722198,-0.07525763660669327,-0.03007359430193901,-5.540334701538086,0.040276899933815,-0.01888781599700451,0.2539394199848175,0.1968299001455307,-4.3248162269592285,-0.9531514644622803,-2.378852128982544,8.86033821105957,2.438199996948242,0.5859642624855042,1.893316626548767,2.0498156547546387,1.5661048889160156,0.35645726323127747,-0.3481452465057373,0.43308255076408386,1741432908.446692,1741432908639,-3.374262939453125,-0.5613493041992188,-2.014520802905815,-4.597599609375,-1.383631103515625
1741432908.480835,-2.3819353580474854,0.018120956592195314,-0.022046390423814777,-0.9995927108585099,-0.6135701537132263,-0.2144007682800293,0.5302132964134216,-3.0096826553344727,-0.1239459216594696,13.778582572937012,-0.09250736236572266,0.4110403060913086,0.23517967760562897,-1.2466856241226196,0.006294346414506435,-0.9626535177230835,0.20962081849575043,1.2428709268569946,0.005149920005351305,0.9126802682876587,0.06313420087099075,-0.4381246566772461,-0.1028076633810997,-0.005149920005351305,1.268596887588501,-0.3573192358016968,0.026639558374881744,-0.734149694442749,-0.01888304017484188,-0.040627144277095795,0.7948042750358582,-0.3054019510746002,-0.015015129931271076,-0.5556460022926331,0.5079894661903381,3.088491916656494,-0.045805491507053375,-0.020247220993041992,0.042084887623786926,-5.618661880493164,0.1472962647676468,0.0538078173995018,0.06776989251375198,0.1669619232416153,-5.256650447845459,-1.6486537456512451,-1.4941097497940063,8.093056678771973,1.4940354824066162,-2.0975987911224365,1.5996471643447876,0.15926754474639893,1.1398452520370483,0.5267435908317566,-0.0060116383247077465,0.055658578872680664,1741432908.446692,1741432908639,-3.374262939453125,-0.5613493041992188,-2.014520802905815,-4.597599609375,-1.383631103515625
1741432908.500844,-2.364872097969055,0.011334308804327231,-0.010596777379708253,-0.9998796136301075,-0.5147252082824707,-0.34057578444480896,0.8415148258209229,3.2047502994537354,3.235166072845459,7.39335823059082,-0.08792972564697266,0.4190511703491211,0.28934919834136963,-1.2482116222381592,0.006294346414506435,-0.9603646993637085,0.1348516047000885,1.2463041543960571,0.005149920005351305,0.9142061471939087,0.0711451917886734,-0.54417484998703,-0.11615930497646332,-0.012779430486261845,1.3879988193511963,-0.36529555916786194,-0.0009187058312818408,-0.689517080783844,-0.023079270496964455,-0.04139009863138199,0.8016708493232727,-0.3069021701812744,-0.005514529068022966,0.11813724040985107,0.2856959104537964,2.6152780055999756,-0.16251400113105774,-0.0015026293694972992,0.10586447268724442,-4.8644609451293945,0.11927508562803268,-0.020183973014354706,0.06716793775558472,0.3557298481464386,-5.324281215667725,-0.3381720185279846,-0.18478457629680634,5.470289707183838,-0.8209435343742371,-0.690590500831604,2.3575854301452637,-0.30391937494277954,-0.016176564618945122,0.1929512619972229,-0.12678948044776917,0.5424925684928894,1741432908.446692,1741432908639,-3.374262939453125,-0.5613493041992188,-2.014520802905815,-4.597599609375,-1.383631103515625
1741432908.5209928,-2.3457555770874023,0.0005673328110216925,-0.005624174318460095,-0.9999840232707307,-0.24436181783676147,-0.533531904220581,0.9711891412734985,0.35009780526161194,3.3991880416870117,9.871574401855469,-0.07686710357666016,0.4251546859741211,0.3423742949962616,-1.2520263195037842,0.006294346414506435,-0.9569314122200012,0.06923781335353851,1.2413450479507446,0.004005493130534887,0.9153505563735962,0.07610437273979187,-0.6460288166999817,-0.11615930497646332,-0.0024795911740511656,1.4459830522537231,-0.41058167815208435,0.003313609166070819,-0.6414511203765869,-0.02040894143283367,-0.03681239113211632,0.7948042750358582,-0.3105320930480957,0.001632344676181674,0.3072121739387512,0.20325544476509094,2.6159815788269043,-0.1716061681509018,-0.013868826441466808,0.17628347873687744,-4.262957572937012,-0.4090889096260071,-0.0859144926071167,0.07544628530740738,0.2434668242931366,-4.904212951660156,0.16682858765125275,0.8756923675537109,2.395601272583008,-2.4076340198516846,0.034664545208215714,2.394040584564209,0.12596289813518524,0.21498174965381622,-0.3267673850059509,-0.1603201925754547,0.32859736680984497,1741432908.5602605,1741432908739,-3.4425822753906252,-0.6316458740234375,-1.9824251905945247,-4.64510302734375,-1.417532470703125
1741432908.540925,-2.3313260078430176,-0.007554394515179917,-0.0015636073956251614,-0.9999702426849618,-0.20672622323036194,-0.3593237102031708,0.6288569569587708,0.17928993701934814,3.014695405960083,8.766935348510742,-0.07724857330322266,0.4205770492553711,0.3858625292778015,-1.2520263195037842,0.005912871100008488,-0.9508277773857117,0.016975661739706993,1.23295259475708,0.0032425422687083483,0.9164950251579285,0.07877469807863235,-0.734149694442749,-0.10738536715507507,0.020027466118335724,1.4398794174194336,-0.461544394493103,-0.005991853307932615,-0.5979629158973694,-0.014686808921396732,-0.029182879254221916,0.7921339869499207,-0.32207274436950684,0.009085604920983315,-0.008930736221373081,-0.10306509584188461,2.0649642944335938,-0.0034362762235105038,-0.012927615083754063,0.2961093485355377,-3.3192036151885986,-0.559787392616272,0.0011817881604656577,0.0626428872346878,0.17141805589199066,-4.138258934020996,0.5638739466667175,1.02320396900177,-0.7556595802307129,-2.52317476272583,-0.4923143684864044,2.0933454036712646,0.13243833184242249,0.45757588744163513,-0.05157865211367607,-0.6668843030929565,0.3825303316116333,1741432908.5602605,1741432908739,-3.4425822753906252,-0.6316458740234375,-1.9824251905945247,-4.64510302734375,-1.417532470703125
1741432908.5648851,-2.324911594390869,-0.012039556795523926,-0.0011162473822919643,-0.9999268988600861,0.004584247712045908,-0.2255185842514038,0.25694116950035095,-5.829969882965088,0.5320918560028076,11.407036781311035,-0.07343387603759766,0.4182882308959961,0.4179064631462097,-1.2527892589569092,0.006294346414506435,-0.9428167939186096,-0.031090257689356804,1.231045126914978,0.0036240178160369396,0.9203097820281982,0.0864042118191719,-0.8054856061935425,-0.08983749151229858,0.03032730519771576,1.3776988983154297,-0.4860481321811676,-0.011293604969978333,-0.577744722366333,-0.012779430486261845,-0.028038453310728073,0.7940413355827332,-0.3474304974079132,0.01652919314801693,0.10359755158424377,-0.05818423256278038,1.464146375656128,-0.10616956651210785,0.006450804881751537,0.3870984613895416,-3.430199384689331,-0.07277114689350128,0.014278572052717209,0.34375542402267456,0.33901023864746094,-3.355943441390991,1.0193067789077759,0.4544350802898407,-3.4304752349853516,-0.8943454027175903,-0.2309367060661316,0.8715611100196838,0.031400881707668304,0.027717744931578636,0.143991619348526,-1.3861314058303833,0.5291199088096619,1741432908.5602605,1741432908739,-3.4425822753906252,-0.6316458740234375,-1.9824251905945247,-4.64510302734375,-1.417532470703125
1741432908.580963,-2.317407011985779,-0.0056932894278823865,-0.0007512037190171323,-0.9999835109382869,-0.03327315300703049,0.4196208417415619,0.39508116245269775,1.4774494171142578,5.05850076675415,7.53963565826416,-0.07228946685791016,0.3953990936279297,0.44575417041778564,-1.2562226057052612,0.005912871100008488,-0.9340428709983826,-0.08068207651376724,1.227993369102478,0.0036240178160369396,0.9336614012718201,0.07991912961006165,-0.8478294014930725,-0.06847485899925232,0.027656977996230125,1.2754634618759155,-0.4664393663406372,-0.015377198345959187,-0.5540932416915894,-0.01773861236870289,-0.026512550190091133,0.813115119934082,-0.38253235816955566,0.030659254640340805,0.01347106508910656,-0.7103757858276367,1.3519597053527832,-0.15676349401474,-0.014008991420269012,0.45285463333129883,-2.954195976257324,-0.26334378123283386,-0.007419350557029247,0.9476451873779297,-0.33268123865127563,-1.894813895225525,1.096562385559082,-0.2664976716041565,-5.3601884841918945,1.2690112590789795,-0.20187799632549286,0.9757078289985657,-0.326914519071579,0.10881785303354263,0.9470972418785095,-1.852394700050354,0.6548295021057129,1741432908.5602605,1741432908739,-3.4425822753906252,-0.6316458740234375,-1.9824251905945247,-4.64510302734375,-1.417532470703125
1741432908.60103,-2.3167965412139893,0.0015176236624641361,-0.0019453269449471566,-0.9999969562561161,0.08305899798870087,0.3205937147140503,0.009370608255267143,-6.943809509277344,0.9711592793464661,7.698894500732422,-0.07190799713134766,0.3953990936279297,0.4678797721862793,-1.2554595470428467,0.006294346414506435,-0.9245060086250305,-0.11120012402534485,1.224560022354126,0.0032425422687083483,0.951209306716919,0.06389715522527695,-0.8714808821678162,-0.040627144277095795,0.021171892061829567,1.1205843687057495,-0.4228293001651764,-0.012188268825411797,-0.54417484998703,-0.02193484455347061,-0.025749599561095238,0.8318074345588684,-0.4225604832172394,0.04333341121673584,0.007834134623408318,0.0018243241356685758,0.9732917547225952,0.001505647785961628,-0.001951135229319334,0.4874572455883026,-1.9601019620895386,-0.19826598465442657,0.011854373849928379,1.1316202878952026,-0.9407525658607483,-0.8324884176254272,1.4308521747589111,-0.36503610014915466,-7.670724868774414,2.22118878364563,0.2435275763273239,0.5353772640228271,-0.19586126506328583,0.11656813323497772,1.0050795078277588,-1.9660563468933105,0.6256904602050781,1741432908.5602605,1741432908739,-3.4425822753906252,-0.6316458740234375,-1.9824251905945247,-4.64510302734375,-1.417532470703125
1741432908.62111,-2.31965172290802,0.015712774998132516,-0.004930436516802963,-0.9998643905538449,0.13718345761299133,0.7037438750267029,-0.16046682000160217,8.14946460723877,0.10195669531822205,1.351218819618225,-0.06923770904541016,0.3854808807373047,0.4705500900745392,-1.2558410167694092,0.006294346414506435,-0.9206912517547607,-0.12226291000843048,1.2241785526275635,0.0032425422687083483,0.967231273651123,0.042153049260377884,-0.8539330363273621,-0.004386968910694122,0.02231631986796856,0.9336614012718201,-0.37732118368148804,-0.0015263371169567108,-0.5273899435997009,-0.01125352829694748,-0.010872052982449532,0.8623254895210266,-0.4620724618434906,0.043742526322603226,0.056395381689071655,-0.2273481786251068,0.02353251911699772,-0.025809060782194138,-0.003515024669468403,0.15990018844604492,-0.5007339119911194,0.00545472651720047,0.0012467583874240518,1.0268539190292358,-1.1092342138290405,1.1478654146194458,1.7912968397140503,0.32026609778404236,-9.3048677444458,2.2056305408477783,0.5763239860534668,0.7090810537338257,0.6365551352500916,0.8431056141853333,1.4535374641418457,-2.0059030055999756,-0.09405306726694107,1741432908.6572936,1741432908839,-3.502678955078125,-0.712935791015625,-1.951730677799525,-4.67673486328125,-1.4549188232421875
1741432908.6410787,-2.3246570825576782,0.016663910637565414,-0.0033832726331936356,-0.9998554233230686,-0.15051695704460144,-0.2136361300945282,-0.2846432030200958,-23.414073944091797,11.21834945678711,17.921483993530273,-0.07076358795166016,0.4098958969116211,0.4659723937511444,-1.2539336681365967,0.005912871100008488,-0.916113555431366,-0.11158160120248795,1.224560022354126,0.0036240178160369396,0.9729533791542053,0.010109102353453636,-0.8241779208183289,0.020027466118335724,0.07686731964349747,0.8398184180259705,-0.3074895739555359,0.006011233665049076,-0.5106050372123718,0.000572213320992887,-0.0020981156267225742,0.8901731967926025,-0.49691492319107056,0.028970904648303986,-0.005047164857387543,0.6894370317459106,-0.2376900613307953,0.21273963153362274,-0.025646910071372986,0.35992538928985596,0.9185718894004822,0.02218625321984291,0.019101548939943314,0.30123889446258545,-1.6353548765182495,1.7059160470962524,1.1322150230407715,3.6850779056549072,-1.8552089929580688,3.9620845317840576,0.15301163494586945,1.174141526222229,-0.11616422981023788,0.3884051740169525,1.3143001794815063,-1.7184808254241943,-0.8713347911834717,1741432908.6572936,1741432908839,-3.502678955078125,-0.712935791015625,-1.951730677799525,-4.67673486328125,-1.4549188232421875
1741432908.6611004,-2.3192743062973022,0.025975226128587856,-0.012955788531824672,-0.9995786288087033,0.4184224307537079,0.5159808397293091,0.24280256032943726,2.406989097595215,2.340165138244629,-4.4775848388671875,-0.059319496154785156,0.4083700180053711,0.4373617172241211,-1.2505004405975342,0.006294346414506435,-0.9122987985610962,-0.07495994865894318,1.224560022354126,0.0009536888683214784,0.9748607873916626,0.01735713705420494,-0.7719157934188843,0.01430533267557621,0.10433356463909149,0.8630884289741516,-0.24662701785564423,0.03742928057909012,-0.4736018776893616,0.005912871100008488,-0.0013351644156500697,0.9088655114173889,-0.5169743895530701,-0.0042234016582369804,0.38865330815315247,-0.10452066361904144,-1.762501835823059,0.11465538293123245,-0.012259158305823803,-0.006189688108861446,2.791882038116455,0.003841111436486244,-0.1298883557319641,0.11184599250555038,0.6802266240119934,1.9061778783798218,-0.09691427648067474,0.5629829168319702,0.1383616179227829,2.76359224319458,1.5886125564575195,1.7876960039138794,0.44217488169670105,-0.03432049974799156,0.9800506234169006,-0.6834213733673096,-1.3834549188613892,1741432908.6572936,1741432908839,-3.502678955078125,-0.712935791015625,-1.951730677799525,-4.67673486328125,-1.4549188232421875
1741432908.6811724,-2.3131829500198364,0.024144983228397688,-0.021707680332935988,-0.9994727592083056,0.3641508221626282,-0.11500599980354309,0.3111107051372528,-9.426460266113281,-15.300165176391602,19.484411239624023,-0.07648563385009766,0.4285879135131836,0.3751811981201172,-1.2508819103240967,0.005912871100008488,-0.916113555431366,-0.018120087683200836,1.224560022354126,0.0020981156267225742,0.969520092010498,0.021171892061829567,-0.7383459210395813,0.018501564860343933,0.06733043491840363,0.8321889042854309,-0.22370168566703796,0.04892763867974281,-0.45986875891685486,-0.0020981156267225742,-0.0024795911740511656,0.959983229637146,-0.5023589730262756,0.009624961763620377,-0.3700510561466217,0.439902126789093,-3.444967031478882,0.028529925271868706,-0.024448804557323456,-0.21637699007987976,3.7277300357818604,-0.02368267998099327,0.09992437809705734,-0.3730109930038452,0.02280796878039837,2.237053632736206,-0.4291234016418457,-1.3766568899154663,-0.8735945820808411,0.8589497804641724,0.16122637689113617,0.4094942510128021,-0.4515463411808014,-0.09154516458511353,3.1945974826812744,0.9446771144866943,0.7939894199371338,1741432908.6572936,1741432908839,-3.502678955078125,-0.712935791015625,-1.951730677799525,-4.67673486328125,-1.4549188232421875
