Freshhhhh-LC/Legged_odom/data/2/segments/booster_seg_9.94s.csv
time,yaw,projected_gravity_x,projected_gravity_y,projected_gravity_z,ang_vel_x,ang_vel_y,ang_vel_z,lin_acc_x,lin_acc_y,lin_acc_z,q_0,q_1,q_2,q_3,q_4,q_5,q_6,q_7,q_8,q_9,q_10,q_11,q_12,q_13,q_14,q_15,q_16,q_17,q_18,q_19,q_20,q_21,q_22,dq_0,dq_1,dq_2,dq_3,dq_4,dq_5,dq_6,dq_7,dq_8,dq_9,dq_10,dq_11,dq_12,dq_13,dq_14,dq_15,dq_16,dq_17,dq_18,dq_19,dq_20,dq_21,dq_22,mocap_time,mocap_timestamp,robot_x,robot_y,robot_yaw,ball_x,ball_y
1741432499.833018,-0.31296247243881226,0.022957531880318367,-0.036220226288757346,-0.9990801003611048,-0.13373494148254395,-0.04048830270767212,0.5635099411010742,1.7791006565093994,-12.046009063720703,3.7458646297454834,0.6811246871948242,0.2832460403442383,0.2004653960466385,-1.3428175449371338,0.005912871100008488,-0.5415045619010925,0.14400701224803925,1.3637986183166504,0.0036240178160369396,0.5327305793762207,-0.10013733059167862,-0.6048294901847839,-0.03490501269698143,-0.019645990803837776,0.6258106231689453,-0.1771855354309082,0.000767231045756489,-0.7867932915687561,0.0555046908557415,0.06198977679014206,1.1491950750350952,-0.354422003030777,-0.002136496128514409,-0.18088079988956451,0.29022759199142456,-0.03554730862379074,-0.21216712892055511,0.003845228347927332,0.3025817275047302,-0.10120502859354019,-0.369066447019577,0.015833042562007904,-0.32184237241744995,-0.846828281879425,-0.7783216834068298,0.35732197761535645,-0.5452404022216797,1.0993751287460327,-1.3701155185699463,0.08127682656049728,2.832514524459839,0.803135871887207,0.7331200242042542,-5.699349880218506,0.8307011723518372,-0.22541587054729462,1741432499.8522913,1741432500039,-3.846889892578125,1.7040263671875,0.9503994283842403,1.3639881591796876,2.3004892578125
1741432499.8351688,-0.2804144024848938,0.017465109468209852,-0.03309007521772712,-0.999299763270936,-0.1935492604970932,-0.2136749029159546,1.5115524530410767,5.313608646392822,1.7456649541854858,4.88958215713501,0.6822690963745117,0.2897310256958008,0.1962691694498062,-1.3477766513824463,0.005149920005351305,-0.5312047004699707,0.14820325374603271,1.3645615577697754,0.002861066721379757,0.5323491096496582,-0.08983749151229858,-0.6246662139892578,-0.038719769567251205,-0.0020981156267225742,0.6589990258216858,-0.21288470923900604,-0.0035437331534922123,-0.7036316394805908,0.0715266615152359,0.08220797777175903,0.962272047996521,-0.35847875475883484,-0.006294144317507744,0.0264887772500515,0.2424742877483368,-0.30722373723983765,-0.28401145339012146,-0.11579536646604538,0.47030147910118103,0.33260053396224976,0.03367535397410393,-0.00168140372261405,-0.04292174428701401,0.6063874959945679,-1.1424870491027832,-0.4279244840145111,0.9551767706871033,1.7278279066085815,-1.8039989471435547,-0.07147592306137085,4.195371150970459,0.7137058973312378,0.9569617509841919,-9.747042655944824,-0.3638240396976471,-0.1596963107585907,1741432499.8522913,1741432500039,-3.846889892578125,1.7040263671875,0.9503994283842403,1.3639881591796876,2.3004892578125
1741432499.8372672,0.6044553518295288,0.07974794564579053,-0.027947753064563638,-0.9964231973734443,-0.7028403282165527,0.09440216422080994,-1.2172085046768188,-10.657581329345703,1.3847569227218628,13.830163955688477,-0.4442281723022461,0.039864540100097656,0.22373540699481964,-1.374861478805542,0.005912871100008488,-0.49458304047584534,0.08602273464202881,1.3416730165481567,0.0036240178160369396,0.5201418995857239,0.016594186425209045,-0.6528953909873962,0.012397955171763897,0.11348897218704224,0.5144197940826416,-0.15092524886131287,0.0036269184201955795,-0.5498970150947571,0.0715266615152359,0.09517814964056015,0.9676127433776855,-0.17080733180046082,-0.027084527537226677,0.019936831668019295,-0.02450668439269066,-1.1387304067611694,0.16855615377426147,-0.0007265355088748038,-0.0693005844950676,1.7153643369674683,0.16457599401474,0.011937192641198635,-0.8662035465240479,0.6158270239830017,0.4863843321800232,0.5806840658187866,-1.4297747611999512,1.0268410444259644,0.41028979420661926,0.13991187512874603,0.15581892430782318,0.44924914836883545,-1.525556206703186,1.7019269466400146,0.40868428349494934,-0.4675755500793457,1741432499.8522913,1741432500039,-3.846889892578125,1.7040263671875,0.9503994283842403,1.3639881591796876,2.3004892578125
1741432499.853869,0.5825964212417603,0.08159658828533808,-0.006916867355162176,-0.9966414368900102,-0.9987350702285767,0.006539087276905775,-1.174822449684143,-1.3410720825195312,1.2972731590270996,5.655363082885742,-0.4507131576538086,0.046349525451660156,0.20466163754463196,-1.373335599899292,0.005912871100008488,-0.4983977973461151,0.11539635062217712,1.3428175449371338,0.0036240178160369396,0.5136567950248718,0.02040894143283367,-0.6517509818077087,0.04901960864663124,0.07648584991693497,0.5498970150947571,-0.1325627565383911,0.0014304907526820898,-0.5567635893821716,0.07953765243291855,0.061226826161146164,0.996604859828949,-0.15957392752170563,-0.018460527062416077,-0.19273249804973602,0.24266552925109863,-0.9218254089355469,0.11260390281677246,-0.010899771004915237,-0.22859056293964386,1.8520429134368896,0.16224150359630585,0.009209231473505497,-0.3442530930042267,0.10957258194684982,0.15576063096523285,2.374659538269043,-1.779261827468872,1.4703683853149414,0.9973682165145874,-0.22018587589263916,-0.4959503710269928,0.3139079809188843,-1.6651511192321777,1.578568696975708,0.547974705696106,0.5620906352996826,1741432499.8522913,1741432500039,-3.846889892578125,1.7040263671875,0.9503994283842403,1.3639881591796876,2.3004892578125
1741432499.8738809,0.5622535943984985,0.07973912997059467,0.015851280593106094,-0.9966897250674812,-1.0942597389221191,-0.10777875036001205,-1.095870018005371,-2.945263385772705,-0.4706248641014099,10.250338554382324,-0.4530019760131836,0.048256874084472656,0.19016556441783905,-1.369139313697815,0.005912871100008488,-0.5102235674858093,0.14400701224803925,1.3481581211090088,0.004005493130534887,0.5148012638092041,0.008201723918318748,-0.6326771974563599,0.0871671661734581,0.06351567804813385,0.5579079985618591,-0.09213182330131531,-0.016888031736016273,-0.5830853581428528,0.09403372555971146,0.03032730519771576,1.045433759689331,-0.16358211636543274,-0.007195295300334692,-0.09639342874288559,0.09748585522174835,-0.7116189002990723,0.3198479115962982,-0.015059638768434525,-0.6277451515197754,1.9027882814407349,0.3948768675327301,0.013458152301609516,0.11787071824073792,-0.8901277184486389,1.202736496925354,1.5946441888809204,-0.22533908486366272,0.43618106842041016,2.418013572692871,-0.875853955745697,-1.5804163217544556,0.9421260356903076,-1.4574580192565918,2.6536734104156494,-0.6167545914649963,0.43074479699134827,1741432499.8522913,1741432500039,-3.846889892578125,1.7040263671875,0.9503994283842403,1.3639881591796876,2.3004892578125
1741432499.8939087,0.5341994762420654,0.07663237608403983,0.04291178954418398,-0.9961355616851704,-1.1948988437652588,-0.12862001359462738,-1.6021873950958252,-2.9282329082489014,-6.234565258026123,25.046384811401367,-0.4564352035522461,0.047112464904785156,0.17261768877506256,-1.3607468605041504,0.005912871100008488,-0.5251010656356812,0.16918440163135529,1.3569320440292358,0.004005493130534887,0.5151827335357666,-0.020027466118335724,-0.6189440488815308,0.11081864684820175,0.06809338182210922,0.5750743746757507,-0.02555450052022934,-0.01867598295211792,-0.6227588057518005,0.09403372555971146,0.0032425422687083483,1.1217288970947266,-0.2138395607471466,-0.006363518536090851,-0.11511917412281036,-0.04599757865071297,-0.8414247035980225,0.6025406122207642,0.0004748747742269188,-0.7467457056045532,1.6703507900238037,0.5617595911026001,-0.001067106844857335,-0.0939902663230896,-1.2960699796676636,0.3238585293292999,1.2371220588684082,0.1723797470331192,1.1620469093322754,3.1809117794036865,0.1997213363647461,-2.1430623531341553,-0.2475707083940506,-1.392313003540039,3.6515467166900635,-2.7496883869171143,0.24627743661403656,1741432499.8522913,1741432500039,-3.846889892578125,1.7040263671875,0.9503994283842403,1.3639881591796876,2.3004892578125
1741432499.9139748,0.5113658905029297,0.07974785652357881,0.051317417690368496,-0.9954932455931014,-0.1654362827539444,0.32984843850135803,-1.090794324874878,-3.914485216140747,-0.6076722145080566,14.097906112670898,-0.4552907943725586,0.02536773681640625,0.14438849687576294,-1.3534988164901733,0.005912871100008488,-0.5399786233901978,0.18558785319328308,1.3615097999572754,0.002861066721379757,0.5155642032623291,-0.013542382046580315,-0.6368734240531921,0.11577782779932022,0.06847485899925232,0.622377336025238,-0.008347207680344582,-0.00777464359998703,-0.6670100092887878,0.07915617525577545,-0.0398641936480999,1.182383418083191,-0.28312671184539795,-0.0016826993087306619,0.09388978034257889,-0.6993045806884766,-1.6291241645812988,0.47103071212768555,-0.021193522959947586,-0.7163764834403992,1.0097558498382568,0.2739236652851105,-0.08153726160526276,0.09921561181545258,0.3832642138004303,-0.8512977957725525,0.07496574521064758,-0.08377338200807571,2.3192594051361084,0.49440109729766846,0.29444921016693115,-2.389122247695923,-0.6682547330856323,-2.353782892227173,2.7185025215148926,-3.5328290462493896,0.3080640137195587,1741432499.9587922,1741432500139,-3.804013427734375,1.7539788818359376,0.8905991741336953,1.54022802734375,2.196247802734375
1741432499.9339752,0.49765336513519287,0.0836848959113816,0.043944997144029475,-0.9955228151189266,0.4207916855812073,0.14900411665439606,-0.542383074760437,2.497297763824463,-0.48739033937454224,6.941976547241211,-0.4652090072631836,0.01201629638671875,0.1192111074924469,-1.3531173467636108,0.005912871100008488,-0.5510414242744446,0.19474326074123383,1.361128330230713,0.0032425422687083483,0.5155642032623291,-0.02384222112596035,-0.6349660754203796,0.11577782779932022,0.057793546468019485,0.6326771974563599,-0.005225864239037037,-0.010520130395889282,-0.7101167440414429,0.0722896158695221,-0.06656748056411743,1.2029831409454346,-0.352172315120697,0.007811741437762976,-0.29204946756362915,-0.4639183282852173,-1.1554114818572998,-0.06004149094223976,-0.0037049727980047464,-0.5459724068641663,0.5511623024940491,-0.06144244223833084,0.03256015479564667,-0.0004382241459097713,-0.7551684975624084,0.3961694538593292,0.056337177753448486,-0.48153573274612427,0.10329008102416992,0.18142952024936676,-0.047880399972200394,-1.8838862180709839,-0.31268030405044556,-0.8285443186759949,0.7932596802711487,-3.4028422832489014,0.6243665218353271,1741432499.9587922,1741432500139,-3.804013427734375,1.7539788818359376,0.8905991741336953,1.54022802734375,2.196247802734375
1741432499.954041,0.4929161071777344,0.08058509434182971,0.03729452475606479,-0.9960497783711102,0.31965571641921997,-0.1376802623271942,-0.24678200483322144,-1.795831561088562,-2.0746877193450928,8.664097785949707,-0.4633016586303711,0.01735687255859375,0.1024261862039566,-1.3519729375839233,0.005912871100008488,-0.5594338774681091,0.1985580176115036,1.361128330230713,0.002861066721379757,0.5151827335357666,-0.040627144277095795,-0.6006332635879517,0.13141833245754242,0.04100862145423889,0.6181811094284058,-0.0044775367714464664,-0.013597680255770683,-0.726138710975647,0.0711451917886734,-0.058175019919872284,1.19153892993927,-0.4100513458251953,0.010102711617946625,0.034479402005672455,0.1453613042831421,-0.7255000472068787,0.1128208115696907,-0.010529515333473682,-0.3682522177696228,0.23351538181304932,0.014239559881389141,-0.0017583724111318588,-0.0497317835688591,-0.7858784198760986,1.801747441291809,0.7261117100715637,-0.6364943981170654,-0.6738072037696838,-0.04126439616084099,-0.19619247317314148,-0.5231010913848877,-0.10751509666442871,0.6108793020248413,-0.9752044677734375,-2.7346208095550537,-0.031241534277796745,1741432499.9587922,1741432500139,-3.804013427734375,1.7539788818359376,0.8905991741336953,1.54022802734375,2.196247802734375
1741432499.9740086,0.48142898082733154,0.0764533290080083,0.037951816450036015,-0.9963506150506136,-0.04548003897070885,-0.1698186993598938,-0.6404281854629517,-1.6109451055526733,0.6759871244430542,5.6388349533081055,-0.4598684310913086,0.03032684326171875,0.10090028494596481,-1.3500655889511108,0.005912871100008488,-0.5624856948852539,0.20428015291690826,1.3645615577697754,0.0036240178160369396,0.5125123858451843,-0.038719769567251205,-0.5739299654960632,0.13752193748950958,0.034142062067985535,0.6097886562347412,-0.01481350976973772,-0.022214794531464577,-0.7234683632850647,0.07495994865894318,-0.054741740226745605,1.1388952732086182,-0.44107213616371155,0.004458936862647533,0.08675140142440796,0.4224678575992584,0.027351800352334976,0.1041257306933403,-0.00937090814113617,-0.17056655883789062,0.4322320818901062,0.32590168714523315,0.025292230769991875,-0.1491127759218216,0.2981986701488495,1.2147765159606934,0.1919269561767578,-0.28861841559410095,-0.27919119596481323,-0.6003921031951904,-0.42490410804748535,0.14368635416030884,0.3044724762439728,-0.06557510048151016,-2.9056615829467773,-1.239625334739685,-0.21699030697345734,1741432499.9587922,1741432500139,-3.804013427734375,1.7539788818359376,0.8905991741336953,1.54022802734375,2.196247802734375
1741432499.994052,0.4607555866241455,0.07413120850526997,0.0432031501342845,-0.9963122260335977,-0.19067560136318207,-0.06422630697488785,-1.0633383989334106,-0.071293905377388,-1.1763299703598022,5.261346817016602,-0.4598684310913086,0.031853675842285156,0.11043716967105865,-1.3473951816558838,0.005912871100008488,-0.5640115737915039,0.20580606162548065,1.37142813205719,0.0036240178160369396,0.5148012638092041,-0.02727550081908703,-0.5617227554321289,0.14171816408634186,0.028038453310728073,0.6197070479393005,-0.0300153736025095,-0.02353069931268692,-0.7104982137680054,0.07953765243291855,-0.06466010212898254,1.043144941329956,-0.4381162226200104,0.010445861145853996,-0.00018262947560288012,0.06157304719090462,0.5737085342407227,0.15553322434425354,-0.010229368694126606,-0.039725564420223236,0.041739486157894135,0.3686840832233429,0.002432486740872264,0.1599023938179016,0.5580168962478638,0.5158815383911133,0.246603325009346,-0.38925135135650635,0.631292462348938,-0.7808799743652344,0.06828677654266357,0.8384097814559937,0.17445790767669678,-0.5212423801422119,-5.071786403656006,0.42249250411987305,0.24431903660297394,1741432499.9587922,1741432500139,-3.804013427734375,1.7539788818359376,0.8905991741336953,1.54022802734375,2.196247802734375
1741432500.0140722,0.4390980005264282,0.07283737632130458,0.050267679240665296,-0.9960762405731733,-0.28324708342552185,-0.013912548311054707,-1.046100378036499,-2.9051053524017334,-0.5214715003967285,4.878260135650635,-0.4583425521850586,0.02765655517578125,0.12684062123298645,-1.3428175449371338,0.005912871100008488,-0.5632486343383789,0.20389868319034576,1.3725725412368774,0.0036240178160369396,0.5163271427154541,-0.013542382046580315,-0.5621042251586914,0.14362554252147675,0.024605173617601395,0.6448844075202942,-0.05098258703947067,-0.015793975442647934,-0.6799801588058472,0.08220797777175903,-0.07419699430465698,0.9187838435173035,-0.4060705006122589,0.010532422922551632,0.030063122510910034,-0.12924930453300476,0.745614767074585,0.37682095170021057,0.008316227234899998,0.017579590901732445,-0.1269598752260208,0.05116317793726921,0.0017161329742521048,0.07629938423633575,0.7513406276702881,-0.12659558653831482,0.05863802507519722,-0.06722722947597504,1.368428111076355,-1.1074566841125488,0.3587883412837982,1.6182408332824707,0.17734594643115997,-0.39403235912323,-6.4038591384887695,1.7529058456420898,-0.1321849226951599,1741432500.0578454,1741432500239,-3.773230712890625,1.7770321044921875,0.9023421390304365,1.6884381103515624,2.133752197265625
1741432500.0340943,0.4252474308013916,0.07296140308357049,0.05703689792103535,-0.9957024786228174,-0.27510979771614075,0.046073369681835175,-0.6101164221763611,-3.1260950565338135,-0.4017878770828247,4.1849684715271,-0.4552907943725586,0.02384185791015625,0.13942931592464447,-1.3340435028076172,0.005912871100008488,-0.5617227554321289,0.20275425910949707,1.37295401096344,0.0036240178160369396,0.5167086124420166,-0.006294346414506435,-0.576218843460083,0.14095520973205566,0.026131074875593185,0.6780728101730347,-0.08186475932598114,-0.011156579479575157,-0.6418325901031494,0.09174486994743347,-0.08182650804519653,0.7814526557922363,-0.35831236839294434,0.004903125111013651,0.07861427217721939,-0.1203036680817604,0.5774596929550171,0.5468155741691589,-0.000554776459466666,0.12205643951892853,-0.01949434168636799,0.04788205027580261,0.002682759892195463,0.025401810184121132,0.2117862105369568,-0.8262826204299927,-0.19248545169830322,0.07555214315652847,1.660914421081543,-1.6082347631454468,0.224908709526062,1.9887127876281738,0.5205391645431519,-0.37782663106918335,-6.9098615646362305,2.4559826850891113,-0.3616221249103546,1741432500.0578454,1741432500239,-3.773230712890625,1.7770321044921875,0.9023421390304365,1.6884381103515624,2.133752197265625
1741432500.0541246,0.4250056743621826,0.07501897701668019,0.05746724385794932,-0.9955248208712537,0.03080177493393421,0.1192224770784378,0.0425015389919281,-2.7017898559570312,0.3863055408000946,6.912708282470703,-0.4476613998413086,0.02155303955078125,0.14438849687576294,-1.3287029266357422,0.005912871100008488,-0.5556191205978394,0.20428015291690826,1.3725725412368774,0.0036240178160369396,0.5151827335357666,-0.011635004542768002,-0.5937666893005371,0.12684062123298645,0.03223468363285065,0.7230868935585022,-0.12263208627700806,-0.011326638050377369,-0.6078813076019287,0.09708552807569504,-0.08182650804519653,0.647173285484314,-0.3070394992828369,-0.0002612356038298458,0.21283793449401855,-0.05917683243751526,0.2025747299194336,0.28344231843948364,-0.008743529208004475,0.3796038329601288,0.11979833245277405,-0.0449252612888813,-0.0023182490840554237,-0.1442854404449463,-0.24321255087852478,-0.697530210018158,-0.8121675848960876,0.39914458990097046,2.361441135406494,-2.1767446994781494,-0.06286189705133438,1.5735384225845337,0.08203614503145218,0.07257594168186188,-6.609821796417236,2.5119194984436035,-0.3030433654785156,1741432500.0578454,1741432500239,-3.773230712890625,1.7770321044921875,0.9023421390304365,1.6884381103515624,2.133752197265625
1741432500.0741072,0.43023860454559326,0.07643989777777521,0.05212287544757311,-0.9957108756475446,0.2722979485988617,-0.05068760737776756,0.3220471441745758,-5.074404716491699,6.812403678894043,16.243852615356445,-0.4365987777709961,0.01239776611328125,0.14591439068317413,-1.3275585174560547,0.005912871100008488,-0.54264897108078,0.20580606162548065,1.369139313697815,0.0032425422687083483,0.5117494463920593,-0.008201723918318748,-0.6036850810050964,0.12684062123298645,0.04291599988937378,0.7639048099517822,-0.17681066691875458,-0.015113653615117073,-0.6040665507316589,0.0883115902543068,-0.08411535620689392,0.5941481590270996,-0.24089646339416504,-0.026209259405732155,0.27944624423980713,-0.26060429215431213,0.05247587338089943,0.033063098788261414,-0.007702292408794165,0.6731960773468018,0.07799319177865982,-0.25688931345939636,-0.0035639693960547447,-0.23834793269634247,0.3613761067390442,-0.5172183513641357,0.29368188977241516,0.3391163647174835,1.8314671516418457,-2.831860065460205,-0.11940045654773712,0.05529390648007393,-0.35225778818130493,-0.1699749082326889,-1.330273151397705,3.430929660797119,-1.6038683652877808,1741432500.0578454,1741432500239,-3.773230712890625,1.7770321044921875,0.9023421390304365,1.6884381103515624,2.133752197265625
1741432500.0940962,0.4345606565475464,0.07794662683579492,0.04910110237696471,-0.995747661363203,0.10958663374185562,0.18331728875637054,0.1503467857837677,6.822064399719238,1.8265384435653687,5.05025577545166,-0.4301137924194336,0.01468658447265625,0.1493476778268814,-1.3287029266357422,0.005912871100008488,-0.5304417610168457,0.20504310727119446,1.3645615577697754,0.0036240178160369396,0.5102235674858093,0.0020981156267225742,-0.5975814461708069,0.12493324279785156,0.05855649709701538,0.778782308101654,-0.23083506524562836,-0.015765827149152756,-0.6063553690910339,0.09021896868944168,-0.07991912961006165,0.6078813076019287,-0.1868983805179596,-0.03909458965063095,0.19880199432373047,-0.00933133065700531,0.21967734396457672,-0.09661609679460526,-0.0062556033954024315,0.5701459646224976,-0.037333205342292786,-0.2650768756866455,0.030993832275271416,-0.019823409616947174,0.4915103316307068,0.5190888047218323,-0.3861839473247528,1.0120062828063965,0.7167524099349976,-2.5297188758850098,-0.01174570620059967,-0.2280678153038025,-0.16376642882823944,0.4023176431655884,0.5164110660552979,2.437211036682129,-0.08936432003974915,1741432500.0578454,1741432500239,-3.773230712890625,1.7770321044921875,0.9023421390304365,1.6884381103515624,2.133752197265625
1741432500.1141531,0.42734038829803467,0.07572943433228556,0.04408545211998388,-0.9961533645413685,0.32866913080215454,-0.08651671558618546,-0.35957765579223633,-1.991722583770752,2.1126668453216553,17.715625762939453,-0.4182882308959961,0.02193450927734375,0.16117341816425323,-1.3390027284622192,0.005912871100008488,-0.5239566564559937,0.20237277448177338,1.3615097999572754,0.0036240178160369396,0.5125123858451843,0.024605173617601395,-0.5880445837974548,0.11310750246047974,0.059319447726011276,0.7906080484390259,-0.272055447101593,-0.011857028119266033,-0.5983443856239319,0.0715266615152359,-0.04634927958250046,0.6132219433784485,-0.15709856152534485,-0.02383829466998577,0.34395116567611694,0.23018048703670502,0.6397624015808105,-0.8676612973213196,-0.004109594970941544,0.19632995128631592,-0.2529994547367096,-0.1748371422290802,0.007193988189101219,0.2727392017841339,1.32998788356781,0.26720860600471497,-0.5210216641426086,-0.05518971383571625,0.7637933492660522,-2.0374526977539062,0.3115848898887634,0.8104053735733032,-0.9361840486526489,1.815557599067688,0.25500962138175964,1.3153154850006104,0.5349746346473694,1741432500.1678896,1741432500339,-3.742191162109375,1.783733642578125,0.8110018469521997,1.8134818115234375,2.09817333984375
1741432500.1344543,0.4089059829711914,0.07683084638199102,0.03668073955703943,-0.99636918077075,0.4547128677368164,0.07580163329839706,-0.9522759914398193,-0.4513298571109772,0.07555088400840759,12.025684356689453,-0.4037914276123047,0.02079010009765625,0.182154580950737,-1.3534988164901733,0.005912871100008488,-0.5292973518371582,0.18825818598270416,1.361128330230713,0.0036240178160369396,0.5224307775497437,0.04787518084049225,-0.6094071865081787,0.10585946589708328,0.04100862145423889,0.8279926776885986,-0.3082926571369171,-0.004903781693428755,-0.5758373141288757,0.06923781335353851,-0.032616160809993744,0.622377336025238,-0.15008316934108734,-0.02884864993393421,0.38902828097343445,-0.04436434805393219,1.162485122680664,-0.9589667916297913,0.000982120749540627,-0.3098312318325043,-1.198041558265686,-0.023001017048954964,0.013480953872203827,0.7052165865898132,0.9430437088012695,-1.558356761932373,-0.38820549845695496,-0.9536457061767578,2.0842232704162598,-1.8934985399246216,0.5449747443199158,0.8145690560340881,-0.3193425238132477,0.7063183188438416,0.29250964522361755,0.1592397540807724,-0.38610243797302246,1741432500.1678896,1741432500339,-3.742191162109375,1.783733642578125,0.8110018469521997,1.8134818115234375,2.09817333984375
1741432500.154714,0.39031243324279785,0.07239010972639785,0.031292844702339895,-0.9968853644648592,0.29843631386756897,-0.0978107899427414,-0.9264323711395264,-7.494826316833496,4.437073707580566,10.02710247039795,-0.4018840789794922,0.036812782287597656,0.20847637951374054,-1.3664690256118774,0.005912871100008488,-0.5403600931167603,0.164988175034523,1.3565505743026733,0.0036240178160369396,0.5407415628433228,0.05703059583902359,-0.6509880423545837,0.08030059933662415,0.022697795182466507,0.9164950251579285,-0.3553232252597809,0.009194215759634972,-0.5685893297195435,0.06466010212898254,-0.011635004542768002,0.6250476837158203,-0.1536862999200821,-0.019557418301701546,0.08589932322502136,0.3453022539615631,1.2184151411056519,-0.7376164197921753,-0.006741754245012999,-0.6508333086967468,-1.496057152748108,-0.36820870637893677,-0.004269272554665804,1.2373117208480835,0.4529360234737396,-1.8776971101760864,-1.3804341554641724,-0.7187049984931946,5.020952224731445,-2.407611131668091,0.577813446521759,0.5744609236717224,-0.009210231713950634,1.107136845588684,0.2265210598707199,-0.0511033721268177,0.6575725674629211,1741432500.1678896,1741432500339,-3.742191162109375,1.783733642578125,0.8110018469521997,1.8134818115234375,2.09817333984375
1741432500.174704,0.3680514097213745,0.0722776331476341,0.02474998927457552,-0.997077420152259,0.4197019040584564,-0.08705998212099075,-1.1347603797912598,-2.682264566421509,4.736999988555908,9.09141731262207,-0.3858623504638672,0.037957191467285156,0.2309834510087967,-1.373335599899292,0.006294346414506435,-0.5598153471946716,0.14476996660232544,1.3473951816558838,0.0036240178160369396,0.5628671646118164,0.05436026677489281,-0.7139315009117126,0.06008239835500717,0.015449759550392628,1.043907880783081,-0.4021800458431244,0.0013039812911301851,-0.569733738899231,0.06275273114442825,0.007057297509163618,0.6246662139892578,-0.1568613350391388,-0.014965462498366833,0.4651520550251007,0.1014871746301651,1.092109203338623,-0.4364970028400421,0.0037527778185904026,-0.994611918926239,-1.3178890943527222,-0.6293927431106567,0.03431841731071472,1.4185020923614502,-0.3111702501773834,-3.426670789718628,-0.8620637655258179,-0.18390189111232758,6.374300003051758,-2.2173824310302734,-0.6791844964027405,-0.3686111271381378,-0.17593981325626373,0.7203077077865601,-0.15066084265708923,-0.28764617443084717,0.1136772558093071,1741432500.1678896,1741432500339,-3.742191162109375,1.783733642578125,0.8110018469521997,1.8134818115234375,2.09817333984375
1741432500.1947637,0.34791743755340576,0.07406336427056404,0.019409751050803812,-0.9970646316247868,0.29272571206092834,0.16082672774791718,-0.9112290143966675,-6.661159992218018,1.6765514612197876,11.423008918762207,-0.3801403045654297,0.02536773681640625,0.2458609938621521,-1.3760058879852295,0.005912871100008488,-0.5857557058334351,0.12684062123298645,1.3359509706497192,0.0036240178160369396,0.5884260535240173,0.0394827201962471,-0.7829785346984863,0.05283436179161072,0.01926451548933983,1.1617838144302368,-0.42971640825271606,-0.010404731146991253,-0.571259617805481,0.05397878959774971,0.01773861236870289,0.6307697892189026,-0.16432569921016693,-0.019888022914528847,0.1456674486398697,-0.36278414726257324,0.6561599373817444,-0.047643888741731644,-0.00548424432054162,-1.3153114318847656,-1.161954402923584,-0.7659682035446167,-0.00841446965932846,1.719140648841858,-0.6452347636222839,-3.2000985145568848,-0.3760085105895996,0.17938107252120972,5.67484712600708,-1.188161849975586,-0.25263169407844543,0.08257128298282623,-0.44380316138267517,0.7156884074211121,0.49911174178123474,-0.3530992865562439,-0.20296184718608856,1741432500.1678896,1741432500339,-3.742191162109375,1.783733642578125,0.8110018469521997,1.8134818115234375,2.09817333984375
1741432500.2147498,0.3323718309402466,0.07483825111462221,0.01485707240342122,-0.9970850031816266,0.30680400133132935,-0.09643141180276871,-0.7497808933258057,2.228572368621826,1.869459867477417,8.319472312927246,-0.3763256072998047,0.032235145568847656,0.25272753834724426,-1.3744800090789795,0.006294346414506435,-0.612077534198761,0.11348897218704224,1.3264141082763672,0.0032425422687083483,0.614366352558136,0.02727550081908703,-0.8287556171417236,0.03833829239010811,0.023079270496964455,1.2201495170593262,-0.4313923120498657,-0.005650365259498358,-0.577744722366333,0.05092698708176613,0.032616160809993744,0.6391623020172119,-0.18103009462356567,-0.020691024139523506,0.1103811115026474,0.17860810458660126,0.32210594415664673,0.08420819044113159,-0.0015943815233185887,-1.2803707122802734,-0.7816833853721619,-0.6255338788032532,0.0223985705524683,1.6694743633270264,-0.8037407994270325,-2.2095654010772705,-0.8635514378547668,0.26861056685447693,2.233570098876953,0.18778899312019348,0.1359565109014511,-0.43738141655921936,-0.22764705121517181,0.5614578127861023,0.28609421849250793,-1.0029181241989136,-0.016642358154058456,1741432500.1678896,1741432500339,-3.742191162109375,1.783733642578125,0.8110018469521997,1.8134818115234375,2.09817333984375
1741432500.2347753,0.32516980171203613,0.06892082800405548,0.007133356915072522,-0.9975966292476922,0.39966434240341187,-0.2285422384738922,-0.22238437831401825,-1.7652274370193481,-0.12567923963069916,10.8770751953125,-0.3671703338623047,0.034905433654785156,0.25501641631126404,-1.370665192604065,0.005912871100008488,-0.6372548937797546,0.10891126841306686,1.3187845945358276,0.0032425422687083483,0.6387808322906494,0.020027466118335724,-0.8371480703353882,0.016594186425209045,0.02536812424659729,1.192301869392395,-0.4069245159626007,-0.009455423802137375,-0.572022557258606,0.04100862145423889,0.037193864583969116,0.655184268951416,-0.21007639169692993,-0.016711432486772537,0.2520356774330139,0.10144896060228348,0.06452228873968124,0.29164913296699524,0.0006830714410170913,-1.2894282341003418,-0.24223093688488007,-0.5253594517707825,-0.043096281588077545,1.6389371156692505,-0.1521119922399521,-0.014810674823820591,-0.9646190404891968,0.08160277456045151,-2.0060904026031494,1.308111310005188,-0.10841004550457001,0.5097881555557251,-0.6480371952056885,0.34895598888397217,1.0548261404037476,-1.517217755317688,0.31067293882369995,1741432500.2619143,1741432500439,-3.71894287109375,1.779681396484375,0.7331283657524209,1.9374613037109376,2.0712158203125
1741432500.2548022,0.3210636377334595,0.060712141859771175,0.0017473248934676906,-0.9981537870922074,0.2671734094619751,-0.5233983397483826,-0.2117759883403778,1.2089279890060425,1.4605828523635864,7.423002243041992,-0.3576335906982422,0.041390419006347656,0.25577935576438904,-1.363417148590088,0.005912871100008488,-0.6605249047279358,0.10967422276735306,1.3115365505218506,0.002861066721379757,0.6578545570373535,0.018501564860343933,-0.8085374236106873,-0.0013351644156500697,0.024986648932099342,1.0858701467514038,-0.371396541595459,-0.0031059342436492443,-0.5746929049491882,0.02880140393972397,0.03757534176111221,0.6792172193527222,-0.24656498432159424,-0.009574404917657375,0.2598068416118622,0.2721848487854004,0.04097134992480278,0.5276675820350647,0.0007393901469185948,-1.1063849925994873,0.09818282723426819,-0.4012141823768616,0.020942172035574913,1.1641197204589844,-0.2380383461713791,1.5776516199111938,-0.8689349889755249,0.01767219975590706,-5.927064418792725,1.7356536388397217,0.4892515540122986,-0.3860933482646942,-0.5435104966163635,-0.26779624819755554,1.1175384521484375,-1.9082400798797607,0.3089081645011902,1741432500.2619143,1741432500439,-3.71894287109375,1.779681396484375,0.7331283657524209,1.9374613037109376,2.0712158203125
1741432500.2748206,0.31727027893066406,0.046888926337409764,-0.0029434935020021293,-0.9988957725573417,0.2058643102645874,-0.668389081954956,-0.16453415155410767,1.0015482902526855,2.159090995788574,3.472764492034912,-0.3511486053466797,0.041771888732910156,0.25616082549095154,-1.3557876348495483,0.005912871100008488,-0.6723506450653076,0.11387044936418533,1.3107736110687256,0.0032425422687083483,0.6677729487419128,0.02040894143283367,-0.7490272521972656,-0.01583123579621315,0.028038453310728073,0.9245060086250305,-0.33773285150527954,0.002713904483243823,-0.5857557058334351,0.024223696440458298,0.024223696440458298,0.7116426229476929,-0.28763747215270996,-0.006781450472772121,0.19085516035556793,0.04799449071288109,0.0072394609451293945,0.48862114548683167,-0.007144545204937458,-0.47333383560180664,0.297210156917572,-0.03180462121963501,0.0005103463190607727,0.5896595120429993,0.41995635628700256,3.2095279693603516,-0.730605959892273,0.28964921832084656,-8.342741966247559,1.6115567684173584,0.25167593359947205,-0.3805829882621765,-0.22123077511787415,-0.5805062055587769,1.8276140689849854,-2.0464401245117188,0.1295361965894699,1741432500.2619143,1741432500439,-3.71894287109375,1.779681396484375,0.7331283657524209,1.9374613037109376,2.0712158203125
1741432500.2949545,0.30484986305236816,0.03637301848595382,-0.0014743950722415548,-0.9993371951875861,-0.09511632472276688,-0.5290453433990479,-0.6963695883750916,-0.811627209186554,1.8248646259307861,3.2440669536590576,-0.3431367874145508,0.034142494201660156,0.25539788603782654,-1.3473951816558838,0.005912871100008488,-0.6727321147918701,0.1180666834115982,1.3138253688812256,0.0032425422687083483,0.6658655405044556,0.03299763426184654,-0.6746395230293274,-0.03452353551983833,0.031090257689356804,0.7524605393409729,-0.32079872488975525,0.0032997513189911842,-0.5941481590270996,0.022697795182466507,0.007057297509163618,0.7555122971534729,-0.32703691720962524,-0.0025596756022423506,0.2103693038225174,-0.24952822923660278,-0.03763331100344658,0.5790072679519653,-0.0007406030199490488,0.023251531645655632,0.2417781949043274,0.23103228211402893,0.02794504351913929,-0.2677118480205536,0.5824133157730103,3.480337142944336,-0.8702542781829834,0.0016016110312193632,-8.220244407653809,0.639472484588623,0.06068354472517967,-0.6550245881080627,0.09583438187837601,-1.0662037134170532,2.1402482986450195,-1.9513986110687256,0.21286366879940033,1741432500.2619143,1741432500439,-3.71894287109375,1.779681396484375,0.7331283657524209,1.9374613037109376,2.0712158203125
1741432500.3149536,0.2925037145614624,0.02583357108821502,0.005433515176391127,-0.9996514910295778,-0.3862225115299225,-0.6175499558448792,-0.5684273838996887,-42.26140594482422,8.247203826904297,27.572328567504883,-0.3351259231567383,0.03070831298828125,0.25120165944099426,-1.3359509706497192,0.005912871100008488,-0.6681544184684753,0.1180666834115982,1.3168771266937256,0.002861066721379757,0.6582360863685608,0.048256658017635345,-0.650225043296814,-0.03299763426184654,0.024986648932099342,0.7021057605743408,-0.2813490331172943,0.00792946107685566,-0.6002517938613892,0.008201723918318748,-0.005912871100008488,0.8093003630638123,-0.35540252923965454,-0.011060192249715328,0.22623053193092346,-0.1137634888291359,-0.2458270788192749,0.7953691482543945,-0.008848154917359352,0.2960638403892517,-0.016358856111764908,0.18233852088451385,-0.03483738750219345,-0.5018934011459351,0.9475002288818359,1.1295710802078247,-0.00031915679574012756,-0.3206440210342407,-0.3914772868156433,2.076221466064453,0.44104498624801636,-0.2618153989315033,-1.3931430578231812,-0.3606322705745697,2.6871118545532227,-1.266749382019043,-0.5401948690414429,1741432500.2619143,1741432500439,-3.71894287109375,1.779681396484375,0.7331283657524209,1.9374613037109376,2.0712158203125
1741432500.3349836,0.2816857099533081,0.025215664864423778,0.004012728103946942,-0.9996739809851054,0.015351580455899239,-0.04629852622747421,-0.5712049007415771,-0.9361181855201721,5.6392645835876465,3.3701932430267334,-0.3168153762817383,0.01506805419921875,0.24013885855674744,-1.3237437009811401,0.005912871100008488,-0.6509880423545837,0.12149996310472488,1.3191660642623901,0.002861066721379757,0.6528953909873962,0.07534141838550568,-0.6532768607139587,-0.02880140393972397,0.0024795911740511656,0.7299534678459167,-0.2674335837364197,0.023505832999944687,-0.6029220819473267,0.0036240178160369396,-0.030708782374858856,0.8340963125228882,-0.38783177733421326,-0.009756973013281822,0.521599292755127,-0.4792308807373047,-0.6156013607978821,0.8029685616493225,-0.02226913720369339,0.7704017162322998,0.33614498376846313,0.002732438500970602,0.05260559171438217,-0.2997978627681732,1.137725830078125,-0.598565399646759,0.5742979645729065,-1.1550657749176025,0.75737065076828,0.32563403248786926,0.5013892650604248,-0.04636760428547859,0.2105327993631363,-1.4945955276489258,0.9735082387924194,-1.628189206123352,0.3487227261066437,1741432500.374547,1741432500539,-3.713710205078125,1.7889810791015626,0.7004330269939465,2.052918212890625,2.0406138916015624
1741432500.355033,0.2739126682281494,0.02075644523557767,0.00818628040820319,-0.9997510464081849,-0.3518553376197815,-0.1552438884973526,-0.3186798393726349,0.0036699026823043823,-1.3200886249542236,13.98992919921875,-0.3152894973754883,0.00705718994140625,0.22449836134910583,-1.3138253688812256,0.005912871100008488,-0.6441214680671692,0.13179980218410492,1.317258596420288,0.0032425422687083483,0.6506065726280212,0.09327077120542526,-0.6418325901031494,-0.018501564860343933,-0.0024795911740511656,0.7360570430755615,-0.26994019746780396,0.0056769102811813354,-0.6048294901847839,-0.00019073777366429567,-0.05664911866188049,0.8508812189102173,-0.4142199754714966,-0.004763347562402487,0.09727917611598969,-0.32123270630836487,-0.8220314979553223,0.6363381743431091,0.0024704597890377045,0.21821321547031403,0.7225933074951172,-0.06695783138275146,-0.016977395862340927,-0.10702907294034958,1.1612578630447388,1.0058056116104126,0.3989448547363281,-0.10765910148620605,0.4731484651565552,0.0034705093130469322,-0.7017437219619751,0.09040796011686325,-0.35842251777648926,-0.893239438533783,1.3434698581695557,-1.1953338384628296,0.038438308984041214,1741432500.374547,1741432500539,-3.713710205078125,1.7889810791015626,0.7004330269939465,2.052918212890625,2.0406138916015624
1741432500.3750074,0.2620331048965454,0.012956865786362445,0.01847837190698221,-0.9997453022648626,-0.47360724210739136,-0.5481460690498352,-0.7653661370277405,0.6055670976638794,-5.692944526672363,13.411077499389648,-0.2977418899536133,0.02384185791015625,0.20695048570632935,-1.3065773248672485,0.005912871100008488,-0.6437399983406067,0.14133669435977936,1.3260325193405151,0.004386968910694122,0.6525139212608337,0.10891126841306686,-0.6353475451469421,-0.01506828423589468,-0.00476844422519207,0.7406347990036011,-0.27058377861976624,0.0078345388174057,-0.6105515956878662,-0.01125352829694748,-0.07457847148180008,0.8989471197128296,-0.43150001764297485,-0.00804835557937622,0.536072850227356,0.33629631996154785,-0.8287333846092224,0.44721612334251404,0.01907133124768734,-0.06015055999159813,0.642267644405365,0.5950021743774414,0.1529352217912674,0.12803667783737183,0.6248000264167786,0.09221778064966202,0.15948767960071564,-0.3139150142669678,0.16516391932964325,-0.026690568774938583,0.15131144225597382,-0.5330409407615662,-0.5400183200836182,-1.083366870880127,2.59086537361145,-0.7926684021949768,-0.009536726400256157,1741432500.374547,1741432500539,-3.713710205078125,1.7889810791015626,0.7004330269939465,2.052918212890625,2.0406138916015624
1741432500.395041,0.24637997150421143,0.005755136615443783,0.027901447527158875,-0.9995941114414524,-0.4680611789226532,-0.184618279337883,-0.8592020869255066,2.6499576568603516,4.905737400054932,7.984272480010986,-0.2874422073364258,0.01468658447265625,0.19054703414440155,-1.2993292808532715,0.005531395319849253,-0.6513695120811462,0.15697719156742096,1.3321361541748047,0.00476844422519207,0.6605249047279358,0.12989242374897003,-0.6204699873924255,-0.013160906732082367,-0.013542382046580315,0.7524605393409729,-0.27054929733276367,0.00698978453874588,-0.6357290148735046,-0.023079270496964455,-0.11272602528333664,0.9721904397010803,-0.43870556354522705,0.0037326819729059935,0.2811497747898102,-0.2486162632703781,-0.8375368118286133,0.446380078792572,-0.031234687194228172,-0.5123486518859863,1.1267375946044922,0.32756945490837097,-0.01861552521586418,0.5977989435195923,1.1097309589385986,0.891934871673584,0.06538156419992447,-0.19714544713497162,0.6736883521080017,-0.0375165157020092,0.010956333950161934,-1.3971041440963745,-0.535841703414917,-2.0405752658843994,3.7223446369171143,-0.24744632840156555,0.5691443085670471,1741432500.374547,1741432500539,-3.713710205078125,1.7889810791015626,0.7004330269939465,2.052918212890625,2.0406138916015624
1741432500.4150522,0.21828365325927734,-0.0019503033696066114,0.03182767564921492,-0.999491468387567,-0.14003168046474457,-0.4373818039894104,-1.4037665128707886,1.1798814535140991,-2.7187933921813965,11.053570747375488,-0.2798118591308594,0.02117156982421875,0.18596932291984558,-1.2943700551986694,0.005912871100008488,-0.6658655405044556,0.17566949129104614,1.3309917449951172,0.005149920005351305,0.6761654019355774,0.14438849687576294,-0.619325578212738,-0.009727626107633114,-0.013923857361078262,0.7536049485206604,-0.2782963216304779,0.010631871409714222,-0.6776912808418274,-0.0394827201962471,-0.15583276748657227,1.0603113174438477,-0.43507471680641174,0.004184282850474119,0.2071397602558136,0.17192813754081726,-0.10342101752758026,0.31059154868125916,-0.0037339353002607822,-0.7345289587974548,1.2567155361175537,-0.1485392451286316,0.058990031480789185,1.0725260972976685,0.5876034498214722,-0.018425781279802322,0.1519995480775833,0.0002888808085117489,0.02096223272383213,-0.491426020860672,0.08908598124980927,-2.1901743412017822,-0.9820913076400757,-1.9932613372802734,4.42496919631958,0.27707576751708984,-0.0411226786673069,1741432500.374547,1741432500539,-3.713710205078125,1.7889810791015626,0.7004330269939465,2.052918212890625,2.0406138916015624
1741432500.4350762,0.1955348253250122,-0.008351509230714923,0.03048360768469534,-0.9995003761660596,0.06388799101114273,-0.20234553515911102,-1.1402525901794434,1.42551851272583,-2.726919174194336,9.910531997680664,-0.2695121765136719,0.01468658447265625,0.17795833945274353,-1.2882665395736694,0.005912871100008488,-0.6887540817260742,0.1962691694498062,1.3260325193405151,0.004386968910694122,0.699816882610321,0.14782176911830902,-0.6094071865081787,-0.0078202486038208,-0.013923857361078262,0.76276034116745,-0.2959711253643036,0.009278214536607265,-0.7196536064147949,-0.06427863240242004,-0.1806286722421646,1.1354619264602661,-0.4208862781524658,0.0008862098911777139,0.3089101016521454,-0.14535146951675415,-0.5578409433364868,0.39968568086624146,0.0037821936421096325,-1.1921708583831787,1.4401942491531372,-0.3311620354652405,-0.0584949292242527,1.5784990787506104,0.15320956707000732,0.6171349287033081,0.12277310341596603,-0.018695201724767685,0.521765947341919,-0.9534203410148621,-0.037059832364320755,-2.0370357036590576,-1.1699851751327515,-1.0110951662063599,3.5290212631225586,0.7614008784294128,-0.20649462938308716,1741432500.4676383,1741432500639,-3.706876708984375,1.80176318359375,0.7319018169273284,2.16682470703125,2.0152852783203126
1741432500.4551203,0.1794111728668213,-0.01221259218846384,0.028472394472204655,-0.9995199724593088,0.09200238436460495,-0.2099674940109253,-0.7386246919631958,-2.783167839050293,-5.105371952056885,11.980990409851074,-0.2645530700683594,0.01010894775390625,0.15774014592170715,-1.2848331928253174,0.005912871100008488,-0.7162203192710876,0.22449836134910583,1.3176400661468506,0.004005493130534887,0.7257572412490845,0.1489662081003189,-0.6029220819473267,-0.00019073777366429567,-0.01201647985726595,0.7688639760017395,-0.3188435137271881,0.006227979902178049,-0.7490272521972656,-0.07343403995037079,-0.19016556441783905,1.1758984327316284,-0.40197497606277466,0.0026393558364361525,0.1438969224691391,-0.1552603840827942,-1.1188585758209229,0.1521972268819809,-0.0003664390242192894,-1.4002950191497803,1.891148328781128,-0.624663233757019,0.0008093977230601013,1.6997426748275757,-0.02258492447435856,0.05637660622596741,0.3322296440601349,0.12179018557071686,0.15795834362506866,-1.0950711965560913,-0.21112069487571716,-1.2208644151687622,-0.18284770846366882,-0.3832465708255768,1.7357532978057861,0.932278573513031,0.06462891399860382,1741432500.4676383,1741432500639,-3.706876708984375,1.80176318359375,0.7319018169273284,2.16682470703125,2.0152852783203126
1741432500.4751222,0.173395037651062,-0.018239255982511866,0.026620734025934584,-0.9994791974128951,0.07420078665018082,-0.18072345852851868,-0.18975979089736938,2.9512579441070557,-1.7877486944198608,8.041120529174805,-0.2557792663574219,0.00476837158203125,0.12836651504039764,-1.2848331928253174,0.005912871100008488,-0.7459754347801208,0.2573052644729614,1.3107736110687256,0.004005493130534887,0.7509346008300781,0.14476996660232544,-0.5933852195739746,0.00667582219466567,-0.011635004542768002,0.7753490209579468,-0.33798906207084656,0.00410464545711875,-0.7551308274269104,-0.0711451917886734,-0.19245441257953644,1.1732280254364014,-0.3859182894229889,0.001540609635412693,0.24615618586540222,-0.13499058783054352,-1.5634934902191162,0.007604019250720739,-0.005560726393014193,-1.4195094108581543,2.1763622760772705,-0.3957889676094055,0.0029131819028407335,1.6697248220443726,-0.1804412305355072,0.9341633915901184,0.42955780029296875,-0.04960354045033455,0.441250205039978,-0.9781739711761475,-0.04856997728347778,-0.20409153401851654,0.07116574794054031,-0.11957242339849472,-0.48605838418006897,0.7825679779052734,-0.1302512288093567,1741432500.4676383,1741432500639,-3.706876708984375,1.80176318359375,0.7319018169273284,2.16682470703125,2.0152852783203126
1741432500.4952104,0.17556524276733398,-0.022586667396556823,0.02652181594046887,-0.9993930336635019,-0.017132002860307693,-0.23870952427387238,0.13468094170093536,8.862264633178711,-0.5879185199737549,7.876259803771973,-0.24700546264648438,0.00591278076171875,0.09746700525283813,-1.2836887836456299,0.005912871100008488,-0.7761120200157166,0.28934919834136963,1.306958794593811,0.004386968910694122,0.7742046117782593,0.14133669435977936,-0.5827038884162903,0.01583123579621315,-0.011635004542768002,0.7784008383750916,-0.36079251766204834,-0.001855030539445579,-0.7436865568161011,-0.07000076025724411,-0.1962691694498062,1.1373693943023682,-0.3764629662036896,-0.0007603602716699243,0.2519638240337372,0.06480129808187485,-1.624804139137268,0.09764909744262695,0.0003937080909963697,-1.501298427581787,2.148231029510498,-0.2850794792175293,0.015504410490393639,1.4603174924850464,-0.1332089900970459,0.19907450675964355,0.47675007581710815,0.04496429115533829,0.06883683800697327,-1.1209155321121216,-0.4377326965332031,0.7720532417297363,-0.0026519738603383303,-0.19526146352291107,-1.9551857709884644,0.4101225435733795,0.0007069779676385224,1741432500.4676383,1741432500639,-3.706876708984375,1.80176318359375,0.7319018169273284,2.16682470703125,2.0152852783203126
1741432500.5151975,0.1805708408355713,-0.026305280195388955,0.028848481083027105,-0.9992376080657914,-0.12413717061281204,-0.1067701131105423,0.2345404028892517,2.842573881149292,0.003357324982061982,5.95477819442749,-0.23708724975585938,0.00286102294921875,0.0722896158695221,-1.2806370258331299,0.005912871100008488,-0.8039597272872925,0.31757840514183044,1.3035255670547485,0.004386968910694122,0.7944228053092957,0.1501106321811676,-0.5731670260429382,0.025749599561095238,-0.011635004542768002,0.7906080484390259,-0.3807738423347473,-0.00975421816110611,-0.7207980751991272,-0.07305257022380829,-0.20237277448177338,1.0774776935577393,-0.37437841296195984,-0.0019528183620423079,0.29155468940734863,-0.07561422139406204,-1.2168529033660889,0.17257344722747803,-0.01172154862433672,-1.3509142398834229,1.818183183670044,-0.15795734524726868,-0.0002529533230699599,1.3838131427764893,0.646152675151825,0.5262981653213501,0.569542407989502,0.01323300413787365,0.6979024410247803,-1.055155634880066,-0.4032415449619293,1.208078145980835,-0.12522439658641815,-0.36531567573547363,-3.189938545227051,0.05580885708332062,-0.18608419597148895,1741432500.4676383,1741432500639,-3.706876708984375,1.80176318359375,0.7319018169273284,2.16682470703125,2.0152852783203126
1741432500.535192,0.18197417259216309,-0.02822092954812526,0.031386473800252584,-0.9991088371132675,-0.13248589634895325,-0.10045453906059265,0.034447427839040756,0.7202714681625366,2.1042792797088623,9.383783340454102,-0.22488021850585938,0.00171661376953125,0.056267641484737396,-1.2760592699050903,0.005912871100008488,-0.8310444951057434,0.3393225073814392,1.300473690032959,0.004386968910694122,0.8119707107543945,0.17261768877506256,-0.5766003131866455,0.03681239113211632,-0.00667582219466567,0.802815318107605,-0.40306317806243896,-0.020663240924477577,-0.6898985505104065,-0.07457847148180008,-0.2141985148191452,0.9954604506492615,-0.3786550760269165,-0.005771955940872431,0.3462044596672058,-0.020675096660852432,-0.6953158378601074,0.3655625581741333,-0.003108274657279253,-1.341518521308899,1.441853642463684,-0.2532409429550171,0.0016417060978710651,1.0996983051300049,1.0774965286254883,-0.36518800258636475,0.44924062490463257,0.34124377369880676,0.63715660572052,-1.040786623954773,-0.6215196251869202,1.5247172117233276,-0.06960595399141312,-0.6705172061920166,-4.264445781707764,-0.25166845321655273,-0.07151690870523453,1741432500.5732086,1741432500739,-3.69046923828125,1.7987059326171875,0.6370162085336769,2.274356689453125,1.990310546875
1741432500.555218,0.17125868797302246,-0.02715090011380128,0.0321372235013773,-0.9991146217970353,-0.03647024929523468,0.17210586369037628,-0.6096600890159607,4.8980560302734375,5.245697021484375,7.158153057098389,-0.21343517303466797,-0.00858306884765625,0.0551232174038887,-1.2714815139770508,0.005531395319849253,-0.8550774455070496,0.3526741564273834,1.292462706565857,0.004386968910694122,0.8279926776885986,0.1989395022392273,-0.5758373141288757,0.04329747334122658,-0.002861066721379757,0.8226520419120789,-0.4231851398944855,-0.027714399620890617,-0.657473087310791,-0.07419699430465698,-0.23250934481620789,0.8985656499862671,-0.3929464817047119,-0.001674519618973136,0.3311731219291687,-0.35886532068252563,0.06049847975373268,0.30492982268333435,-0.022493110969662666,-1.2074965238571167,0.717767596244812,-0.5674338936805725,0.0014699794119223952,1.068281888961792,1.476288914680481,0.14107346534729004,0.34047549962997437,0.277014821767807,1.0188661813735962,-1.0775030851364136,-0.32764458656311035,1.6016770601272583,0.04654993861913681,-0.9967190623283386,-4.925525665283203,-0.8706752061843872,0.1089620292186737,1741432500.5732086,1741432500739,-3.69046923828125,1.7987059326171875,0.6370162085336769,2.274356689453125,1.990310546875
1741432500.575282,0.1458592414855957,-0.022622553259439588,0.027251868978698024,-0.9993725810333159,0.23960775136947632,0.2839997410774231,-1.3740257024765015,2.1974048614501953,7.763038158416748,15.97188949584961,-0.19893932342529297,-0.01468658447265625,0.06618601083755493,-1.2634705305099487,0.005912871100008488,-0.8764400482177734,0.35076677799224854,1.2787295579910278,0.004386968910694122,0.8447775840759277,0.22564278542995453,-0.5727855563163757,0.04444190114736557,0.008201723918318748,0.840962827205658,-0.4430270195007324,-0.035039011389017105,-0.6288624405860901,-0.08030059933662415,-0.2447165697813034,0.8009079098701477,-0.4157826006412506,-0.008447208441793919,0.4180600643157959,-0.2141960710287094,0.6457082033157349,0.56502765417099,0.0017495687352493405,-1.034184217453003,-0.26937389373779297,-0.964495837688446,0.005781904328614473,1.155792236328125,1.1668070554733276,0.019668618217110634,-0.024862444028258324,0.4558590054512024,0.8699963688850403,-0.9514524936676025,-0.36336416006088257,1.4383692741394043,-0.48217082023620605,-0.5596607327461243,-4.760383605957031,-0.9220322370529175,-0.4981691837310791,1741432500.5732086,1741432500739,-3.69046923828125,1.7987059326171875,0.6370162085336769,2.274356689453125,1.990310546875
1741432500.5953155,0.11265015602111816,-0.02121219186638531,0.019135502100776632,-0.999591854446391,0.2828969359397888,0.10927838087081909,-1.7464652061462402,1.6243990659713745,-1.2602792978286743,8.216024398803711,-0.18520641326904297,-0.00743865966796875,0.09060044586658478,-1.2600373029708862,0.005912871100008488,-0.8928435444831848,0.33436331152915955,1.2623261213302612,0.004005493130534887,0.8592736721038818,0.24052032828330994,-0.5674448609352112,0.040627144277095795,0.007057297509163618,0.8550774455070496,-0.45999419689178467,-0.037107452750205994,-0.6044480204582214,-0.07534141838550568,-0.2634088695049286,0.8054856061935425,-0.4103527069091797,-0.03346527740359306,0.4225967824459076,0.2313382923603058,1.2821816205978394,0.09029548615217209,-2.6203122615697794e-05,-0.7732925415039062,-1.223136067390442,-1.0222400426864624,-0.010078425519168377,0.8139219284057617,0.6482996344566345,0.5836356282234192,-0.2320249378681183,-0.2910131812095642,0.455051451921463,-0.9302898645401001,0.12806004285812378,1.045458436012268,0.6285524368286133,-0.7858045101165771,0.43061357736587524,-0.018607910722494125,-1.0145957469940186,1741432500.5732086,1741432500739,-3.69046923828125,1.7987059326171875,0.6370162085336769,2.274356689453125,1.990310546875
1741432500.615296,0.07665252685546875,-0.025475811417295303,0.014670441972145377,-0.9995677871785247,0.24203144013881683,-0.2586554288864136,-1.7761856317520142,-4.388899803161621,6.598280429840088,10.802274703979492,-0.17948436737060547,0.00591278076171875,0.12569619715213776,-1.2585114240646362,0.005912871100008488,-0.9073395729064941,0.3057526648044586,1.2546966075897217,0.00476844422519207,0.8760585784912109,0.23746852576732635,-0.536163866519928,0.02536812424659729,-0.016212711110711098,0.8516441583633423,-0.4836580753326416,-0.01968654990196228,-0.5910963416099548,-0.08106355369091034,-0.24242770671844482,0.7944228053092957,-0.419253408908844,-0.025903603062033653,0.20004773139953613,0.4811027944087982,1.7914334535598755,0.09013258665800095,-0.0024373698979616165,-0.713772177696228,-2.0609054565429688,-0.5263857245445251,0.03536876663565636,1.184885025024414,-0.12953336536884308,1.4781972169876099,-0.8504856824874878,-1.3863550424575806,-0.1616564393043518,-1.13533616065979,0.9245676398277283,0.9600741267204285,-0.5137589573860168,1.436850666999817,-0.7660541534423828,-0.46529221534729004,0.47697752714157104,1741432500.5732086,1741432500739,-3.69046923828125,1.7987059326171875,0.6370162085336769,2.274356689453125,1.990310546875
1741432500.6353095,0.05443716049194336,-0.03210760823542906,0.00823745521476404,-0.9994504719219381,0.30132317543029785,-0.2705596089363098,-1.116066336631775,-4.140863418579102,-9.23840618133545,10.881865501403809,-0.16842174530029297,0.01659393310546875,0.15926603972911835,-1.2592743635177612,0.005531395319849253,-0.9206912517547607,0.2821011543273926,1.2485930919647217,0.004005493130534887,0.8932250142097473,0.22526131570339203,-0.5220493078231812,-0.008201723918318748,-0.056267641484737396,0.8535515666007996,-0.5084211826324463,-0.008215920068323612,-0.5464637279510498,-0.0715266615152359,-0.2157244235277176,0.7871748208999634,-0.42319580912590027,-0.031033413484692574,0.32677021622657776,0.37365078926086426,1.5392922163009644,-0.07851608097553253,-0.07853914797306061,-0.7475007772445679,-1.4880445003509521,-0.4236208498477936,-0.057484712451696396,1.1405211687088013,-0.6714529991149902,0.7250949144363403,-1.805861234664917,-2.0158703327178955,0.47582077980041504,-1.1672593355178833,0.5801938772201538,2.133223056793213,0.5090226531028748,1.1491641998291016,-0.24228861927986145,-0.17151547968387604,-0.2562192380428314,1741432500.6816592,1741432500839,-3.663183349609375,1.78541650390625,0.6136402326236392,2.3804748535156253,1.9688931884765626
1741432500.655352,0.050185441970825195,-0.035141785884816784,0.004774147427521524,-0.9993709333381504,0.161817267537117,-0.23112091422080994,-0.1287715882062912,-5.397315979003906,-2.3481667041778564,8.968278884887695,-0.16460704803466797,0.01964569091796875,0.18520638346672058,-1.2604187726974487,0.005912871100008488,-0.9359502792358398,0.2599755823612213,1.2417265176773071,0.0036240178160369396,0.9069581031799316,0.20199130475521088,-0.5300602912902832,-0.05092698708176613,-0.10776684433221817,0.9077210426330566,-0.5259351134300232,0.0011573772644624114,-0.5342565178871155,-0.058175019919872284,-0.1989395022392273,0.7715343236923218,-0.42568451166152954,-0.0344579741358757,0.13356894254684448,0.12298274785280228,1.2828693389892578,-0.03091587871313095,-0.04512296989560127,-0.7630658745765686,-1.5287476778030396,-0.48523133993148804,-0.0047409324906766415,0.9385954737663269,-1.237614631652832,-0.9608061909675598,-2.190758228302002,-2.4694533348083496,3.1059482097625732,-0.7884032130241394,0.34074991941452026,0.5999485850334167,0.6354081630706787,0.8503904938697815,-0.7078441381454468,-0.08082345128059387,-0.12935654819011688,1741432500.6816592,1741432500839,-3.663183349609375,1.78541650390625,0.6136402326236392,2.3804748535156253,1.9688931884765626
1741432500.6754143,0.061123013496398926,-0.03204805660500658,0.004668879150535013,-0.9994754242277896,0.011717265471816063,0.22249998152256012,0.5924409627914429,0.14651627838611603,-2.721749782562256,6.42003870010376,-0.15964794158935547,0.01773834228515625,0.20656901597976685,-1.2592743635177612,0.005912871100008488,-0.952735185623169,0.23365376889705658,1.2386746406555176,0.0036240178160369396,0.918402373790741,0.17605096101760864,-0.5895704627037048,-0.08564125746488571,-0.13027389347553253,1.019874930381775,-0.5319477915763855,-0.006417601834982634,-0.5235751867294312,-0.048256658017635345,-0.19359883666038513,0.7665750980377197,-0.42667266726493835,-0.03411733731627464,0.1338319033384323,-0.07229768484830856,1.0076619386672974,0.09875348210334778,-0.01453000120818615,-0.8161014318466187,-1.9655042886734009,-0.12766839563846588,0.017243439331650734,0.7416646480560303,-1.2510156631469727,-3.500122308731079,-1.5475869178771973,-0.8349993228912354,6.085472583770752,-0.2286636233329773,-0.2940998673439026,0.41078734397888184,0.4697674810886383,0.291380912065506,-0.13960477709770203,-0.05281111225485802,0.0026812611613422632,1741432500.6816592,1741432500839,-3.663183349609375,1.78541650390625,0.6136402326236392,2.3804748535156253,1.9688931884765626
1741432500.6954,0.07914447784423828,-0.02684151021169014,0.008332500810598217,-0.9996049733568743,-0.1871362179517746,0.22984549403190613,0.9134993553161621,-1.6923060417175293,1.672957181930542,7.970639705657959,-0.14705848693847656,0.01621246337890625,0.2286945879459381,-1.2550780773162842,0.005912871100008488,-0.9637979865074158,0.1974135935306549,1.2386746406555176,0.0036240178160369396,0.924887478351593,0.1508735716342926,-0.6883726119995117,-0.10814831405878067,-0.13179980218410492,1.1667429208755493,-0.5298734903335571,-0.0027563406620174646,-0.5300602912902832,-0.04291599988937378,-0.1962691694498062,0.7681010365486145,-0.4320172965526581,-0.040086712688207626,0.3466765284538269,-0.027230383828282356,1.2210876941680908,0.35119208693504333,-0.008163508027791977,-0.5128542184829712,-2.487767219543457,-0.01113581471145153,0.014231347478926182,0.42846256494522095,-1.2623306512832642,-5.121519088745117,-1.1123236417770386,0.06630298495292664,7.553257942199707,0.1798837035894394,0.2483617663383484,-0.44237086176872253,0.3273445665836334,-0.23071585595607758,0.11952026188373566,-0.3137350380420685,-0.3719494342803955,1741432500.6816592,1741432500839,-3.663183349609375,1.78541650390625,0.6136402326236392,2.3804748535156253,1.9688931884765626
1741432500.715408,0.09748506546020508,-0.019334713272818292,0.016195267460429458,-0.9996818904904414,-0.3931484818458557,0.36608046293258667,0.8925261497497559,5.010395526885986,-2.4281506538391113,13.38276195526123,-0.14095497131347656,0.01544952392578125,0.2592126429080963,-1.2493560314178467,0.005912871100008488,-0.9676127433776855,0.15506981313228607,1.2386746406555176,0.0036240178160369396,0.9279392957687378,0.14057374000549316,-0.7917525172233582,-0.12188144028186798,-0.11310750246047974,1.2933928966522217,-0.5160589218139648,-0.00487108901143074,-0.5376898050308228,-0.035667963325977325,-0.20428015291690826,0.7745860815048218,-0.44156864285469055,-0.046393632888793945,0.18898631632328033,-0.004303964786231518,1.5429784059524536,0.3467652201652527,-0.011409292928874493,-0.1286967694759369,-2.9396584033966064,-0.008949972689151764,0.005389793310314417,0.14482323825359344,-0.31337496638298035,-5.055718898773193,-0.6187554001808167,0.9238487482070923,5.866261959075928,0.7634968161582947,-0.2656433582305908,-0.41699308156967163,0.34705454111099243,-0.4034535586833954,0.34882766008377075,-0.5094137787818909,-0.38095855712890625,1741432500.6816592,1741432500839,-3.663183349609375,1.78541650390625,0.6136402326236392,2.3804748535156253,1.9688931884765626
1741432500.7354643,0.10605001449584961,-0.014518156948765218,0.02438725045939702,-0.999597161427463,-0.3863808810710907,0.2287864238023758,0.26506710052490234,-3.352818489074707,0.9651118516921997,11.059341430664062,-0.12912940979003906,0.02117156982421875,0.2965972423553467,-1.2455412149429321,0.005912871100008488,-0.9630350470542908,0.10700388997793198,1.2386746406555176,0.0036240178160369396,0.9275577664375305,0.13981078565120697,-0.8573662638664246,-0.12607766687870026,-0.10204470902681351,1.355954885482788,-0.49302956461906433,-0.007638486567884684,-0.5487525463104248,-0.035667963325977325,-0.20809490978717804,0.7841230034828186,-0.4549725651741028,-0.05309111252427101,0.32478904724121094,0.16310741007328033,1.9455970525741577,0.23553085327148438,-0.01826959289610386,0.2766886055469513,-3.1806418895721436,0.02352764643728733,0.017042169347405434,-0.03602752089500427,-0.1326456516981125,-2.820728302001953,-0.17521405220031738,0.4346253573894501,2.394465208053589,1.1376917362213135,0.11517700552940369,-0.5186764001846313,0.01850314997136593,-0.24479718506336212,0.496577650308609,-0.6792188286781311,-0.22751092910766602,1741432500.7839339,1741432500939,-3.62988671875,1.766258056640625,0.5216927221616955,2.48457373046875,1.9496502685546875
1741432500.7554543,0.10411083698272705,-0.008037704108013502,0.028107113722092274,-0.9995726014006613,-0.14830729365348816,0.34533828496932983,-0.16212043166160583,5.370010852813721,6.1284589767456055,8.10110092163086,-0.11539649963378906,0.02117156982421875,0.3393225073814392,-1.2455412149429321,0.005912871100008488,-0.9557870030403137,0.05893797054886818,1.2402005195617676,0.004386968910694122,0.9290837049484253,0.14515145123004913,-0.8741512298583984,-0.12569619715213776,-0.10166323184967041,1.3338292837142944,-0.4696042239665985,0.000371012109098956,-0.5449378490447998,-0.03681239113211632,-0.21114671230316162,0.7959487438201904,-0.47161170840263367,-0.05431848019361496,0.38483840227127075,0.032792914658784866,2.1031510829925537,0.007247156463563442,-0.008802724070847034,0.42508357763290405,-3.125910520553589,0.10049833357334137,-0.0011081424308940768,0.11008504033088684,0.3879258334636688,-0.6650789380073547,0.03666573017835617,-0.03634192422032356,-1.8149296045303345,1.1259864568710327,0.34810400009155273,0.2634858787059784,-0.09356806427240372,-0.0458449088037014,0.6007078886032104,-0.8778471946716309,-0.10758169740438461,1741432500.7839339,1741432500939,-3.62988671875,1.766258056640625,0.5216927221616955,2.48457373046875,1.9496502685546875
1741432500.775467,0.08932769298553467,-0.005538111182280804,0.02583629562205113,-0.9996508466224908,0.15141233801841736,0.11492752283811569,-0.7325635552406311,0.6384569406509399,-0.5401968359947205,9.032443046569824,-0.09632301330566406,0.02574920654296875,0.38128480315208435,-1.2508819103240967,0.006294346414506435,-0.9447242021560669,0.019645990803837776,1.2424894571304321,0.004386968910694122,0.9298466444015503,0.1527809500694275,-0.8615625500679016,-0.1180666834115982,-0.11005569249391556,1.2289234399795532,-0.45810800790786743,0.001403719186782837,-0.5407415628433228,-0.03681239113211632,-0.2157244235277176,0.8070115447044373,-0.4899636507034302,-0.052724696695804596,0.5597769618034363,0.16055145859718323,2.034451961517334,-0.46551668643951416,-0.013007679022848606,0.5554143786430359,-2.568296194076538,0.1288047581911087,0.013573874719440937,0.11508432775735855,0.26990067958831787,0.9907122850418091,0.45266085863113403,-0.4133945107460022,-5.806201934814453,0.3866673409938812,0.106431744992733,0.22217902541160583,-0.015640897676348686,-0.24430976808071136,0.5591183304786682,-0.9173309803009033,0.05376603081822395,1741432500.7839339,1741432500939,-3.62988671875,1.766258056640625,0.5216927221616955,2.48457373046875,1.9496502685546875
1741432500.7955081,0.08220815658569336,-0.002813770215285099,0.01960731431445767,-0.9998037987138024,0.32217276096343994,0.154945969581604,-0.28345975279808044,1.639032006263733,-3.6749396324157715,7.020500183105469,-0.09060001373291016,0.02689361572265625,0.41256579756736755,-1.2543151378631592,0.006294346414506435,-0.9325169920921326,-0.012397955171763897,1.2436338663101196,0.004005493130534887,0.9336614012718201,0.1512550562620163,-0.813115119934082,-0.10090028494596481,-0.10624094307422638,1.0725184679031372,-0.46806401014328003,0.005972729530185461,-0.5331120491027832,-0.03490501269698143,-0.22487983107566833,0.8192187547683716,-0.5072400569915771,-0.053084421902894974,0.21217459440231323,0.07373450696468353,1.5156899690628052,-0.204158216714859,-0.011895702220499516,0.6025938391685486,-2.101437568664551,0.03447074443101883,-0.014194310642778873,0.2927808463573456,-0.15197539329528809,2.534607410430908,0.8532038331031799,0.469070702791214,-7.856517314910889,-0.6717098951339722,0.2763421833515167,0.4232706129550934,0.161655455827713,-0.5704694986343384,0.6040561199188232,-0.8275837302207947,0.03341999277472496,1741432500.7839339,1741432500939,-3.62988671875,1.766258056640625,0.5216927221616955,2.48457373046875,1.9496502685546875
1741432500.815548,0.08958137035369873,-0.00044474228332516924,0.017148797916367087,-0.9998528496405483,0.05116487666964531,0.057633157819509506,0.4144119322299957,-6.45470666885376,-9.86879825592041,5.270629405975342,-0.08602237701416016,0.02918243408203125,0.42629891633987427,-1.2539336681365967,0.006294346414506435,-0.9237430095672607,-0.02689402550458908,1.2386746406555176,0.004005493130534887,0.9428167939186096,0.13981078565120697,-0.7608529925346375,-0.08258945494890213,-0.08411535620689392,0.9050507545471191,-0.49747979640960693,0.006117228884249926,-0.5243381261825562,-0.02536812424659729,-0.23632410168647766,0.8272297382354736,-0.5191635489463806,-0.04894251003861427,0.13820020854473114,0.07682563364505768,0.5294950008392334,0.0630386546254158,-0.00920618511736393,0.42560264468193054,-0.7048693299293518,-0.36465853452682495,-0.0016685961745679379,0.6187364459037781,-0.5861894488334656,2.5828986167907715,0.8706522583961487,1.28482985496521,-8.013312339782715,-1.5983223915100098,0.09485052525997162,0.42174652218818665,0.49381908774375916,-0.5172253251075745,0.3917776048183441,-0.5306234955787659,0.1357664316892624,1741432500.7839339,1741432500939,-3.62988671875,1.766258056640625,0.5216927221616955,2.48457373046875,1.9496502685546875
1741432500.8355296,0.1088261604309082,-0.0016214697268659753,0.02740235237499053,-0.9996231699596813,-0.5227972269058228,-0.22047734260559082,1.0915277004241943,-12.019389152526855,17.61574363708496,21.25885009765625,-0.08182621002197266,0.034905433654785156,0.42553597688674927,-1.2493560314178467,0.005912871100008488,-0.918402373790741,-0.02193484455347061,1.23447847366333,0.0032425422687083483,0.9489204287528992,0.1363775134086609,-0.727664589881897,-0.0555046908557415,-0.06351567804813385,0.8764400482177734,-0.47998106479644775,-0.025492960587143898,-0.506790280342102,-0.02231631986796856,-0.24128328263759613,0.8371480703353882,-0.5219638347625732,-0.043903060257434845,0.07170705497264862,0.2707802355289459,-0.048914890736341476,0.4135594367980957,-0.00311010773293674,0.44336050748825073,0.4779182970523834,-0.1651500016450882,-0.06898831576108932,0.3514934778213501,-0.03400802984833717,1.4619593620300293,1.2865924835205078,0.7398972511291504,0.6551473736763,1.1530299186706543,-1.8759061098098755,1.0406283140182495,-0.12701977789402008,0.04575188830494881,0.3390924036502838,-0.052669353783130646,0.26775655150413513,1741432500.8779178,1741432501039,-3.591342041015625,1.7717769775390626,0.5568700924878356,2.583219482421875,1.9319139404296874
1741432500.8555696,0.13567352294921875,0.0018815915639187695,0.030880962391704084,-0.9995212983098203,-0.26909226179122925,0.11489830911159515,1.2811635732650757,5.1369404792785645,1.7125191688537598,7.066873073577881,-0.060845375061035156,0.02613067626953125,0.4030289053916931,-1.2402005195617676,0.005912871100008488,-0.9138246774673462,0.00476844422519207,1.2356228828430176,0.0036240178160369396,0.9515907764434814,0.15392538905143738,-0.7185091972351074,-0.021553369238972664,-0.09098191559314728,0.8955138325691223,-0.4630470871925354,-0.0441838763654232,-0.4732204079627991,-0.0009536888683214784,-0.2443350851535797,0.8165484070777893,-0.5294907093048096,-0.014229054562747478,0.5704070925712585,-0.25624898076057434,-1.4159115552902222,0.6071354150772095,-0.02216181345283985,0.08069153130054474,2.0985093116760254,-0.00421740161255002,0.04837774485349655,0.12359613925218582,0.7738906145095825,0.3266334533691406,1.9240397214889526,-1.5362884998321533,0.09597086161375046,0.6702141165733337,-0.333850234746933,1.7303520441055298,1.3903565406799316,-0.43935537338256836,-1.0478695631027222,-0.2516660690307617,1.5685421228408813,1741432500.8779178,1741432501039,-3.591342041015625,1.7717769775390626,0.5568700924878356,2.583219482421875,1.9319139404296874
1741432500.8756053,0.1516963243484497,-0.004426163604513326,0.037420216155420474,-0.9992898160687058,-0.3820820152759552,-0.30391839146614075,0.8466460704803467,-0.9311394691467285,-8.309765815734863,13.925359725952148,-0.06542301177978516,0.032998085021972656,0.3614480793476105,-1.2348599433898926,0.005912871100008488,-0.916876494884491,0.046730753034353256,1.2379117012023926,0.004386968910694122,0.9493018984794617,0.17566949129104614,-0.6830319762229919,0.0032425422687083483,-0.10013733059167862,0.8661402463912964,-0.4569833278656006,-0.029031677171587944,-0.44155794382095337,0.027656977996230125,-0.2576867341995239,0.8081559538841248,-0.5278933644294739,-0.01111409068107605,-0.08104632049798965,0.2197284996509552,-1.9957572221755981,0.19443625211715698,0.0019973590970039368,-0.06132705509662628,2.731001615524292,0.18179745972156525,0.028346717357635498,-0.12400458008050919,1.128353238105774,2.242619752883911,1.054255485534668,-0.22756391763687134,-1.319278359413147,0.38797011971473694,0.49309149384498596,1.564399242401123,1.2950143814086914,-0.5923725366592407,-0.058145854622125626,0.17616312205791473,0.027209661900997162,1741432500.8779178,1741432501039,-3.591342041015625,1.7717769775390626,0.5568700924878356,2.583219482421875,1.9319139404296874
1741432500.8971539,0.16201543807983398,-0.011938217556700326,0.04435465184030371,-0.9989445148864347,-0.2291014939546585,-0.5022562742233276,0.4717123508453369,-5.55612325668335,1.5220363140106201,10.446125030517578,-0.052071571350097656,0.046730995178222656,0.3278782367706299,-1.2321895360946655,0.005912871100008488,-0.9119172692298889,0.07915617525577545,1.2482116222381592,0.005149920005351305,0.9500648379325867,0.19474326074123383,-0.6628137826919556,0.005149920005351305,-0.11425192654132843,0.8573662638664246,-0.44648507237434387,-0.04194764420390129,-0.438506156206131,0.03299763426184654,-0.25272753834724426,0.84897381067276,-0.5182870030403137,-0.0016310462960973382,0.33504998683929443,0.5021700263023376,-1.7747936248779297,0.20726056396961212,-0.008517534472048283,0.23067544400691986,2.3263111114501953,0.6697272658348083,0.06174122914671898,0.03608139604330063,1.0176312923431396,0.5942372679710388,0.23537367582321167,-1.0454730987548828,-0.30055031180381775,0.4812542200088501,-0.5837279558181763,-0.351184606552124,0.09508784860372543,0.2571500539779663,2.4349465370178223,0.4762418866157532,0.6159870624542236,1741432500.8779178,1741432501039,-3.591342041015625,1.7717769775390626,0.5568700924878356,2.583219482421875,1.9319139404296874
1741432500.9156268,0.1603487730026245,-0.015309518004918662,0.04400974519913938,-0.9989137905675163,-0.00278501957654953,-0.0962655320763588,-0.18424437940120697,0.7114593386650085,-0.9262982606887817,8.113656044006348,-0.042534828186035156,0.02727508544921875,0.2748531401157379,-1.2333340644836426,0.006294346414506435,-0.9157320261001587,0.1199740618467331,1.2520263195037842,0.00476844422519207,0.9500648379325867,0.21076524257659912,-0.6364919543266296,0.004386968910694122,-0.12455176562070847,0.8535515666007996,-0.4447062313556671,-0.04158184677362442,-0.4877164959907532,0.03452353551983833,-0.25425344705581665,0.9435797929763794,-0.515264630317688,0.007783251814544201,0.2193463146686554,-0.42129603028297424,-2.639812707901001,-0.21776093542575836,-0.003374217776581645,-0.2108546495437622,2.635270118713379,0.2535686194896698,-0.02466997131705284,0.0026535678189247847,0.6899355053901672,1.4471009969711304,-0.0392768532037735,-0.14741730690002441,-0.3898237943649292,0.06732726097106934,0.07998329401016235,-2.9103846549987793,-0.0528142936527729,-0.1340491622686386,5.2430267333984375,0.03460736200213432,0.15912407636642456,1741432500.8779178,1741432501039,-3.591342041015625,1.7717769775390626,0.5568700924878356,2.583219482421875,1.9319139404296874
1741432500.93567,0.14486873149871826,-0.01936837055480213,0.03788932138078339,-0.9990942225572899,0.3790947198867798,-0.22089669108390808,-0.8352000117301941,-0.09402818977832794,0.9286120533943176,11.962930679321289,-0.041008949279785156,0.02536773681640625,0.22335393726825714,-1.2405821084976196,0.005912871100008488,-0.9149690866470337,0.15545128285884857,1.2543151378631592,0.00476844422519207,0.9500648379325867,0.21992065012454987,-0.6185625791549683,0.0078202486038208,-0.11692225188016891,0.8367666006088257,-0.4419029951095581,-0.04848923161625862,-0.5685893297195435,0.016594186425209045,-0.25120165944099426,1.0839627981185913,-0.5219301581382751,-0.0038994380738586187,0.038362521678209305,-0.08046729862689972,-2.623246431350708,-0.48170381784439087,-0.016091329976916313,0.04111459106206894,2.527733564376831,0.034097179770469666,0.006459065247327089,-0.0004876248713117093,0.5297986268997192,0.8592926263809204,0.1905430555343628,0.4768652319908142,-0.7869775891304016,0.14855605363845825,-0.4434747099876404,-3.802011489868164,-1.1608169078826904,0.20897246897220612,7.16290283203125,-0.3516743779182434,-0.49626192450523376,1741432500.9896,1741432501139,-3.5482778320312502,1.7794727783203126,0.5917624305742326,2.680166748046875,1.916903564453125
1741432500.9556637,0.11799979209899902,-0.017635099944184048,0.024047931037013113,-0.999555251230665,0.67173171043396,0.16643142700195312,-1.3949801921844482,5.5186848640441895,-2.0555434226989746,9.453811645507812,-0.036431312561035156,0.00438690185546875,0.1661325991153717,-1.2428709268569946,0.005912871100008488,-0.9157320261001587,0.19359883666038513,1.2531707286834717,0.00476844422519207,0.9500648379325867,0.23632410168647766,-0.5907148718833923,0.01773861236870289,-0.09365224838256836,0.8222705721855164,-0.4418738782405853,-0.051059186458587646,-0.6586175560951233,-0.01735713705420494,-0.2458609938621521,1.2182421684265137,-0.5281469821929932,0.00018888970953412354,0.142276793718338,-0.5397089719772339,-3.0964395999908447,-0.08391895145177841,-0.005957579705864191,-0.041716620326042175,2.5212461948394775,-0.04734329134225845,-0.004809868521988392,0.005775852594524622,0.795610249042511,1.425645351409912,0.4925769865512848,1.2599103450775146,-0.7947695255279541,-0.03536413237452507,-0.0805218443274498,-4.397222518920898,-1.7028625011444092,0.2577509880065918,6.4003190994262695,-0.24674785137176514,0.35523808002471924,1741432500.9896,1741432501139,-3.5482778320312502,1.7794727783203126,0.5917624305742326,2.680166748046875,1.916903564453125
1741432500.9785333,0.09273803234100342,-0.01563468760580597,0.009424218105475224,-0.9998333564432471,0.7179355025291443,0.09620659053325653,-1.2472920417785645,0.7983226776123047,-1.4507920742034912,10.27667236328125,-0.041771888732910156,0.00209808349609375,0.10776684433221817,-1.2424894571304321,0.005912871100008488,-0.9153505563735962,0.23708705604076385,1.2505004405975342,0.00476844422519207,0.9493018984794617,0.24319066107273102,-0.5701152086257935,0.03223468363285065,-0.06771191209554672,0.804341197013855,-0.44331932067871094,-0.057129159569740295,-0.7322422862052917,-0.05245288833975792,-0.23250934481620789,1.3063629865646362,-0.5294967293739319,0.005654361564666033,-0.16348673403263092,-0.1076008602976799,-2.7166712284088135,0.018712231889367104,0.00034782569855451584,0.0024650495033711195,3.0139107704162598,-0.18169043958187103,-0.01010684110224247,-0.08084089308977127,0.11865856498479843,0.8881793022155762,0.7501146197319031,1.3336560726165771,-0.8963181376457214,-0.10519979894161224,-0.3236542344093323,-3.316965103149414,-1.772809386253357,0.8161565065383911,4.0367937088012695,-0.02739444188773632,0.12564915418624878,1741432500.9896,1741432501139,-3.5482778320312502,1.7794727783203126,0.5917624305742326,2.680166748046875,1.916903564453125
1741432500.9957347,0.07448267936706543,-0.015144620386443663,-0.007342921834827087,-0.9998583509539128,0.8407248854637146,0.08980194479227066,-0.7629519701004028,4.660404205322266,0.3888910412788391,7.544067859649658,-0.045968055725097656,0.00171661376953125,0.050164032727479935,-1.2421079874038696,0.006294346414506435,-0.9157320261001587,0.28706035017967224,1.2489745616912842,0.0036240178160369396,0.9485389590263367,0.24052032828330994,-0.5376898050308228,0.04558632895350456,-0.04749370738863945,0.7909895181655884,-0.4499150216579437,-0.06965650618076324,-0.7761120200157166,-0.08449683338403702,-0.20809490978717804,1.3288700580596924,-0.5265606045722961,0.00610009953379631,-0.16309215128421783,-0.037691377103328705,-2.8640201091766357,-0.0026127961464226246,0.026062196120619774,-0.016663607209920883,3.3506534099578857,-0.12152859568595886,-0.10632286965847015,0.0018056544940918684,0.021160561591386795,1.8741203546524048,0.7060148119926453,0.9616807103157043,-0.5872373580932617,-0.36314091086387634,-0.6528533101081848,-1.9924243688583374,-1.543599009513855,1.360891580581665,0.6768265962600708,0.2029557079076767,0.12535236775875092,1741432500.9896,1741432501139,-3.5482778320312502,1.7794727783203126,0.5917624305742326,2.680166748046875,1.916903564453125
1741432501.01574,0.0679248571395874,-0.015064008713431385,-0.022023118912146027,-0.9996439655571693,0.6832366585731506,-0.03486817330121994,-0.20352908968925476,-0.18614579737186432,-6.7194695472717285,8.367883682250977,-0.048256874084472656,0.00209808349609375,0.001716639962978661,-1.2424894571304321,0.005912871100008488,-0.9172579646110535,0.3374151289463043,1.2459226846694946,0.0032425422687083483,0.9485389590263367,0.22755016386508942,-0.506027340888977,0.0555046908557415,-0.02880140393972397,0.7730602025985718,-0.4598804712295532,-0.08013288676738739,-0.7909895181655884,-0.11768520623445511,-0.17338064312934875,1.2941558361053467,-0.5158565044403076,0.008255845867097378,-0.10687833279371262,0.0030485258903354406,-2.298135995864868,-0.009678728878498077,-0.01907520741224289,-0.07737601548433304,3.319535732269287,-0.2475961595773697,0.042334455996751785,-0.02132037654519081,-0.8008330464363098,1.4722462892532349,0.3870529532432556,0.879801869392395,-0.9074904918670654,-0.5256096124649048,-0.4715448319911957,-0.41394907236099243,-1.6436290740966797,1.7913014888763428,-2.1142826080322266,0.5947611927986145,0.17502939701080322,1741432500.9896,1741432501139,-3.5482778320312502,1.7794727783203126,0.5917624305742326,2.680166748046875,1.916903564453125
1741432501.0357723,0.07476150989532471,-0.012577085702628117,-0.031077090379189615,-0.9994378576824036,0.45344027876853943,0.14006420969963074,0.272010862827301,5.335026741027832,0.3480672538280487,9.918122291564941,-0.051308631896972656,0.00209808349609375,-0.04406042397022247,-1.2424894571304321,0.005912871100008488,-0.9218356609344482,0.3858625292778015,1.2489745616912842,0.0036240178160369396,0.9443427324295044,0.21648737788200378,-0.47550925612449646,0.06313420087099075,-0.01506828423589468,0.7703898549079895,-0.4703790545463562,-0.08230379223823547,-0.7867932915687561,-0.14667734503746033,-0.14095520973205566,1.1949721574783325,-0.5038232803344727,0.002253506565466523,-0.08606193214654922,-0.012010193429887295,-2.5549168586730957,0.017384272068738937,-0.0008522944408468902,-0.25737372040748596,3.386967182159424,0.2854367196559906,0.10984145849943161,-0.3721472918987274,-0.3010818660259247,1.4387824535369873,0.42920076847076416,0.6787031888961792,-0.0703551396727562,-0.5496948957443237,-0.024901585653424263,0.2960338890552521,-1.3805124759674072,1.557088017463684,-5.719268321990967,0.5788812637329102,-0.26442980766296387,1741432500.9896,1741432501139,-3.5482778320312502,1.7794727783203126,0.5917624305742326,2.680166748046875,1.916903564453125
1741432501.0557837,0.06825768947601318,-0.011223860041903103,-0.037373623212469356,-0.9992383285551711,0.26899850368499756,0.04026541858911514,-0.35881340503692627,5.476844787597656,0.015193810686469078,5.701868534088135,-0.050164222717285156,0.00209808349609375,-0.07686731964349747,-1.2405821084976196,0.005531395319849253,-0.9378576278686523,0.4346913993358612,1.2531707286834717,0.005531395319849253,0.9328984618186951,0.2294575423002243,-0.4541466534137726,0.061226826161146164,-0.013923857361078262,0.7738231420516968,-0.4832800030708313,-0.07629404962062836,-0.7566567659378052,-0.16384375095367432,-0.1340886503458023,1.02521550655365,-0.5033517479896545,-0.004288454540073872,0.02760883793234825,0.007395222783088684,-1.398135781288147,0.16611431539058685,-0.05844486504793167,-0.8413295149803162,2.865830898284912,0.2397492229938507,0.06492837518453598,-0.6935086846351624,0.798854410648346,1.1196039915084839,-0.3561399281024933,-0.04958369955420494,0.2461031675338745,-0.6567415595054626,0.3424420654773712,1.7108482122421265,-0.7388942837715149,-0.15647287666797638,-8.996516227722168,-0.16843734681606293,-0.3865654170513153,1741432501.0840647,1741432501239,-3.496211181640625,1.756621337890625,0.528804751820089,2.773435302734375,1.906349609375
1741432501.075798,0.053658246994018555,-0.008094907804750452,-0.04165272304950936,-0.999099355985276,0.24232839047908783,0.22822928428649902,-0.7972016930580139,29.802326202392578,-3.9737367630004883,38.90352249145508,-0.052453041076660156,-0.00362396240234375,-0.07991912961006165,-1.233715534210205,0.005531395319849253,-0.954261064529419,0.4533836841583252,1.2527892589569092,0.005531395319849253,0.926413357257843,0.25234606862068176,-0.4354543387889862,0.035667963325977325,-0.032616160809993744,0.7871748208999634,-0.4976499378681183,-0.0644831657409668,-0.6937133073806763,-0.1974135935306549,-0.15506981313228607,0.8672846555709839,-0.4880434572696686,0.021313831210136414,-0.06212175264954567,-0.11553782969713211,0.0341065414249897,0.5155709385871887,-0.021357260644435883,-0.8117910623550415,1.0255248546600342,-0.07543526589870453,5.4026815632823855e-05,-0.45151859521865845,1.20650053024292,0.96999591588974,-1.1614152193069458,-0.9653035402297974,0.9606109857559204,-0.6460832357406616,0.4388565719127655,3.150576591491699,-2.001352548599243,-1.4464714527130127,-5.682233810424805,1.7961795330047607,1.9865883588790894,1741432501.0840647,1741432501239,-3.496211181640625,1.756621337890625,0.528804751820089,2.773435302734375,1.906349609375
1741432501.0959053,0.02155148983001709,-0.00927519071670488,-0.036883133128294485,-0.9992765409674187,-0.27268654108047485,0.012700436636805534,-1.6207852363586426,9.050238609313965,13.524605751037598,6.29920768737793,-0.053215980529785156,0.00743865966796875,-0.059319447726011276,-1.225704550743103,0.005531395319849253,-0.9645609259605408,0.4491874575614929,1.2524077892303467,0.005912871100008488,0.9103913903236389,0.2634088695049286,-0.4091325104236603,0.018120087683200836,-0.07724879682064056,0.7955672740936279,-0.5161582231521606,-0.03841426968574524,-0.6521324515342712,-0.17566949129104614,-0.1997024416923523,0.8943694233894348,-0.427514910697937,0.04598897323012352,-0.10384019464254379,0.37989842891693115,1.309191346168518,0.4731365144252777,-0.007884606719017029,-0.46304404735565186,-0.6310943365097046,0.07149448245763779,0.06617970019578934,-0.8747748136520386,0.24941204488277435,1.1981043815612793,-1.6110022068023682,-1.9622365236282349,0.2737451195716858,-1.057801604270935,2.0411815643310547,1.6966997385025024,1.0267258882522583,-1.2084845304489136,0.07321768999099731,2.509887933731079,0.2001618593931198,1741432501.0840647,1741432501239,-3.496211181640625,1.756621337890625,0.528804751820089,2.773435302734375,1.906349609375
1741432501.115879,-0.002804279327392578,-0.009265477439653698,-0.03068449965222216,-0.9994861741959756,-0.359272837638855,0.061130646616220474,-1.1494672298431396,-1.7995212078094482,5.973831653594971,14.406429290771484,-0.047112464904785156,0.00553131103515625,-0.014686808921396732,-1.2211267948150635,0.006294346414506435,-0.9657053351402283,0.4194323718547821,1.2508819103240967,0.00476844422519207,0.9119172692298889,0.25120165944099426,-0.387006938457489,-0.01735713705420494,-0.12607766687870026,0.804341197013855,-0.5356839299201965,0.013043784536421299,-0.6189440488815308,-0.17795833945274353,-0.1676585078239441,0.8436331748962402,-0.4053856134414673,0.029790101572871208,0.18630720674991608,0.0630541443824768,2.263855457305908,0.25447598099708557,0.06401893496513367,0.01371381152421236,-2.0237128734588623,-0.07764606177806854,-0.10028884559869766,0.1574820727109909,-0.7631705403327942,1.1148180961608887,-1.6328891515731812,-2.611645221710205,0.7833971977233887,-0.8352252244949341,1.9753599166870117,2.188683032989502,0.20256935060024261,1.8560508489608765,-2.260807752609253,1.1218847036361694,-0.8828604221343994,1741432501.0840647,1741432501239,-3.496211181640625,1.756621337890625,0.528804751820089,2.773435302734375,1.906349609375
1741432501.1374815,-0.022159814834594727,-0.0033733317446471367,-0.028874426872728582,-0.9995773547383474,-0.05117468535900116,0.2469700574874878,-0.8892977237701416,3.734971046447754,-5.914328098297119,6.800737380981445,-0.045586585998535156,0.00324249267578125,0.023079270496964455,-1.2218897342681885,0.006294346414506435,-0.9641794562339783,0.3896772861480713,1.2482116222381592,0.0036240178160369396,0.9119172692298889,0.212672621011734,-0.37823301553726196,-0.04940108209848404,-0.15697719156742096,0.8497368097305298,-0.5333099365234375,-0.01761946640908718,-0.5926222801208496,-0.13065537810325623,-0.15850308537483215,0.8306630253791809,-0.3921992778778076,0.00858437828719616,0.04996196925640106,-0.04240519925951958,1.889512062072754,-0.23130764067173004,0.041592661291360855,0.025091085582971573,-2.020975351333618,-0.2338569313287735,-0.04410405829548836,-0.01771456189453602,-2.2145636081695557,0.020143289119005203,-1.4396755695343018,-1.2444627285003662,2.3672969341278076,0.2941366136074066,-1.8436298370361328,0.6339071989059448,2.145437002182007,0.5682092905044556,-0.5736047625541687,0.34710705280303955,-1.049639105796814,1741432501.1861973,1741432501339,-3.430572509765625,1.7217548828125,0.4476189497446596,2.863155517578125,1.8952374267578125
1741432501.1583226,-0.02198314666748047,-0.0021799496804258646,-0.02266938504723273,-0.9997406397666202,-0.36706602573394775,0.1393715888261795,0.14365483820438385,-0.36194512248039246,0.6663821935653687,10.358343124389648,-0.049401283264160156,0.00514984130859375,0.06275273114442825,-1.2405821084976196,0.005531395319849253,-0.9630350470542908,0.3549630045890808,1.2428709268569946,0.0036240178160369396,0.9126802682876587,0.16231784224510193,-0.41294726729393005,-0.08525978773832321,-0.14820325374603271,0.9229800701141357,-0.5177703499794006,-0.007415874861180782,-0.5796520709991455,-0.11120012402534485,-0.12912946939468384,0.8283741474151611,-0.3997129499912262,0.004364802036434412,-0.10619815438985825,0.10527440905570984,1.918930172920227,-1.1112371683120728,-0.10106293112039566,0.04166895151138306,-2.386014461517334,-0.34527671337127686,-0.0030690787825733423,0.05243412405252457,-2.4382879734039307,-1.914297342300415,-1.8552467823028564,0.7718381881713867,4.210758209228516,0.805631160736084,1.105271816253662,0.9730554819107056,1.0085117816925049,1.2050353288650513,-0.05157793313264847,-0.3851165771484375,0.048726532608270645,1741432501.1861973,1741432501339,-3.430572509765625,1.7217548828125,0.4476189497446596,2.863155517578125,1.8952374267578125
1741432501.1761086,-0.008983135223388672,0.0009299330237188837,-0.020501481478126738,-0.9997893900626138,-0.04977453500032425,0.06886421144008636,0.7440170049667358,-3.2139711380004883,-5.4873881340026855,10.672608375549316,-0.041771888732910156,0.01354217529296875,0.10700388997793198,-1.2520263195037842,0.00667582219466567,-0.9630350470542908,0.3126192092895508,1.239819049835205,0.004005493130534887,0.9130617380142212,0.1184481605887413,-0.4858091175556183,-0.11158160120248795,-0.12340734153985977,1.047722578048706,-0.496346116065979,0.008126703090965748,-0.5727855563163757,-0.09555962681770325,-0.1329442262649536,0.8237964510917664,-0.41225045919418335,-0.0010434130672365427,0.1996639221906662,0.3094331920146942,2.253108024597168,-0.9019289016723633,0.075679711997509,-0.0017371848225593567,-2.802248954772949,-0.20725809037685394,0.04344208911061287,0.010877028107643127,-2.0265424251556396,-4.164936065673828,-1.0995293855667114,1.1578750610351562,6.4297261238098145,0.9964626431465149,0.19792507588863373,0.1644665002822876,0.7101137638092041,-0.2278060019016266,-0.2588951587677002,-0.6242958307266235,-0.3346397280693054,1741432501.1861973,1741432501339,-3.430572509765625,1.7217548828125,0.4476189497446596,2.863155517578125,1.8952374267578125
1741432501.196136,0.012845754623413086,0.007340151095701055,-0.013387284537347794,-0.9998834446047241,-0.40546947717666626,0.4413989186286926,1.1238757371902466,2.879952907562256,-2.9585225582122803,7.801262855529785,-0.037194252014160156,0.00171661376953125,0.15812161564826965,-1.2611817121505737,0.005912871100008488,-0.9634165167808533,0.2634088695049286,1.23905611038208,0.004005493130534887,0.9134432077407837,0.08945601433515549,-0.5922408103942871,-0.12569619715213776,-0.10624094307422638,1.1774243116378784,-0.48713842034339905,-0.0068249027244746685,-0.5548561811447144,-0.08335240930318832,-0.1363775134086609,0.8230335116386414,-0.4230964779853821,-0.0034023812040686607,0.10157656669616699,-0.36617252230644226,2.552715301513672,-0.4440063536167145,-0.0004753593821078539,-0.03590909391641617,-3.4603309631347656,-0.02738761343061924,-0.002799988491460681,0.048201363533735275,-1.3620532751083374,-5.511801242828369,-0.8631452918052673,1.0916649103164673,6.4099321365356445,0.2748790979385376,-0.4271710216999054,1.0902256965637207,0.8798236846923828,-0.17499539256095886,-0.05054909735918045,-0.506490170955658,0.06432598829269409,1741432501.1861973,1741432501339,-3.430572509765625,1.7217548828125,0.4476189497446596,2.863155517578125,1.8952374267578125
1741432501.216197,0.03793656826019287,0.011793487180198013,-0.0025977414240368137,-0.999927080041152,-0.5410652756690979,0.15344148874282837,1.1872656345367432,0.33840662240982056,0.7775924801826477,12.0405912399292,-0.032235145568847656,0.00820159912109375,0.2153429538011551,-1.2615631818771362,0.005912871100008488,-0.9634165167808533,0.20542457699775696,1.23905611038208,0.004386968910694122,0.9130617380142212,0.07267109304666519,-0.7017242908477783,-0.14629587531089783,-0.08106355369091034,1.2888151407241821,-0.49192333221435547,0.005800843704491854,-0.5430304408073425,-0.07038223743438721,-0.15430685877799988,0.8146410584449768,-0.4388006031513214,-0.010081985965371132,0.14640291035175323,0.10565517842769623,2.7178947925567627,-0.012998935766518116,-0.011678923852741718,0.048816144466400146,-3.8578884601593018,-0.01637006364762783,0.04076549410820007,-0.016512248665094376,-0.7436701059341431,-5.463944435119629,-0.882072925567627,1.0713233947753906,5.226455211639404,-0.2550215721130371,0.8203701972961426,0.49742546677589417,0.6113200783729553,-0.9986640214920044,-0.41783207654953003,-0.7272166609764099,-0.37563708424568176,1741432501.1861973,1741432501339,-3.430572509765625,1.7217548828125,0.4476189497446596,2.863155517578125,1.8952374267578125
1741432501.2362404,0.06063282489776611,0.015842685774975964,0.01009699970858495,-0.9998235143785728,-0.6806951761245728,0.2572571635246277,1.1390413045883179,3.0510706901550293,2.9035916328430176,7.409857273101807,-0.01888275146484375,0.00858306884765625,0.2782863974571228,-1.2611817121505737,0.005912871100008488,-0.9618905782699585,0.14362554252147675,1.23905611038208,0.004005493130534887,0.9138246774673462,0.07381551712751389,-0.7948042750358582,-0.1497291475534439,-0.06427863240242004,1.350232720375061,-0.4928186535835266,-0.0005923399585299194,-0.5209048390388489,-0.06351567804813385,-0.1676585078239441,0.8112077713012695,-0.4563578963279724,-0.015772610902786255,0.35193970799446106,0.03641294687986374,2.928924322128296,0.042095690965652466,-0.007164110895246267,0.10893366485834122,-4.122875213623047,0.013543280772864819,-0.002846731338649988,0.06998250633478165,0.22493544220924377,-4.5046162605285645,-0.06725233048200607,0.8393362164497375,2.6225366592407227,0.030066993087530136,-0.6711240410804749,1.3952733278274536,0.3785346746444702,-0.5457435846328735,-0.11604803800582886,-0.9475348591804504,-0.1649053692817688,1741432501.1861973,1741432501339,-3.430572509765625,1.7217548828125,0.4476189497446596,2.863155517578125,1.8952374267578125
1741432501.2562435,0.07419097423553467,0.02193294970969826,0.02404902244223954,-0.999470154750308,-0.6782857775688171,0.27609819173812866,0.5081700086593628,1.804757833480835,2.0089316368103027,9.505706787109375,-0.01087188720703125,0.00591278076171875,0.343900203704834,-1.2588928937911987,0.005531395319849253,-0.9584572911262512,0.08182650804519653,1.23905611038208,0.004386968910694122,0.9138246774673462,0.07343403995037079,-0.8646143078804016,-0.14171816408634186,-0.051689937710762024,1.357480764389038,-0.48596513271331787,-0.005906380712985992,-0.49458304047584534,-0.04711223021149635,-0.17299915850162506,0.80510413646698,-0.47887352108955383,-0.010796695947647095,0.24636150896549225,-0.031812358647584915,3.3546366691589355,0.10250755399465561,-0.05418848618865013,0.15694798529148102,-4.012391567230225,-0.019458914175629616,0.0527769960463047,-0.02408493310213089,-0.08322451263666153,-3.2167181968688965,0.5089901685714722,0.5452031493186951,-0.03510621190071106,0.4143117070198059,0.04349292442202568,0.9060145616531372,0.8722211718559265,-0.27946364879608154,-0.3697647750377655,-1.1216262578964233,0.12547262012958527,1741432501.291406,1741432501439,-3.357912353515625,1.704274169921875,0.39393432321868527,2.949447021484375,1.884895263671875
1741432501.276279,0.0786888599395752,0.025382364798267665,0.03203221496303687,-0.9991644873402024,-0.39139625430107117,0.26167115569114685,0.08236740529537201,-0.9379028081893921,-1.2593562602996826,7.5433173179626465,0.00133514404296875,0.00476837158203125,0.4022659659385681,-1.2600373029708862,0.006294346414506435,-0.9504463076591492,0.029182879254221916,1.2386746406555176,0.004386968910694122,0.9153505563735962,0.07534141838550568,-0.9088655114173889,-0.1203555315732956,-0.046730753034353256,1.3189517259597778,-0.46726754307746887,-0.0015403492143377662,-0.4736018776893616,-0.02727550081908703,-0.17223620414733887,0.8009079098701477,-0.5007903575897217,-0.015428106300532818,0.3642989993095398,-0.030359793454408646,2.893826961517334,-0.1891351193189621,-0.010263986885547638,0.4127739369869232,-3.4003403186798096,-0.033037371933460236,-0.007032825145870447,0.07838352024555206,0.12009184807538986,-2.06357741355896,1.1345024108886719,0.24852371215820312,-2.2398526668548584,1.0125010013580322,0.16263744235038757,1.5577720403671265,0.9426312446594238,0.18188685178756714,-0.07723713666200638,-1.0990512371063232,-0.15962077677249908,1741432501.291406,1741432501439,-3.357912353515625,1.704274169921875,0.39393432321868527,2.949447021484375,1.884895263671875
1741432501.2962651,0.07532083988189697,0.029440449303210655,0.037282746309448875,-0.9988709910556269,-0.21365678310394287,0.13409942388534546,-0.13182325661182404,-2.0771193504333496,-0.4109814465045929,12.833888053894043,0.00705718994140625,0.00362396240234375,0.46025025844573975,-1.2653779983520508,0.006294346414506435,-0.9355688095092773,-0.015449759550392628,1.2409635782241821,0.0036240178160369396,0.9172579646110535,0.07419699430465698,-0.9302281141281128,-0.09021896868944168,-0.042153049260377884,1.2487602233886719,-0.43974247574806213,-0.006672045215964317,-0.4518577754497528,-0.010872052982449532,-0.16918440163135529,0.7959487438201904,-0.5237321853637695,-0.020558759570121765,0.18325035274028778,-0.004491154570132494,3.1126623153686523,-0.30243587493896484,-0.010454392060637474,0.8169531226158142,-2.9733784198760986,0.15640193223953247,-0.023488374426960945,0.19275330007076263,-0.17409326136112213,-0.8280726075172424,1.6248934268951416,0.1265251636505127,-3.781949281692505,1.3716635704040527,-0.21431083977222443,0.7729551196098328,0.8336900472640991,-0.002032020827755332,-0.23698298633098602,-1.141102910041809,-0.23525556921958923,1741432501.291406,1741432501439,-3.357912353515625,1.704274169921875,0.39393432321868527,2.949447021484375,1.884895263671875
1741432501.3162928,0.08024382591247559,0.03395069501891888,0.038281208639974036,-0.9986900917565945,-0.08653663843870163,0.320292204618454,0.29906347393989563,6.710058212280273,-1.2926523685455322,8.794053077697754,0.00934600830078125,-0.00095367431640625,0.5006866455078125,-1.2646150588989258,0.006294346414506435,-0.9218356609344482,-0.054741740226745605,1.2394375801086426,0.0036240178160369396,0.9267948269844055,0.058175019919872284,-0.9237430095672607,-0.05741206929087639,-0.03032730519771576,1.1495765447616577,-0.41521814465522766,0.0009113245760090649,-0.4209582805633545,-0.001716639962978661,-0.16956588625907898,0.7970931529998779,-0.5445720553398132,-0.02621046081185341,0.060602713376283646,-0.11563386023044586,1.6863340139389038,0.0962853953242302,-0.005576868075877428,0.5881370306015015,-2.399897813796997,-0.16978766024112701,-0.0026837720070034266,0.7388853430747986,-0.8495805263519287,0.3819151520729065,1.6722034215927124,0.8839014768600464,-5.246373653411865,1.1248070001602173,0.4758092761039734,1.8087282180786133,0.4409392178058624,0.0161918792873621,-0.01485359389334917,-1.032920241355896,-0.2551884353160858,1741432501.291406,1741432501439,-3.357912353515625,1.704274169921875,0.39393432321868527,2.949447021484375,1.884895263671875
1741432501.3363533,0.09275269508361816,0.035216815189543074,0.04037975083313074,-0.9985635941944608,-0.13333182036876678,-0.03905024379491806,0.6824837923049927,1.7150598764419556,-0.4603121876716614,8.776436805725098,0.01239776611328125,0.00286102294921875,0.5125123858451843,-1.2634705305099487,0.006294346414506435,-0.9115357995033264,-0.06961929053068161,1.235241413116455,0.0036240178160369396,0.9424353241920471,0.040627144277095795,-0.9019989371299744,-0.01773861236870289,-0.0024795911740511656,1.032463550567627,-0.40338990092277527,0.005865090526640415,-0.38357365131378174,0.014686808921396732,-0.16994735598564148,0.7860303521156311,-0.565077543258667,-0.024424675852060318,0.07327987998723984,0.1336277425289154,0.4634285569190979,0.018940936774015427,-0.014762588776648045,0.5102079510688782,-0.6831512451171875,-0.2776930332183838,-0.019282562658190727,0.9395261406898499,-0.871005654335022,1.3028026819229126,1.980886697769165,1.3725839853286743,-5.973994255065918,0.40763339400291443,0.1734161674976349,1.821868658065796,1.056214451789856,-0.021263523027300835,-0.5796797871589661,-0.946641743183136,0.22409240901470184,1741432501.291406,1741432501439,-3.357912353515625,1.704274169921875,0.39393432321868527,2.949447021484375,1.884895263671875
