Freshhhhh-LC/Legged_odom/data/2/segments/booster_seg_9.85s.csv
time,yaw,projected_gravity_x,projected_gravity_y,projected_gravity_z,ang_vel_x,ang_vel_y,ang_vel_z,lin_acc_x,lin_acc_y,lin_acc_z,q_0,q_1,q_2,q_3,q_4,q_5,q_6,q_7,q_8,q_9,q_10,q_11,q_12,q_13,q_14,q_15,q_16,q_17,q_18,q_19,q_20,q_21,q_22,dq_0,dq_1,dq_2,dq_3,dq_4,dq_5,dq_6,dq_7,dq_8,dq_9,dq_10,dq_11,dq_12,dq_13,dq_14,dq_15,dq_16,dq_17,dq_18,dq_19,dq_20,dq_21,dq_22,mocap_time,mocap_timestamp,robot_x,robot_y,robot_yaw,ball_x,ball_y
1741433157.5656524,-3.283612847328186,-0.06857750736961442,0.10075809544441394,-0.992544674906568,-3.639645576477051,-3.1692025661468506,2.2441654205322266,-48.24119186401367,3.739595413208008,6.26673698425293,-0.8058671951293945,0.9019985198974609,0.21877622604370117,-1.2039604187011719,0.005531395319849253,-0.5304417610168457,0.23746852576732635,1.4313198328018188,0.00667582219466567,0.5018310546875,-0.0398641936480999,-0.7494087219238281,-0.17833982408046722,0.9092469811439514,-0.05855649709701538,-0.5116146206855774,0.04400166496634483,-1.519226312637329,0.08487831056118011,0.03223468363285065,1.58712899684906,-0.21133069694042206,-0.011306509375572205,-0.37901070713996887,-0.20952945947647095,3.2520344257354736,0.9270235896110535,0.009225760586559772,0.6963993310928345,-0.12382888793945312,-1.2225576639175415,-0.027259791269898415,-0.14031293988227844,5.26866340637207,5.199136734008789,-3.8180878162384033,6.275660991668701,-4.695305824279785,-2.743579387664795,-0.4821619689464569,8.094256401062012,3.5156161785125732,-2.919881582260132,6.525259971618652,-3.5169873237609863,0.37779098749160767,1741433157.5206525,1741433157719,0.5117504272460938,-1.0370352783203125,-0.584095364610184,0.014357248306274415,0.9815699462890625
1741433157.5679471,-2.6416501998901367,-0.21822146384496383,0.2800697525677394,-0.9348477557410118,-0.01886511594057083,0.3091168999671936,8.2249755859375,2.195256233215332,-2.316805839538574,9.769756317138672,-0.9542608261108398,0.6090259552001953,0.17452506721019745,-1.297421932220459,0.0036240178160369396,-0.5628671646118164,0.44079500436782837,1.298184871673584,0.0036240178160369396,0.5106050372123718,0.6197070479393005,-0.7940413355827332,-0.2965972423553467,0.40951400995254517,0.9416723847389221,-0.5479885935783386,-0.15213482081890106,-0.343900203704834,-0.05664911866188049,0.10433356463909149,1.0076676607131958,-0.5349420309066772,0.10607683658599854,-1.4394242763519287,-0.22034239768981934,-2.8362035751342773,-2.0468332767486572,-0.21917937695980072,-1.5894625186920166,1.7861772775650024,-2.6264829635620117,0.23487792909145355,-0.00024615382426418364,4.2437744140625,-9.190997123718262,-3.4187099933624268,-7.899073123931885,14.26506519317627,-0.028177449479699135,-2.539355993270874,7.056244850158691,-1.3361279964447021,0.6679043173789978,-6.947976112365723,-3.8239622116088867,2.1447980403900146,1741433157.5206525,1741433157719,0.5117504272460938,-1.0370352783203125,-0.584095364610184,0.014357248306274415,0.9815699462890625
1741433157.569904,-2.186088502407074,-0.002688349944518917,0.42486325889711146,-0.9052535468110036,-1.3973933458328247,1.107768177986145,3.3025858402252197,0.10653090476989746,-16.862855911254883,16.684385299682617,-0.9275579452514648,0.7650489807128906,0.16994735598564148,-1.2596558332443237,0.005149920005351305,-0.5624856948852539,0.2943083941936493,1.224560022354126,0.00019073777366429567,0.5086976289749146,0.6807430982589722,-1.046196699142456,-0.39425498247146606,0.34733349084854126,1.2487602233886719,-0.5392244458198547,-0.1977570801973343,-0.36717021465301514,-0.17795833945274353,0.04940108209848404,1.0721369981765747,-0.7245208024978638,0.1694733202457428,0.35296815633773804,0.3985365927219391,1.3549138307571411,-0.4715227484703064,-0.01585722155869007,0.6777420043945312,-4.29148530960083,-1.7939516305923462,-0.004914014600217342,0.21375899016857147,-1.339978814125061,3.4973573684692383,0.01748017407953739,3.0735371112823486,-7.264351844787598,-0.42281869053840637,1.6662107706069946,-7.6822686195373535,-2.0415022373199463,-2.716714382171631,7.595189094543457,-1.5620832443237305,-4.171648025512695,1741433157.5206525,1741433157719,0.5117504272460938,-1.0370352783203125,-0.584095364610184,0.014357248306274415,0.9815699462890625
1741433157.585535,-0.7989868223667145,0.6201489017828179,0.21670287744562033,-0.7539596822936577,0.013569088652729988,0.3820677399635315,0.02480406127870083,-6.414698600769043,-1.4225521087646484,7.42192268371582,-0.49267578125,0.9920272827148438,0.04482337832450867,-1.215023159980774,0.005912871100008488,-0.5163271427154541,-0.11730372905731201,1.3016180992126465,0.002861066721379757,0.5506599545478821,0.25425344705581665,-0.212672621011734,-0.343137264251709,0.5479896068572998,1.1263065338134766,-0.12403986603021622,-0.2928399443626404,-0.42935073375701904,-0.5758373141288757,0.14629587531089783,1.2529563903808594,-0.29579275846481323,-0.4296254515647888,0.1397528350353241,0.007313089445233345,-0.21082139015197754,-0.00624132202938199,-0.006668605841696262,-0.0015475574182346463,-0.23060007393360138,0.11269780248403549,0.008966309949755669,-0.0024607335217297077,-0.13514670729637146,-0.08094825595617294,-0.02424272894859314,0.04726153984665871,-0.3242137134075165,0.25668784976005554,-0.33586013317108154,-0.01786700077354908,-0.01132235862314701,0.00021179522445891052,-0.22776678204536438,-0.007267389912158251,0.010074692778289318,1741433157.5206525,1741433157719,0.5117504272460938,-1.0370352783203125,-0.584095364610184,0.014357248306274415,0.9815699462890625
1741433157.6055527,-0.7981579601764679,0.6264518938993211,0.21503194942137255,-0.7492124434084088,-0.02368146739900112,0.379016637802124,0.04398394003510475,-6.193536758422852,-1.8449312448501587,7.0776047706604,-0.48809814453125,0.9920272827148438,0.040627144277095795,-1.2154046297073364,0.005912871100008488,-0.5163271427154541,-0.1199740618467331,1.3035255670547485,0.002861066721379757,0.5506599545478821,0.25158312916755676,-0.2138170450925827,-0.343137264251709,0.5483710765838623,1.121347427368164,-0.11844726651906967,-0.30006635189056396,-0.42973220348358154,-0.5758373141288757,0.14629587531089783,1.2460898160934448,-0.29579275846481323,-0.4296254515647888,0.12540481984615326,0.006811690516769886,-0.2147947996854782,-0.019472911953926086,-0.005181971006095409,-0.0012646564282476902,-0.14776308834552765,0.11855026334524155,0.005892674904316664,0.0002511039492674172,-0.13660888373851776,-0.08385840803384781,-0.002953966846689582,0.02194463461637497,-0.24990177154541016,0.27935758233070374,-0.35191038250923157,-0.0011178316781297326,-0.0011863682884722948,0.004382578190416098,-0.33403968811035156,-0.005130737088620663,0.011015343479812145,1741433157.5206525,1741433157719,0.5117504272460938,-1.0370352783203125,-0.584095364610184,0.014357248306274415,0.9815699462890625
1741433157.6255746,-0.7959674298763275,0.6324619048834732,0.21323491732018499,-0.7446628827238688,-0.054412487894296646,0.3428678810596466,0.09234591573476791,-6.739086627960205,-1.9565811157226562,7.051576614379883,-0.4831390380859375,0.9920272827148438,0.03643091395497322,-1.215786099433899,0.005912871100008488,-0.5163271427154541,-0.12149996310472488,1.305432915687561,0.0032425422687083483,0.5506599545478821,0.248531311750412,-0.2153429538011551,-0.3427557647228241,0.5483710765838623,1.1167696714401245,-0.11382725834846497,-0.30598413944244385,-0.42935073375701904,-0.5754558444023132,0.14629587531089783,1.2396048307418823,-0.29579275846481323,-0.4296254515647888,0.12643511593341827,0.004799797665327787,-0.23734010756015778,-0.019141336902976036,-0.002137596718966961,-0.0030229834374040365,-0.11036507040262222,0.11633230000734329,0.011004230938851833,-0.011364724487066269,-0.15463493764400482,-0.08086960017681122,0.006880314089357853,0.005981050431728363,-0.23598282039165497,0.251117467880249,-0.3168799579143524,-0.001888253609649837,-0.004627363756299019,0.0039269691333174706,-0.31782475113868713,-0.0017377767944708467,0.0017883108230307698,1741433157.5206525,1741433157719,0.5117504272460938,-1.0370352783203125,-0.584095364610184,0.014357248306274415,0.9815699462890625
1741433157.6455898,-0.7940042912960052,0.6382065512319977,0.21167422795523974,-0.7401935011766266,-0.05662863701581955,0.3282763659954071,0.055708978325128555,-6.718381881713867,-1.742606282234192,6.974762439727783,-0.4770355224609375,0.9920272827148438,0.032616160809993744,-1.215786099433899,0.005912871100008488,-0.5163271427154541,-0.12417028844356537,1.306958794593811,0.002861066721379757,0.5506599545478821,0.2454795092344284,-0.21686884760856628,-0.3423742949962616,0.5483710765838623,1.110666036605835,-0.10872131586074829,-0.3124713599681854,-0.42935073375701904,-0.5754558444023132,0.14629587531089783,1.2327382564544678,-0.29579275846481323,-0.4296254515647888,0.18669889867305756,0.009724453091621399,-0.1699707955121994,-0.00696762278676033,-0.0007597313961014152,-0.0062659080140292645,-0.18845528364181519,0.09699974954128265,0.005838343407958746,-0.012919626198709011,-0.15321028232574463,-0.0670045018196106,0.018806912004947662,0.0018095781560987234,-0.30186429619789124,0.23217159509658813,-0.29340195655822754,-0.008692395873367786,-0.002430860884487629,-0.0011444027768447995,-0.374651700258255,-0.002562708454206586,0.02253980189561844,1741433157.6914861,1741433157819,0.5183292236328125,-1.051391357421875,-0.5785224345828243,0.014406116485595703,0.9814188232421875
1741433157.6655917,-0.7929202318191528,0.6437245541043822,0.21061624562942577,-0.7357034018679537,-0.05478063225746155,0.30743637681007385,0.006467527709901333,-6.752697467803955,-2.4416208267211914,6.574001312255859,-0.46978759765625,0.9920272827148438,0.029182879254221916,-1.215786099433899,0.005912871100008488,-0.5163271427154541,-0.12722209095954895,1.3081032037734985,0.002861066721379757,0.5506599545478821,0.24280919134616852,-0.21725031733512878,-0.3416113555431366,0.5483710765838623,1.106088399887085,-0.10337312519550323,-0.3192085027694702,-0.42896926403045654,-0.5754558444023132,0.14629587531089783,1.2251087427139282,-0.29579275846481323,-0.4296254515647888,0.20963934063911438,0.006803276017308235,-0.18661977350711823,0.002266222843900323,-0.001359149464406073,0.000955921015702188,-0.23092469573020935,0.09321369230747223,0.0011548969196155667,-0.012218018993735313,-0.12424767017364502,-0.02937389351427555,0.031556881964206696,0.001053256681188941,-0.2273309975862503,0.2929212749004364,-0.36264875531196594,0.011755764484405518,0.025162648409605026,-0.009617852047085762,-0.3873194456100464,-0.0036224606446921825,0.04214350879192352,1741433157.6914861,1741433157819,0.5183292236328125,-1.051391357421875,-0.5785224345828243,0.014406116485595703,0.9814188232421875
1741433157.6856573,-0.7918623685836792,0.6487225657550612,0.2099778367505255,-0.7314836572020867,-0.06683241575956345,0.2817137539386749,0.005937626119703054,-7.073646068572998,-2.212766170501709,6.911008834838867,-0.4625387191772461,0.9920272827148438,0.024986648932099342,-1.2154046297073364,0.005912871100008488,-0.5163271427154541,-0.13065537810325623,1.310010552406311,0.002861066721379757,0.5506599545478821,0.24052032828330994,-0.21915769577026367,-0.3412298858165741,0.5483710765838623,1.102655053138733,-0.09826888144016266,-0.3255847990512848,-0.42858776450157166,-0.5746929049491882,0.14591439068317413,1.2190051078796387,-0.29579275846481323,-0.4296254515647888,0.21109431982040405,0.005314996466040611,-0.2231912910938263,0.0007871479028835893,-0.008046072907745838,0.0021256727632135153,-0.21598300337791443,0.11583522707223892,0.013066922314465046,-0.0014697529841214418,-0.11654409766197205,-0.09089680761098862,0.00308244745247066,-0.005372062791138887,-0.18457016348838806,0.26677417755126953,-0.3294611871242523,0.04243149235844612,0.007605330087244511,-0.00338387512601912,-0.28957679867744446,-0.0020204903557896614,0.013426938094198704,1741433157.6914861,1741433157819,0.5183292236328125,-1.051391357421875,-0.5785224345828243,0.014406116485595703,0.9814188232421875
1741433157.7056625,-0.7908369600772858,0.6532965832087567,0.20872205435689906,-0.7277627899204518,-0.03836837783455849,0.2650580406188965,0.0170726478099823,-6.948938369750977,-1.9230588674545288,6.946254730224609,-0.4552907943725586,0.9920272827148438,0.021171892061829567,-1.2154046297073364,0.005912871100008488,-0.5163271427154541,-0.1333257108926773,1.311918020248413,0.002861066721379757,0.5506599545478821,0.23861294984817505,-0.22144655883312225,-0.3412298858165741,0.5479896068572998,1.098077416419983,-0.09316710382699966,-0.3319073021411896,-0.42706188559532166,-0.5746929049491882,0.14591439068317413,1.2117570638656616,-0.29579275846481323,-0.4296254515647888,0.2097604125738144,0.003688354045152664,-0.18760374188423157,-0.0008209793013520539,-0.0037520385812968016,-0.00913140270859003,-0.1734459102153778,0.133748859167099,0.0034972920548170805,0.00021926808403804898,-0.09822116792201996,-0.11947190016508102,0.0071443901397287846,-0.01697453483939171,-0.2626924514770508,0.24248774349689484,-0.29942142963409424,0.0748123899102211,-0.003986363764852285,-0.002415876602753997,-0.32785558700561523,-0.002890763571485877,-0.0008745469385758042,1741433157.6914861,1741433157819,0.5183292236328125,-1.051391357421875,-0.5785224345828243,0.014406116485595703,0.9814188232421875
1741433157.7256668,-0.7906623482704163,0.6577414676545965,0.20736386998236053,-0.7241383756945327,0.0003365658922120929,0.2680996060371399,-0.007558502722531557,-7.11678409576416,-2.2597134113311768,6.892862796783447,-0.4484243392944336,0.9920272827148438,0.016975661739706993,-1.215786099433899,0.005912871100008488,-0.5163271427154541,-0.1359960287809372,1.313443899154663,0.002861066721379757,0.5506599545478821,0.23632410168647766,-0.22297245264053345,-0.3408484160900116,0.5479896068572998,1.0931181907653809,-0.08758080005645752,-0.3387739360332489,-0.4243915379047394,-0.5746929049491882,0.14591439068317413,1.206416368484497,-0.29579275846481323,-0.4296254515647888,0.20132355391979218,0.008502216078341007,-0.19101755321025848,-0.006836890708655119,-0.0005279961624182761,-0.00038127804873511195,-0.1980380266904831,0.09682213515043259,0.004282819107174873,-0.00020316126756370068,-0.08652139455080032,-0.06935335695743561,0.024402029812335968,0.006795700639486313,-0.23436982929706573,0.30418628454208374,-0.36282193660736084,0.11978010833263397,-0.0030003059655427933,0.004258744418621063,-0.22975897789001465,0.006452010944485664,3.649253994808532e-05,1741433157.6914861,1741433157819,0.5183292236328125,-1.051391357421875,-0.5785224345828243,0.014406116485595703,0.9814188232421875
1741433157.7456715,-0.7913831770420074,0.6616031883705582,0.206450296146187,-0.7208741196346721,0.016501642763614655,0.24417608976364136,-0.0383436344563961,-6.963548183441162,-2.486970901489258,6.928437232971191,-0.4407949447631836,0.9920272827148438,0.013160906732082367,-1.215786099433899,0.005912871100008488,-0.5163271427154541,-0.13942931592464447,1.3153512477874756,0.002861066721379757,0.5506599545478821,0.23556114733219147,-0.22449836134910583,-0.3400854468345642,0.5476081371307373,1.0900664329528809,-0.08175501972436905,-0.3458741009235382,-0.4224841594696045,-0.5743114352226257,0.14553292095661163,1.2022202014923096,-0.29579275846481323,-0.4296254515647888,0.21943360567092896,0.004582681227475405,-0.20745918154716492,-0.007368591148406267,-0.0073526641353964806,-0.003376723499968648,-0.23561395704746246,0.11452455818653107,0.005847121123224497,-0.005529751069843769,-0.03529328480362892,-0.06778467446565628,0.021212782710790634,-0.013893255963921547,-0.14273521304130554,0.30878114700317383,-0.3699397146701813,0.1059521958231926,0.029805883765220642,-0.013936834409832954,-0.24734793603420258,0.0004748289939016104,-0.00017770208069123328,1741433157.6914861,1741433157819,0.5183292236328125,-1.051391357421875,-0.5785224345828243,0.014406116485595703,0.9814188232421875
1741433157.7658048,-0.7915853261947632,0.6648383971930166,0.2050398676218993,-0.7182955925685572,0.03447326272726059,0.2068021297454834,0.015587734058499336,-6.863380432128906,-1.7729004621505737,6.775270938873291,-0.4339284896850586,0.9920272827148438,0.008964675478637218,-1.215786099433899,0.005912871100008488,-0.5163271427154541,-0.14248111844062805,1.3168771266937256,0.002861066721379757,0.5506599545478821,0.23479819297790527,-0.22526131570339203,-0.3397039771080017,0.5464637279510498,1.0885404348373413,-0.07617564499378204,-0.35261762142181396,-0.4198138415813446,-0.5735484957695007,0.14476996660232544,1.19611656665802,-0.29579275846481323,-0.4296254515647888,0.2056184709072113,0.007210640236735344,-0.18660515546798706,-0.016876332461833954,-0.008445154875516891,-0.0013320990838110447,-0.19455048441886902,0.09070006757974625,0.006797037087380886,-0.0011477970983833075,-0.034372515976428986,-0.05616414546966553,0.031059738248586655,-0.052723098546266556,-0.07154335826635361,0.2609034776687622,-0.30423879623413086,0.15930013358592987,0.008629707619547844,-0.047200314700603485,-0.2905545234680176,-0.006703318562358618,0.024657392874360085,1741433157.7991645,1741433157919,0.5300001831054688,-1.0653349609375,-0.5731501065151305,0.014462841033935548,0.981527587890625
1741433157.7858293,-0.7921420037746429,0.6677754169187075,0.20339205833418336,-0.7160360767207409,0.06557930260896683,0.19289517402648926,0.022321384400129318,-6.8873138427734375,-1.9796233177185059,6.7130889892578125,-0.4274435043334961,0.9920272827148438,0.00476844422519207,-1.215786099433899,0.005912871100008488,-0.5163271427154541,-0.14515145123004913,1.3184030055999756,0.002861066721379757,0.5506599545478821,0.23365376889705658,-0.22564278542995453,-0.3389410376548767,0.5460822582244873,1.0885404348373413,-0.07035698741674423,-0.35959357023239136,-0.4171435236930847,-0.5735484957695007,0.14438849687576294,1.1907758712768555,-0.29579275846481323,-0.4296254515647888,0.18482568860054016,0.00732126459479332,-0.24864903092384338,-0.01064977701753378,-0.006990192923694849,0.00023196091933641583,-0.176533043384552,0.08729571849107742,-0.0009480561129748821,0.004570548888295889,-0.06795991957187653,-0.022074386477470398,0.024739669635891914,-0.010055005550384521,-0.012232435867190361,0.2785172760486603,-0.32432422041893005,0.12093677371740341,-0.0080809211358428,-0.002410304034128785,-0.22801996767520905,-0.00471634091809392,0.018809515982866287,1741433157.7991645,1741433157919,0.5300001831054688,-1.0653349609375,-0.5731501065151305,0.014462841033935548,0.981527587890625
1741433157.805737,-0.7931893169879913,0.6704259368457687,0.20132007520628706,-0.7141423461211416,0.1069183424115181,0.18282710015773773,0.022332649677991867,-7.099731922149658,-1.9417184591293335,6.747198581695557,-0.4209585189819336,0.9920272827148438,0.000572213320992887,-1.215786099433899,0.005912871100008488,-0.5163271427154541,-0.14744029939174652,1.3195475339889526,0.002861066721379757,0.5506599545478821,0.2317463904619217,-0.22640573978424072,-0.3385595381259918,0.5460822582244873,1.0870145559310913,-0.06526907533407211,-0.3656473755836487,-0.41638055443763733,-0.5735484957695007,0.14438849687576294,1.187342643737793,-0.29579275846481323,-0.4296254515647888,0.19223041832447052,0.006357596721500158,-0.21959331631660461,-0.007794405333697796,-0.005142425186932087,-0.00025554539752192795,-0.15631066262722015,0.06540638208389282,0.0006130950059741735,0.0045899623073637486,-0.08663905411958694,-0.03829803317785263,0.0005369313876144588,0.0022839303128421307,-0.06952229887247086,0.2628003656864166,-0.30415698885917664,0.013110880739986897,-0.004904158879071474,0.007652203552424908,-0.17537236213684082,-0.0015610870905220509,0.008080380968749523,1741433157.7991645,1741433157919,0.5300001831054688,-1.0653349609375,-0.5731501065151305,0.014462841033935548,0.981527587890625
1741433157.8257318,-0.794608861207962,0.6731759678839757,0.1990275270511275,-0.7121953101076874,0.12257254868745804,0.19552074372768402,0.010787993669509888,-6.8217034339904785,-1.7332948446273804,6.543710231781006,-0.4144735336303711,0.9920272827148438,-0.0032425422687083483,-1.215786099433899,0.005912871100008488,-0.5163271427154541,-0.1504921019077301,1.3206919431686401,0.0032425422687083483,0.5506599545478821,0.2302204966545105,-0.22640573978424072,-0.3385595381259918,0.5457007884979248,1.0847257375717163,-0.060426611453294754,-0.3713703751564026,-0.41638055443763733,-0.5735484957695007,0.14438849687576294,1.181620478630066,-0.29579275846481323,-0.4296254515647888,0.1929190754890442,0.00846080668270588,-0.18362462520599365,0.0015958379954099655,-0.0040711164474487305,-0.0035162505228072405,-0.1919066309928894,0.08119486272335052,0.005757937673479319,-0.0048486171290278435,-0.06456583738327026,-0.011883408762514591,-0.003354588057845831,-0.004070962779223919,-0.1336139440536499,0.21083283424377441,-0.24389959871768951,0.013199232518672943,-0.006943974178284407,0.005329507403075695,-0.2971171736717224,0.0012348147574812174,0.00585061265155673,1741433157.7991645,1741433157919,0.5300001831054688,-1.0653349609375,-0.5731501065151305,0.014462841033935548,0.981527587890625
1741433157.8458195,-0.797135591506958,0.6758441491106133,0.1973029853983438,-0.7101452091409559,0.13233153522014618,0.21188828349113464,-0.05369804799556732,-6.3399977684021,-1.6564189195632935,6.405457019805908,-0.4076070785522461,0.9920272827148438,-0.006294346414506435,-1.215786099433899,0.005912871100008488,-0.5163271427154541,-0.15392538905143738,1.3222178220748901,0.002861066721379757,0.5506599545478821,0.2290760725736618,-0.22640573978424072,-0.3389410376548767,0.5457007884979248,1.0797665119171143,-0.05558740720152855,-0.37705281376838684,-0.41638055443763733,-0.5735484957695007,0.14438849687576294,1.176279902458191,-0.29579275846481323,-0.4296254515647888,0.195170059800148,0.0073738908395171165,-0.1669784039258957,0.0018757039215415716,-0.007663288619369268,-0.0015531970420852304,-0.21757961809635162,0.07796398550271988,0.0004258657863829285,-0.0009569180547259748,-0.04104657471179962,0.003925648517906666,-0.004867650102823973,-0.004791975487023592,-0.2836432158946991,0.2530604302883148,-0.28808000683784485,0.019304050132632256,-0.010508181527256966,0.005577108822762966,-0.2521040141582489,0.0025524431839585304,0.005081388633698225,1741433157.7991645,1741433157919,0.5300001831054688,-1.0653349609375,-0.5731501065151305,0.014462841033935548,0.981527587890625
1741433157.8808675,-0.8005683720111847,0.6786315207390806,0.19623282682336807,-0.7077795820283832,0.12514321506023407,0.2362247109413147,-0.1153884157538414,-6.327203273773193,-1.9719842672348022,6.29009485244751,-0.4034099578857422,0.9920272827148438,-0.009727626107633114,-1.215786099433899,0.005912871100008488,-0.5163271427154541,-0.15735866129398346,1.3237437009811401,0.002861066721379757,0.5506599545478821,0.22793163359165192,-0.22640573978424072,-0.3393225073814392,0.5457007884979248,1.0755703449249268,-0.05123503506183624,-0.38213303685188293,-0.41561761498451233,-0.5739299654960632,0.14438849687576294,1.1728465557098389,-0.29579275846481323,-0.4296254515647888,0.12987570464611053,0.007328136824071407,-0.15996704995632172,0.0041931322775781155,-0.009661860764026642,-3.9982649468583986e-05,-0.18686836957931519,0.11554187536239624,0.005324357654899359,0.0007266363245435059,-0.04368026927113533,-0.005874240305274725,-0.013833250850439072,0.0006289900047704577,-0.1973164677619934,0.2202405333518982,-0.25736814737319946,0.043045323342084885,-0.007707409560680389,0.003582702251151204,-0.16168859601020813,-0.0034980513155460358,0.013631869107484818,1741433157.8977196,1741433158019,0.5402467651367188,-1.08064404296875,-0.5790217619299306,0.014482161521911622,0.9814797973632813
1741433157.8858404,-0.8038409948348999,0.6819651720017389,0.1954815944590058,-0.704776879873626,0.09691887348890305,0.27502965927124023,-0.11955702304840088,-6.543277263641357,-1.793885350227356,6.236883163452148,-0.4007396697998047,0.9920272827148438,-0.013923857361078262,-1.215786099433899,0.005912871100008488,-0.5163271427154541,-0.15964750945568085,1.3256510496139526,0.0032425422687083483,0.5506599545478821,0.22716869413852692,-0.22640573978424072,-0.3389410376548767,0.5453193187713623,1.0721369981765747,-0.04664362967014313,-0.38746175169944763,-0.41523614525794983,-0.5739299654960632,0.14438849687576294,1.1686503887176514,-0.29579275846481323,-0.4296254515647888,0.06988616287708282,0.007950019091367722,-0.20036378502845764,-0.0015085176564753056,0.00010567445860942826,0.0039139073342084885,-0.15425363183021545,0.11376675218343735,0.0016052218852564692,0.0017519958782941103,-0.03784692659974098,-0.00810467079281807,-0.007584510371088982,0.0004665406886488199,-0.1704246699810028,0.22036664187908173,-0.24673572182655334,0.0023753028362989426,-0.010116871446371078,-0.0012604695511981845,-0.22862344980239868,-0.007496528327465057,0.019239939749240875,1741433157.8977196,1741433158019,0.5402467651367188,-1.08064404296875,-0.5790217619299306,0.014482161521911622,0.9814797973632813
1741433157.90584,-0.8072365522384644,0.6857987622861629,0.19506936673117092,-0.7011618927251159,0.07979706674814224,0.30869153141975403,-0.1591857522726059,-6.814817905426025,-1.8918637037277222,6.440971374511719,-0.3961620330810547,0.9920272827148438,-0.01773861236870289,-1.2154046297073364,0.005912871100008488,-0.5163271427154541,-0.16269932687282562,1.3275585174560547,0.0032425422687083483,0.5506599545478821,0.22716869413852692,-0.22640573978424072,-0.3389410376548767,0.5453193187713623,1.0675593614578247,-0.04350459575653076,-0.391087144613266,-0.41523614525794983,-0.5739299654960632,0.14438849687576294,1.1614023447036743,-0.29579275846481323,-0.4296254515647888,0.12511593103408813,0.007727963849902153,-0.19551099836826324,-0.010152977891266346,-0.0042995885014534,-0.003332007210701704,-0.19753162562847137,0.13606925308704376,0.004863852635025978,-0.005553260445594788,0.008223606273531914,-0.0029000439681112766,-0.0002221641334472224,0.0015801433473825455,-0.2623402178287506,0.1605772078037262,-0.1713210493326187,0.0022957338951528072,-0.003663781564682722,0.0032203292939811945,-0.350329726934433,-0.010306336916983128,0.026183875277638435,1741433157.8977196,1741433158019,0.5402467651367188,-1.08064404296875,-0.5790217619299306,0.014482161521911622,0.9814797973632813
1741433157.9258547,-0.8109805583953857,0.6904975569118096,0.19465016009779004,-0.6966523085964239,0.07002758979797363,0.36932528018951416,-0.1877729743719101,-6.718362331390381,-1.7887990474700928,6.21986198425293,-0.3912029266357422,0.9920272827148438,-0.021171892061829567,-1.215786099433899,0.005912871100008488,-0.5163271427154541,-0.1661325991153717,1.3290843963623047,0.0032425422687083483,0.5506599545478821,0.22716869413852692,-0.22640573978424072,-0.3393225073814392,0.5453193187713623,1.0595483779907227,-0.03964243829250336,-0.3955286145210266,-0.41523614525794983,-0.5743114352226257,0.14438849687576294,1.1549172401428223,-0.29579275846481323,-0.4296254515647888,0.143840491771698,0.008366112597286701,-0.1952953338623047,-0.007583006750792265,-0.008262529037892818,-0.004096671938896179,-0.20919091999530792,0.08754723519086838,0.004116347525268793,-0.003313272725790739,-0.0007827967056073248,-0.006569849327206612,-0.008053452707827091,0.002140552271157503,-0.40102478861808777,0.1934807300567627,-0.21604405343532562,-0.0016174442134797573,-0.01608763262629509,0.0045468746684491634,-0.2939426302909851,-0.008108622394502163,0.009697345085442066,1741433157.8977196,1741433158019,0.5402467651367188,-1.08064404296875,-0.5790217619299306,0.014482161521911622,0.9814797973632813
1741433157.945846,-0.8146184980869293,0.6960008923941526,0.1944810330556805,-0.6912017690719102,0.05099508538842201,0.41998428106307983,-0.19235336780548096,-6.484517574310303,-2.2736246585845947,5.943367004394531,-0.3862438201904297,0.9916458129882812,-0.025749599561095238,-1.2154046297073364,0.005912871100008488,-0.5163271427154541,-0.16918440163135529,1.3302288055419922,0.002861066721379757,0.5506599545478821,0.22716869413852692,-0.22640573978424072,-0.3393225073814392,0.5453193187713623,1.051918864250183,-0.03895803540945053,-0.3967713415622711,-0.41523614525794983,-0.5743114352226257,0.14438849687576294,1.1476691961288452,-0.29579275846481323,-0.4296254515647888,0.13342659175395966,0.003283438039943576,-0.2258131057024002,-0.007144290953874588,-0.005951929837465286,0.0015253315214067698,-0.173943430185318,0.08503355085849762,0.001403982751071453,-0.0053703258745372295,0.005498810671269894,-0.008701728656888008,-0.004218459129333496,0.0015084146289154887,-0.39298415184020996,0.005613810382783413,0.005143630784004927,0.0017173407832160592,-0.013505824841558933,0.0053484332747757435,-0.38291606307029724,0.0011491166660562158,-0.002063849475234747,1741433157.8977196,1741433158019,0.5402467651367188,-1.08064404296875,-0.5790217619299306,0.014482161521911622,0.9814797973632813
1741433157.965895,-0.8171662390232086,0.7018574581998681,0.194303747343395,-0.685304430262591,0.0098056485876441,0.4461382031440735,-0.16038207709789276,-6.727488040924072,-1.7885732650756836,5.953119277954102,-0.3820476531982422,0.9920272827148438,-0.029564354568719864,-1.2154046297073364,0.005912871100008488,-0.5163271427154541,-0.17147326469421387,1.3313732147216797,0.0032425422687083483,0.5506599545478821,0.22678720951080322,-0.22640573978424072,-0.3393225073814392,0.5453193187713623,1.042763352394104,-0.040406350046396255,-0.39511018991470337,-0.41523614525794983,-0.5750743746757507,0.14438849687576294,1.1400396823883057,-0.29579275846481323,-0.4296254515647888,0.12158845365047455,0.007313726469874382,-0.20261545479297638,0.0014952666824683547,-0.008469176478683949,-0.008442291989922523,-0.1379302740097046,0.06800136715173721,0.007586121559143066,-0.007533904630690813,-0.02314634434878826,-0.0023568877950310707,-0.01051419135183096,0.004792597610503435,-0.4621029496192932,-0.09372501820325851,0.10085126757621765,-0.0002866214490495622,-0.044416870921850204,-0.002221736591309309,-0.38192054629325867,-0.0002794552128762007,0.01852678880095482,1741433158.0088463,1741433158119,0.5496248168945312,-1.1002186279296875,-0.5960172340100078,0.014370054244995118,0.9814940185546875
1741433157.9858878,-0.819482833147049,0.7084113838453204,0.19406188602304833,-0.6785965632329237,-0.008505210280418396,0.4894433617591858,-0.16213220357894897,-6.968111515045166,-2.1619274616241455,5.852941513061523,-0.3782329559326172,0.9920272827148438,-0.03337911143898964,-1.2154046297073364,0.005912871100008488,-0.5163271427154541,-0.17414358258247375,1.3317546844482422,0.002861066721379757,0.5506599545478821,0.22526131570339203,-0.22640573978424072,-0.3393225073814392,0.5453193187713623,1.0336079597473145,-0.041854918003082275,-0.3934459686279297,-0.41523614525794983,-0.5750743746757507,0.14438849687576294,1.1324101686477661,-0.29579275846481323,-0.4296254515647888,0.11079423874616623,0.0073256040923297405,-0.21388129889965057,0.0011223818873986602,-0.012668662704527378,-0.0011790345888584852,-0.17368507385253906,0.04351165518164635,0.010681450366973877,-0.0011681164614856243,-0.0613633394241333,-0.0033787968568503857,0.0023386902175843716,0.005129694472998381,-0.4656194746494293,-0.060880884528160095,0.06997194141149521,-0.0027423861902207136,-0.0013126059202477336,0.006891515571624041,-0.44776663184165955,-0.007756002247333527,0.037647880613803864,1741433158.0088463,1741433158119,0.5496248168945312,-1.1002186279296875,-0.5960172340100078,0.014370054244995118,0.9814940185546875
1741433158.0059392,-0.8211033046245575,0.7157662048041786,0.19330880560086802,-0.671051745946159,-0.015612533316016197,0.5326623916625977,-0.128668874502182,-7.612493991851807,-2.438035011291504,5.819976329803467,-0.3747997283935547,0.9920272827148438,-0.037193864583969116,-1.2154046297073364,0.005912871100008488,-0.5163271427154541,-0.17681391537189484,1.3328990936279297,0.002861066721379757,0.5506599545478821,0.22297245264053345,-0.22640573978424072,-0.3393225073814392,0.5453193187713623,1.0225452184677124,-0.041372135281562805,-0.39400094747543335,-0.41561761498451233,-0.5750743746757507,0.14438849687576294,1.1232547760009766,-0.29579275846481323,-0.4296254515647888,0.09376227110624313,0.007700465153902769,-0.1743917018175125,-0.01028277724981308,-0.009769538417458534,0.004729659296572208,-0.20130936801433563,0.059059519320726395,0.00808046292513609,0.004013947211205959,-0.11409138143062592,-0.007167953532189131,0.002256430685520172,0.0009397602407261729,-0.5512670278549194,0.032491907477378845,-0.03545324131846428,-0.0015828956384211779,-0.0076591637916862965,0.0034247953444719315,-0.4500676989555359,-0.011116127483546734,0.034276437014341354,1741433158.0088463,1741433158119,0.5496248168945312,-1.1002186279296875,-0.5960172340100078,0.014370054244995118,0.9814940185546875
1741433158.0259798,-0.8217473328113556,0.7237260403508889,0.1914296061853855,-0.6630047695105455,0.004413734655827284,0.5662164688110352,-0.036739595234394073,-7.320799350738525,-2.077993154525757,6.1603617668151855,-0.3702220916748047,0.9920272827148438,-0.040245670825242996,-1.215786099433899,0.005912871100008488,-0.5163271427154541,-0.17986571788787842,1.3340435028076172,0.002861066721379757,0.5506599545478821,0.21992065012454987,-0.22640573978424072,-0.3393225073814392,0.5453193187713623,1.0107194185256958,-0.04137201979756355,-0.3940010964870453,-0.41561761498451233,-0.5750743746757507,0.14400701224803925,1.1137179136276245,-0.29579275846481323,-0.4296254515647888,0.12578657269477844,0.010971584357321262,-0.11490055918693542,-0.02625237964093685,0.0017404003301635385,0.0026471291203051805,-0.2183571457862854,0.053471505641937256,0.00906611979007721,0.002287985058501363,-0.1752440184354782,-0.00670577073469758,0.006228283978998661,-0.001352719496935606,-0.6021199822425842,-0.013564384542405605,0.02514362335205078,-0.0010147765278816223,-0.008006391115486622,-0.00796028133481741,-0.5191134810447693,-0.003955003339797258,0.010718699544668198,1741433158.0088463,1741433158119,0.5496248168945312,-1.1002186279296875,-0.5960172340100078,0.014370054244995118,0.9814940185546875
1741433158.0459535,-0.821656346321106,0.7314238621324998,0.1883660177064771,-0.6553910109824371,0.04245620220899582,0.5531717538833618,0.06545300036668777,-7.386500358581543,-3.056338310241699,6.331137180328369,-0.3641185760498047,0.9920272827148438,-0.040245670825242996,-1.2161675691604614,0.005912871100008488,-0.5163271427154541,-0.1825360506772995,1.3351880311965942,0.002861066721379757,0.5506599545478821,0.2149614691734314,-0.22640573978424072,-0.3397039771080017,0.5453193187713623,0.9988937377929688,-0.04137201979756355,-0.3940010964870453,-0.41561761498451233,-0.5750743746757507,0.14324407279491425,1.1037994623184204,-0.29579275846481323,-0.4296254515647888,0.17495597898960114,0.007630471605807543,0.01625256985425949,-0.04193393141031265,-0.004485702142119408,-0.003550977446138859,-0.18238501250743866,0.08120492845773697,0.007385832257568836,0.0025376726407557726,-0.24237363040447235,-0.0017784524243324995,-0.02587703987956047,0.005324069410562515,-0.6042594909667969,-0.005513011012226343,0.0111483633518219,0.010857149958610535,-0.024416707456111908,-0.059868473559617996,-0.46969074010849,-0.0039442735724151134,0.0020277006551623344,1741433158.0088463,1741433158119,0.5496248168945312,-1.1002186279296875,-0.5960172340100078,0.014370054244995118,0.9814940185546875
1741433158.065978,-0.8196699917316437,0.7389981072951362,0.18382112883291482,-0.648144729214702,0.045113373547792435,0.5232447385787964,0.21161095798015594,-7.996957778930664,-2.895151138305664,5.947713851928711,-0.3583965301513672,0.9920272827148438,-0.0398641936480999,-1.216549038887024,0.005912871100008488,-0.5167086124420166,-0.1844434291124344,1.3367139101028442,0.002861066721379757,0.5506599545478821,0.20733195543289185,-0.22640573978424072,-0.3412298858165741,0.5453193187713623,0.9878309369087219,-0.04137201979756355,-0.3940010964870453,-0.41561761498451233,-0.5758373141288757,0.14171816408634186,1.0927367210388184,-0.29579275846481323,-0.4296254515647888,0.15308842062950134,0.007338937371969223,0.0064933993853628635,-0.02185632288455963,-0.006348081398755312,-0.057286959141492844,-0.11270792037248611,0.09858424961566925,0.006177328526973724,-0.010739938355982304,-0.40707218647003174,-0.008105063810944557,-0.07966024428606033,0.007566145155578852,-0.5345643758773804,-0.004883258603513241,0.012621947564184666,0.008512631058692932,-0.0600869283080101,-0.08561260998249054,-0.5377652049064636,0.002723232377320528,0.0010620865505188704,1741433158.103309,1741433158219,0.5594639282226562,-1.1134951171875,-0.599442404319596,0.01451307773590088,0.981469482421875
1741433158.0859892,-0.8157540559768677,0.7466627293440224,0.1785324129179284,-0.6407971177730417,0.01030709408223629,0.5205047130584717,0.2962384521961212,-7.878371715545654,-2.088775396347046,5.877209663391113,-0.3538188934326172,0.9920272827148438,-0.0398641936480999,-1.2169305086135864,0.005912871100008488,-0.5167086124420166,-0.18711376190185547,1.3386212587356567,0.002861066721379757,0.5506599545478821,0.1989395022392273,-0.22640573978424072,-0.3419928252696991,0.5453193187713623,0.9779125452041626,-0.04137201979756355,-0.3940010964870453,-0.41561761498451233,-0.576218843460083,0.13981078565120697,1.0816738605499268,-0.29579275846481323,-0.4296254515647888,0.12765434384346008,0.003512917086482048,-0.0015533575788140297,-0.04884643480181694,-0.007245211396366358,-0.016667015850543976,-0.17254364490509033,0.13224062323570251,-0.0025223593693226576,-0.013122348114848137,-0.4467419385910034,-0.012583926320075989,-0.029595522210001945,0.005083275493234396,-0.5096175670623779,-0.0014724195934832096,0.0043100458569824696,0.0015177344903349876,-0.004291648510843515,-0.08379364758729935,-0.5640028715133667,0.005702250171452761,0.011701412498950958,1741433158.103309,1741433158219,0.5594639282226562,-1.1134951171875,-0.599442404319596,0.01451307773590088,0.981469482421875
1741433158.105989,-0.811840295791626,0.75394723373877,0.1733330026983656,-0.6336554575739286,0.014136407524347305,0.4844498336315155,0.29381000995635986,-7.709932804107666,-2.182321548461914,5.395909309387207,-0.3473339080810547,0.9920272827148438,-0.0394827201962471,-1.2188379764556885,0.005912871100008488,-0.5174715518951416,-0.19054703414440155,1.3412915468215942,0.002861066721379757,0.5506599545478821,0.18940261006355286,-0.22640573978424072,-0.3423742949962616,0.5453193187713623,0.9691386222839355,-0.04137201979756355,-0.3940010964870453,-0.41523614525794983,-0.576218843460083,0.13828489184379578,1.0709925889968872,-0.29579275846481323,-0.4296254515647888,0.18696515262126923,0.007837273180484772,-0.004554352257400751,-0.12874051928520203,-0.004931386094540358,-0.031870655715465546,-0.23574888706207275,0.14942961931228638,0.00445937504991889,-0.007965327240526676,-0.4986031949520111,-0.007289051543921232,-0.003751450451090932,0.010041143745183945,-0.4359959661960602,0.0021268122363835573,-0.001985816052183509,0.012942830100655556,0.002818955574184656,-0.04723021015524864,-0.5227370858192444,0.007895290851593018,0.00908210501074791,1741433158.103309,1741433158219,0.5594639282226562,-1.1134951171875,-0.599442404319596,0.01451307773590088,0.981469482421875
1741433158.1260161,-0.8088172376155853,0.7605320263912939,0.16868683088260272,-0.6270054145858204,0.02635922282934189,0.4492214024066925,0.2409321516752243,-7.627923488616943,-1.757957935333252,5.433621883392334,-0.3397035598754883,0.9920272827148438,-0.0394827201962471,-1.2203638553619385,0.005912871100008488,-0.5174715518951416,-0.19436179101467133,1.3428175449371338,0.002861066721379757,0.5506599545478821,0.1806286722421646,-0.22640573978424072,-0.3423742949962616,0.5453193187713623,0.959983229637146,-0.04137201979756355,-0.3940010964870453,-0.41523614525794983,-0.5758373141288757,0.13828489184379578,1.0595483779907227,-0.29579275846481323,-0.4296254515647888,0.21745461225509644,0.0045546903274953365,-0.00020622536248993129,-0.09038426727056503,-0.006230166647583246,-0.00368624203838408,-0.228823721408844,0.11867058277130127,-0.0012695392360910773,-0.005762606859207153,-0.43490880727767944,0.003018716350197792,-0.00675952760502696,0.0007153268670663238,-0.4761914908885956,-0.007713095284998417,0.008458881638944149,0.009809399023652077,0.007594248745590448,0.011841620318591595,-0.5568754076957703,-0.005442507099360228,0.018632546067237854,1741433158.103309,1741433158219,0.5594639282226562,-1.1134951171875,-0.599442404319596,0.01451307773590088,0.981469482421875
1741433158.1460228,-0.8066280484199524,0.7660297335160607,0.1649133222088815,-0.6212906272650043,0.02605327032506466,0.443036824464798,0.21742475032806396,-8.183327674865723,-1.6283056735992432,5.511477947235107,-0.3332185745239258,0.9920272827148438,-0.0394827201962471,-1.2218897342681885,0.005912871100008488,-0.5174715518951416,-0.1981765478849411,1.3435804843902588,0.002861066721379757,0.5506599545478821,0.17223620414733887,-0.22564278542995453,-0.3423742949962616,0.5453193187713623,0.951209306716919,-0.04137201979756355,-0.3940010964870453,-0.41485464572906494,-0.5758373141288757,0.13866636157035828,1.0496299266815186,-0.29579275846481323,-0.4296254515647888,0.177048459649086,0.005607521161437035,0.0018302216194570065,-0.1214747503399849,-0.007896892726421356,-0.005286619998514652,-0.2537071108818054,0.04632456228137016,0.002299698768183589,-0.0041735353879630566,-0.4272601902484894,0.027577146887779236,-0.004996982403099537,-0.00029524764977395535,-0.4517466425895691,-0.006161424797028303,0.016453860327601433,0.022521210834383965,0.0015945120248943567,0.021144632250070572,-0.5025393962860107,-0.0034971998538821936,0.014226803556084633,1741433158.103309,1741433158219,0.5594639282226562,-1.1134951171875,-0.599442404319596,0.01451307773590088,0.981469482421875
1741433158.1660917,-0.8045945167541504,0.7734285339814784,0.16030189073554701,-0.6132793871066187,0.03880902752280235,0.4498930275440216,0.1669885367155075,-7.998220443725586,-1.7539616823196411,5.071909427642822,-0.3271150588989258,0.9920272827148438,-0.0394827201962471,-1.223797082901001,0.005912871100008488,-0.5174715518951416,-0.20275425910949707,1.3439619541168213,0.002861066721379757,0.5506599545478821,0.1653696447610855,-0.22487983107566833,-0.3423742949962616,0.5453193187713623,0.9416723847389221,-0.04137201979756355,-0.3940010964870453,-0.41409170627593994,-0.5754558444023132,0.13866636157035828,1.039711594581604,-0.29579275846481323,-0.4296254515647888,0.17721444368362427,0.006467175669968128,-0.005085558630526066,-0.13658633828163147,-0.0063940659165382385,-0.00475867697969079,-0.28369471430778503,0.023490291088819504,0.006609898991882801,-0.0035039065405726433,-0.3513645529747009,0.042346592992544174,-0.005230467766523361,0.005603129509836435,-0.49789512157440186,-0.003399163018912077,0.006605904549360275,0.035442255437374115,0.00010886145901167765,0.009673526510596275,-0.47987130284309387,-0.004394137300550938,0.005935464520007372,1741433158.103309,1741433158219,0.5594639282226562,-1.1134951171875,-0.599442404319596,0.01451307773590088,0.981469482421875
1741433158.1860764,-0.8035047352313995,0.7793453928902464,0.15692885590113,-0.6066251666114009,0.037681374698877335,0.44554808735847473,0.11556154489517212,-8.094934463500977,-1.9792386293411255,5.064670562744141,-0.3217744827270508,0.9920272827148438,-0.039101243019104004,-1.225704550743103,0.005912871100008488,-0.5174715518951416,-0.20695048570632935,1.3443434238433838,0.002861066721379757,0.5506599545478821,0.15888457000255585,-0.22411687672138214,-0.3423742949962616,0.5453193187713623,0.9328984618186951,-0.04137201979756355,-0.3940010964870453,-0.41409170627593994,-0.5754558444023132,0.13866636157035828,1.030174732208252,-0.29579275846481323,-0.4296254515647888,0.1467599868774414,0.007289968430995941,0.023402132093906403,-0.12481345981359482,-0.0034011921379715204,-0.0031077368184924126,-0.27180472016334534,0.031078102067112923,0.0075555481016635895,0.007738587912172079,-0.2981608510017395,0.03171556442975998,-0.026456397026777267,0.005977382883429527,-0.4582974910736084,-0.005274668801575899,0.019500741735100746,-0.0040818871930241585,0.01696438156068325,0.01047117356210947,-0.503902792930603,-0.004372050985693932,0.03172066807746887,1741433158.103309,1741433158219,0.5594639282226562,-1.1134951171875,-0.599442404319596,0.01451307773590088,0.981469482421875
1741433158.2060935,-0.8023672103881836,0.785111208403436,0.15328282347757208,-0.6000872990374319,0.05165577307343483,0.42284438014030457,0.13650453090667725,-8.821999549865723,-1.8300268650054932,5.191366195678711,-0.3168153762817383,0.9920272827148438,-0.03757534176111221,-1.2276118993759155,0.005912871100008488,-0.5174715518951416,-0.21114671230316162,1.3451063632965088,0.002861066721379757,0.5506599545478821,0.1520180106163025,-0.22297245264053345,-0.3435187339782715,0.5453193187713623,0.9233615398406982,-0.04137201979756355,-0.3940010964870453,-0.41409170627593994,-0.5750743746757507,0.13866636157035828,1.0210193395614624,-0.29579275846481323,-0.4296254515647888,0.13421718776226044,0.0053354837000370026,0.059355609118938446,-0.12300869077444077,-0.0028533688746392727,-0.007304138969630003,-0.2823788523674011,0.03828638046979904,0.00926151592284441,-0.007931509986519814,-0.3142312467098236,0.055006444454193115,-0.0495121031999588,0.006378808058798313,-0.4571619927883148,0.0032678504940122366,-0.001839407254010439,-0.003527215216308832,0.0005842428654432297,0.008959262631833553,-0.4408489763736725,-0.004049679264426231,0.03530072048306465,1741433158.103309,1741433158219,0.5594639282226562,-1.1134951171875,-0.599442404319596,0.01451307773590088,0.981469482421875
1741433158.2261128,-0.801559180021286,0.7905859039932951,0.14970192622418024,-0.5937703779171496,0.06773687899112701,0.4163055717945099,0.14991894364356995,-8.500411987304688,-2.119948625564575,4.931626796722412,-0.3107118606567383,0.9920272827148438,-0.03604944050312042,-1.2291377782821655,0.005912871100008488,-0.5170900821685791,-0.2153429538011551,1.3458693027496338,0.002861066721379757,0.5506599545478821,0.14553292095661163,-0.22182802855968475,-0.3435187339782715,0.5453193187713623,0.9145876169204712,-0.04137201979756355,-0.3940010964870453,-0.41409170627593994,-0.5750743746757507,0.13866636157035828,1.0114823579788208,-0.29579275846481323,-0.4296254515647888,0.17018771171569824,0.00740010803565383,0.0693962499499321,-0.1048705130815506,-0.0070669217966496944,0.006172306835651398,-0.2699217200279236,0.05273805558681488,0.010454216040670872,-0.0021715988405048847,-0.33952978253364563,0.04116738960146904,-0.01073531061410904,0.009981189854443073,-0.44589218497276306,-0.005129978526383638,0.008632505312561989,0.007694976404309273,0.004032224882394075,0.008418893441557884,-0.4659516215324402,0.0024715447798371315,0.017361590638756752,1741433158.103309,1741433158219,0.5594639282226562,-1.1134951171875,-0.599442404319596,0.01451307773590088,0.981469482421875
1741433158.2546349,-0.800510972738266,0.795568155245883,0.1459412585515061,-0.588024199681497,0.07144943624734879,0.3738044798374176,0.1621321737766266,-8.865067481994629,-1.9343409538269043,4.771645545959473,-0.3049898147583008,0.9920272827148438,-0.03376058489084244,-1.231045126914978,0.005912871100008488,-0.5170900821685791,-0.21953918039798737,1.3470137119293213,0.002861066721379757,0.5506599545478821,0.13904783129692078,-0.22030213475227356,-0.3435187339782715,0.5453193187713623,0.9054322242736816,-0.04137201979756355,-0.3940010964870453,-0.41409170627593994,-0.5750743746757507,0.13866636157035828,1.0034713745117188,-0.29579275846481323,-0.4296254515647888,0.17665617167949677,0.005340120289474726,0.11882004886865616,-0.11651285737752914,-0.00293631199747324,0.003760638413950801,-0.26742076873779297,0.09457562118768692,0.003747224574908614,-0.003628350328654051,-0.3317411243915558,0.07575669884681702,-0.007615887094289064,0.0017424814868718386,-0.4143529236316681,-0.0038306433707475662,0.005176799837499857,0.010514296591281891,-0.013896320946514606,0.00048308426630683243,-0.38470450043678284,-0.00700062420219183,0.016728360205888748,1741433158.103309,1741433158219,0.5594639282226562,-1.1134951171875,-0.599442404319596,0.01451307773590088,0.981469482421875
1741433158.2661784,-0.7994110584259033,0.8003614462254875,0.14222282823061835,-0.582403831139468,0.06206529587507248,0.33402296900749207,0.15828560292720795,-8.4198579788208,-1.4120545387268066,4.802292346954346,-0.3000307083129883,0.9920272827148438,-0.031090257689356804,-1.232571005821228,0.005912871100008488,-0.5167086124420166,-0.22373540699481964,1.3489210605621338,0.002861066721379757,0.5506599545478821,0.13218127191066742,-0.21915769577026367,-0.3435187339782715,0.5453193187713623,0.8974212408065796,-0.04137201979756355,-0.3940010964870453,-0.41409170627593994,-0.5750743746757507,0.13866636157035828,0.994316041469574,-0.29579275846481323,-0.4296254515647888,0.1403205394744873,0.009544962085783482,0.11829163134098053,-0.08797169476747513,-0.006297723390161991,0.00920862052589655,-0.2982954978942871,0.10849980264902115,0.0009488690993748605,-0.0016533858142793179,-0.30382928252220154,0.07570952922105789,0.001555246184580028,0.002685868414118886,-0.4208729565143585,-0.002972212852910161,0.0059578618966042995,0.0003087865770794451,-0.0008399426005780697,0.008797157555818558,-0.40936514735221863,-0.0017795664025470614,-0.0041452134028077126,1741433158.310827,1741433158419,0.581133544921875,-1.1490970458984375,-0.5785678313801785,0.014404473304748535,0.9815219116210938
1741433158.2861767,-0.7986477017402649,0.8045267275332887,0.1391524967087682,-0.5773849039802598,0.050405874848365784,0.29367178678512573,0.10142771899700165,-8.753304481506348,-1.8669675588607788,4.590038299560547,-0.2958345413208008,0.9920272827148438,-0.02841992862522602,-1.233715534210205,0.005912871100008488,-0.5163271427154541,-0.2283131182193756,1.3504470586776733,0.002861066721379757,0.5506599545478821,0.12569619715213776,-0.2161058932542801,-0.3435187339782715,0.5453193187713623,0.889028787612915,-0.04137201979756355,-0.3940010964870453,-0.41409170627593994,-0.5750743746757507,0.13866636157035828,0.9870679974555969,-0.29579275846481323,-0.4296254515647888,0.11983443051576614,0.010183623060584068,0.1412251740694046,-0.08983045816421509,-0.006272030062973499,0.020145030692219734,-0.2790808379650116,0.11446858197450638,0.002117026364430785,-0.007126455195248127,-0.31866276264190674,0.15057465434074402,-0.014489375054836273,0.006004581227898598,-0.38765713572502136,-0.00311203277669847,0.007008729036897421,-0.008184483274817467,-0.0032864913810044527,0.009816208854317665,-0.3359702527523041,-0.0022211752366274595,0.026255588978528976,1741433158.310827,1741433158419,0.581133544921875,-1.1490970458984375,-0.5785678313801785,0.014404473304748535,0.9815219116210938
1741433158.306183,-0.7983933389186859,0.8077750154896195,0.13692007233396927,-0.5733693557758434,0.0487167127430439,0.23377735912799835,0.07428211718797684,-8.80260944366455,-1.4421387910842896,4.924017429351807,-0.2904939651489258,0.9920272827148438,-0.02536812424659729,-1.235241413116455,0.005912871100008488,-0.5163271427154541,-0.23289081454277039,1.3519729375839233,0.002861066721379757,0.5506599545478821,0.1199740618467331,-0.21229113638401031,-0.343900203704834,0.5453193187713623,0.8802548050880432,-0.04137201979756355,-0.3940010964870453,-0.41371023654937744,-0.5750743746757507,0.13866636157035828,0.9790570139884949,-0.29579275846481323,-0.4296254515647888,0.15759581327438354,0.007446412928402424,0.1544940024614334,-0.11600839346647263,-0.010162021033465862,0.009721774607896805,-0.29470595717430115,0.11227117478847504,-0.0005014768685214221,-0.008653919212520123,-0.29102247953414917,0.2075798660516739,-0.023921865969896317,0.009199184365570545,-0.45841556787490845,-0.007238743826746941,0.014203046448528767,0.019427413120865822,0.0019796837586909533,0.012579809874296188,-0.3852338194847107,-0.008532281965017319,0.02967257983982563,1741433158.310827,1741433158419,0.581133544921875,-1.1490970458984375,-0.5785678313801785,0.014404473304748535,0.9815219116210938
1741433158.3262389,-0.7985871732234955,0.8102607471580863,0.13522443011799382,-0.5702559733260878,0.05149838700890541,0.1987462341785431,0.052650175988674164,-8.818948745727539,-1.4973167181015015,4.671781063079834,-0.2840089797973633,0.9920272827148438,-0.023460745811462402,-1.23753023147583,0.005912871100008488,-0.5159456729888916,-0.23708705604076385,1.3534988164901733,0.002861066721379757,0.5506599545478821,0.11425192654132843,-0.20771344006061554,-0.34542611241340637,0.5453193187713623,0.8714808821678162,-0.04137201979756355,-0.3940010964870453,-0.41142138838768005,-0.5750743746757507,0.13904783129692078,0.9721904397010803,-0.29579275846481323,-0.4296254515647888,0.17676950991153717,0.009319095872342587,0.10388036072254181,-0.1550871878862381,-0.010598951950669289,0.005278442054986954,-0.3000447750091553,0.09586437046527863,0.0052218325436115265,-0.002251556608825922,-0.2719435393810272,0.2021920382976532,-0.06747318059206009,0.005543042905628681,-0.4065335988998413,-0.0060400208458304405,0.0056760539300739765,0.1336953043937683,-0.009715007618069649,0.008061233907938004,-0.3305586278438568,-0.006386586930602789,0.007655446883291006,1741433158.310827,1741433158419,0.581133544921875,-1.1490970458984375,-0.5785678313801785,0.014404473304748535,0.9815219116210938
1741433158.34622,-0.7986581027507782,0.8124954931754947,0.13344136059343656,-0.5674896270880041,0.056169331073760986,0.16462750732898712,0.060943253338336945,-8.507433891296387,-1.493577241897583,4.882542610168457,-0.2779045104980469,0.9920272827148438,-0.02231631986796856,-1.2394375801086426,0.005912871100008488,-0.5159456729888916,-0.24128328263759613,1.3542617559432983,0.002861066721379757,0.5506599545478821,0.10891126841306686,-0.20428015291690826,-0.34580758213996887,0.5453193187713623,0.8627069592475891,-0.04137201979756355,-0.3940010964870453,-0.4083695709705353,-0.5750743746757507,0.13904783129692078,0.9649423956871033,-0.29579275846481323,-0.4296254515647888,0.17270728945732117,0.007556031458079815,0.051280245184898376,-0.14420641958713531,-0.005017793737351894,4.986116982763633e-05,-0.26875102519989014,0.04509948194026947,0.0020602100994437933,-0.002431059256196022,-0.2460821121931076,0.17028753459453583,-0.029450109228491783,0.0072740609757602215,-0.47270745038986206,-0.003568471409380436,0.008516986854374409,0.15058057010173798,-0.008913652040064335,0.005804269574582577,-0.35543063282966614,-0.006272997707128525,0.017800942063331604,1741433158.310827,1741433158419,0.581133544921875,-1.1490970458984375,-0.5785678313801785,0.014404473304748535,0.9815219116210938
1741433158.3662684,-0.7987203299999237,0.8141986013858484,0.13174194130044853,-0.5654420380584712,0.0581514947116375,0.13025151193141937,0.08006209880113602,-8.44778060913086,-1.6537060737609863,4.543385028839111,-0.2737083435058594,0.9920272827148438,-0.021171892061829567,-1.2409635782241821,0.005912871100008488,-0.5155642032623291,-0.2454795092344284,1.3550246953964233,0.002861066721379757,0.5506599545478821,0.10433356463909149,-0.1993209719657898,-0.34695202112197876,0.5453193187713623,0.8546959757804871,-0.04137201979756355,-0.3940010964870453,-0.4045548141002655,-0.5754558444023132,0.13904783129692078,0.9580758213996887,-0.29579275846481323,-0.4296254515647888,0.13052307069301605,0.005777005106210709,0.07638270407915115,-0.11166764795780182,-0.0017474216874688864,0.023461369797587395,-0.2689516246318817,0.0496048778295517,0.0004061466024722904,-0.0060531157068908215,-0.25903379917144775,0.2673952877521515,-0.06000558286905289,0.003441467648372054,-0.39137741923332214,-0.005614002235233784,0.012606090866029263,0.198146790266037,-0.02034253627061844,0.004589064512401819,-0.3213757872581482,-0.0025263428688049316,0.0076894620433449745,1741433158.310827,1741433158419,0.581133544921875,-1.1490970458984375,-0.5785678313801785,0.014404473304748535,0.9815219116210938
1741433158.3862786,-0.7982819080352783,0.8154263824165356,0.13012911017314266,-0.5640445279803961,0.040525615215301514,0.08191943168640137,0.08861427754163742,-8.763731956481934,-1.0532282590866089,4.716243267059326,-0.2706565856933594,0.9920272827148438,-0.01773861236870289,-1.2424894571304321,0.005912871100008488,-0.5151827335357666,-0.24929426610469818,1.3554061651229858,0.002861066721379757,0.5506599545478821,0.09861142933368683,-0.19321736693382263,-0.34695202112197876,0.5453193187713623,0.8463035225868225,-0.04137201979756355,-0.3940010964870453,-0.3999771177768707,-0.5758373141288757,0.13904783129692078,0.9523537158966064,-0.29579275846481323,-0.4296254515647888,0.08068177849054337,0.007260915357619524,0.14277906715869904,-0.12205400317907333,-0.009212533943355083,0.00935238879173994,-0.2623193562030792,0.008136267773807049,-0.0005813319003209472,-0.009138863533735275,-0.2507037818431854,0.28653478622436523,-0.016985701397061348,0.00036545435432344675,-0.44357380270957947,-0.004826647695153952,0.0169537216424942,0.21774759888648987,-0.025929057970643044,0.004654076881706715,-0.3148099184036255,0.00027632052660919726,0.0021332139149308205,1741433158.310827,1741433158419,0.581133544921875,-1.1490970458984375,-0.5785678313801785,0.014404473304748535,0.9815219116210938
1741433158.4062898,-0.7980597615242004,0.8163933553948786,0.1289446102338187,-0.5629166694624882,0.028415482491254807,0.0577830895781517,0.05277898162603378,-8.605731010437012,-1.5205458402633667,4.606248378753662,-0.2668418884277344,0.9920272827148438,-0.01430533267557621,-1.2443968057632446,0.005912871100008488,-0.5151827335357666,-0.25349050760269165,1.3557876348495483,0.002861066721379757,0.5506599545478821,0.09365224838256836,-0.18749523162841797,-0.34695202112197876,0.5453193187713623,0.8390554785728455,-0.04137201979756355,-0.3940010964870453,-0.39845120906829834,-0.5758373141288757,0.13904783129692078,0.9451056718826294,-0.29579275846481323,-0.4296254515647888,0.10087460279464722,0.008179684169590473,0.17603430151939392,-0.10002485662698746,-0.012591306120157242,0.0010809538653120399,-0.25364920496940613,0.010490069165825844,-0.0016921083442866802,-0.004955127369612455,-0.2505313456058502,0.26426252722740173,-0.012158145196735859,0.0018003631848841906,-0.37739667296409607,-0.0007592391921207309,0.006645867135375738,0.06262464821338654,-0.006143986247479916,0.007380533963441849,-0.34587299823760986,-0.007519027218222618,0.00271030911244452,1741433158.310827,1741433158419,0.581133544921875,-1.1490970458984375,-0.5785678313801785,0.014404473304748535,0.9815219116210938
1741433158.426285,-0.7975063323974609,0.8176747423408448,0.12782185409095112,-0.5613105997169345,0.005474744364619255,0.05136428400874138,0.03207073360681534,-8.83470344543457,-1.4071372747421265,4.6056904792785645,-0.2634086608886719,0.9920272827148438,-0.01125352829694748,-1.2459226846694946,0.005912871100008488,-0.5151827335357666,-0.2576867341995239,1.3561691045761108,0.002861066721379757,0.5506599545478821,0.08907453715801239,-0.1825360506772995,-0.34695202112197876,0.5453193187713623,0.8314259648323059,-0.04137201979756355,-0.3940010964870453,-0.39692530035972595,-0.5758373141288757,0.13904783129692078,0.9393835067749023,-0.29579275846481323,-0.4296254515647888,0.09547501802444458,0.006907619070261717,0.15383096039295197,-0.10544417053461075,-0.01061948761343956,0.004050157032907009,-0.28792840242385864,0.013127898797392845,0.0036452857311815023,0.0035175345838069916,-0.22508332133293152,0.26108476519584656,-0.002842201618477702,0.0067999535240232944,-0.4001014232635498,0.005166061222553253,0.0038939814548939466,0.06188597530126572,-0.004434512462466955,0.004934913944453001,-0.25287967920303345,-0.008483104407787323,0.020698051899671555,1741433158.310827,1741433158419,0.581133544921875,-1.1490970458984375,-0.5785678313801785,0.014404473304748535,0.9815219116210938
1741433158.4463532,-0.7971798181533813,0.8185881579651773,0.12667436289615022,-0.5602383719668196,0.025849416851997375,0.02708541974425316,0.042726945132017136,-8.901328086853027,-1.4354312419891357,4.526137828826904,-0.2584495544433594,0.9920272827148438,-0.008201723918318748,-1.2474485635757446,0.005912871100008488,-0.5148012638092041,-0.2618829607963562,1.3561691045761108,0.002861066721379757,0.5506599545478821,0.08335240930318832,-0.17605096101760864,-0.34695202112197876,0.5453193187713623,0.8237964510917664,-0.04137201979756355,-0.3940010964870453,-0.39501792192459106,-0.576218843460083,0.13904783129692078,0.9340428709983826,-0.29579275846481323,-0.4296254515647888,0.1456579566001892,0.005483880639076233,0.16012676060199738,-0.11866015940904617,-0.008054959587752819,0.005135605577379465,-0.28614452481269836,-0.006165349390357733,-0.00340233463793993,-0.009363255463540554,-0.28883832693099976,0.30698734521865845,-0.003950254991650581,-0.0022439544554799795,-0.36324262619018555,-0.004033850505948067,0.02091231383383274,0.12426824867725372,-0.016782034188508987,0.011710947379469872,-0.2875455319881439,-0.002811931073665619,0.014359048567712307,1741433158.310827,1741433158419,0.581133544921875,-1.1490970458984375,-0.5785678313801785,0.014404473304748535,0.9815219116210938
1741433158.4665017,-0.7972012162208557,0.8190864250331051,0.12582878881716553,-0.5597004057808898,0.02871275320649147,0.0023461878299713135,0.02620978094637394,-8.742475509643555,-1.2719565629959106,4.8776936531066895,-0.2531089782714844,0.9920272827148438,-0.004386968910694122,-1.2497375011444092,0.005912871100008488,-0.5151827335357666,-0.265697717666626,1.3561691045761108,0.002861066721379757,0.5506599545478821,0.07915617525577545,-0.17071031033992767,-0.34695202112197876,0.5453193187713623,0.8165484070777893,-0.04137201979756355,-0.3940010964870453,-0.3915846347808838,-0.576218843460083,0.13904783129692078,0.9287022352218628,-0.29579275846481323,-0.4296254515647888,0.14703750610351562,0.004743903409689665,0.18203584849834442,-0.16823096573352814,-0.0016110317083075643,-0.003001655451953411,-0.23139066994190216,-0.004568080883473158,0.0057807848788797855,-0.0026371649000793695,-0.18706758320331573,0.2585538923740387,-0.008004873059689999,0.006998215802013874,-0.35997605323791504,-0.001738344901241362,0.009856922551989555,0.17391973733901978,-0.013614000752568245,-0.005458564963191748,-0.24229715764522552,-0.002579464577138424,0.005270770285278559,1741433158.310827,1741433158419,0.581133544921875,-1.1490970458984375,-0.5785678313801785,0.014404473304748535,0.9815219116210938
1741433158.4865735,-0.797477662563324,0.8191917269168383,0.12522819736028176,-0.559680992295524,0.033746566623449326,-0.017252568155527115,0.014042518101632595,-8.60322380065918,-1.6699930429458618,4.746951580047607,-0.24891281127929688,0.9920272827148438,-0.000572213320992887,-1.2520263195037842,0.005912871100008488,-0.5151827335357666,-0.26951247453689575,1.3561691045761108,0.002861066721379757,0.5506599545478821,0.07534141838550568,-0.1646067053079605,-0.34695202112197876,0.5453193187713623,0.8093003630638123,-0.04137201979756355,-0.3940010964870453,-0.3873884081840515,-0.576981782913208,0.13904783129692078,0.9245060086250305,-0.29579275846481323,-0.4296254515647888,0.12522178888320923,0.007217426784336567,0.15667884051799774,-0.14093178510665894,-0.005724226124584675,0.008305584080517292,-0.22599761188030243,-0.009483258239924908,0.008113752119243145,-0.002070880029350519,-0.19291147589683533,0.3359137773513794,-0.01067497581243515,0.005923637188971043,-0.3478209376335144,0.003632156876847148,0.004458345007151365,0.23108863830566406,-0.04886119067668915,-0.0005808594869449735,-0.1919059157371521,-0.0061834342777729034,0.005488370545208454,1741433158.5212736,1741433158619,0.6026144409179688,-1.17883349609375,-0.5990332781849649,0.013503994941711426,0.9803840332031251
1741433158.5065274,-0.7974901795387268,0.8186639488320031,0.1248690634158507,-0.5605328321199747,0.02404392510652542,-0.06811516731977463,0.031544268131256104,-9.057744026184082,-1.9640309810638428,4.962345123291016,-0.24586105346679688,0.9920272827148438,0.001716639962978661,-1.2535521984100342,0.005912871100008488,-0.5151827335357666,-0.27103838324546814,1.3561691045761108,0.002861066721379757,0.5502784848213196,0.0711451917886734,-0.15735866129398346,-0.34771496057510376,0.5453193187713623,0.8031967878341675,-0.04137201979756355,-0.3940010964870453,-0.3839551508426666,-0.577744722366333,0.13866636157035828,0.9206912517547607,-0.29579275846481323,-0.4296254515647888,0.08704022318124771,0.007321550510823727,0.13188986480236053,-0.12847448885440826,-0.0014302820200100541,-0.004770096391439438,-0.07824542373418808,-0.016591835767030716,0.004091193433851004,-0.015183891169726849,-0.19627925753593445,0.32329991459846497,-0.047935377806425095,0.00573856383562088,-0.32089099287986755,-0.001073635183274746,-0.000534137652721256,0.1521865427494049,-0.035647619515657425,0.013835127465426922,-0.194096639752388,-0.004963551182299852,-0.011269105598330498,1741433158.5212736,1741433158619,0.6026144409179688,-1.17883349609375,-0.5990332781849649,0.013503994941711426,0.9803840332031251
1741433158.5265353,-0.7972990870475769,0.8176347311393249,0.12498562592110748,-0.5620071527550452,-0.0017670236993581057,-0.09868961572647095,0.011623779311776161,-8.841113090515137,-1.5860285758972168,4.769357204437256,-0.24166488647460938,0.9920272827148438,0.005149920005351305,-1.2550780773162842,0.005912871100008488,-0.5151827335357666,-0.27180132269859314,1.3561691045761108,0.002861066721379757,0.5502784848213196,0.06694895774126053,-0.1512550562620163,-0.35000380873680115,0.5453193187713623,0.7963302135467529,-0.04137201979756355,-0.3940010964870453,-0.38166627287864685,-0.579270601272583,0.13866636157035828,0.9153505563735962,-0.29579275846481323,-0.4296254515647888,0.10814931243658066,0.0068120467476546764,0.18335050344467163,-0.10101138055324554,0.00324896234087646,-0.011268198490142822,-0.044601816684007645,-0.005261405371129513,0.0017926170257851481,-0.025029776617884636,-0.20897546410560608,0.2824868857860565,-0.11839176714420319,0.007262084633111954,-0.3662264943122864,-0.0016597037902101874,0.008966599591076374,0.12023785710334778,-0.09075373411178589,0.006216216366738081,-0.2659197747707367,0.0004175345238763839,-0.007113995496183634,1741433158.5212736,1741433158619,0.6026144409179688,-1.17883349609375,-0.5990332781849649,0.013503994941711426,0.9803840332031251
1741433158.546565,-0.7975933253765106,0.8164627087430455,0.12545324360502072,-0.5636045855925483,0.012248661369085312,-0.11741077899932861,-0.024748221039772034,-8.606017112731934,-1.8189020156860352,4.569788455963135,-0.23594284057617188,0.9920272827148438,0.008964675478637218,-1.2562226057052612,0.005912871100008488,-0.5151827335357666,-0.2725642919540405,1.3561691045761108,0.002861066721379757,0.5498970150947571,0.06275273114442825,-0.14438849687576294,-0.35152971744537354,0.5453193187713623,0.7906080484390259,-0.04137201979756355,-0.3940010964870453,-0.37937742471694946,-0.5807965397834778,0.13866636157035828,0.9119172692298889,-0.29579275846481323,-0.4296254515647888,0.16297826170921326,0.007304485887289047,0.18202276527881622,-0.08385493606328964,-0.0025536033790558577,-0.0028829844668507576,-0.02634972333908081,0.000677016912959516,0.0036405748687684536,-0.018359249457716942,-0.20432128012180328,0.366377592086792,-0.09182901680469513,0.007695000618696213,-0.28216856718063354,-0.0047309137880802155,0.007767674047499895,0.119254469871521,-0.08770205825567245,0.003144422546029091,-0.1715153008699417,-0.0015361341647803783,-0.004003436304628849,1741433158.5212736,1741433158619,0.6026144409179688,-1.17883349609375,-0.5990332781849649,0.013503994941711426,0.9803840332031251
1741433158.5666618,-0.7985285222530365,0.8149835422867864,0.12572066933977782,-0.565682012355387,0.049382518976926804,-0.12495388090610504,-0.01758820191025734,-8.603320121765137,-1.7074472904205322,4.964942932128906,-0.23022079467773438,0.9920272827148438,0.01201647985726595,-1.2577484846115112,0.005912871100008488,-0.5151827335357666,-0.272945761680603,1.3557876348495483,0.002861066721379757,0.5498970150947571,0.059319447726011276,-0.13866636157035828,-0.3542000353336334,0.5453193187713623,0.7856488823890686,-0.04137201979756355,-0.3940010964870453,-0.3767071068286896,-0.5827038884162903,0.13904783129692078,0.9107728600502014,-0.29579275846481323,-0.4296254515647888,0.1690632700920105,0.010625076480209827,0.14298492670059204,-0.09272971749305725,0.0017024364788085222,0.005666451994329691,-0.03329863399267197,-0.01088088657706976,0.004218411631882191,-0.014906211756169796,-0.17416995763778687,0.2813660502433777,-0.14977417886257172,-0.0014100669650360942,-0.23984457552433014,-0.0010291713988408446,0.008553437888622284,0.13064707815647125,-0.11664863675832748,0.007180633954703808,-0.029861731454730034,-0.0019856111612170935,-0.00975597370415926,1741433158.5212736,1741433158619,0.6026144409179688,-1.17883349609375,-0.5990332781849649,0.013503994941711426,0.9803840332031251
1741433158.58664,-0.7997596859931946,0.8136428428724776,0.1256630708311907,-0.5676214556125129,0.07534496486186981,-0.10898663848638535,-0.007668221835047007,-8.467939376831055,-1.5445960760116577,4.70950174331665,-0.22526168823242188,0.9920272827148438,0.013923857361078262,-1.2592743635177612,0.005912871100008488,-0.5151827335357666,-0.2733272314071655,1.3557876348495483,0.002861066721379757,0.5498970150947571,0.056267641484737396,-0.1337071806192398,-0.3580147922039032,0.5453193187713623,0.7799267768859863,-0.04137201979756355,-0.3940010964870453,-0.3744182586669922,-0.5861371755599976,0.13866636157035828,0.9092469811439514,-0.29579275846481323,-0.4296254515647888,0.13379576802253723,0.007579936180263758,0.07513494789600372,-0.12763233482837677,-0.0015344653511419892,0.013775109313428402,-0.0337076261639595,-0.021224431693553925,0.010207543149590492,-0.015075880102813244,-0.15365120768547058,0.2477404922246933,-0.19863808155059814,0.0019708324689418077,-0.3077814280986786,-0.00292205554433167,0.01143764890730381,0.12324996292591095,-0.1980409175157547,0.0061995284631848335,-0.07594586908817291,0.0046338834799826145,-0.004548847675323486,1741433158.623256,1741433158719,0.6070540161132812,-1.1817033691406251,-0.5960914260881944,0.014301592826843262,0.9800996093750001
1741433158.606729,-0.8014721274375916,0.8119934026066195,0.12549513763823386,-0.5700155125542508,0.10367895662784576,-0.13502606749534607,-0.00668770307675004,-8.464221954345703,-1.2119489908218384,4.692063808441162,-0.22144699096679688,0.9920272827148438,0.015449759550392628,-1.2619446516036987,0.005912871100008488,-0.5148012638092041,-0.2740901708602905,1.3554061651229858,0.002861066721379757,0.5498970150947571,0.05283436179161072,-0.12684062123298645,-0.36259251832962036,0.5453193187713623,0.7749675512313843,-0.04137201979756355,-0.3940010964870453,-0.3709849715232849,-0.5922408103942871,0.13866636157035828,0.9069581031799316,-0.29579275846481323,-0.4296254515647888,0.0976133942604065,0.007336810231208801,0.09250655770301819,-0.21328207850456238,-0.005980600602924824,0.006200934294611216,-0.04019331559538841,-0.03314631059765816,0.0032252436503767967,-0.006184221711009741,-0.16060437262058258,0.31893545389175415,-0.24877187609672546,0.005182974506169558,-0.22993311285972595,-0.004287953022867441,0.01326696202158928,0.19066229462623596,-0.29467111825942993,-0.001143867615610361,-0.10856752097606659,-0.0028003526385873556,0.013402548618614674,1741433158.623256,1741433158719,0.6070540161132812,-1.1817033691406251,-0.5960914260881944,0.014301592826843262,0.9800996093750001
1741433158.626745,-0.8037310540676117,0.8098692181091106,0.12562295212886546,-0.5730015038878752,0.1118864044547081,-0.16224367916584015,-0.04012708738446236,-8.525766372680664,-1.3081156015396118,5.3555803298950195,-0.21915817260742188,0.9920272827148438,0.01888304017484188,-1.2649965286254883,0.005912871100008488,-0.5148012638092041,-0.2744716703891754,1.3550246953964233,0.002861066721379757,0.5498970150947571,0.049782559275627136,-0.12149996310472488,-0.36717021465301514,0.5453193187713623,0.7703898549079895,-0.04137201979756355,-0.3940010964870453,-0.368314653635025,-0.5949110984802246,0.13866636157035828,0.9042877554893494,-0.29579275846481323,-0.4296254515647888,0.0676371231675148,0.004389206413179636,0.1480637490749359,-0.20554202795028687,-0.0033156070858240128,-0.002958273747935891,-0.012598655186593533,-0.038427870720624924,0.004656923469156027,-0.007331463973969221,-0.15144658088684082,0.28469401597976685,-0.23896631598472595,-0.0008037729421630502,-0.201136514544487,-0.0037815505638718605,0.008728493005037308,0.10989230871200562,-0.11447825282812119,-0.0001944372634170577,-0.14386484026908875,-0.0019274804508313537,-0.00023498674272559583,1741433158.623256,1741433158719,0.6070540161132812,-1.1817033691406251,-0.5960914260881944,0.014301592826843262,0.9800996093750001
1741433158.6467948,-0.8062258064746857,0.8078061452099426,0.12651484011863906,-0.575711062070904,0.07885405421257019,-0.15184596180915833,-0.10299205034971237,-7.9546661376953125,-1.8055747747421265,5.018567085266113,-0.21648693084716797,0.9920272827148438,0.02193484455347061,-1.2669038772583008,0.005912871100008488,-0.5148012638092041,-0.2744716703891754,1.3546432256698608,0.002861066721379757,0.5498970150947571,0.04711223021149635,-0.11577782779932022,-0.3709849715232849,0.5453193187713623,0.7650492191314697,-0.04137201979756355,-0.3940010964870453,-0.368314653635025,-0.5956740379333496,0.13828489184379578,0.9008545279502869,-0.29579275846481323,-0.4296254515647888,0.07652314007282257,0.009103436022996902,0.14678062498569489,-0.13216805458068848,0.0053861397318542,-0.006542016286402941,-0.0005766967660747468,-0.02757573314011097,0.0029612542130053043,-0.012277161702513695,-0.12510375678539276,0.2788796126842499,-0.1987057626247406,0.0036374321207404137,-0.30055931210517883,-0.004176396410912275,0.005274916999042034,0.018271777778863907,-0.07155291736125946,-0.010960349813103676,-0.16197910904884338,0.010498552583158016,0.005108780227601528,1741433158.623256,1741433158719,0.6070540161132812,-1.1817033691406251,-0.5960914260881944,0.014301592826843262,0.9800996093750001
1741433158.6754656,-0.8085194230079651,0.8054832915820594,0.12778960375739085,-0.5786764935209138,0.05962103605270386,-0.17802530527114868,-0.10001351684331894,-7.941088676452637,-1.6495071649551392,5.202407360076904,-0.21343517303466797,0.9920272827148438,0.02536812424659729,-1.2688112258911133,0.005912871100008488,-0.5148012638092041,-0.2748531401157379,1.3542617559432983,0.002861066721379757,0.5498970150947571,0.043678950518369675,-0.10929274559020996,-0.3751811981201172,0.5453193187713623,0.7589455842971802,-0.04137201979756355,-0.3940010964870453,-0.36793315410614014,-0.5987258553504944,0.13866636157035828,0.8981841802597046,-0.29579275846481323,-0.4296254515647888,0.0843721553683281,0.008484207093715668,0.1612403839826584,-0.11231880635023117,-0.00132670346647501,0.012924203649163246,-0.010627085343003273,-0.02887340635061264,-0.0007139336667023599,-0.004242496099323034,-0.18636976182460785,0.29952454566955566,-0.23290354013442993,0.0008821764495223761,-0.27424100041389465,0.002203224925324321,0.006381596438586712,0.03301726281642914,-0.15829314291477203,0.017763078212738037,-0.10594557970762253,0.013206788338720798,6.905962800374255e-05,1741433158.718287,1741433158819,0.6091438598632812,-1.181044677734375,-0.5997036187115581,0.014187309265136719,0.9801791381835938
1741433158.68685,-0.8101238906383514,0.803376629546088,0.12829445734581474,-0.5814864773264384,0.0681275874376297,-0.15850824117660522,-0.03468218073248863,-8.587996482849121,-1.4653756618499756,5.207294940948486,-0.21076488494873047,0.9920272827148438,0.028038453310728073,-1.2707185745239258,0.005912871100008488,-0.5148012638092041,-0.2748531401157379,1.3538802862167358,0.002861066721379757,0.5495155453681946,0.039101243019104004,-0.1039520874619484,-0.38052186369895935,0.5453193187713623,0.7547493577003479,-0.04137201979756355,-0.3940010964870453,-0.36717021465301514,-0.6021591424942017,0.13866636157035828,0.8966583013534546,-0.29579275846481323,-0.4296254515647888,0.06954412162303925,0.007374875713139772,0.11804698407649994,-0.13574780523777008,-0.005689283832907677,-0.002538705710321665,-0.02174711972475052,-0.005919460207223892,8.794341556495056e-05,-0.010663715191185474,-0.20158123970031738,0.26034772396087646,-0.2726465165615082,0.004905679728835821,-0.22324445843696594,-0.010121305473148823,0.015092717483639717,0.0514560304582119,-0.1995168924331665,0.00044496680493466556,-0.05501638352870941,-0.00574713246896863,0.011904275976121426,1741433158.718287,1741433158819,0.6091438598632812,-1.181044677734375,-0.5997036187115581,0.014187309265136719,0.9801791381835938
1741433158.70686,-0.8116982281208038,0.8018329124177216,0.12825173481294375,-0.5836227146720601,0.08530912548303604,-0.1178784966468811,-0.025133155286312103,-7.959006309509277,-1.5667071342468262,5.047119140625,-0.20656871795654297,0.9920272827148438,0.030708782374858856,-1.2730075120925903,0.005912871100008488,-0.5148012638092041,-0.2748531401157379,1.3538802862167358,0.002861066721379757,0.5495155453681946,0.035667963325977325,-0.09975585341453552,-0.3850995600223541,0.5449378490447998,0.7494087219238281,-0.04137201979756355,-0.3940010964870453,-0.36678874492645264,-0.6090257167816162,0.13866636157035828,0.8955138325691223,-0.29579275846481323,-0.4296254515647888,0.12339625507593155,0.007328178267925978,0.15160216391086578,-0.17069962620735168,-0.00924906600266695,-0.0030117176938802004,-0.003658035770058632,0.01436601672321558,0.004999423865228891,-0.005349128972738981,-0.1665259301662445,0.2306748330593109,-0.23314282298088074,-0.006916466634720564,-0.2947283685207367,-0.0034027062356472015,0.013396377675235271,0.007184929680079222,-0.35703304409980774,0.0041053686290979385,-0.06323464959859848,-0.005666021723300219,0.00641614431515336,1741433158.718287,1741433158819,0.6091438598632812,-1.181044677734375,-0.5997036187115581,0.014187309265136719,0.9801791381835938
1741433158.72688,-0.813452810049057,0.8004137220882747,0.12824012818479358,-0.5855701008555184,0.08710822463035583,-0.11286619305610657,-0.031001368537545204,-7.86951208114624,-1.3297251462936401,5.257450103759766,-0.20199108123779297,0.9920272827148438,0.03376058489084244,-1.2760592699050903,0.005912871100008488,-0.5151827335357666,-0.2752346098423004,1.3538802862167358,0.002861066721379757,0.5498970150947571,0.031090257689356804,-0.09365224838256836,-0.3900587558746338,0.5449378490447998,0.7429236173629761,-0.04137201979756355,-0.3940010964870453,-0.36678874492645264,-0.6124590039253235,0.13866636157035828,0.8943694233894348,-0.29579275846481323,-0.4296254515647888,0.12234333157539368,0.011278272606432438,0.128205806016922,-0.18033012747764587,0.002004495821893215,-0.0002624850894790143,-0.0031822200398892164,-0.004870990291237831,0.00799611397087574,0.003987550735473633,-0.235149085521698,0.27657467126846313,-0.2594280242919922,-0.0031834638211876154,-0.3065585792064667,0.0017608827911317348,0.0031993684824556112,0.0044630421325564384,-0.14003995060920715,0.0037581732030957937,-0.05507830157876015,0.0002003147528739646,0.005336133763194084,1741433158.718287,1741433158819,0.6091438598632812,-1.181044677734375,-0.5997036187115581,0.014187309265136719,0.9801791381835938
1741433158.7468836,-0.8154090046882629,0.7988905203080627,0.12856960592631192,-0.5875744999520194,0.07621464878320694,-0.10830459743738174,-0.0652102530002594,-8.51473617553711,-1.835681676864624,5.5743279457092285,-0.19855785369873047,0.9920272827148438,0.03681239113211632,-1.2783480882644653,0.005912871100008488,-0.5151827335357666,-0.2752346098423004,1.3538802862167358,0.002861066721379757,0.5498970150947571,0.02689402550458908,-0.08983749151229858,-0.39616236090660095,0.5449378490447998,0.7383459210395813,-0.04137201979756355,-0.3940010964870453,-0.36717021465301514,-0.614366352558136,0.13866636157035828,0.8936064839363098,-0.29579275846481323,-0.4296254515647888,0.10003309696912766,0.005667864345014095,0.1458347886800766,-0.14168287813663483,-0.0030173638369888067,0.0035359519533813,-0.002386075211688876,-0.0067090317606925964,0.011279944330453873,0.011717517860233784,-0.19581109285354614,0.18285515904426575,-0.3102474808692932,0.008104376494884491,-0.2254910171031952,-0.0027424837462604046,0.006744319573044777,-0.0028160414658486843,-0.147662952542305,0.0033009664621204138,-0.04956178367137909,0.0023090927861630917,0.0008905018330551684,1741433158.718287,1741433158819,0.6091438598632812,-1.181044677734375,-0.5997036187115581,0.014187309265136719,0.9801791381835938
1741433158.766933,-0.8169580698013306,0.7975397343455126,0.12902420255080485,-0.5893073283917468,0.052576832473278046,-0.10078239440917969,-0.04776407778263092,-8.229671478271484,-2.2734322547912598,5.545511245727539,-0.19665050506591797,0.9920272827148438,0.039101243019104004,-1.2802555561065674,0.005912871100008488,-0.5151827335357666,-0.2756160795688629,1.3538802862167358,0.002861066721379757,0.5502784848213196,0.023079270496964455,-0.08602273464202881,-0.4007400572299957,0.5445563197135925,0.733386754989624,-0.04137201979756355,-0.3940010964870453,-0.36717021465301514,-0.6181811094284058,0.13866636157035828,0.892080545425415,-0.29579275846481323,-0.4296254515647888,0.05411422997713089,0.007961735129356384,0.1333385407924652,-0.13457761704921722,-0.0060667842626571655,-0.0002502996940165758,-0.009332221001386642,-0.00708546070381999,0.0008360062493011355,0.01109558530151844,-0.18984301388263702,0.20076386630535126,-0.20378929376602173,-0.0070273722521960735,-0.2687256336212158,-0.004600020591169596,0.009979368187487125,-0.006477829534560442,-0.187934011220932,0.00195766962133348,-0.07767459005117416,-0.0007058273768052459,0.006349876057356596,1741433158.718287,1741433158819,0.6091438598632812,-1.181044677734375,-0.5997036187115581,0.014187309265136719,0.9801791381835938
1741433158.7869163,-0.8173771798610687,0.7961456986105484,0.12959491153534033,-0.5910644512132913,0.002884022193029523,-0.12361650168895721,-0.016597887501120567,-8.207396507263184,-2.7128725051879883,5.958140850067139,-0.19626903533935547,0.9920272827148438,0.042153049260377884,-1.2817814350128174,0.005912871100008488,-0.5151827335357666,-0.2759975492954254,1.3538802862167358,0.002861066721379757,0.5502784848213196,0.019645990803837776,-0.08068207651376724,-0.4011215269565582,0.54417484998703,0.727664589881897,-0.04137201979756355,-0.3940010964870453,-0.36678874492645264,-0.6204699873924255,0.13866636157035828,0.88979172706604,-0.29579275846481323,-0.4296254515647888,0.0075326780788600445,0.006647468078881502,0.150034561753273,-0.0989629253745079,-0.002711940323933959,-0.011244851164519787,0.0019976801704615355,0.004178093280643225,0.002179000759497285,-0.003110547550022602,-0.17369817197322845,0.2696685791015625,-0.02462112344801426,-0.016057047992944717,-0.2508564293384552,-0.011035856790840626,0.02242952585220337,0.014267711900174618,-0.10445493459701538,0.005372112616896629,-0.10915738344192505,-0.0008656874997541308,0.01589847542345524,1741433158.8204775,1741433158919,0.61042578125,-1.1784595947265626,-0.6107912971950995,0.014271108627319336,0.980228515625
1741433158.8069825,-0.8158772885799408,0.794734690215906,0.129919198750061,-0.592889343776366,-0.05628415197134018,-0.13619917631149292,0.0652751624584198,-7.425363540649414,-2.137840986251831,5.788669109344482,-0.19512462615966797,0.9920272827148438,0.04482337832450867,-1.2825443744659424,0.005912871100008488,-0.5151827335357666,-0.2759975492954254,1.3538802862167358,0.002861066721379757,0.5498970150947571,0.016212711110711098,-0.07572289556264877,-0.4011215269565582,0.543411910533905,0.724612832069397,-0.04137201979756355,-0.3940010964870453,-0.36678874492645264,-0.622377336025238,0.13866636157035828,0.8863584399223328,-0.29579275846481323,-0.4296254515647888,0.02277887612581253,0.007297557778656483,0.11468563973903656,-0.05680178850889206,-0.008180452510714531,-0.00882461667060852,-0.010350627824664116,-0.002417998155578971,0.0010478465119376779,-0.020648052915930748,-0.16382035613059998,0.2197299748659134,-0.0049170986749231815,-0.05886450037360191,-0.1502726674079895,-0.0008895136998035014,0.008197793737053871,0.019648846238851547,-0.08795757591724396,0.017094573006033897,-0.17761360108852386,0.010291555896401405,-0.006120296195149422,1741433158.8204775,1741433158919,0.61042578125,-1.1784595947265626,-0.6107912971950995,0.014271108627319336,0.980228515625
1741433158.8269992,-0.8133709728717804,0.7936671700599738,0.1296274999963496,-0.5943813038897582,-0.06787920743227005,-0.10424277931451797,0.11350826919078827,-8.469514846801758,-2.217705488204956,5.541093349456787,-0.19283580780029297,0.9920272827148438,0.04711223021149635,-1.2829258441925049,0.005912871100008488,-0.5151827335357666,-0.2763790488243103,1.3538802862167358,0.002861066721379757,0.5498970150947571,0.011635004542768002,-0.0722896158695221,-0.4011215269565582,0.541886031627655,0.7227054238319397,-0.04137201979756355,-0.3940010964870453,-0.36411839723587036,-0.6242847442626953,0.13866636157035828,0.8829251527786255,-0.29579275846481323,-0.4296254515647888,0.0679350197315216,0.007324923295527697,0.09052368998527527,-0.021609487012028694,-0.009456248953938484,-0.009260990656912327,0.0014286175137385726,-0.004016741178929806,0.0017919503152370453,-0.015750693157315254,-0.21617838740348816,0.1605605185031891,-0.0007690878701396286,-0.06352390348911285,-0.09899650514125824,-0.002689638175070286,0.0065877968445420265,0.13741490244865417,-0.08448897302150726,-0.0008212642278522253,-0.15222637355327606,-0.0009467093041166663,0.018542194738984108,1741433158.8204775,1741433158919,0.61042578125,-1.1784595947265626,-0.6107912971950995,0.014271108627319336,0.980228515625
1741433158.8469908,-0.8108132779598236,0.7932198623450581,0.12888917442749862,-0.5951384970716352,-0.05102870240807533,-0.06261669844388962,0.12332916259765625,-7.9531660079956055,-1.4275603294372559,5.430985927581787,-0.18825817108154297,0.9920272827148438,0.048256658017635345,-1.2833073139190674,0.005912871100008488,-0.5151827335357666,-0.2763790488243103,1.3538802862167358,0.002861066721379757,0.5495155453681946,0.008201723918318748,-0.06885633617639542,-0.4011215269565582,0.5407415628433228,0.7200350761413574,-0.04137201979756355,-0.3940010964870453,-0.3614480793476105,-0.6242847442626953,0.13866636157035828,0.881780743598938,-0.29579275846481323,-0.4296254515647888,0.12333967536687851,0.007326075341552496,0.045295968651771545,-0.026669317856431007,-0.004208143800497055,-0.0020312988199293613,0.01248707715421915,-0.011387304402887821,-0.00027924918686039746,-0.009243354201316833,-0.17590899765491486,0.1581726223230362,-0.003964933101087809,-0.046018313616514206,-0.14303381741046906,0.0003626742400228977,-0.0016690896591171622,0.128331258893013,-0.0082021439447999,0.0061167324893176556,-0.03708164393901825,0.005535021889954805,0.008290342055261135,1741433158.8204775,1741433158919,0.61042578125,-1.1784595947265626,-0.6107912971950995,0.014271108627319336,0.980228515625
1741433158.8670166,-0.8091666996479034,0.7929566105080226,0.1283113286395453,-0.595613983041351,-0.031713731586933136,-0.04431427642703056,0.07610956579446793,-7.920830249786377,-1.3131994009017944,5.401019096374512,-0.18329906463623047,0.9920272827148438,0.048638131469488144,-1.2836887836456299,0.005912871100008488,-0.5151827335357666,-0.2763790488243103,1.3538802862167358,0.002861066721379757,0.5495155453681946,0.005912871100008488,-0.06542305648326874,-0.4011215269565582,0.5403600931167603,0.7169833183288574,-0.04137201979756355,-0.3940010964870453,-0.3583962619304657,-0.6242847442626953,0.13866636157035828,0.8806362748146057,-0.29579275846481323,-0.4296254515647888,0.13462646305561066,0.0066207097843289375,0.020668556913733482,-0.04125049337744713,-0.005982959643006325,0.001952305086888373,0.010354341007769108,0.01481207087635994,-0.003918108064681292,-0.005798152182251215,-0.10041060298681259,0.1894441545009613,-0.002655354794114828,-0.010813062079250813,-0.16458332538604736,-0.006413732655346394,0.009249881841242313,0.15322096645832062,-0.007052587810903788,0.008934310637414455,-0.06940241903066635,5.492217678693123e-05,0.003979794681072235,1741433158.8204775,1741433158919,0.61042578125,-1.1784595947265626,-0.6107912971950995,0.014271108627319336,0.980228515625
1741433158.8883982,-0.8084295690059662,0.7922723209712299,0.12820452531866267,-0.5965468708414091,-0.01692374423146248,-0.08373712003231049,0.02285991981625557,-7.89838981628418,-1.8772211074829102,5.357544898986816,-0.17833995819091797,0.9920272827148438,0.04940108209848404,-1.2844517230987549,0.005912871100008488,-0.5151827335357666,-0.2763790488243103,1.3538802862167358,0.002861066721379757,0.5495155453681946,0.004386968910694122,-0.06008239835500717,-0.4011215269565582,0.5403600931167603,0.7127870321273804,-0.04137201979756355,-0.3940010964870453,-0.3538185656070709,-0.6242847442626953,0.13866636157035828,0.8791103959083557,-0.29579275846481323,-0.4296254515647888,0.12972329556941986,0.009801104664802551,0.023574205115437508,-0.05332827940583229,0.0004381836042739451,-0.009070737287402153,0.0011160923168063164,-0.006260138936340809,0.0018606781959533691,-0.013497590087354183,-0.0890713632106781,0.2641877233982086,-0.010301483795046806,0.004078940488398075,-0.19718624651432037,-0.009501727297902107,0.021218877285718918,0.26641029119491577,0.001884589670225978,0.004973582457751036,-0.10255042463541031,-0.004135576076805592,0.011233672499656677,1741433158.9225194,1741433159019,0.6120554199218751,-1.174945068359375,-0.6151803269188121,0.014381505012512208,0.9801253662109375
1741433158.9071171,-0.8077326416969299,0.7912339013602291,0.1282796139222241,-0.5979073958316926,-0.019362520426511765,-0.10328840464353561,0.02371491678059101,-8.690807342529297,-1.922775387763977,5.356681823730469,-0.17528820037841797,0.9920272827148438,0.050164032727479935,-1.2852146625518799,0.005912871100008488,-0.5151827335357666,-0.2763790488243103,1.3538802862167358,0.002861066721379757,0.5495155453681946,0.002861066721379757,-0.0555046908557415,-0.4011215269565582,0.5403600931167603,0.7101167440414429,-0.04137201979756355,-0.3940010964870453,-0.34924086928367615,-0.6242847442626953,0.13866636157035828,0.8768215179443359,-0.29579275846481323,-0.4296254515647888,0.09506335854530334,0.0074303108267486095,0.0363665409386158,-0.06679705530405045,-0.012003284879028797,-0.001491860719397664,0.010254958644509315,0.004142309073358774,0.011372060514986515,-0.01639670319855213,-0.08440013229846954,0.22162379324436188,-0.0010622503468766809,0.015328875742852688,-0.09997335821390152,-0.0041125169955194,0.003373832209035754,0.1921815127134323,-0.0018832911737263203,0.001849174965173006,-0.1088637188076973,-0.0013858439633622766,0.01790802925825119,1741433158.9225194,1741433159019,0.6120554199218751,-1.174945068359375,-0.6151803269188121,0.014381505012512208,0.9801253662109375
1741433158.9271505,-0.8067448437213898,0.7904574102098877,0.12820617925172134,-0.5989492952211839,-0.02518572472035885,-0.07280370593070984,0.048760123550891876,-8.2015962600708,-1.6585595607757568,5.2121076583862305,-0.17261791229248047,0.9920272827148438,0.05054550990462303,-1.2863590717315674,0.005912871100008488,-0.5151827335357666,-0.2763790488243103,1.3538802862167358,0.002861066721379757,0.5491340756416321,0.000572213320992887,-0.05207141116261482,-0.4011215269565582,0.5403600931167603,0.7093538045883179,-0.04137201979756355,-0.3940010964870453,-0.34733349084854126,-0.6239032745361328,0.13866636157035828,0.8752956390380859,-0.29579275846481323,-0.4296254515647888,0.07900730520486832,0.006999458651989698,0.01687011867761612,-0.0980420783162117,-0.0006055032717995346,0.007019334007054567,0.008179654367268085,-0.011061033234000206,0.014115064404904842,-0.02765521965920925,-0.09437312930822372,0.16705888509750366,-0.0004905382520519197,-0.001954791834577918,-0.03626765310764313,-0.0025710067711770535,0.009644179604947567,0.08945763856172562,0.001766550587490201,-0.003239965531975031,-0.0776524543762207,-0.008816097863018513,0.03548741713166237,1741433158.9225194,1741433159019,0.6120554199218751,-1.174945068359375,-0.6151803269188121,0.014381505012512208,0.9801253662109375
1741433158.947137,-0.8055521845817566,0.7899885146529684,0.12784631680550068,-0.5996444496496773,-0.022019654512405396,-0.06387539952993393,0.0595361664891243,-8.188599586486816,-1.4081790447235107,5.204267978668213,-0.16956615447998047,0.9920272827148438,0.05092698708176613,-1.2875036001205444,0.005912871100008488,-0.5148012638092041,-0.2763790488243103,1.3538802862167358,0.002861066721379757,0.5491340756416321,-0.001716639962978661,-0.04940108209848404,-0.4011215269565582,0.5399786233901978,0.7082093358039856,-0.04137201979756355,-0.3940010964870453,-0.34618905186653137,-0.6239032745361328,0.13866636157035828,0.8745326995849609,-0.29579275846481323,-0.4296254515647888,0.08190912008285522,0.004807701800018549,0.006242499686777592,-0.07542289048433304,-0.006341288331896067,0.005193138029426336,-0.0009246877743862569,-0.009082285687327385,0.010153907351195812,-0.02268604002892971,-0.11305078864097595,0.1404183954000473,-0.0033201633486896753,-0.01772824116051197,-0.07452443987131119,-0.0024528945796191692,0.007471031043678522,0.07286617159843445,-0.008851259015500546,0.008466471917927265,-0.011264136992394924,-0.010156955569982529,0.02350815385580063,1741433158.9225194,1741433159019,0.6120554199218751,-1.174945068359375,-0.6151803269188121,0.014381505012512208,0.9801253662109375
1741433158.967205,-0.8050538599491119,0.7890525586030641,0.12784659050205852,-0.6008754522019993,-0.008339522406458855,-0.09524207562208176,0.016836918890476227,-8.105947494506836,-1.0051283836364746,5.301663398742676,-0.16651439666748047,0.9920272827148438,0.05092698708176613,-1.2882665395736694,0.005912871100008488,-0.5148012638092041,-0.2763790488243103,1.3538802862167358,0.002861066721379757,0.5483710765838623,-0.0032425422687083483,-0.04596780240535736,-0.4011215269565582,0.5395971536636353,0.7063019871711731,-0.04137201979756355,-0.3940010964870453,-0.3442816734313965,-0.6239032745361328,0.13866636157035828,0.8741512298583984,-0.29579275846481323,-0.4296254515647888,0.08677390962839127,0.01171390525996685,0.001118312356993556,-0.027109581977128983,-0.003080360358580947,0.013768270611763,0.012061012908816338,-0.01881054975092411,0.011363054625689983,-0.038308076560497284,-0.06204184144735336,0.17587417364120483,-0.0032214075326919556,-0.011386271566152573,-0.12083029001951218,-0.0022879589814692736,-0.0012004279997199774,0.10288071632385254,-0.00638595363125205,0.010973695665597916,-0.02000635489821434,-0.0015497743152081966,0.021713148802518845,1741433158.9225194,1741433159019,0.6120554199218751,-1.174945068359375,-0.6151803269188121,0.014381505012512208,0.9801253662109375
1741433158.9871426,-0.8055608570575714,0.7874459513284038,0.12832736331572084,-0.6028772358954517,0.015649354085326195,-0.13817155361175537,-0.02620280720293522,-8.891722679138184,-1.6448551416397095,5.350701808929443,-0.16308116912841797,0.9920272827148438,0.05130846053361893,-1.2890294790267944,0.005912871100008488,-0.5140383243560791,-0.2763790488243103,1.3538802862167358,0.002861066721379757,0.5479896068572998,-0.004386968910694122,-0.04253452271223068,-0.4011215269565582,0.5392156839370728,0.7043945789337158,-0.04137201979756355,-0.3940010964870453,-0.3416113555431366,-0.6239032745361328,0.13866636157035828,0.8733882904052734,-0.29579275846481323,-0.4296254515647888,0.09976913034915924,0.007353052496910095,0.012478556483983994,-0.04068513214588165,-0.002197953639551997,0.0336594320833683,0.00407054927200079,-0.0024930716026574373,0.0040384214371442795,-0.04088522866368294,-0.02481509931385517,0.16244010627269745,-0.0031927626114338636,-0.004926925525069237,-0.09413491934537888,-0.002585118403658271,0.011294223368167877,0.15203167498111725,-0.0001458435581298545,0.0033880872651934624,-0.024894792586565018,-0.0026144306175410748,0.010871218517422676,1741433159.027425,1741433159119,0.6143529663085938,-1.17391064453125,-0.6055631361077235,0.014389166831970215,0.9801465454101562
1741433159.0071726,-0.8059588670730591,0.7855641842107848,0.1291068374465137,-0.6051614140126614,-0.002435270929709077,-0.157491534948349,-0.03092223033308983,-7.90906286239624,-1.3899487257003784,5.471123218536377,-0.16079235076904297,0.9920272827148438,0.05207141116261482,-1.289410948753357,0.005912871100008488,-0.5132753252983093,-0.2763790488243103,1.3538802862167358,0.002861066721379757,0.5476081371307373,-0.004005493130534887,-0.039101243019104004,-0.4011215269565582,0.5392156839370728,0.7028687000274658,-0.04137201979756355,-0.3940010964870453,-0.3377965986728668,-0.6239032745361328,0.13866636157035828,0.8726252913475037,-0.29579275846481323,-0.4296254515647888,0.050770316272974014,0.005998037289828062,0.02309524640440941,-0.027198750525712967,-0.010860281996428967,0.03277295082807541,0.012984149158000946,-0.0013847198570147157,0.008551723323762417,-0.03210006281733513,0.01955033838748932,0.17045725882053375,-0.0020841623190790415,-0.007048631086945534,-0.09549382328987122,0.0017564322333782911,-0.001989620504900813,0.20813517272472382,-0.008805328980088234,0.008928963914513588,-0.038802869617938995,-0.003352893516421318,0.01581713743507862,1741433159.027425,1741433159119,0.6143529663085938,-1.17391064453125,-0.6055631361077235,0.014389166831970215,0.9801465454101562
1741433159.02719,-0.8055906891822815,0.7834341823763934,0.1300077619590424,-0.6077243320080519,-0.037490107119083405,-0.18151986598968506,-0.011360207572579384,-8.097142219543457,-1.3473392724990845,5.432521820068359,-0.16002941131591797,0.9920272827148438,0.05283436179161072,-1.289410948753357,0.005912871100008488,-0.5128938555717468,-0.2763790488243103,1.3538802862167358,0.002861066721379757,0.5468451976776123,-0.004005493130534887,-0.03490501269698143,-0.4011215269565582,0.5392156839370728,0.7013428211212158,-0.04137201979756355,-0.3940010964870453,-0.33360037207603455,-0.6239032745361328,0.13866636157035828,0.8722438216209412,-0.29579275846481323,-0.4296254515647888,0.009958691895008087,0.003422860987484455,0.05208318680524826,-0.011218342930078506,-0.0029355445876717567,0.018197910860180855,-0.006063639651983976,-0.007154976483434439,0.00027447508182376623,-0.04355670511722565,-3.785570879699662e-05,0.19729918241500854,-0.004190515261143446,0.006371841300278902,-0.07922709733247757,0.0019408991793170571,0.001055592205375433,0.18691563606262207,-0.003263711929321289,0.0035144020803272724,-0.0029073748737573624,-0.004026506561785936,0.040700141340494156,1741433159.027425,1741433159119,0.6143529663085938,-1.17391064453125,-0.6055631361077235,0.014389166831970215,0.9801465454101562
1741433159.0473082,-0.8048464953899384,0.7813025271787826,0.1310611779520537,-0.6102371085552466,-0.05949323624372482,-0.19173602759838104,-0.027032718062400818,-8.018356323242188,-1.1024043560028076,5.424515724182129,-0.15774059295654297,0.9920272827148438,0.054741740226745605,-1.289410948753357,0.005912871100008488,-0.5128938555717468,-0.2767605185508728,1.3538802862167358,0.002861066721379757,0.5460822582244873,-0.004005493130534887,-0.03032730519771576,-0.4011215269565582,0.5392156839370728,0.700579822063446,-0.04137201979756355,-0.3940010964870453,-0.33093002438545227,-0.6235218048095703,0.13866636157035828,0.8722438216209412,-0.29579275846481323,-0.4296254515647888,0.06189185008406639,0.00730134267359972,0.09427206218242645,-0.009830412454903126,-0.003698846325278282,-0.00828457996249199,-0.012324143201112747,0.0075219678692519665,-0.006076833698898554,-0.07195180654525757,-0.006537279579788446,0.2454647272825241,-0.0028769548516720533,0.0018002131255343556,-0.05071001127362251,-0.006921492051333189,0.01706012710928917,0.13199472427368164,0.0008549107587896287,0.004298701882362366,0.0025217109359800816,-0.006743979640305042,0.0387810543179512,1741433159.027425,1741433159119,0.6143529663085938,-1.17391064453125,-0.6055631361077235,0.014389166831970215,0.9801465454101562
