Freshhhhh-LC/Legged_odom/data/2/segments/booster_seg_9.79s.csv
time,yaw,projected_gravity_x,projected_gravity_y,projected_gravity_z,ang_vel_x,ang_vel_y,ang_vel_z,lin_acc_x,lin_acc_y,lin_acc_z,q_0,q_1,q_2,q_3,q_4,q_5,q_6,q_7,q_8,q_9,q_10,q_11,q_12,q_13,q_14,q_15,q_16,q_17,q_18,q_19,q_20,q_21,q_22,dq_0,dq_1,dq_2,dq_3,dq_4,dq_5,dq_6,dq_7,dq_8,dq_9,dq_10,dq_11,dq_12,dq_13,dq_14,dq_15,dq_16,dq_17,dq_18,dq_19,dq_20,dq_21,dq_22,mocap_time,mocap_timestamp,robot_x,robot_y,robot_yaw,ball_x,ball_y
1741432475.0079052,0.0776364803314209,-0.03109478512602481,0.04706644071128933,-0.9984076644821678,-0.4098256826400757,-0.21673282980918884,-2.2450857162475586,5.899328231811523,6.424788951873779,8.118638038635254,-0.5399789810180664,0.2714195251464844,0.07915617525577545,-1.2379117012023926,0.006294346414506435,-0.8932250142097473,0.3103303611278534,1.2634705305099487,0.00476844422519207,0.8527885675430298,0.41638055443763733,-0.620088517665863,0.1035706102848053,-0.22449836134910583,0.8371480703353882,-0.3717615306377411,-0.039034634828567505,-0.5350194573402405,-0.12607766687870026,-0.325970858335495,0.7848859429359436,-0.4127066433429718,0.015268237330019474,0.21645131707191467,0.3972732722759247,1.4418197870254517,0.43454426527023315,0.002770043443888426,-0.6438047289848328,-1.428853154182434,-0.3087080419063568,-0.0005393573082983494,0.6496722102165222,0.04266713559627533,0.9430417418479919,-1.2201337814331055,-2.564964771270752,1.041052222251892,-1.7815731763839722,2.1922099590301514,1.3596850633621216,0.8703150749206543,1.841988205909729,-1.4021378755569458,1.040257215499878,-1.1947132349014282,1741432474.979125,1741432475219,5.20454345703125,2.04105322265625,0.188090053663602,6.2416005859375,1.1575847167968751
1741432475.0099387,0.04010295867919922,-0.028179152137766134,0.04272593975870086,-0.9986893558342016,0.2953437566757202,0.25996577739715576,-1.7142542600631714,2.244823694229126,1.2862125635147095,11.434221267700195,-0.525482177734375,0.2672233581542969,0.11387044936418533,-1.2470670938491821,0.007438773289322853,-0.9004730582237244,0.2809567451477051,1.2615631818771362,0.0032425422687083483,0.8684290647506714,0.39845120906829834,-0.6040665507316589,0.07000076025724411,-0.2759975492954254,0.8638513684272766,-0.41449764370918274,-0.008620393462479115,-0.509079098701477,-0.07953765243291855,-0.30003052949905396,0.7578011751174927,-0.40471312403678894,-0.013402546755969524,0.4206475019454956,-0.05749526992440224,1.6125987768173218,-0.9453474283218384,0.140051931142807,-0.39755797386169434,-2.064556837081909,-0.14755262434482574,-0.12239362299442291,1.1219754219055176,-1.0513279438018799,0.6197819709777832,-1.5188555717468262,-2.5696842670440674,1.423022747039795,-2.230621337890625,1.3630894422531128,1.0603325366973877,2.1611948013305664,1.4955754280090332,-1.2682838439941406,0.3358580470085144,-1.320491075515747,1741432474.979125,1741432475219,5.20454345703125,2.04105322265625,0.188090053663602,6.2416005859375,1.1575847167968751
1741432475.0119295,0.0062940120697021484,-0.027428239642582643,0.030292291322140303,-0.9991646855031275,-0.1301765739917755,0.05231139808893204,0.11728724837303162,0.4459783434867859,0.6027993559837341,8.249065399169922,-0.4961090087890625,0.2927827835083008,0.20466163754463196,-1.2756778001785278,0.005912871100008488,-0.9351872801780701,0.21877622604370117,1.2333340644836426,0.002861066721379757,0.8997100591659546,0.2790493667125702,-0.6876096725463867,-0.050164032727479935,-0.25654229521751404,1.1247806549072266,-0.5040621161460876,-0.001666571944952011,-0.4736018776893616,-0.013542382046580315,-0.22297245264053345,0.7215610146522522,-0.4095010757446289,-0.03135184943675995,0.2937157452106476,0.39949464797973633,1.554526686668396,-0.09961548447608948,-0.027473872527480125,-0.6356911063194275,-1.7136245965957642,-0.6451430916786194,0.007086280267685652,0.5267726182937622,-1.1884281635284424,-3.9306232929229736,-2.0581881999969482,1.6135514974594116,6.387040615081787,-0.3170647621154785,0.3804823160171509,0.33760762214660645,0.8607469797134399,0.5808003544807434,-0.4766756296157837,-0.10570769011974335,-0.2551831305027008,1741432474.979125,1741432475219,5.20454345703125,2.04105322265625,0.188090053663602,6.2416005859375,1.1575847167968751
1741432475.0276856,-0.1188516616821289,0.015121044792722782,-0.005851417993244673,-0.9998685488162156,-0.28630825877189636,-0.3550374507904053,0.6712380051612854,-3.9566071033477783,5.1846795082092285,13.253082275390625,-0.22564315795898438,0.3965435028076172,0.2805752754211426,-1.2550780773162842,0.006294346414506435,-0.9462500810623169,0.15621423721313477,1.2379117012023926,0.004386968910694122,0.9130617380142212,-0.04139009863138199,-0.5407415628433228,-0.04749370738863945,0.06923781335353851,1.3784618377685547,-0.3981049060821533,0.011062308214604855,-0.6715877056121826,0.07419699430465698,0.05054550990462303,0.8016708493232727,-0.19861865043640137,-0.05771394446492195,-0.5632106065750122,0.1905881017446518,3.283714532852173,-0.17978781461715698,-0.00794139876961708,0.37838688492774963,-4.725828647613525,0.40781745314598083,-0.009184074588119984,0.048561811447143555,0.796114444732666,-4.292616844177246,-0.3500027656555176,-0.2992464005947113,3.49554181098938,-1.656614065170288,0.3624719977378845,1.9082506895065308,0.15461982786655426,0.0036329024005681276,0.7729786038398743,-0.5324687361717224,-0.23631560802459717,1741432474.979125,1741432475219,5.20454345703125,2.04105322265625,0.188090053663602,6.2416005859375,1.1575847167968751
1741432475.0477502,-0.11615538597106934,0.011596098478557162,-0.003392360949442504,-0.9999270085297548,-0.1366654485464096,-0.1908869594335556,-0.018709978088736534,-1.5212103128433228,1.9367659091949463,12.782965660095215,-0.23670578002929688,0.4007396697998047,0.3412298858165741,-1.2604187726974487,0.005912871100008488,-0.9393835067749023,0.08869306743144989,1.238293170928955,0.004386968910694122,0.9130617380142212,-0.02727550081908703,-0.6242847442626953,-0.04253452271223068,0.0707637146115303,1.3937208652496338,-0.4470194876194,0.009712948463857174,-0.6368734240531921,0.07419699430465698,0.050164032727479935,0.804341197013855,-0.24009081721305847,-0.055012818425893784,-0.3712717890739441,0.17753049731254578,3.112659215927124,-0.3228868246078491,-0.005234921351075172,0.3336729407310486,-4.456312656402588,-0.008457143791019917,0.03318288177251816,-0.054524339735507965,0.6537657976150513,-4.3991522789001465,0.31195148825645447,0.0746849924325943,0.22131937742233276,-2.4688289165496826,-0.1166592463850975,1.5021225214004517,0.030839188024401665,-0.01609398052096367,0.09999320656061172,-2.318129777908325,0.21036258339881897,1741432474.979125,1741432475219,5.20454345703125,2.04105322265625,0.188090053663602,6.2416005859375,1.1575847167968751
1741432475.0763602,-0.12249469757080078,0.015168120543295084,0.0008000281035771631,-0.9998846373828421,-0.19398640096187592,0.2628636360168457,-0.35515299439430237,0.4621116816997528,-0.407649427652359,9.19713306427002,-0.2676048278808594,0.3969249725341797,0.39539939165115356,-1.2619446516036987,0.006294346414506435,-0.9340428709983826,0.01926451548933983,1.2451597452163696,0.004386968910694122,0.916113555431366,-0.006294346414506435,-0.7040131092071533,-0.032616160809993744,0.07991912961006165,1.357480764389038,-0.49139437079429626,-0.004061149898916483,-0.6113145351409912,0.0715266615152359,0.04901960864663124,0.8062485456466675,-0.2958066165447235,-0.05914314091205597,-0.9186633229255676,-0.07283046841621399,2.602163076400757,-0.17170493304729462,0.0033490541391074657,0.19762004911899567,-4.8616180419921875,0.6146301627159119,-0.003565151011571288,0.2749480903148651,1.1284788846969604,-4.163710117340088,0.3637774586677551,0.4186277985572815,-2.1233625411987305,-2.03775691986084,-0.8680354356765747,1.3036742210388184,-0.13959749042987823,-0.10939905047416687,0.03605445474386215,-2.679119348526001,-0.22094616293907166,1741432474.979125,1741432475219,5.20454345703125,2.04105322265625,0.188090053663602,6.2416005859375,1.1575847167968751
1741432475.0877995,-0.13240277767181396,0.024231075568519046,0.0035213664462039086,-0.9997001825323152,-0.10134567320346832,0.4797302186489105,-0.4513635039329529,-3.1068990230560303,0.0333242192864418,8.764134407043457,-0.3046083450317383,0.3934917449951172,0.4404135048389435,-1.2661409378051758,0.006294346414506435,-0.9306095838546753,-0.056267641484737396,1.2501189708709717,0.005149920005351305,0.9260318875312805,0.013542382046580315,-0.778019368648529,-0.026512550190091133,0.08030059933662415,1.2922483682632446,-0.5034665465354919,-0.011672486551105976,-0.5899519324302673,0.06504157930612564,0.037193864583969116,0.8031967878341675,-0.3423278331756592,-0.0599273219704628,-1.1345294713974,-0.10820303857326508,2.262575149536133,-0.3007015585899353,-0.008356020785868168,0.22286176681518555,-4.736785888671875,0.16653987765312195,0.03601463884115219,0.7382810115814209,0.9650793075561523,-3.695502281188965,0.28821298480033875,-0.027706511318683624,-3.4753239154815674,-0.25004273653030396,-0.2948969304561615,0.9820078611373901,-0.3619600832462311,-0.746370255947113,-0.18598811328411102,-2.243699073791504,-0.09285534173250198,1741432474.979125,1741432475219,5.20454345703125,2.04105322265625,0.188090053663602,6.2416005859375,1.1575847167968751
1741432475.1078064,-0.1379234790802002,0.04008915057097167,0.005198080416851135,-0.9991825859003338,-0.09469306468963623,0.8304505348205566,-0.2626863121986389,1.611194372177124,0.5091559290885925,6.620416641235352,-0.3374147415161133,0.3923473358154297,0.47398337721824646,-1.2676668167114258,0.005912871100008488,-0.9233615398406982,-0.10700388997793198,1.2463041543960571,0.002861066721379757,0.9428167939186096,0.023460745811462402,-0.8344777822494507,-0.016594186425209045,0.07534141838550568,1.2006943225860596,-0.47545304894447327,-0.014267882332205772,-0.5643930435180664,0.05245288833975792,0.022697795182466507,0.802815318107605,-0.38265079259872437,-0.05946092680096626,-0.9871044754981995,-0.04473698511719704,1.4583704471588135,0.036253198981285095,-0.00877385213971138,0.37265798449516296,-3.1559371948242188,-0.28008463978767395,-0.174385666847229,1.0775033235549927,0.424069344997406,-2.574089288711548,0.4759824275970459,-0.2399424910545349,-4.7906718254089355,1.6424146890640259,-0.11412516981363297,1.2492032051086426,-0.6605516076087952,-0.595715343952179,-0.03791884332895279,-1.9988837242126465,0.07700979709625244,1741432474.979125,1741432475219,5.20454345703125,2.04105322265625,0.188090053663602,6.2416005859375,1.1575847167968751
1741432475.1278296,-0.13777899742126465,0.05599901594180465,0.008402324372021349,-0.9983954683183899,-0.16040007770061493,0.7571939826011658,0.037669047713279724,4.729703426361084,0.8688193559646606,5.163290500640869,-0.3671703338623047,0.3961620330810547,0.4858091175556183,-1.2642335891723633,0.006294346414506435,-0.916113555431366,-0.13179980218410492,1.23905611038208,0.002861066721379757,0.9523537158966064,0.019645990803837776,-0.8695735335350037,-0.000572213320992887,0.0711451917886734,1.0923552513122559,-0.43132561445236206,-0.010219407267868519,-0.5373083353042603,0.049782559275627136,0.01735713705420494,0.8039597272872925,-0.4178455173969269,-0.04965844750404358,-0.9249610900878906,0.11836164444684982,0.4565075933933258,0.2155037671327591,0.005496681202203035,0.457035094499588,-1.3509632349014282,-0.5019081830978394,0.021509045735001564,0.5750919580459595,-0.2634079158306122,-1.754449725151062,0.9859132766723633,-0.13718852400779724,-5.533360004425049,2.210606336593628,0.34261420369148254,1.4505681991577148,-0.06206955388188362,-0.13336807489395142,0.06017481908202171,-1.7236768007278442,0.5928753018379211,1741432474.979125,1741432475219,5.20454345703125,2.04105322265625,0.188090053663602,6.2416005859375,1.1575847167968751
1741432475.147859,-0.13271856307983398,0.06242760684634727,0.010345709408959333,-0.9979958718352813,-0.1287858486175537,0.3023972809314728,0.26380181312561035,4.269166946411133,-0.38596242666244507,4.2364912033081055,-0.3953990936279297,0.4270620346069336,0.4797055125236511,-1.2638521194458008,0.006294346414506435,-0.9031433463096619,-0.12989242374897003,1.233715534210205,0.002861066721379757,0.951972246170044,0.011635004542768002,-0.8802548050880432,0.026512550190091133,0.07572289556264877,0.9740977883338928,-0.3843933939933777,-0.0007493195589631796,-0.4976348578929901,0.05397878959774971,0.01926451548933983,0.80663001537323,-0.44815319776535034,-0.02848425880074501,-0.8491076827049255,0.8954567909240723,-0.4393424093723297,0.02287299558520317,-0.0016720476560294628,0.6514519453048706,0.3350538909435272,-0.3235166072845459,0.006694316864013672,-0.12953616678714752,-0.4434175491333008,-0.25531402230262756,1.3608330488204956,0.3871265947818756,-5.9745588302612305,2.364079236984253,0.4685409665107727,2.1443276405334473,0.22693026065826416,0.05896271765232086,0.2331041395664215,-1.4259467124938965,1.3062257766723633,1741432474.979125,1741432475219,5.20454345703125,2.04105322265625,0.188090053663602,6.2416005859375,1.1575847167968751
1741432475.1678839,-0.1261996030807495,0.05959557836024432,0.014092929314939377,-0.9981231168464301,-0.21435028314590454,-0.2319706529378891,0.2818533778190613,0.7572885751724243,0.4062815010547638,3.9248509407043457,-0.4324026107788086,0.4621572494506836,0.45910581946372986,-1.2634705305099487,0.006294346414506435,-0.8878843188285828,-0.10547798871994019,1.232571005821228,0.002861066721379757,0.9424353241920471,0.010490577667951584,-0.8600366115570068,0.045204851776361465,0.0883115902543068,0.8451590538024902,-0.3448384702205658,0.0029817726463079453,-0.4556725323200226,0.071908138692379,0.008201723918318748,0.8154039978981018,-0.46349450945854187,-0.007940060459077358,-1.0963199138641357,1.004148006439209,-1.0821031332015991,-0.000732805288862437,-0.006614308338612318,0.7631545066833496,1.7678048610687256,-0.07154597342014313,5.142345617059618e-05,-0.688336968421936,0.05497872084379196,1.2256964445114136,0.6790619492530823,0.6207781434059143,-6.480967998504639,1.7733180522918701,0.1116098016500473,1.8944556713104248,0.9918737411499023,-0.7676219344139099,0.405638188123703,-0.5561950206756592,0.6559965014457703,1741432474.979125,1741432475219,5.20454345703125,2.04105322265625,0.188090053663602,6.2416005859375,1.1575847167968751
1741432475.1878874,-0.1239314079284668,0.047602333975852916,0.021119564383083295,-0.9986430702710153,-0.4115424156188965,-0.608547031879425,0.015788422897458076,26.584095001220703,6.772205352783203,19.282575607299805,-0.4678792953491211,0.493438720703125,0.43202105164527893,-1.2634705305099487,0.005912871100008488,-0.8707179427146912,-0.06771191209554672,1.2321895360946655,0.002861066721379757,0.925650417804718,0.02079041674733162,-0.8279926776885986,0.0555046908557415,0.09555962681770325,0.7551308274269104,-0.3048522174358368,0.0018206965178251266,-0.41599908471107483,0.08602273464202881,-0.014686808921396732,0.8546959757804871,-0.4532002806663513,-0.035569969564676285,-1.0720980167388916,0.8728043437004089,-1.506872534751892,0.01934531331062317,-0.011905559338629246,0.8764994144439697,2.575673818588257,-0.039344288408756256,0.0021442819852381945,-1.2057437896728516,0.6813668012619019,1.6151286363601685,0.6275454759597778,0.3503881096839905,-3.0235936641693115,2.387012243270874,-0.08922276645898819,1.9968063831329346,0.1627800464630127,-1.0996410846710205,2.5234732627868652,0.697668194770813,-1.6792669296264648,1741432474.979125,1741432475219,5.20454345703125,2.04105322265625,0.188090053663602,6.2416005859375,1.1575847167968751
1741432475.2078876,-0.12435805797576904,0.03490291416529661,0.02950234856819589,-0.9989551531533989,-0.33578944206237793,-0.42218467593193054,-0.11456761509180069,9.441344261169434,18.296066284179688,0.5687891244888306,-0.5018310546875,0.50640869140625,0.3904402256011963,-1.2630890607833862,0.005912871100008488,-0.84744793176651,-0.020027466118335724,1.2371487617492676,0.0024795911740511656,0.9027618765830994,0.0555046908557415,-0.7776378989219666,0.05283436179161072,0.06923781335353851,0.7913710474967957,-0.26214873790740967,0.014211701229214668,-0.41142138838768005,0.07000076025724411,-0.0398641936480999,0.9306095838546753,-0.4311690032482147,-0.06633050739765167,-0.9990265965461731,0.312771737575531,-2.424022912979126,0.0002463370910845697,-0.036752425134181976,1.0770593881607056,3.2527406215667725,0.5278450846672058,-0.027766559273004532,-1.5061891078948975,1.797265887260437,1.9420281648635864,-0.28804275393486023,-1.797812581062317,1.282559871673584,1.6900432109832764,0.7946754693984985,-0.11757230013608932,-0.6263630986213684,-1.3566410541534424,4.087723731994629,1.3096061944961548,-1.3012104034423828,1741432474.979125,1741432475219,5.20454345703125,2.04105322265625,0.188090053663602,6.2416005859375,1.1575847167968751
1741432475.2279692,-0.13786828517913818,0.026943054689355077,0.032876646755495315,-0.999096190515268,-0.25898417830467224,-0.3818325698375702,-0.7219159603118896,-10.636733055114746,-10.725348472595215,10.23260498046875,-0.523956298828125,0.52471923828125,0.3244449496269226,-1.2695741653442383,0.006294346414506435,-0.8283741474151611,0.027656977996230125,1.2482116222381592,0.004386968910694122,0.8772030472755432,0.09517814964056015,-0.7547493577003479,0.0394827201962471,0.0394827201962471,0.7963302135467529,-0.24181020259857178,0.004717757925391197,-0.4495689272880554,0.06656748056411743,-0.06694895774126053,1.044670820236206,-0.39498743414878845,-0.05637456476688385,-0.7044860124588013,0.5636135339736938,-3.397261619567871,-0.5628570318222046,0.0032423974480479956,0.9675108790397644,3.1109979152679443,0.7706089615821838,0.12337907403707504,-1.7193303108215332,1.8383063077926636,1.6286137104034424,-0.8629763126373291,-0.9652426838874817,0.3073079586029053,1.035410761833191,-0.6726965308189392,-2.003509759902954,-0.2669534683227539,-0.9923237562179565,6.04503059387207,1.7801644802093506,0.8134700655937195,1741432474.979125,1741432475219,5.20454345703125,2.04105322265625,0.188090053663602,6.2416005859375,1.1575847167968751
1741432475.2479532,-0.16096818447113037,0.024437875955773042,0.043187519973482955,-0.9987680553248138,-0.39871078729629517,-0.12728917598724365,-1.235909104347229,-0.37987613677978516,2.9738779067993164,13.018447875976562,-0.5704965591430664,0.5327310562133789,0.2595941126346588,-1.2749148607254028,0.005912871100008488,-0.8085374236106873,0.07305257022380829,1.2680482864379883,0.00476844422519207,0.8520256280899048,0.12912946939468384,-0.7223239541053772,0.0394827201962471,0.02536812424659729,0.8009079098701477,-0.22401311993598938,-0.00011656907008728012,-0.5128938555717468,0.05970092490315437,-0.07763027399778366,1.1732280254364014,-0.36828434467315674,-0.013533106073737144,-1.3531928062438965,0.3285991847515106,-3.2833614349365234,-0.2828960418701172,-0.0012313778279349208,1.0600616931915283,3.145237445831299,1.3480368852615356,0.004358777776360512,-1.6848537921905518,1.6904475688934326,1.2981549501419067,0.27640286087989807,-0.7571389079093933,0.3002530038356781,0.9325280785560608,-0.10229277610778809,-3.5343916416168213,-0.3320706784725189,-0.6872890591621399,6.2138543128967285,1.1590181589126587,2.3641624450683594,1741432474.979125,1741432475219,5.20454345703125,2.04105322265625,0.188090053663602,6.2416005859375,1.1575847167968751
1741432475.2698667,-0.1905219554901123,0.02114162275755491,0.045647157392602396,-0.9987338828782931,-0.12355431169271469,-0.03528863564133644,-1.4645406007766724,0.1624741405248642,-1.5554730892181396,10.837311744689941,-0.5872812271118164,0.5380716323852539,0.19550621509552002,-1.2760592699050903,0.005912871100008488,-0.7890821695327759,0.12417028844356537,1.2810184955596924,0.004005493130534887,0.8253223299980164,0.16079194843769073,-0.6921873688697815,0.051689937710762024,0.028038453310728073,0.813878059387207,-0.20226529240608215,-0.000995792681351304,-0.5842298269271851,0.05664911866188049,-0.10204470902681351,1.27775239944458,-0.37318217754364014,0.002444630255922675,-0.6017113327980042,0.08521459251642227,-3.480212688446045,-0.05112084001302719,-0.008777273818850517,0.8954892754554749,3.3958733081817627,0.7989257574081421,-0.040076300501823425,-1.7826557159423828,1.4093314409255981,1.6419299840927124,0.619327187538147,0.27108895778656006,0.5594866275787354,1.0735610723495483,-0.10656768083572388,-3.4959423542022705,-0.29049384593963623,-1.269394874572754,5.051384449005127,-0.535621166229248,0.21437384188175201,1741432474.979125,1741432475219,5.20454345703125,2.04105322265625,0.188090053663602,6.2416005859375,1.1575847167968751
1741432475.2879882,-0.2193477749824524,0.017451110098514123,0.04848284074113848,-0.998671554070706,-0.08986777812242508,-0.15907102823257446,-1.4558985233306885,-4.039311408996582,-3.34765362739563,15.907509803771973,-0.6239032745361328,0.5544748306274414,0.1325627565383911,-1.2760592699050903,0.005912871100008488,-0.7711527943611145,0.17528800666332245,1.290936827659607,0.004005493130534887,0.7993820309638977,0.17872129380702972,-0.6681544184684753,0.06084534898400307,0.03376058489084244,0.8192187547683716,-0.19677382707595825,-0.004382429178804159,-0.6532768607139587,0.039101243019104004,-0.12684062123298645,1.3300144672393799,-0.4046548902988434,-0.016834883019328117,-1.0224484205245972,0.453220009803772,-2.924356698989868,-0.01515087392181158,0.002497189911082387,0.886805534362793,3.3676578998565674,0.6602866053581238,0.02204102836549282,-1.7450542449951172,0.9213064908981323,1.1162457466125488,0.34553396701812744,0.25012990832328796,0.27705636620521545,0.0068178013898432255,-0.15069864690303802,-3.4535372257232666,-0.9983499050140381,-1.2224774360656738,2.0992841720581055,-1.636553168296814,-0.7820966243743896,1741432474.979125,1741432475219,5.20454345703125,2.04105322265625,0.188090053663602,6.2416005859375,1.1575847167968751
1741432475.3081262,-0.24325478076934814,0.020107316700290805,0.04773208750453425,-0.9986577710294823,0.10137565433979034,0.2859581410884857,-1.0872360467910767,-0.8481469750404358,-2.2060961723327637,10.18891429901123,-0.6593809127807617,0.5537118911743164,0.07915617525577545,-1.2768222093582153,0.005912871100008488,-0.7543678879737854,0.22411687672138214,1.301236629486084,0.004005493130534887,0.7749675512313843,0.19169145822525024,-0.6368734240531921,0.06733043491840363,0.034142062067985535,0.8245593905448914,-0.21253935992717743,-0.007105393335223198,-0.7082093358039856,0.018120087683200836,-0.15316243469715118,1.3269627094268799,-0.43616753816604614,0.002519975882023573,-1.0900152921676636,0.035990431904792786,-2.6119165420532227,-0.09573091566562653,-6.335635589493904e-06,0.800233006477356,3.231982946395874,0.6159623861312866,-0.013918442651629448,-1.585342288017273,0.5260148048400879,1.718858003616333,0.304047554731369,-0.030489984899759293,0.12227604538202286,-0.8590526580810547,-0.11970727145671844,-2.6311111450195312,-1.045045018196106,-1.3031526803970337,-0.5578346848487854,-1.4876153469085693,1.218530535697937,1741432474.979125,1741432475219,5.20454345703125,2.04105322265625,0.188090053663602,6.2416005859375,1.1575847167968751
1741432475.3280365,-0.2651600241661072,0.025326730577447876,0.044906894743013355,-0.9986700794170201,0.13173864781856537,0.2092956155538559,-1.024312973022461,-4.072366714477539,-5.711215019226074,9.82141399383545,-0.6944761276245117,0.5586709976196289,0.021171892061829567,-1.2798740863800049,0.005912871100008488,-0.7425421476364136,0.26798656582832336,1.306195855140686,0.004005493130534887,0.7497901916503906,0.19130998849868774,-0.6055924296379089,0.07572289556264877,0.03643091395497322,0.8093003630638123,-0.23710598051548004,-0.01384765561670065,-0.7547493577003479,-0.0024795911740511656,-0.17185473442077637,1.2861448526382446,-0.45098719000816345,0.013561764732003212,-1.0493192672729492,0.17128628492355347,-2.6357944011688232,-0.19527728855609894,-0.0005707978270947933,0.5180345773696899,2.8261146545410156,0.25156357884407043,0.027175189927220345,-1.7194809913635254,-0.08429384231567383,1.4852852821350098,0.38091397285461426,0.20378230512142181,-0.8994971513748169,-1.3147355318069458,-0.37407878041267395,-2.2041819095611572,-1.0162267684936523,-0.9050689935684204,-2.2351019382476807,-0.5587295293807983,0.0504484698176384,1741432474.979125,1741432475219,5.20454345703125,2.04105322265625,0.188090053663602,6.2416005859375,1.1575847167968751
1741432475.3480911,-0.2810669541358948,0.030819284866507167,0.042902576851992655,-0.9986037955965199,0.1229182705283165,0.33943259716033936,-0.8300380110740662,0.9676048755645752,-2.8995234966278076,5.306794166564941,-0.7234687805175781,0.5624856948852539,-0.026131074875593185,-1.2806370258331299,0.005912871100008488,-0.7383459210395813,0.30117493867874146,1.310010552406311,0.004005493130534887,0.7249943017959595,0.18749523162841797,-0.5640115737915039,0.08373387902975082,0.040627144277095795,0.7928969264030457,-0.2621045410633087,-0.02122725173830986,-0.7833600640296936,-0.024605173617601395,-0.19092851877212524,1.2220568656921387,-0.4391067624092102,0.007261123973876238,-0.881131649017334,0.13984721899032593,-2.2679874897003174,-0.023353690281510353,-0.002672134432941675,0.24489837884902954,2.1723761558532715,0.3151596486568451,0.008805426768958569,-1.662773847579956,-0.034159861505031586,2.4059810638427734,0.3885372579097748,0.15396744012832642,-0.7219954133033752,-1.2353565692901611,-0.4174787104129791,-1.3227990865707397,-1.0991524457931519,-0.9634018540382385,-3.2825489044189453,0.8233048319816589,-0.1532372385263443,1741432474.979125,1741432475219,5.20454345703125,2.04105322265625,0.188090053663602,6.2416005859375,1.1575847167968751
1741432475.3680944,-0.29851680994033813,0.03898007186338767,0.04075000621773042,-0.9984087294243675,0.14160825312137604,0.4073246717453003,-0.8816827535629272,0.9517979025840759,-2.4413654804229736,7.505722999572754,-0.7516975402832031,0.5621042251586914,-0.053215838968753815,-1.2802555561065674,0.005912871100008488,-0.734912633895874,0.32978561520576477,1.316495656967163,0.004005493130534887,0.6994354128837585,0.18825818598270416,-0.5155642032623291,0.08945601433515549,0.04139009863138199,0.7825970649719238,-0.2797542214393616,-0.025827202945947647,-0.7997635006904602,-0.04634927958250046,-0.20695048570632935,1.1373693943023682,-0.4023248851299286,0.010440248064696789,-0.8520612716674805,0.017922308295965195,-1.1897246837615967,-0.017667243257164955,-0.013376357965171337,0.15979412198066711,2.112562656402588,0.4289751946926117,-0.01380356028676033,-1.776831865310669,0.028585979714989662,1.9893094301223755,0.2501227557659149,0.020065097138285637,-0.6135552525520325,-0.8633806109428406,-0.18482311069965363,-0.7181991338729858,-1.1051801443099976,-0.7236315011978149,-4.403420448303223,1.995379090309143,0.16527222096920013,1741432474.979125,1741432475219,5.20454345703125,2.04105322265625,0.188090053663602,6.2416005859375,1.1575847167968751
1741432475.38808,-0.3151790499687195,0.039106929230333154,0.03899787547584396,-0.9984737421657839,0.10802780091762543,0.03813083469867706,-0.8016327023506165,0.44074374437332153,0.09541961550712585,9.538460731506348,-0.7700080871582031,0.5762186050415039,-0.05703059583902359,-1.2810184955596924,0.005912871100008488,-0.727664589881897,0.3580147922039032,1.317258596420288,0.004005493130534887,0.6715877056121826,0.19474326074123383,-0.4724574685096741,0.08869306743144989,0.040245670825242996,0.7791637778282166,-0.2852851450443268,-0.029402324929833412,-0.8039597272872925,-0.0711451917886734,-0.22182802855968475,1.033989429473877,-0.35389038920402527,0.008114580996334553,-0.5673338770866394,0.3376525342464447,-0.09179237484931946,-0.07191725075244904,-0.011526739224791527,0.4021437466144562,1.6801767349243164,-0.03995591774582863,0.005650662817060947,-1.809677243232727,0.43545833230018616,2.5032074451446533,-0.0045449137687683105,-0.07742878794670105,0.04445453733205795,-0.1315256953239441,-0.17784902453422546,0.009530930779874325,-1.2970508337020874,-0.8091642260551453,-5.3112263679504395,2.4582674503326416,-0.13400866091251373,1741432474.979125,1741432475219,5.20454345703125,2.04105322265625,0.188090053663602,6.2416005859375,1.1575847167968751
1741432475.408126,-0.3308464288711548,0.03466563019471873,0.033960581382917666,-0.9988217924111075,0.3269117474555969,-0.25137510895729065,-0.7657817006111145,1.863364577293396,-2.5871362686157227,8.29045295715332,-0.790226936340332,0.5842294692993164,-0.043678950518369675,-1.2829258441925049,0.005912871100008488,-0.7120240926742554,0.369840532541275,1.317258596420288,0.004005493130534887,0.6467918157577515,0.20313572883605957,-0.44079500436782837,0.08564125746488571,0.03299763426184654,0.7856488823890686,-0.2818203568458557,-0.03639481961727142,-0.7753490209579468,-0.09021896868944168,-0.2439536154270172,0.9149690866470337,-0.3007408082485199,0.0015943680191412568,-0.5796147584915161,0.2585245668888092,0.8684755563735962,-0.13467830419540405,-0.006435660179704428,0.8831480741500854,0.7180590033531189,-0.0026168758049607277,0.0016905127558857203,-1.6863775253295898,0.45413488149642944,1.4086010456085205,-0.18588611483573914,-0.4890299439430237,0.351357638835907,0.18492266535758972,-0.35570114850997925,1.5918740034103394,-0.933139443397522,-1.2581982612609863,-6.077612400054932,2.745870590209961,-0.49141231179237366,1741432474.979125,1741432475219,5.20454345703125,2.04105322265625,0.188090053663602,6.2416005859375,1.1575847167968751
1741432475.428151,-0.344232439994812,0.026140811189770952,0.02573522506102274,-0.999326951593621,0.46081554889678955,-0.409916490316391,-0.6761360764503479,1.3612889051437378,-1.251901626586914,6.1139726638793945,-0.808537483215332,0.5846109390258789,-0.01430533267557621,-1.2855961322784424,0.005912871100008488,-0.6891355514526367,0.3702220320701599,1.3195475339889526,0.004005493130534887,0.6235218048095703,0.21801327168941498,-0.41294726729393005,0.0707637146115303,0.020027466118335724,0.8134965896606445,-0.27173665165901184,-0.04478633776307106,-0.733386754989624,-0.09784847497940063,-0.2779049277305603,0.7753490209579468,-0.24410206079483032,-0.002845845650881529,-0.5513914823532104,0.028864482417702675,1.4380687475204468,-0.203999325633049,-0.003935883287340403,1.132409930229187,-0.09885743260383606,0.10730306804180145,0.008475156500935555,-1.5234427452087402,0.6981264352798462,1.4342567920684814,-0.8300628066062927,-0.707735538482666,1.580535888671875,0.5649918913841248,-0.3436198830604553,2.1826488971710205,-0.3192260265350342,-1.7114907503128052,-7.08290433883667,2.860107660293579,-0.4690088629722595,1741432474.979125,1741432475219,5.20454345703125,2.04105322265625,0.188090053663602,6.2416005859375,1.1575847167968751
1741432475.4481604,-0.35984355211257935,0.016084143221441735,0.016125326230147393,-0.9997406034521171,0.4842999577522278,-0.4943411648273468,-0.780797004699707,-1.4309673309326172,2.1665828227996826,6.142563819885254,-0.824559211730957,0.5827035903930664,0.029564354568719864,-1.2913182973861694,0.005912871100008488,-0.6616693139076233,0.3572518527507782,1.3195475339889526,0.004005493130534887,0.6052109599113464,0.23327229917049408,-0.4060807228088379,0.04177157208323479,-0.001716639962978661,0.8638513684272766,-0.2540142834186554,-0.050154250115156174,-0.6769283413887024,-0.10128175467252731,-0.28515297174453735,0.621614396572113,-0.19231027364730835,-0.0034752758219838142,-0.49810853600502014,-0.06322813779115677,2.334634780883789,-0.37368324398994446,-3.4006508940365165e-05,1.392374873161316,-0.9990872144699097,0.024413691833615303,0.00265682814642787,-1.1788115501403809,0.8518407940864563,-0.0706973671913147,-1.3439602851867676,-1.1133170127868652,2.659482955932617,0.9424906969070435,-0.2637348175048828,2.8135766983032227,-0.12907825410366058,-0.27754074335098267,-7.587121486663818,2.5181126594543457,-0.06775102019309998,1741432474.979125,1741432475219,5.20454345703125,2.04105322265625,0.188090053663602,6.2416005859375,1.1575847167968751
1741432475.4742863,-0.3762008547782898,0.006137924843582209,0.0036714581133579704,-0.9999744228098719,0.611082136631012,-0.5121047496795654,-0.774133563041687,-7.674769878387451,-5.0818562507629395,12.58205795288086,-0.8379106521606445,0.5811777114868164,0.07991912961006165,-1.295896053314209,0.005912871100008488,-0.6315327882766724,0.33512628078460693,1.3199290037155151,0.004005493130534887,0.5888075232505798,0.25158312916755676,-0.42591744661331177,0.03337911143898964,-0.04901960864663124,0.9431982636451721,-0.226455956697464,-0.04680607095360756,-0.6303883194923401,-0.08983749151229858,-0.27141985297203064,0.5453193187713623,-0.128136545419693,-0.02624797448515892,-0.42507433891296387,-0.032733120024204254,2.514997959136963,-0.2951359152793884,-0.015222628600895405,1.475237488746643,-1.5025461912155151,-0.015608837828040123,0.006117338314652443,-1.1051033735275269,0.9231247305870056,-0.838990330696106,-0.05293307453393936,-2.911677122116089,4.065934181213379,1.4812180995941162,0.3035198748111725,2.4116692543029785,0.8988626599311829,0.8593149781227112,-2.1765711307525635,3.4412593841552734,-1.3397961854934692,1741432474.979125,1741432475219,5.20454345703125,2.04105322265625,0.188090053663602,6.2416005859375,1.1575847167968751
1741432475.4882205,-0.3920733332633972,0.008265612589364155,0.00014777944361462337,-0.9999658283210274,0.1619703620672226,0.1117427870631218,-0.7491559982299805,-2.0281968116760254,-0.7045522332191467,5.745675563812256,-0.8775844573974609,0.5827035903930664,0.12836651504039764,-1.302762508392334,0.005912871100008488,-0.6033035516738892,0.30422675609588623,1.3233622312545776,0.004386968910694122,0.5731670260429382,0.24967575073242188,-0.46368351578712463,0.00667582219466567,-0.09822995215654373,1.0351338386535645,-0.1855546236038208,-0.02590271830558777,-0.5918593406677246,-0.06237125024199486,-0.22678720951080322,0.5453193187713623,-0.07655593007802963,-0.05131511390209198,-1.2385032176971436,0.06554239988327026,2.390575885772705,-0.4950975477695465,-0.010858423076570034,1.4481679201126099,-2.1997592449188232,0.277852326631546,0.04183805733919144,-1.03251314163208,-0.12213210016489029,-2.061643600463867,-1.6026743650436401,-2.363569498062134,4.513933181762695,2.106884002685547,1.1920900344848633,1.3391945362091064,0.9957025647163391,2.511715888977051,-0.36341795325279236,2.238619565963745,-0.8746117353439331,1741432474.979125,1741432475219,5.20454345703125,2.04105322265625,0.188090053663602,6.2416005859375,1.1575847167968751
1741432475.5083094,-0.40003466606140137,0.014268555761922206,-0.0030451948259216984,-0.9998935618879347,0.20442882180213928,0.35604238510131836,-0.48154133558273315,-5.016161918640137,-2.5342767238616943,12.801076889038086,-0.8878841400146484,0.5815591812133789,0.16308079659938812,-1.314969778060913,0.005912871100008488,-0.5758373141288757,0.2645532786846161,1.3325176239013672,0.004005493130534887,0.5613412857055664,0.24166475236415863,-0.5064088106155396,-0.034142062067985535,-0.1497291475534439,1.119439959526062,-0.1594221293926239,0.013270026072859764,-0.576981782913208,-0.04482337832450867,-0.1813916265964508,0.5460822582244873,-0.0423910915851593,-0.040117956697940826,-0.3627777099609375,-0.07437127828598022,1.5646827220916748,-0.9168769121170044,-0.009302143938839436,1.3326404094696045,-2.631941556930542,0.5985203385353088,-0.02186005748808384,-0.8193292021751404,-0.4644787311553955,-2.171131134033203,-2.037639856338501,-2.5588467121124268,4.112382411956787,0.9060419201850891,1.807332992553711,1.1924470663070679,1.0256860256195068,2.066650629043579,0.36347007751464844,1.6928104162216187,0.6814038753509521,1741432474.979125,1741432475219,5.20454345703125,2.04105322265625,0.188090053663602,6.2416005859375,1.1575847167968751
1741432475.5285058,-0.40370023250579834,0.020452475801697158,-0.00559451697464476,-0.9997751735332305,0.07542784512042999,0.23457613587379456,-0.2177436351776123,-0.3242941200733185,5.260318756103516,17.2785587310791,-0.8997097015380859,0.5937671661376953,0.19321736693382263,-1.3390027284622192,0.005912871100008488,-0.5476081371307373,0.22373540699481964,1.3370953798294067,0.004005493130534887,0.5476081371307373,0.23708705604076385,-0.5510414242744446,-0.07267109304666519,-0.17986571788787842,1.188105583190918,-0.18318809568881989,0.029602492228150368,-0.5716410875320435,-0.03681239113211632,-0.15430685877799988,0.5571450591087341,-0.014209275133907795,-0.0355595238506794,-0.33788013458251953,0.39877188205718994,1.4738209247589111,-1.5532125234603882,-0.005654965061694384,1.4232728481292725,-2.659525156021118,0.29430291056632996,-0.0009473086684010923,-0.9924283027648926,-0.23036354780197144,-2.363583564758301,-1.8711740970611572,-1.2626198530197144,3.1911962032318115,-1.6530483961105347,0.6933031678199768,0.034970663487911224,0.137522891163826,1.5224169492721558,0.45385417342185974,1.1822550296783447,-0.010269220918416977,1741432474.979125,1741432475219,5.20454345703125,2.04105322265625,0.188090053663602,6.2416005859375,1.1575847167968751
1741432475.5483172,-0.4148523807525635,0.026307052819911664,-0.0020403694273599523,-0.9996518273201577,-0.18264950811862946,0.3699459433555603,-0.552828848361969,-0.533083975315094,5.221994876861572,10.20878791809082,-0.9073400497436523,0.6063556671142578,0.2153429538011551,-1.358076572418213,0.005912871100008488,-0.5216678380966187,0.18711376190185547,1.3431990146636963,0.004005493130534887,0.5296788215637207,0.22182802855968475,-0.6055924296379089,-0.09822995215654373,-0.1806286722421646,1.2266346216201782,-0.2436484396457672,0.034645214676856995,-0.5651560425758362,-0.024223696440458298,-0.12951095402240753,0.5758373141288757,-0.0038523550610989332,-0.04470611736178398,-0.28041625022888184,0.3390033543109894,1.0610851049423218,-1.2289525270462036,0.0016057618195191026,1.271965503692627,-2.45875883102417,0.546607255935669,0.007415383588522673,-1.1874099969863892,-0.656029999256134,-2.752737522125244,-1.1798644065856934,0.15782201290130615,1.7307634353637695,-3.207899332046509,0.1992313265800476,0.39321690797805786,0.7808667421340942,1.2191449403762817,0.9075055718421936,0.42545920610427856,-0.30243155360221863,1741432474.979125,1741432475219,5.20454345703125,2.04105322265625,0.188090053663602,6.2416005859375,1.1575847167968751
1741432475.568315,-0.4246705174446106,0.032812381933685644,0.00043922679268066294,-0.9994614323082519,-0.09371555596590042,0.3414635956287384,-0.46655598282814026,-6.092970848083496,-2.1153080463409424,9.295537948608398,-0.9161138534545898,0.6044483184814453,0.230601966381073,-1.3767688274383545,0.005912871100008488,-0.4968718886375427,0.14133669435977936,1.3565505743026733,0.004005493130534887,0.5174715518951416,0.21725031733512878,-0.6719691753387451,-0.10624094307422638,-0.16155488789081573,1.2384604215621948,-0.31372225284576416,0.034049149602651596,-0.5640115737915039,-0.016975661739706993,-0.10166323184967041,0.5861371755599976,-0.0006310251774266362,-0.03593641519546509,-0.25445565581321716,-0.04006640985608101,0.6729282140731812,-1.2883635759353638,-0.01978433132171631,1.1622629165649414,-3.0677754878997803,0.8151720762252808,0.008204265497624874,-0.7614542245864868,-0.2476288080215454,-3.3279924392700195,-0.2995753884315491,0.9403055310249329,0.3661145567893982,-3.538862705230713,-0.01760348305106163,0.0018710516160354018,0.26213696599006653,1.4555788040161133,0.3678738474845886,0.12844689190387726,0.5715579390525818,1741432474.979125,1741432475219,5.20454345703125,2.04105322265625,0.188090053663602,6.2416005859375,1.1575847167968751
1741432475.5883148,-0.4302751421928406,0.0430650962601621,0.000801528085578884,-0.999071946877116,0.01414688490331173,0.5128594040870667,-0.237044557929039,1.1424205303192139,-1.1681028604507446,7.3092041015625,-0.9283208847045898,0.6002521514892578,0.23670557141304016,-1.390120506286621,0.006294346414506435,-0.4819943606853485,0.10090028494596481,1.361128330230713,0.004005493130534887,0.5144197940826416,0.20885786414146423,-0.7402533292770386,-0.10738536715507507,-0.14324407279491425,1.2296863794326782,-0.3723835051059723,0.009306109510362148,-0.5643930435180664,-0.015449759550392628,-0.07572289556264877,0.5891889929771423,-0.00400713412091136,-0.023729613050818443,-0.35992416739463806,-0.1265900433063507,0.2816566228866577,-0.8299317955970764,0.009902676567435265,0.6959015727043152,-2.5888710021972656,0.22714763879776,-0.009769302792847157,-0.17954525351524353,-0.5261015892028809,-3.3529582023620605,-0.20059172809123993,0.7925534844398499,-0.5374857783317566,-2.7605361938476562,-1.6529295444488525,-0.048934973776340485,0.11105114221572876,1.287244200706482,0.2799247205257416,-0.20818839967250824,0.5645632147789001,1741432474.979125,1741432475219,5.20454345703125,2.04105322265625,0.188090053663602,6.2416005859375,1.1575847167968751
1741432475.6083472,-0.4286792278289795,0.05164197438201591,-0.00035208486895889297,-0.9986656009486721,0.045609764754772186,0.417401522397995,0.13994236290454865,-4.976789951324463,3.809022903442383,4.985084056854248,-0.9351873397827148,0.5987262725830078,0.23365376889705658,-1.3969870805740356,0.006294346414506435,-0.47589075565338135,0.07648584991693497,1.361128330230713,0.004005493130534887,0.5132753252983093,0.20771344006061554,-0.8039597272872925,-0.11463340371847153,-0.1180666834115982,1.2083238363265991,-0.40269336104393005,-0.01726560667157173,-0.5693522691726685,-0.01583123579621315,-0.06008239835500717,0.6086442470550537,-0.012892245315015316,-0.01181463897228241,-0.22780564427375793,-0.019157396629452705,-0.2173355519771576,-0.33697348833084106,-0.005217603407800198,0.19118565320968628,-1.432995080947876,-0.011796905659139156,0.004446881357580423,-0.04263891652226448,0.13670578598976135,-3.012958288192749,-0.40540581941604614,1.1423898935317993,-1.241087555885315,-1.1976689100265503,-1.023895502090454,-0.3366144001483917,-0.06788943707942963,0.8129914402961731,1.0786778926849365,-0.48848962783813477,0.5983844995498657,1741432474.979125,1741432475219,5.20454345703125,2.04105322265625,0.188090053663602,6.2416005859375,1.1575847167968751
1741432475.628398,-0.425814688205719,0.061119716337135074,-0.001649342885872432,-0.9981290798002596,0.04183878004550934,0.471399188041687,0.10408204793930054,3.7754127979278564,2.829432249069214,6.902331829071045,-0.9382390975952148,0.5960559844970703,0.22755016386508942,-1.3988944292068481,0.005912871100008488,-0.4800869822502136,0.06275273114442825,1.3615097999572754,0.004005493130534887,0.5140383243560791,0.20428015291690826,-0.84744793176651,-0.11768520623445511,-0.10051880776882172,1.1633096933364868,-0.3946266770362854,-0.010757210664451122,-0.5872815847396851,-0.01735713705420494,-0.05054550990462303,0.6403067111968994,-0.027798695489764214,-0.0038101854734122753,-0.1092037707567215,-0.04794313386082649,-0.3146111071109772,-0.08742763102054596,-0.0068045747466385365,-0.20567938685417175,-0.8878656029701233,-0.003915414214134216,0.010659681633114815,0.05583419278264046,-0.19759424030780792,-2.0455212593078613,-0.18787847459316254,0.7852307558059692,-2.436553478240967,0.7026076316833496,0.3274346888065338,-0.9743569493293762,-0.11171320825815201,0.4975999891757965,1.6888009309768677,-0.7917397618293762,0.38521817326545715,1741432474.979125,1741432475219,5.20454345703125,2.04105322265625,0.188090053663602,6.2416005859375,1.1575847167968751
1741432475.6483989,-0.4288936257362366,0.06510241223546122,-0.0021241746732893097,-0.9978763269078396,0.04571753367781639,0.14287833869457245,-0.2924470007419586,-0.14299935102462769,2.843019723892212,6.171868324279785,-0.9328985214233398,0.5968189239501953,0.22068360447883606,-1.3973685503005981,0.005912871100008488,-0.4835202693939209,0.05855649709701538,1.362654209136963,0.004005493130534887,0.5128938555717468,0.20695048570632935,-0.8722438216209412,-0.11959258466959,-0.09708552807569504,1.0831998586654663,-0.3536049425601959,-0.006288099102675915,-0.6055924296379089,-0.014686808921396732,-0.034142062067985535,0.6879911422729492,-0.04478966444730759,-0.0023844384122639894,0.15668849647045135,0.015388743951916695,-0.336166650056839,0.09493919461965561,-0.016536101698875427,-0.16998182237148285,-0.21215425431728363,0.0843057632446289,0.006595203187316656,-0.12098357826471329,0.22871434688568115,-0.8855323791503906,-0.10665420442819595,-0.00858362391591072,-4.339539051055908,2.1638026237487793,0.0845242440700531,-0.9337975978851318,0.1931787133216858,0.9545698165893555,2.444359064102173,-0.8434169888496399,-0.001624255906790495,1741432474.979125,1741432475219,5.20454345703125,2.04105322265625,0.188090053663602,6.2416005859375,1.1575847167968751
1741432475.6684122,-0.44489961862564087,0.06247018188350333,-0.004223701689609544,-0.9980378934286409,0.16948255896568298,-0.19785761833190918,-0.8693333268165588,0.3369860351085663,2.6526246070861816,6.964613914489746,-0.9306097030639648,0.5933847427368164,0.21915769577026367,-1.395461082458496,0.005912871100008488,-0.4854276478290558,0.059319447726011276,1.363417148590088,0.004005493130534887,0.5128938555717468,0.2153429538011551,-0.8524070978164673,-0.12149996310472488,-0.10547798871994019,0.955024003982544,-0.3006153106689453,-0.00029760057805106044,-0.6311513185501099,-0.000572213320992887,-0.01773861236870289,0.7402533292770386,-0.06467293947935104,-0.003677069442346692,0.06723349541425705,-0.07282746583223343,-0.03661177679896355,0.1458948403596878,-0.004927131347358227,-0.08825188875198364,0.10000661015510559,0.02017572894692421,0.0029540567193180323,-0.02294657751917839,0.38100767135620117,1.3654463291168213,-0.05361213907599449,-0.4178381562232971,-6.778384208679199,2.6444358825683594,0.34403085708618164,-1.3933159112930298,0.7764430046081543,0.6598891615867615,2.645108222961426,-1.0182799100875854,-0.028170932084321976,1741432474.979125,1741432475219,5.20454345703125,2.04105322265625,0.188090053663602,6.2416005859375,1.1575847167968751
1741432475.6884298,-0.47252434492111206,0.054830015881771284,-0.006373580238729727,-0.9984753611548686,0.1637573391199112,-0.4064705967903137,-1.4541093111038208,0.5750980973243713,4.393739223480225,2.9715263843536377,-0.9351873397827148,0.5895700454711914,0.22106507420539856,-1.394698143005371,0.005912871100008488,-0.4884794354438782,0.06618601083755493,1.363417148590088,0.004005493130534887,0.5128938555717468,0.21953918039798737,-0.7978560924530029,-0.1180666834115982,-0.11043716967105865,0.7837415337562561,-0.25287216901779175,0.0026667406782507896,-0.6528953909873962,0.024223696440458298,-0.02727550081908703,0.7974746227264404,-0.0849546492099762,-0.004811820108443499,-0.12576094269752502,-0.09627582877874374,0.08616922050714493,0.03409931808710098,-0.01012630108743906,-0.21175266802310944,0.4520695209503174,-0.004147533793002367,0.0017056368524208665,0.001550426590256393,0.15966637432575226,2.8907735347747803,0.2497318834066391,-0.1791689693927765,-8.544676780700684,2.1921448707580566,0.12093109637498856,-0.9923377633094788,1.2986161708831787,-0.753610372543335,2.8110766410827637,-1.0428203344345093,-0.06303012371063232,1741432474.979125,1741432475219,5.20454345703125,2.04105322265625,0.188090053663602,6.2416005859375,1.1575847167968751
1741432475.7168522,-0.509247899055481,0.04853298929218909,-0.0017814103268112237,-0.9988199915538394,-0.19118165969848633,-0.31153878569602966,-1.8547338247299194,-2.5760481357574463,-5.912783622741699,7.760822772979736,-0.9504461288452148,0.5884256362915039,0.22640573978424072,-1.390120506286621,0.005912871100008488,-0.49420157074928284,0.07419699430465698,1.363417148590088,0.004005493130534887,0.5140383243560791,0.22449836134910583,-0.7330052852630615,-0.07457847148180008,-0.12874799966812134,0.6177996397018433,-0.2251039445400238,0.004344599321484566,-0.6616693139076233,0.02880140393972397,-0.048638131469488144,0.8371480703353882,-0.11058030277490616,-0.012240925803780556,-0.4671584963798523,-0.037844400852918625,0.3190755844116211,0.3485260307788849,-0.006340403575450182,-0.25485000014305115,0.6000115871429443,-0.013506405055522919,0.0007334270630963147,0.035937778651714325,0.20973840355873108,2.981478691101074,2.316699266433716,-1.0895596742630005,-8.053515434265137,1.2769759893417358,-0.0021769783925265074,-0.3663548231124878,0.20674008131027222,-1.1974703073501587,1.6867468357086182,-1.4350262880325317,-0.4244801700115204,1741432474.979125,1741432475219,5.20454345703125,2.04105322265625,0.188090053663602,6.2416005859375,1.1575847167968751
1741432475.7285032,-0.5486832857131958,0.042247588489827494,0.014368754325757682,-0.9990038439194918,-0.7603748440742493,-0.3347880244255066,-1.9567629098892212,-21.51152801513672,4.162430286407471,24.088991165161133,-0.9626531600952148,0.5983448028564453,0.23441672325134277,-1.3817280530929565,0.005912871100008488,-0.4953460097312927,0.08335240930318832,1.363417148590088,0.004005493130534887,0.5132753252983093,0.21839475631713867,-0.7085908055305481,-0.04406042397022247,-0.1337071806192398,0.5922408103942871,-0.1668684482574463,-0.04343690350651741,-0.6506065726280212,0.030708782374858856,-0.08449683338403702,0.84897381067276,-0.1556861400604248,-0.02300267294049263,-0.36704471707344055,0.32756927609443665,0.3753727972507477,0.6113610863685608,0.012228604406118393,0.02351461350917816,0.5605605244636536,0.07132349908351898,0.0005514277727343142,-0.03634221851825714,-0.3873392343521118,1.0886322259902954,0.8739895820617676,0.11351297050714493,0.4322686493396759,3.112516403198242,-2.32807993888855,0.6808592677116394,-0.15885786712169647,-1.798471212387085,0.2235729843378067,-2.5661091804504395,-0.5281691551208496,1741432474.979125,1741432475219,5.20454345703125,2.04105322265625,0.188090053663602,6.2416005859375,1.1575847167968751
1741432475.748507,-0.5798254609107971,0.04647141557560151,0.028613776930909926,-0.9985097191836181,-0.5845012068748474,0.07562640309333801,-1.482775330543518,2.615316152572632,-0.46079984307289124,2.865661859512329,-0.9706649780273438,0.5884256362915039,0.23441672325134277,-1.3695207834243774,0.005912871100008488,-0.49496451020240784,0.09708552807569504,1.36990225315094,0.004005493130534887,0.5155642032623291,0.2153429538011551,-0.7230868935585022,-0.012397955171763897,-0.1489662081003189,0.6303883194923401,-0.10574585944414139,-0.056185297667980194,-0.6242847442626953,0.046730753034353256,-0.1367589831352234,0.8314259648323059,-0.21302573382854462,-0.019305214285850525,-0.28347471356391907,-0.22116893529891968,-0.12332582473754883,0.7929632067680359,-0.01409637276083231,0.007678336463868618,1.0452934503555298,0.3443121016025543,0.004371298477053642,0.09975322335958481,-0.24173517525196075,-0.7087398171424866,1.8927981853485107,-0.904408872127533,1.401090145111084,2.8684704303741455,-0.265511691570282,1.2783955335617065,1.0211176872253418,-2.7105627059936523,-0.9645868539810181,-2.8944671154022217,0.4329017400741577,1741432474.979125,1741432475219,5.20454345703125,2.04105322265625,0.188090053663602,6.2416005859375,1.1575847167968751
1741432475.7684994,-0.6031851768493652,0.043547842888075915,0.04536671600100449,-0.9980207645430429,-0.8956671357154846,-0.11181113868951797,-1.1512216329574585,-1.2266944646835327,-5.331021785736084,9.974994659423828,-0.9588384628295898,0.5846109390258789,0.22678720951080322,-1.3584580421447754,0.005912871100008488,-0.4964904189109802,0.12188144028186798,1.3687578439712524,0.004005493130534887,0.5132753252983093,0.18787670135498047,-0.7047760486602783,0.02040894143283367,-0.15659570693969727,0.6372548937797546,-0.05107336863875389,-0.03113527223467827,-0.6094071865081787,0.06046387553215027,-0.1844434291124344,0.8310444951057434,-0.2746766209602356,0.0002692394482437521,0.23355117440223694,-0.06570054590702057,-0.47892993688583374,0.7293000817298889,-0.0074293045327067375,-0.11107680201530457,1.7231003046035767,-0.15655440092086792,-0.005417435895651579,-0.18759214878082275,-1.5435305833816528,1.225268840789795,1.5653046369552612,-0.11313730478286743,0.25618061423301697,2.830310583114624,1.0299252271652222,0.7701959013938904,0.4398875832557678,-2.2056026458740234,0.6298560500144958,-3.151319980621338,0.8579246401786804,1741432474.979125,1741432475219,5.20454345703125,2.04105322265625,0.188090053663602,6.2416005859375,1.1575847167968751
1741432475.7885559,-0.6251984238624573,0.0377078716290075,0.06484486767576732,-0.9971826610773586,-0.7950681447982788,-0.2230221927165985,-1.0500365495681763,-14.538409233093262,4.5853729248046875,24.718555450439453,-0.9584569931030273,0.5823221206665039,0.20237277448177338,-1.3401471376419067,0.005912871100008488,-0.5025940537452698,0.14629587531089783,1.3710466623306274,0.004005493130534887,0.5117494463920593,0.17147326469421387,-0.7112611532211304,0.03681239113211632,-0.15506981313228607,0.655947208404541,-0.0009955058339983225,-0.04123478755354881,-0.6147478222846985,0.043678950518369675,-0.22220951318740845,0.8955138325691223,-0.34063634276390076,0.007945123128592968,0.06203785911202431,0.028205158188939095,-1.3605364561080933,1.4307901859283447,-0.010670297779142857,-0.3661774694919586,1.4999840259552002,0.2937287986278534,0.02140830270946026,0.00129229377489537,-0.38401317596435547,-0.8230279684066772,0.8428762555122375,-0.07891848683357239,1.328179121017456,2.126498222351074,-0.8842073678970337,-0.5303122997283936,-1.1102874279022217,-1.9009732007980347,3.4994726181030273,-3.28958797454834,0.2602296471595764,1741432474.979125,1741432475219,5.20454345703125,2.04105322265625,0.188090053663602,6.2416005859375,1.1575847167968751
1741432475.8085918,-0.63944011926651,0.04370438686525133,0.06311555549521382,-0.9970488218854998,0.19903114438056946,0.34205472469329834,-0.638308048248291,1.0458250045776367,-2.1441380977630615,10.830109596252441,-0.9546422958374023,0.5464639663696289,0.1646067053079605,-1.3264141082763672,0.005912871100008488,-0.5106050372123718,0.1646067053079605,1.3737170696258545,0.0036240178160369396,0.5151827335357666,0.16956588625907898,-0.7211795449256897,0.034142062067985535,-0.16002899408340454,0.6883726119995117,0.007720617577433586,-0.05543080344796181,-0.6601434350013733,0.026131074875593185,-0.2588311731815338,0.9874494671821594,-0.402066171169281,0.017817113548517227,0.019108794629573822,-0.8231736421585083,-1.8580137491226196,0.7543496489524841,-0.005559531040489674,-0.4406726062297821,1.1989458799362183,0.09300113469362259,-0.001966143259778619,0.20396468043327332,-0.3172834515571594,-0.2653789818286896,-0.4179571866989136,-0.13711772859096527,1.1736966371536255,0.2921949028968811,-0.3075867295265198,-2.2994766235351562,-0.5924670696258545,-1.547690987586975,4.8291497230529785,-2.8892903327941895,0.29266685247421265,1741432474.979125,1741432475219,5.20454345703125,2.04105322265625,0.188090053663602,6.2416005859375,1.1575847167968751
1741432475.82873,-0.6482906937599182,0.0457107271162805,0.05373294485463831,-0.9975085463612577,0.482605904340744,0.10038182884454727,-0.44085025787353516,-0.8760058879852295,-2.106334924697876,7.207677364349365,-0.9515905380249023,0.5266265869140625,0.1340886503458023,-1.3252695798873901,0.005912871100008488,-0.5220493078231812,0.17872129380702972,1.372191071510315,0.004005493130534887,0.5159456729888916,0.15812161564826965,-0.7082093358039856,0.04406042397022247,-0.15926603972911835,0.6731135845184326,0.004490040708333254,-0.037270188331604004,-0.700579822063446,0.009727626107633114,-0.2573052644729614,1.0839627981185913,-0.4487606883049011,0.007100918795913458,0.03968734294176102,-0.5828395485877991,-1.397231101989746,-0.118234783411026,-0.003779900958761573,-0.5790888071060181,0.8908581733703613,-0.13186641037464142,0.0076744346879422665,0.011928731575608253,-0.45621782541275024,0.8530899882316589,0.7832937836647034,0.20095942914485931,-0.9385324716567993,-0.25425025820732117,1.0387799739837646,-1.8589508533477783,-0.9389309287071228,0.25855904817581177,4.678224086761475,-2.2347159385681152,-0.7412925958633423,1741432474.979125,1741432475219,5.20454345703125,2.04105322265625,0.188090053663602,6.2416005859375,1.1575847167968751
1741432475.848624,-0.662058413028717,0.04343970328285935,0.04743902506920576,-0.9979291212702336,0.30612480640411377,-0.08679337799549103,-0.7302005887031555,-0.12923383712768555,-5.455788612365723,6.980045795440674,-0.9557867050170898,0.514801025390625,0.12149996310472488,-1.3287029266357422,0.005912871100008488,-0.5334935784339905,0.18787670135498047,1.36990225315094,0.004005493130534887,0.5136567950248718,0.16269932687282562,-0.6822690367698669,0.05703059583902359,-0.15468832850456238,0.6483176946640015,-0.00896556954830885,-0.03138071671128273,-0.7223239541053772,-0.010109102353453636,-0.24967575073242188,1.1488136053085327,-0.4724712371826172,-0.0007752969395369291,-0.09284424781799316,-0.4330354928970337,-0.547751784324646,-0.2071133404970169,-0.0005519979749806225,-0.6285150647163391,0.5465997457504272,-0.12037336826324463,0.00572422007098794,-0.2239706665277481,0.3236636519432068,1.2157834768295288,0.404685378074646,0.12585175037384033,-1.1889724731445312,-0.7393065690994263,0.05231970548629761,-0.8690899610519409,-0.9988405704498291,0.28752267360687256,2.8610947132110596,-0.970817506313324,-0.054111264646053314,1741432474.979125,1741432475219,5.20454345703125,2.04105322265625,0.188090053663602,6.2416005859375,1.1575847167968751
1741432475.8686998,-0.6840300559997559,0.039337034577564364,0.04704333080427214,-0.998117990388653,0.05394793301820755,-0.17834970355033875,-1.1749486923217773,1.8566877841949463,-2.7895030975341797,6.611023902893066,-0.9573125839233398,0.5243377685546875,0.11959258466959,-1.3271770477294922,0.005912871100008488,-0.54417484998703,0.19130998849868774,1.37295401096344,0.004005493130534887,0.5117494463920593,0.17566949129104614,-0.6616693139076233,0.06275273114442825,-0.15888457000255585,0.6296253800392151,-0.0277481060475111,-0.03968599811196327,-0.7219424843788147,-0.022697795182466507,-0.25501641631126404,1.1667429208755493,-0.4737098515033722,0.01288682036101818,-0.061110805720090866,0.222933828830719,-0.004113749600946903,0.1473715603351593,0.0030295748729258776,-0.4891802668571472,0.23571458458900452,0.2424190193414688,0.0013843141496181488,-0.05845176428556442,0.687993586063385,0.9586188197135925,0.340387761592865,-0.2768627107143402,-0.9318310618400574,-0.9272805452346802,-0.3211227357387543,0.08962307125329971,-0.5552431344985962,-0.24478890001773834,0.4669097065925598,0.0785442441701889,0.5711179375648499,1741432474.979125,1741432475219,5.20454345703125,2.04105322265625,0.188090053663602,6.2416005859375,1.1575847167968751
1741432475.8886762,-0.7048593759536743,0.03193270618088442,0.04922991311561232,-0.9982768743843535,-0.09832101315259933,-0.3387649357318878,-0.9806995987892151,-4.565223693847656,-3.261072874069214,10.85181713104248,-0.9596014022827148,0.5228118896484375,0.12378881871700287,-1.3256510496139526,0.005912871100008488,-0.5460822582244873,0.19359883666038513,1.377150297164917,0.004005493130534887,0.5144197940826416,0.18863965570926666,-0.6422140598297119,0.07305257022380829,-0.15926603972911835,0.6166552305221558,-0.044068995863199234,-0.04002365097403526,-0.7101167440414429,-0.02689402550458908,-0.25539788603782654,1.1327916383743286,-0.4580487310886383,0.006966916844248772,-0.07637595385313034,-0.0106698302552104,0.1909240186214447,0.05577880144119263,-0.0032278101425617933,-0.05187234282493591,0.13968001306056976,0.24914395809173584,0.0017839974025264382,0.15027211606502533,0.5092089176177979,0.9826810359954834,0.5317331552505493,0.052560485899448395,-0.5833430886268616,-0.790993332862854,0.01933090202510357,0.7971557974815369,-0.14107826352119446,0.057903118431568146,-2.0251998901367188,0.9643349647521973,-0.43721818923950195,1741432474.979125,1741432475219,5.20454345703125,2.04105322265625,0.188090053663602,6.2416005859375,1.1575847167968751
1741432475.908763,-0.7183367609977722,0.024780107830747154,0.0539583921495334,-0.9982356626431124,-0.21802745759487152,-0.3173237442970276,-0.5942836999893188,-1.4633800983428955,-3.2712912559509277,8.656790733337402,-0.9672307968139648,0.517852783203125,0.12607766687870026,-1.3256510496139526,0.005912871100008488,-0.54112309217453,0.19398032128810883,1.377913236618042,0.004005493130534887,0.5136567950248718,0.18558785319328308,-0.6349660754203796,0.0883115902543068,-0.15659570693969727,0.6155108213424683,-0.059454482048749924,-0.04223144054412842,-0.6746395230293274,-0.02727550081908703,-0.2508201599121094,1.057259440422058,-0.42530542612075806,0.003861071076244116,-0.23422223329544067,-0.12526504695415497,0.10315322875976562,0.0004248684854246676,-1.0807528269651812e-05,0.301826536655426,0.006706875748932362,0.02416028268635273,0.007906069047749043,-0.06507882475852966,-0.1929025501012802,0.30090177059173584,0.8116015791893005,0.1541040688753128,0.0623006671667099,-0.8050680756568909,-0.1300598829984665,1.8903440237045288,-0.03019902855157852,0.2322380244731903,-4.05601692199707,1.696508526802063,-0.05477283522486687,1741432474.979125,1741432475219,5.20454345703125,2.04105322265625,0.188090053663602,6.2416005859375,1.1575847167968751
1741432475.928735,-0.723702996969223,0.019186090588612377,0.05840160474700908,-0.9981087848981691,-0.20083189010620117,-0.24843327701091766,-0.26254138350486755,-0.56719571352005,-2.0240414142608643,6.481202602386475,-0.9691390991210938,0.510223388671875,0.12684062123298645,-1.3264141082763672,0.005912871100008488,-0.5327305793762207,0.19398032128810883,1.378676176071167,0.004005493130534887,0.5117494463920593,0.182917520403862,-0.6326771974563599,0.10204470902681351,-0.15354390442371368,0.6269550919532776,-0.08335720747709274,-0.04573926702141762,-0.6288624405860901,-0.026512550190091133,-0.2500572204589844,0.9485389590263367,-0.38138383626937866,0.005866236984729767,-0.08194606751203537,-0.2215619534254074,0.03535136207938194,-0.056042466312646866,-0.0001981891255127266,0.39281100034713745,0.027714109048247337,0.04061771184206009,0.00745480228215456,-0.16770844161510468,-0.031432073563337326,0.09525590389966965,0.7235608100891113,0.1431947648525238,0.6441179513931274,-1.3120689392089844,-0.0121392160654068,2.4186222553253174,0.025027785450220108,-0.008553028106689453,-5.63955020904541,2.218158483505249,0.13318516314029694,1741432474.979125,1741432475219,5.20454345703125,2.04105322265625,0.188090053663602,6.2416005859375,1.1575847167968751
1741432475.9487438,-0.7298958897590637,0.014493124700616231,0.061590929270824366,-0.997996245868675,-0.14589153230190277,-0.20287451148033142,-0.3457828164100647,0.890083909034729,-0.9751862287521362,5.682802677154541,-0.9679937362670898,0.5045013427734375,0.13218127191066742,-1.3279399871826172,0.005912871100008488,-0.5228122472763062,0.19474326074123383,1.378676176071167,0.004005493130534887,0.5098420977592468,0.18863965570926666,-0.6361104846000671,0.10967422276735306,-0.15316243469715118,0.6475547552108765,-0.11935781687498093,-0.05278456211090088,-0.5773632526397705,-0.021171892061829567,-0.25387197732925415,0.8257037997245789,-0.33115294575691223,0.0029050526209175587,0.007192791905254126,-0.1648188978433609,0.3311315178871155,-0.11968732625246048,-0.009449442848563194,0.47641798853874207,0.029941078275442123,-0.02920263074338436,0.004285906441509724,-0.10928065329790115,0.3360399901866913,-0.2608133852481842,0.261333703994751,-0.007060964126139879,1.0842190980911255,-1.8772425651550293,-0.5047787427902222,2.5333878993988037,0.3551616966724396,-0.2348768711090088,-6.125516414642334,2.539405107498169,-0.38972973823547363,1741432474.979125,1741432475219,5.20454345703125,2.04105322265625,0.188090053663602,6.2416005859375,1.1575847167968751
1741432475.9688249,-0.7413745820522308,0.01238395282612682,0.06140929480180578,-0.9980358391482468,0.06792136281728745,-0.01812053844332695,-0.6222237944602966,-3.8816137313842773,1.9078937768936157,9.110337257385254,-0.9641790390014648,0.4930572509765625,0.14362554252147675,-1.3306102752685547,0.005912871100008488,-0.5140383243560791,0.19436179101467133,1.3775317668914795,0.004005493130534887,0.508316159248352,0.20466163754463196,-0.650225043296814,0.11234454810619354,-0.1512550562620163,0.6815060377120972,-0.156887486577034,-0.07673686742782593,-0.5388342142105103,-0.018120087683200836,-0.2626459002494812,0.7059205174446106,-0.27889055013656616,-0.0026115828659385443,0.11814413219690323,-0.33785441517829895,0.6213404536247253,-0.212554931640625,-0.0014511484187096357,0.4466105103492737,0.009867669083178043,-0.10511855781078339,0.004699314013123512,-0.09267178177833557,0.8248605132102966,-0.8160675168037415,0.14636610448360443,0.14783626794815063,1.8127676248550415,-1.849987268447876,-1.425868272781372,1.7573665380477905,-0.021994376555085182,-0.3347506523132324,-5.8223557472229,2.6873087882995605,-0.25920188426971436,1741432474.979125,1741432475219,5.20454345703125,2.04105322265625,0.188090053663602,6.2416005859375,1.1575847167968751
1741432475.9975095,-0.7650131285190582,0.01071398602598534,0.06064170334961747,-0.9981020961396143,-0.026986490935087204,-0.02261335775256157,-1.2310829162597656,-1.4395204782485962,0.3994435667991638,13.369466781616211,-0.9653234481811523,0.48809814453125,0.16002899408340454,-1.3336620330810547,0.005912871100008488,-0.5094605684280396,0.19169145822525024,1.3744800090789795,0.004005493130534887,0.5037384629249573,0.21686884760856628,-0.6723506450653076,0.11577782779932022,-0.1512550562620163,0.7249943017959595,-0.18829703330993652,-0.09699400514364243,-0.5212863087654114,0.004386968910694122,-0.28362706303596497,0.6719691753387451,-0.22816751897335052,-0.03341547027230263,-0.025166194885969162,-0.14429038763046265,0.8615584969520569,-0.18575641512870789,0.0037588176783174276,0.16481153666973114,-0.25751760601997375,-0.1690446436405182,0.013104521669447422,-0.3821091651916504,0.5307987332344055,-0.9925821423530579,0.23741093277931213,-0.10376531630754471,2.0332937240600586,-1.5807856321334839,-0.7942387461662292,0.6777475476264954,1.815589189529419,-0.9409493803977966,-1.1089506149291992,2.309293508529663,-1.7712355852127075,1741432474.979125,1741432475219,5.20454345703125,2.04105322265625,0.188090053663602,6.2416005859375,1.1575847167968751
1741432476.0088596,-0.7915439009666443,0.008443463847988242,0.06825834879860397,-0.9976319490360841,-0.3449937105178833,-0.07594013214111328,-1.289365291595459,0.5239658951759338,2.1003036499023438,9.661408424377441,-0.9729537963867188,0.5045013427734375,0.1806286722421646,-1.3405286073684692,0.006294346414506435,-0.5022125840187073,0.17910276353359222,1.379439115524292,0.004005493130534887,0.5006866455078125,0.2317463904619217,-0.6879911422729492,0.11463340371847153,-0.17071031033992767,0.7516975402832031,-0.22378940880298615,-0.06804336607456207,-0.5262455344200134,0.02384222112596035,-0.2752346098423004,0.6570916175842285,-0.2056761234998703,-0.045284781605005264,-0.25088438391685486,0.4989699423313141,1.0205655097961426,-0.6031923890113831,0.01918458566069603,0.40789252519607544,-0.8545897006988525,0.3258454501628876,0.01916397362947464,-0.15982212126255035,0.7942922115325928,-0.7859680652618408,-0.20134571194648743,-1.1895251274108887,1.2595053911209106,-1.8603849411010742,2.039106607437134,-0.24509477615356445,0.5576396584510803,0.6701967120170593,-1.0194146633148193,0.8681332468986511,-0.20868325233459473,1741432474.979125,1741432475219,5.20454345703125,2.04105322265625,0.188090053663602,6.2416005859375,1.1575847167968751
1741432476.0288258,-0.8157476484775543,0.006623843209765335,0.07403481329322953,-0.9972336592402851,-0.27238184213638306,0.07792996615171432,-1.1680859327316284,-2.9086644649505615,5.778927326202393,12.85328483581543,-0.9740982055664062,0.50640869140625,0.1966506391763687,-1.3527358770370483,0.005912871100008488,-0.4968718886375427,0.16880293190479279,1.377150297164917,0.0036240178160369396,0.501068115234375,0.23556114733219147,-0.7143129706382751,0.09021896868944168,-0.20809490978717804,0.7822155952453613,-0.25941213965415955,-0.020112324506044388,-0.5033569931983948,0.02040894143283367,-0.25654229521751404,0.6372548937797546,-0.20159804821014404,-0.03550497815012932,-0.057552922517061234,0.06508174538612366,0.7280534505844116,-0.7774665951728821,-0.003953508101403713,0.17443819344043732,-0.6465078592300415,-0.20036324858665466,-0.03492217883467674,0.05140822008252144,0.042254820466041565,-1.5619640350341797,-1.365136742591858,-1.8897117376327515,1.777530312538147,-1.8048460483551025,2.389132499694824,1.563853144645691,0.10543195903301239,0.8084793090820312,-0.8296873569488525,0.171222522854805,0.32042601704597473,1741432474.979125,1741432475219,5.20454345703125,2.04105322265625,0.188090053663602,6.2416005859375,1.1575847167968751
1741432476.048879,-0.8291296064853668,0.011339862855198087,0.07344882289020611,-0.9972345150096182,0.07932347804307938,0.2732449173927307,-0.5318092703819275,-1.1202924251556396,4.457996368408203,9.49047565460205,-0.9805831909179688,0.498016357421875,0.20313572883605957,-1.367613434791565,0.006294346414506435,-0.49305713176727295,0.16308079659938812,1.3737170696258545,0.0036240178160369396,0.5006866455078125,0.24013885855674744,-0.7452124953269958,0.05664911866188049,-0.24013885855674744,0.8539330363273621,-0.2999797463417053,0.010969990864396095,-0.4991607666015625,0.027656977996230125,-0.25577935576438904,0.6101701259613037,-0.1989646553993225,-0.03796606510877609,-0.20797328650951385,-0.26712241768836975,0.12678158283233643,-1.0575441122055054,0.004516358952969313,0.22591377794742584,-0.2550952732563019,-0.28643813729286194,0.00011825907859019935,-0.03156300261616707,0.31010884046554565,-1.7636008262634277,-1.7174965143203735,-1.2745312452316284,3.7698094844818115,-1.9487817287445068,1.388773798942566,-0.16580945253372192,0.25127989053726196,0.08197487145662308,-1.4464598894119263,0.18440677225589752,-0.043871670961380005,1741432474.979125,1741432475219,5.20454345703125,2.04105322265625,0.188090053663602,6.2416005859375,1.1575847167968751
1741432476.0689034,-0.8340243399143219,0.016731202349375675,0.06939164010526644,-0.997449180234986,0.18130621314048767,0.3707507848739624,-0.10797605663537979,1.3977667093276978,-4.020401477813721,6.6346564292907715,-0.9802017211914062,0.4961090087890625,0.1962691694498062,-1.3805835247039795,0.005912871100008488,-0.49114975333213806,0.16346226632595062,1.3679949045181274,0.0036240178160369396,0.50030517578125,0.22793163359165192,-0.8031967878341675,0.02040894143283367,-0.24242770671844482,0.9531166553497314,-0.32629847526550293,-0.00469426391646266,-0.49420157074928284,0.03452353551983833,-0.25310903787612915,0.5975814461708069,-0.18804307281970978,-0.03346269577741623,-0.03776000067591667,-0.07501157373189926,-0.36374691128730774,-0.8136295080184937,-0.001205179374665022,0.06982588768005371,0.03421029448509216,-0.38277170062065125,0.0024190628901124,0.034624356776475906,-0.7784214615821838,-2.978288173675537,-1.6684705018997192,0.1932380646467209,5.220142841339111,-1.0918842554092407,-1.135380744934082,0.2992323637008667,0.1532280445098877,0.1734761893749237,-0.43643924593925476,0.5876540541648865,0.1271921694278717,1741432474.979125,1741432475219,5.20454345703125,2.04105322265625,0.188090053663602,6.2416005859375,1.1575847167968751
1741432476.0889285,-0.8252691030502319,0.021651596937079052,0.06804519207268962,-0.9974472718825117,0.05980774387717247,0.17258673906326294,0.3903944790363312,0.6226855516433716,0.5176587700843811,7.033778667449951,-0.9832534790039062,0.505645751953125,0.1848248988389969,-1.387450098991394,0.005912871100008488,-0.49229419231414795,0.16880293190479279,1.361128330230713,0.0036240178160369396,0.50030517578125,0.21839475631713867,-0.8653773069381714,-0.008964675478637218,-0.21686884760856628,1.0751888751983643,-0.32979169487953186,-0.013848003931343555,-0.509079098701477,0.03452353551983833,-0.24319066107273102,0.5941481590270996,-0.17502336204051971,-0.03608889877796173,-0.08554849773645401,0.25047022104263306,-0.657769501209259,-0.35019493103027344,-0.015766555443406105,-0.05303655564785004,0.4224144518375397,-0.46759524941444397,0.007845310494303703,-0.07012509554624557,-0.24146310985088348,-3.1587412357330322,-1.4675872325897217,1.3188802003860474,6.030422210693359,-0.05566036328673363,-0.0001205597072839737,-0.8248217701911926,0.03783493489027023,0.560398280620575,-0.11103774607181549,0.596121609210968,-0.07595768570899963,1741432474.979125,1741432475219,5.20454345703125,2.04105322265625,0.188090053663602,6.2416005859375,1.1575847167968751
1741432476.1089406,-0.8222038745880127,0.025127753525877677,0.0652306896602457,-0.9975537845796543,0.15893299877643585,0.20135372877120972,-0.00981239601969719,-1.6067241430282593,-2.216525077819824,8.8961820602417,-0.9782943725585938,0.505645751953125,0.17719538509845734,-1.3912649154663086,0.005912871100008488,-0.49267566204071045,0.17605096101760864,1.3561691045761108,0.004005493130534887,0.50030517578125,0.22144655883312225,-0.9267948269844055,-0.03147173300385475,-0.19398032128810883,1.179331660270691,-0.319783478975296,0.0018658548360690475,-0.5193789601325989,0.03490501269698143,-0.2298390120267868,0.6040665507316589,-0.16758550703525543,-0.032442357391119,0.14668011665344238,-0.008773289620876312,-0.2971513569355011,-0.2877487242221832,-0.019555574283003807,-0.003013984300196171,0.45377305150032043,-0.2995987832546234,0.004257904831320047,-0.002492852509021759,0.05320331081748009,-2.920992612838745,-1.1447609663009644,1.0770527124404907,4.8152666091918945,0.5982275009155273,0.7488433718681335,-0.4102073013782501,0.00040578513289801776,0.5624654293060303,0.5831338763237,0.3184080123901367,0.12135837227106094,1741432474.979125,1741432475219,5.20454345703125,2.04105322265625,0.188090053663602,6.2416005859375,1.1575847167968751
1741432476.129019,-0.8319633603096008,0.025410718147795587,0.06228318736735509,-0.9977349848404516,0.12193090468645096,-0.034473031759262085,-0.6600292325019836,-6.663664817810059,-0.42127639055252075,10.487221717834473,-0.9672307968139648,0.508697509765625,0.17719538509845734,-1.390883445739746,0.005912871100008488,-0.49267566204071045,0.17490653693675995,1.3515914678573608,0.004005493130534887,0.4987792670726776,0.23632410168647766,-0.9515907764434814,-0.06733043491840363,-0.17452506721019745,1.2319753170013428,-0.3029629588127136,-0.0022802180610597134,-0.5376898050308228,0.03337911143898964,-0.22297245264053345,0.614366352558136,-0.16671523451805115,-0.03274339810013771,0.3583318591117859,0.12592639029026031,0.00461256830021739,0.01824958063662052,-0.01508762501180172,-0.01695902831852436,-0.15428423881530762,-0.302479088306427,0.004332390613853931,-0.08228740841150284,0.9128279685974121,-0.7519322633743286,-1.723633050918579,0.9060477018356323,2.1704816818237305,0.8144663572311401,-0.23934172093868256,-1.017921805381775,-0.12964308261871338,0.43982791900634766,0.4987671375274658,0.005027237813919783,0.0020114665385335684,1741432474.979125,1741432475219,5.20454345703125,2.04105322265625,0.188090053663602,6.2416005859375,1.1575847167968751
1741432476.14928,-0.8598870038986206,0.021860052084618515,0.06039676424423952,-0.9979350524917358,0.16839240491390228,-0.13950209319591522,-1.4548715353012085,0.07816073298454285,1.2813323736190796,8.84555721282959,-0.9649419784545898,0.5083160400390625,0.1806286722421646,-1.3885945081710815,0.005912871100008488,-0.49191272258758545,0.1657511293888092,1.3500655889511108,0.004005493130534887,0.5014495849609375,0.25616082549095154,-0.9439612627029419,-0.09060044586658478,-0.17299915850162506,1.2205309867858887,-0.290287047624588,-0.004606673028320074,-0.5502784848213196,0.03337911143898964,-0.2141985148191452,0.6280995011329651,-0.16866569221019745,-0.034029580652713776,0.09389319270849228,0.04749970883131027,0.22710490226745605,0.1812368482351303,-0.005836975760757923,0.05854758247733116,-0.6591915488243103,-0.09677992016077042,0.007232068106532097,0.1775227040052414,0.8547252416610718,0.47812336683273315,-1.0222647190093994,0.061551835387945175,-1.1057403087615967,0.6037499308586121,0.005002724938094616,-0.41703447699546814,-0.010365565307438374,0.3325188457965851,0.7508677840232849,-0.12521840631961823,-0.04402634873986244,1741432474.979125,1741432475219,5.20454345703125,2.04105322265625,0.188090053663602,6.2416005859375,1.1575847167968751
1741432476.1690164,-0.8934008777141571,0.01717481693282374,0.05577592171440472,-0.9982955835924712,0.27352556586265564,-0.12011323124170303,-1.6582082509994507,-0.3832847476005554,-0.14174984395503998,7.327367782592773,-0.9637975692749023,0.5045013427734375,0.18978407979011536,-1.388213038444519,0.005912871100008488,-0.49038681387901306,0.15735866129398346,1.3504470586776733,0.0036240178160369396,0.5029755234718323,0.2618829607963562,-0.9012359976768494,-0.10013733059167862,-0.1810101419687271,1.1511024236679077,-0.28844475746154785,0.0038472351152449846,-0.5533303022384644,0.03337911143898964,-0.20122835040092468,0.6460288166999817,-0.17788560688495636,-0.029159633442759514,0.01747959293425083,-0.09183797240257263,0.5125575065612793,0.003864922095090151,-0.011116445064544678,0.05323118716478348,-0.48453375697135925,0.03665052354335785,0.006203977391123772,0.052519865334033966,0.17811737954616547,2.4635326862335205,-0.3412538766860962,-0.5484315156936646,-3.889716386795044,-0.05024903640151024,0.44024142622947693,-0.2829630672931671,0.04063935950398445,0.797639012336731,0.9110128879547119,-0.5517762899398804,0.301524817943573,1741432474.979125,1741432475219,5.20454345703125,2.04105322265625,0.188090053663602,6.2416005859375,1.1575847167968751
1741432476.1891387,-0.9243977069854736,0.011833081459047365,0.049222504119827364,-0.9987177395397346,0.35463839769363403,-0.21041491627693176,-1.5172019004821777,1.1452990770339966,1.2854218482971191,4.810649394989014,-0.9637975692749023,0.5018310546875,0.2004653960466385,-1.386687159538269,0.005912871100008488,-0.49038681387901306,0.15506981313228607,1.3508285284042358,0.0036240178160369396,0.501068115234375,0.2454795092344284,-0.8344777822494507,-0.09861142933368683,-0.19398032128810883,1.032463550567627,-0.3002704679965973,0.004464488942176104,-0.5731670260429382,0.04444190114736557,-0.19474326074123383,0.6708247661590576,-0.1945195347070694,-0.02904392220079899,-0.005117939785122871,-0.06543728709220886,0.5464207530021667,0.10748893767595291,-0.0045087700709700584,-0.007370167411863804,-0.05205794796347618,-0.006797479465603828,0.004687430337071419,-0.13382704555988312,-1.06968092918396,3.324263572692871,0.12060973048210144,-0.6067503690719604,-6.292123794555664,-0.6733794808387756,-0.09213293343782425,-1.1434283256530762,0.5429283380508423,0.17873789370059967,1.3429358005523682,-0.9157562255859375,-0.12536856532096863,1741432474.979125,1741432475219,5.20454345703125,2.04105322265625,0.188090053663602,6.2416005859375,1.1575847167968751
1741432476.209156,-0.9445533156394958,0.004611880467797683,0.043394372039586744,-0.999047375770459,0.2580326497554779,-0.3296744227409363,-0.8756982684135437,-3.61167573928833,-4.899705410003662,5.080873966217041,-0.9653234481811523,0.50335693359375,0.20695048570632935,-1.385924220085144,0.005912871100008488,-0.49076828360557556,0.15850308537483215,1.3508285284042358,0.0036240178160369396,0.5006866455078125,0.22602425515651703,-0.7658121585845947,-0.0883115902543068,-0.20275425910949707,0.8863584399223328,-0.3263140320777893,0.003387304488569498,-0.5979629158973694,0.06084534898400307,-0.20160982012748718,0.7051575779914856,-0.21708372235298157,-0.03943232446908951,-0.051644809544086456,0.05490284785628319,0.25773754715919495,0.08945649862289429,-0.0010543118696659803,-0.02002860978245735,0.24614419043064117,-0.010046951472759247,-0.007274135947227478,0.012845695950090885,-0.9531351923942566,3.4562785625457764,0.5045109987258911,-0.3434724509716034,-7.4563422203063965,-1.4101004600524902,0.047059960663318634,-1.1415411233901978,0.8779484033584595,-0.32914185523986816,1.8488943576812744,-1.0946722030639648,-0.5007301568984985,1741432474.979125,1741432475219,5.20454345703125,2.04105322265625,0.188090053663602,6.2416005859375,1.1575847167968751
1741432476.2291572,-0.9588750600814819,-0.00046494231863276273,0.049454258095378706,-0.9987762813487693,-0.4196711778640747,-0.32685035467147827,-0.6602639555931091,-23.56226921081543,12.194321632385254,19.000394821166992,-0.9821090698242188,0.51708984375,0.20923933386802673,-1.382109522819519,0.005912871100008488,-0.49153125286102295,0.1646067053079605,1.3508285284042358,0.0036240178160369396,0.4983977973461151,0.20962081849575043,-0.7204165458679199,-0.0707637146115303,-0.2141985148191452,0.8226520419120789,-0.3133167624473572,-0.03368208929896355,-0.6162737607955933,0.05703059583902359,-0.20237277448177338,0.7387273907661438,-0.23954589664936066,-0.05534830689430237,-0.5108563303947449,0.5011099576950073,0.06981074064970016,0.34081825613975525,-0.006973502226173878,0.0032971848268061876,0.3614043593406677,0.03862917795777321,-0.007980160415172577,-0.23030348122119904,-0.7654097676277161,1.5551707744598389,0.7183717489242554,-0.4839797019958496,-1.0511646270751953,1.4254252910614014,-2.33018159866333,-0.8596577048301697,-0.6158141493797302,0.09674481302499771,1.5530803203582764,-1.0805665254592896,-1.0145496129989624,1741432474.979125,1741432475219,5.20454345703125,2.04105322265625,0.188090053663602,6.2416005859375,1.1575847167968751
1741432476.2491145,-0.9531668126583099,-0.00036198266689839865,0.04878230722992314,-0.9988093689337693,0.04564191401004791,-0.12307558953762054,0.20182979106903076,-5.295701503753662,-3.9089975357055664,10.517389297485352,-0.9691390991210938,0.499542236328125,0.20695048570632935,-1.372191071510315,0.005912871100008488,-0.4877164959907532,0.17147326469421387,1.3565505743026733,0.0036240178160369396,0.4983977973461151,0.21190966665744781,-0.7379644513130188,-0.03833829239010811,-0.22030213475227356,0.841725766658783,-0.2680380642414093,-0.0743630975484848,-0.6204699873924255,0.05855649709701538,-0.22182802855968475,0.7368200421333313,-0.2630399465560913,-0.05772889405488968,0.323847234249115,-0.4843980669975281,-0.1113632395863533,0.6747744679450989,-0.03574448078870773,0.045459385961294174,0.4757286012172699,0.2994597852230072,0.026026776060461998,0.0805744156241417,0.1459478884935379,-0.9554659128189087,1.9739105701446533,-0.35461002588272095,0.12386463582515717,2.0153138637542725,-1.2012646198272705,-0.01855279505252838,0.5493584871292114,-1.250698208808899,-0.29559677839279175,-1.213965892791748,0.3046925663948059,1741432474.979125,1741432475219,5.20454345703125,2.04105322265625,0.188090053663602,6.2416005859375,1.1575847167968751
1741432476.2736576,-0.9523819088935852,-0.006110692550896025,0.056086413218133575,-0.9984072183677726,-0.5667506456375122,-0.2694660425186157,-0.16209003329277039,-0.9954643249511719,0.14356450736522675,11.258978843688965,-0.9653234481811523,0.511749267578125,0.1958876997232437,-1.3630356788635254,0.005912871100008488,-0.4976348578929901,0.1813916265964508,1.3622727394104004,0.004386968910694122,0.5006866455078125,0.22220951318740845,-0.7162203192710876,-0.00019073777366429567,-0.20504310727119446,0.7974746227264404,-0.23414622247219086,-0.047939226031303406,-0.6189440488815308,0.06504157930612564,-0.25577935576438904,0.7394903302192688,-0.2839551866054535,-0.03039654716849327,0.16018645465373993,0.3310493230819702,-0.6237316131591797,0.599627673625946,0.00319487601518631,-0.5705225467681885,0.6695213317871094,0.6772409677505493,0.03307200223207474,0.04768071696162224,0.6398212313652039,1.6772124767303467,1.8834712505340576,0.9725257754325867,-2.2511558532714844,1.6001858711242676,1.742790937423706,-0.0056700436398386955,0.09716834872961044,-1.608101487159729,0.5409356951713562,-0.9952264428138733,1.3567339181900024,1741432474.979125,1741432475219,5.20454345703125,2.04105322265625,0.188090053663602,6.2416005859375,1.1575847167968751
1741432476.2891877,-0.9711995422840118,-0.011096270276216357,0.07258565291204079,-0.9973004541146514,-0.7496820092201233,-0.2901761829853058,-1.0211671590805054,1.6394535303115845,2.6077182292938232,12.421595573425293,-0.9668493270874023,0.50946044921875,0.18673227727413177,-1.3519729375839233,0.005912871100008488,-0.509079098701477,0.18863965570926666,1.387450098991394,0.00476844422519207,0.4961089491844177,0.25349050760269165,-0.7074463963508606,0.024223696440458298,-0.1985580176115036,0.7696269154548645,-0.20043423771858215,-0.029052767902612686,-0.6280995011329651,0.043678950518369675,-0.2779049277305603,0.7803082466125488,-0.31091365218162537,-0.01119022723287344,-0.056972671300172806,0.009720610454678535,-0.36367031931877136,0.859006404876709,0.007318568415939808,-0.5477582216262817,0.44871535897254944,1.6305655241012573,0.011995282024145126,-0.2661316394805908,1.6500576734542847,-0.26672521233558655,1.1072691679000854,-0.037359569221735,-1.2656950950622559,1.636122703552246,0.3631202280521393,-0.6250579357147217,-1.223069667816162,-1.061806321144104,2.331456184387207,-1.437044620513916,0.8734226822853088,1741432474.979125,1741432475219,5.20454345703125,2.04105322265625,0.188090053663602,6.2416005859375,1.1575847167968751
1741432476.3092067,-1.0064675956964493,-0.013778753408362173,0.08054244716426878,-0.9966559387066845,-0.4041508436203003,0.11915275454521179,-1.8883460760116577,3.660794496536255,2.17461895942688,7.665588855743408,-0.9485387802124023,0.4900054931640625,0.1848248988389969,-1.3409100770950317,0.005531395319849253,-0.5125123858451843,0.19245441257953644,1.3973685503005981,0.004386968910694122,0.4957274794578552,0.2962157726287842,-0.7021057605743408,0.04253452271223068,-0.19283588230609894,0.7551308274269104,-0.17843739688396454,-0.04082154855132103,-0.6593804955482483,0.026131074875593185,-0.308041512966156,0.8455405235290527,-0.3386177122592926,0.0026606139726936817,0.48037055134773254,-0.5783141851425171,-0.007742455694824457,0.6200448274612427,-0.05783925577998161,-0.1367385983467102,0.25481343269348145,0.44405803084373474,-0.030963830649852753,0.030939655378460884,2.0717995166778564,0.640462338924408,0.7730739116668701,0.5685067772865295,-0.7631638646125793,0.9307267665863037,-0.4454343318939209,-1.787654161453247,-0.7208709716796875,-1.6680623292922974,3.4559130668640137,-1.1947810649871826,0.5638190507888794,1741432474.979125,1741432475219,5.20454345703125,2.04105322265625,0.188090053663602,6.2416005859375,1.1575847167968751
1741432476.3292859,-1.0469819605350494,-0.018322509756433663,0.08108374676140274,-0.9965388660997413,0.030191974714398384,-0.09561507403850555,-1.9504859447479248,-3.865384101867676,-3.3669142723083496,14.748106956481934,-0.9367132186889648,0.4682607650756836,0.19207294285297394,-1.3382397890090942,0.005912871100008488,-0.5128938555717468,0.19016556441783905,1.396224021911621,0.004005493130534887,0.4987792670726776,0.31452658772468567,-0.7047760486602783,0.05207141116261482,-0.17376211285591125,0.728427529335022,-0.1716669350862503,-0.04232846572995186,-0.6960021257400513,0.002861066721379757,-0.33436331152915955,0.924124538898468,-0.346303254365921,0.006054562516510487,0.3946266174316406,-0.7177768349647522,0.4142383635044098,0.10195089131593704,0.006940879393368959,0.033889904618263245,-0.1815110296010971,-0.06591452658176422,0.010920400731265545,0.241005539894104,0.5886525511741638,-0.2510463297367096,0.4148046374320984,1.1123720407485962,-1.17677903175354,0.28107279539108276,-0.07616085559129715,-1.6886309385299683,-1.2040985822677612,-1.0219366550445557,3.8086326122283936,-0.21635568141937256,0.043517448008060455,1741432474.979125,1741432475219,5.20454345703125,2.04105322265625,0.188090053663602,6.2416005859375,1.1575847167968751
1741432476.3492727,-1.075924500823021,-0.018406452465269882,0.06997572597046862,-0.9973788649668437,0.6059319376945496,0.13437044620513916,-1.2762700319290161,-1.292232632637024,-1.9243347644805908,9.820425987243652,-0.9424352645874023,0.4430837631225586,0.200083926320076,-1.3405286073684692,0.005912871100008488,-0.5144197940826416,0.18902114033699036,1.394698143005371,0.004005493130534887,0.506790280342102,0.308041512966156,-0.7013428211212158,0.06771191209554672,-0.16041046380996704,0.7188906669616699,-0.17276963591575623,-0.04157739877700806,-0.7139315009117126,-0.026512550190091133,-0.3400854468345642,0.9908827543258667,-0.3392642140388489,0.0012322526890784502,-0.17028576135635376,-0.7684190273284912,0.36111199855804443,-0.145732581615448,0.0011533490614965558,-0.10408948361873627,-0.016333110630512238,-0.14717815816402435,-0.01238070148974657,0.5883369445800781,-0.4231146574020386,0.4344649910926819,0.9871428608894348,0.48079949617385864,-0.4980221390724182,-0.13004040718078613,0.1176445335149765,-0.7241668701171875,-1.4486738443374634,-0.21128180623054504,3.1937975883483887,0.43867722153663635,-0.18970957398414612,1741432474.979125,1741432475219,5.20454345703125,2.04105322265625,0.188090053663602,6.2416005859375,1.1575847167968751
1741432476.3692951,-1.093260072171688,-0.018875452058338637,0.05472287206152801,-0.998323156389218,0.7449111342430115,-0.08539625257253647,-0.7211194038391113,3.869666814804077,-4.984707355499268,9.127189636230469,-0.9374761581420898,0.4365987777709961,0.1985580176115036,-1.3416730165481567,0.006294346414506435,-0.5163271427154541,0.19321736693382263,1.385161280632019,0.004005493130534887,0.5159456729888916,0.28553444147109985,-0.6803616285324097,0.0875486359000206,-0.14400701224803925,0.7063019871711731,-0.1795426607131958,-0.04993611201643944,-0.7200350761413574,-0.04787518084049225,-0.33283740282058716,1.0275044441223145,-0.3297564387321472,0.00032810919219627976,0.10344962030649185,-0.1873556226491928,-0.1880485713481903,-0.11429601907730103,0.015565694309771061,-0.06336337327957153,0.32538720965385437,-0.657081127166748,0.008942833170294762,0.6293436884880066,-1.138301968574524,0.915322482585907,0.9141460061073303,0.9668257236480713,-0.7086586952209473,-0.3252331614494324,-0.6649661064147949,-0.180013969540596,-1.0288676023483276,0.3958282172679901,1.5649781227111816,0.37271633744239807,-0.08370273560285568,1741432474.979125,1741432475219,5.20454345703125,2.04105322265625,0.188090053663602,6.2416005859375,1.1575847167968751
1741432476.3893476,-1.096880167722702,-0.026362398882592772,0.04389023785938983,-0.9986884754245445,0.5014373064041138,-0.3354940116405487,-0.15991456806659698,0.7834658026695251,-2.923722743988037,5.726113796234131,-0.9298467636108398,0.4404134750366211,0.19054703414440155,-1.3428175449371338,0.005912871100008488,-0.5174715518951416,0.1985580176115036,1.3782947063446045,0.004005493130534887,0.5220493078231812,0.25616082549095154,-0.6521324515342712,0.10738536715507507,-0.13065537810325623,0.7001983523368835,-0.18617400527000427,-0.061867617070674896,-0.7097352743148804,-0.06885633617639542,-0.31719690561294556,1.0385671854019165,-0.3340177536010742,-0.0009839554550126195,0.19957590103149414,0.15326949954032898,-0.4181307852268219,-0.012379621155560017,-0.00910549983382225,-0.06784554570913315,0.36365628242492676,-0.34959056973457336,0.016528474166989326,0.39757347106933594,-1.3683536052703857,1.425324559211731,0.9976384043693542,0.4947591722011566,-0.2184329330921173,-0.3193742632865906,-0.420160710811615,0.7570820450782776,-0.9645928740501404,0.9630064964294434,0.4334859848022461,-0.3458370566368103,0.07512915879487991,1741432474.979125,1741432475219,5.20454345703125,2.04105322265625,0.188090053663602,6.2416005859375,1.1575847167968751
1741432476.409334,-1.0962450504302979,-0.035303028094316215,0.0350166390868504,-0.9987630005133517,0.4352509081363678,-0.4827228784561157,-0.026763319969177246,1.1081622838974,-0.9872110486030579,8.613980293273926,-0.9290838241577148,0.4434652328491211,0.17795833945274353,-1.3412915468215942,0.005912871100008488,-0.5228122472763062,0.20542457699775696,1.3775317668914795,0.004005493130534887,0.5292973518371582,0.2473868876695633,-0.6406881809234619,0.1188296303153038,-0.12417028844356537,0.6963835954666138,-0.1922813057899475,-0.06894334405660629,-0.6845578551292419,-0.07915617525577545,-0.29850462079048157,1.0400930643081665,-0.35183483362197876,-0.00047862040810287,0.06425201147794724,0.1198306605219841,-0.6629827618598938,0.0839158296585083,-0.009031910449266434,-0.31468185782432556,0.5052748918533325,-0.050713542848825455,0.003905373625457287,0.47796016931533813,-0.14854073524475098,0.3376058340072632,0.5472033023834229,0.3869498074054718,-0.16127632558345795,-0.2861379086971283,-0.3759317398071289,1.2645888328552246,-0.605739176273346,1.0254149436950684,-0.01819624938070774,-0.9526256322860718,-0.0678873062133789,1741432474.979125,1741432475219,5.20454345703125,2.04105322265625,0.188090053663602,6.2416005859375,1.1575847167968751
1741432476.4293847,-1.1024852246046066,-0.04381744904538027,0.030942460515934862,-0.9985602612243165,0.13173960149288177,-0.34218740463256836,-0.3719102144241333,0.650507390499115,-2.505903720855713,6.077376365661621,-0.9241247177124023,0.4385061264038086,0.1680399775505066,-1.3393841981887817,0.005912871100008488,-0.5334935784339905,0.2134355753660202,1.377150297164917,0.004005493130534887,0.533875048160553,0.266460657119751,-0.6368734240531921,0.12989242374897003,-0.12417028844356537,0.7036316394805908,-0.1984972208738327,-0.07845744490623474,-0.6563286781311035,-0.09861142933368683,-0.2725642919540405,1.0263599157333374,-0.3760705590248108,-0.0007156821084208786,0.1562899351119995,-0.12841032445430756,-0.4220779836177826,0.11545596271753311,-0.00953922513872385,-0.558268666267395,0.5330702662467957,0.0014902598923072219,0.0013219299726188183,0.21121561527252197,1.106758713722229,0.14904798567295074,0.5015074014663696,-0.02619563601911068,0.42390066385269165,-0.3722354769706726,-0.47332772612571716,1.4943289756774902,-0.9944406747817993,1.2995067834854126,-0.8637568950653076,-1.2044990062713623,-0.04075196385383606,1741432474.979125,1741432475219,5.20454345703125,2.04105322265625,0.188090053663602,6.2416005859375,1.1575847167968751
1741432476.4493787,-1.113538458943367,-0.051012434018416604,0.02981104373090743,-0.9982529906026781,0.031197892501950264,-0.3513234853744507,-0.6076904535293579,-1.3707181215286255,-0.038776226341724396,7.962868690490723,-0.9218358993530273,0.4308767318725586,0.1680399775505066,-1.3390027284622192,0.005912871100008488,-0.5415045619010925,0.21992065012454987,1.377150297164917,0.004005493130534887,0.533875048160553,0.2977416515350342,-0.6506065726280212,0.1348516047000885,-0.12722209095954895,0.7204165458679199,-0.20785130560398102,-0.08824706077575684,-0.6185625791549683,-0.11425192654132843,-0.25616082549095154,0.9775310754776001,-0.3999224603176117,0.00043066596845164895,0.09729539602994919,-0.20806124806404114,0.07156126201152802,0.015834005549550056,0.0018630779813975096,-0.3771281838417053,0.4138077199459076,-0.024684546515345573,-0.0024414986837655306,-0.0313958041369915,1.707363247871399,-0.8966689109802246,0.23517009615898132,-0.26725655794143677,0.9502241015434265,-0.45641371607780457,-0.48536911606788635,2.006690740585327,-0.6580751538276672,0.7569423317909241,-2.7353458404541016,-1.1762760877609253,0.057065874338150024,1741432474.979125,1741432475219,5.20454345703125,2.04105322265625,0.188090053663602,6.2416005859375,1.1575847167968751
1741432476.4694214,-1.1316471323370934,-0.05337502518859207,0.027842993473050675,-0.9981862924327185,0.07437006384134293,-0.014166213572025299,-0.9513334631919861,-4.145185947418213,-2.6272964477539062,5.660350322723389,-0.9119176864624023,0.4217214584350586,0.17299915850162506,-1.3382397890090942,0.005912871100008488,-0.5415045619010925,0.21992065012454987,1.376387357711792,0.004005493130534887,0.5331120491027832,0.3412298858165741,-0.6731135845184326,0.12722209095954895,-0.13218127191066742,0.7539864182472229,-0.2218703329563141,-0.0912475734949112,-0.5621042251586914,-0.11425192654132843,-0.2573052644729614,0.8806362748146057,-0.4209912419319153,-0.0011296544689685106,0.313947856426239,-0.2973990738391876,0.2365511804819107,0.018678126856684685,-0.019349725916981697,0.05133776366710663,-0.043327447026968,-0.0858769416809082,0.0040732198394834995,-0.010399099439382553,2.226292848587036,-1.129730463027954,-0.6097927093505859,-0.200955331325531,1.8390432596206665,-0.781711995601654,-0.05052275210618973,2.955636739730835,0.014528237283229828,-0.10359852015972137,-5.243011474609375,-0.9876810312271118,-0.12484273314476013,1741432474.979125,1741432475219,5.20454345703125,2.04105322265625,0.188090053663602,6.2416005859375,1.1575847167968751
1741432476.4894414,-1.1559053547680378,-0.04754843424841562,0.027899146183505596,-0.9984792356592878,-0.1159130409359932,0.2702317535877228,-1.2936400175094604,1.8991987705230713,5.554969310760498,18.490360260009766,-0.9088659286499023,0.4171438217163086,0.17681391537189484,-1.3344250917434692,0.005149920005351305,-0.5384527444839478,0.2161058932542801,1.372191071510315,0.004005493130534887,0.5315861701965332,0.3759441375732422,-0.699053943157196,0.12836651504039764,-0.15430685877799988,0.8024337887763977,-0.23985284566879272,-0.08870396763086319,-0.5254825949668884,-0.12226291000843048,-0.2809567451477051,0.8192187547683716,-0.3960302770137787,0.03105095773935318,0.10401187092065811,-0.130855992436409,0.1725536733865738,0.4094662666320801,-0.05471334606409073,0.10625991970300674,-0.30390501022338867,-0.3261292278766632,0.019587598741054535,-0.21917884051799774,1.437995195388794,-1.3338267803192139,1.0121454000473022,-1.5084418058395386,2.4488580226898193,-0.9592952728271484,0.24290502071380615,1.1861608028411865,0.07384441047906876,-1.8781852722167969,-1.3663384914398193,1.9014244079589844,1.5967135429382324,1741432474.979125,1741432475219,5.20454345703125,2.04105322265625,0.188090053663602,6.2416005859375,1.1575847167968751
1741432476.5095038,-1.188683159649372,-0.05541011772043951,0.037689711277258266,-0.9977520756771413,-0.6630623936653137,-0.46751531958580017,-1.5869311094284058,-6.878014087677002,-1.4448186159133911,6.536860466003418,-0.8848323822021484,0.4568166732788086,0.1806286722421646,-1.3313732147216797,0.006294346414506435,-0.536926805973053,0.21114671230316162,1.3725725412368774,0.004386968910694122,0.5243381261825562,0.39578089118003845,-0.7101167440414429,0.11615930497646332,-0.19016556441783905,0.8348592519760132,-0.27222657203674316,-0.050268929451704025,-0.5403600931167603,-0.09174486994743347,-0.28744181990623474,0.8070115447044373,-0.3503348231315613,0.022292086854577065,0.7141035199165344,1.241855502128601,0.1991414576768875,0.15577280521392822,0.03445768356323242,0.12797246873378754,-0.342141717672348,0.08162256330251694,0.006591255776584148,-0.3545721769332886,1.00412118434906,-0.5295321941375732,-0.7729411125183105,-1.7251405715942383,1.2890299558639526,-1.71717369556427,2.2795825004577637,-0.3847835958003998,1.1963754892349243,0.30878162384033203,-1.246483564376831,2.0518321990966797,-0.9202245473861694,1741432474.979125,1741432475219,5.20454345703125,2.04105322265625,0.188090053663602,6.2416005859375,1.1575847167968751
1741432476.5294805,-1.2169511122629046,-0.057562482152371364,0.04491215873775762,-0.9973311679908397,-0.2976628839969635,0.08693622797727585,-1.2185639142990112,-2.2796685695648193,1.8192646503448486,10.007818222045898,-0.8909358978271484,0.4472799301147461,0.18558785319328308,-1.3328990936279297,0.005912871100008488,-0.5380712747573853,0.20237277448177338,1.374098539352417,0.004005493130534887,0.5258640646934509,0.39501792192459106,-0.7177462577819824,0.09479667246341705,-0.23594263195991516,0.8573662638664246,-0.3154682517051697,-0.0011962924618273973,-0.5140383243560791,-0.06580453366041183,-0.2569237947463989,0.7650492191314697,-0.3170619606971741,-0.013602951541543007,-0.11908601224422455,-0.17383898794651031,0.2909873425960541,-0.22884272038936615,-0.012220491655170918,-0.050478119403123856,-0.5894609093666077,0.03102841041982174,-0.026548316702246666,0.15500406920909882,-0.38276582956314087,-0.43719223141670227,-1.2601444721221924,-2.311760425567627,1.397284746170044,-2.1928274631500244,2.419806718826294,1.3803497552871704,1.6559711694717407,1.2603310346603394,-2.051522731781006,1.6120573282241821,-1.5614880323410034,1741432474.979125,1741432475219,5.20454345703125,2.04105322265625,0.188090053663602,6.2416005859375,1.1575847167968751
