Freshhhhh-LC/Legged_odom/data/7/segments/booster_seg_9.91s.csv
time,yaw,projected_gravity_x,projected_gravity_y,projected_gravity_z,ang_vel_x,ang_vel_y,ang_vel_z,lin_acc_x,lin_acc_y,lin_acc_z,q_0,q_1,q_2,q_3,q_4,q_5,q_6,q_7,q_8,q_9,q_10,q_11,q_12,q_13,q_14,q_15,q_16,q_17,q_18,q_19,q_20,q_21,q_22,dq_0,dq_1,dq_2,dq_3,dq_4,dq_5,dq_6,dq_7,dq_8,dq_9,dq_10,dq_11,dq_12,dq_13,dq_14,dq_15,dq_16,dq_17,dq_18,dq_19,dq_20,dq_21,dq_22,mocap_time,mocap_timestamp,robot_x,robot_y,robot_yaw,ball_x,ball_y
1741530481.9731636,0.633855402469635,0.01026137045742116,0.014091442784157686,-0.9998480562148413,-0.7018371820449829,-0.2668755352497101,0.3115523159503937,-6.3963117599487305,10.341526985168457,12.827533721923828,-0.08678531646728516,0.12150001525878906,0.4064621925354004,-1.2455412149429321,0.005912871100008488,-0.9206912517547607,-0.01735713705420494,1.2306636571884155,0.008964675478637218,0.968757152557373,-0.09174486994743347,-0.7661936283111572,0.10547798871994019,0.22373540699481964,0.7417792081832886,-0.32285410165786743,0.06660353392362595,-0.19016556441783905,0.018120087683200836,0.034142062067985535,0.8157854676246643,-0.4976033568382263,-0.02310681901872158,-0.173307403922081,0.06821515411138535,-2.5130510330200195,0.2645203173160553,0.025817889720201492,0.07322651892900467,2.8962771892547607,0.2494002878665924,-0.03367583453655243,-0.26705223321914673,1.0252567529678345,1.6174988746643066,-1.5772827863693237,-0.38050124049186707,2.8510191440582275,0.7630055546760559,2.7351741790771484,-0.26944780349731445,0.036828894168138504,0.2847748100757599,4.513041019439697,0.8124293088912964,-0.6480244994163513,1741530481.9887075,1741530481808,1.4309024658203124,1.0062169189453125,0.4922162441672722,3.0429372558593752,1.9589271240234376
1741530481.975334,0.6330774426460266,0.017161078224668235,0.018548676637261265,-0.9996806710090844,-0.16005727648735046,0.15244881808757782,-0.23794327676296234,-7.471524238586426,-1.2574594020843506,9.589906692504883,-0.09060001373291016,0.11158180236816406,0.25654229521751404,-1.2527892589569092,0.005149920005351305,-0.925650417804718,0.07267109304666519,1.23905611038208,0.010109102353453636,0.961509108543396,-0.050164032727479935,-0.7429236173629761,0.07953765243291855,0.15506981313228607,0.7612344622612,-0.26916131377220154,0.11142590641975403,-0.308041512966156,0.0558861680328846,0.07267109304666519,1.0820554494857788,-0.4223218262195587,-0.03540981560945511,-0.39123648405075073,-0.23012486100196838,-4.458725929260254,-0.4457821846008301,-0.07711950689554214,-0.24279773235321045,3.2769007682800293,0.20996680855751038,-0.021533651277422905,-0.3068395256996155,0.8389400243759155,1.4534803628921509,-0.5527226328849792,-1.3743551969528198,-1.1964232921600342,1.6744434833526611,-2.3428401947021484,-4.4890217781066895,1.0587788820266724,1.679524540901184,8.4154691696167,2.2656188011169434,-0.2430187612771988,1741530481.9887075,1741530481808,1.4309024658203124,1.0062169189453125,0.4922162441672722,3.0429372558593752,1.9589271240234376
1741530481.981427,0.549065887928009,0.016016675730298545,0.010854926630456296,-0.9998128008114308,0.6656409502029419,0.19298583269119263,-0.7312337160110474,-5.901476860046387,-1.712143063545227,11.420509338378906,-0.00743865966796875,0.3397035598754883,0.1684214472770691,-1.2604187726974487,0.005531395319849253,-0.9142061471939087,0.16384375095367432,1.2478300333023071,0.010109102353453636,0.952735185623169,-0.02536812424659729,-0.6837949156761169,0.03032730519771576,0.07991912961006165,0.8424887657165527,-0.31410306692123413,0.04340139031410217,-0.5014495849609375,0.08297093212604523,0.01773861236870289,1.2804226875305176,-0.382671058177948,-0.008161540143191814,-0.10685061663389206,-0.01883585751056671,-4.128489971160889,-0.23134660720825195,0.0037294975481927395,-0.005236458498984575,3.4756247997283936,0.16439533233642578,0.013245190493762493,-0.23850105702877045,-0.025223588570952415,1.5571069717407227,-0.01826738566160202,-0.016284096986055374,0.2356298863887787,-0.1648653894662857,-0.002488261554390192,-5.490835189819336,0.6790900230407715,1.4015454053878784,7.7042765617370605,1.000264286994934,2.000840663909912,1741530481.9887075,1741530481808,1.4309024658203124,1.0062169189453125,0.4922162441672722,3.0429372558593752,1.9589271240234376
1741530482.0014408,0.5303382873535156,0.02164263226448106,-0.0007509698716161349,-0.999765488758697,0.5755684971809387,0.2627647817134857,-0.9206508994102478,5.656029224395752,-2.680490493774414,10.299249649047852,-0.01468658447265625,0.3454265594482422,0.0879301130771637,-1.2573670148849487,0.005531395319849253,-0.9145876169204712,0.21725031733512878,1.2524077892303467,0.010109102353453636,0.9481574892997742,-0.028038453310728073,-0.6441214680671692,0.0394827201962471,0.08869306743144989,0.8436331748962402,-0.3230763375759125,0.02901552990078926,-0.6055924296379089,0.09250781685113907,0.024605173617601395,1.3868544101715088,-0.40031901001930237,0.0003843673039227724,-0.22533497214317322,0.10591728240251541,-3.9522855281829834,0.23874272406101227,-0.003207380883395672,-0.007326832972466946,3.585404396057129,0.32389363646507263,0.0037911550607532263,-0.2539987862110138,-0.14797116816043854,1.9446295499801636,0.4468125104904175,0.4621935188770294,-0.01345051173120737,-0.49474045634269714,-0.7840192914009094,-5.201467037200928,0.4141172170639038,0.13807891309261322,4.8056793212890625,-1.181932806968689,-0.00826670229434967,1741530481.9887075,1741530481808,1.4309024658203124,1.0062169189453125,0.4922162441672722,3.0429372558593752,1.9589271240234376
1741530482.0214589,0.5106897950172424,0.020742267970952494,-0.006284679675436143,-0.9997651029720923,0.2520754933357239,-0.02456178143620491,-0.9920244216918945,-2.2540876865386963,-7.064835071563721,10.141778945922852,-0.02994537353515625,0.3614482879638672,0.01926451548933983,-1.2497375011444092,0.005531395319849253,-0.9157320261001587,0.27065691351890564,1.2562226057052612,0.010109102353453636,0.9458686113357544,-0.03337911143898964,-0.6055924296379089,0.043678950518369675,0.09021896868944168,0.8413442969322205,-0.34226712584495544,0.014606200158596039,-0.699053943157196,0.08869306743144989,0.010872052982449532,1.4246203899383545,-0.4423414170742035,-0.00853269174695015,-0.4543512463569641,0.35991978645324707,-3.102375030517578,0.5473421812057495,-0.006150464992970228,-0.07674558460712433,3.520381450653076,0.2642693519592285,0.007900542579591274,-0.1900128424167633,-0.19202780723571777,2.152766466140747,0.11507720500230789,-0.0017480534734204412,-0.07408741861581802,-1.0465816259384155,-0.8025736212730408,-4.263280868530273,-0.25765934586524963,-0.8461043834686279,1.3930691480636597,-2.1643292903900146,-0.15863576531410217,1741530481.9887075,1741530481808,1.4309024658203124,1.0062169189453125,0.4922162441672722,3.0429372558593752,1.9589271240234376
1741530482.0415814,0.5013922452926636,0.022925696479923676,-0.007281908092155155,-0.999710651266379,0.03194074332714081,0.06982521712779999,-0.4269859194755554,3.159728527069092,-3.8022661209106445,8.663003921508789,-0.034523963928222656,0.3618297576904297,-0.029564354568719864,-1.2421079874038696,0.005912871100008488,-0.9172579646110535,0.3217746317386627,1.2581299543380737,0.009346150793135166,0.9416723847389221,-0.03681239113211632,-0.5598153471946716,0.04406042397022247,0.0871671661734581,0.8360036611557007,-0.37369009852409363,0.008039877749979496,-0.776493489742279,0.07724879682064056,-0.008964675478637218,1.404402256011963,-0.4835559129714966,0.005161560606211424,-0.13026610016822815,0.06026678532361984,-2.2900383472442627,0.4269670248031616,0.010137555189430714,-0.11301698535680771,3.3983066082000732,0.03733636066317558,-0.0044297412969172,-0.3280872106552124,-0.32284682989120483,2.092050313949585,0.042997028678655624,-0.11535259336233139,-0.37353911995887756,-1.6958798170089722,-0.19776277244091034,-3.8399224281311035,-0.7361410856246948,-0.9537113904953003,-1.4020261764526367,-1.866680383682251,0.8953939080238342,1741530481.9887075,1741530481808,1.4309024658203124,1.0062169189453125,0.4922162441672722,3.0429372558593752,1.9589271240234376
1741530482.0615096,0.4974803924560547,0.02164241066162579,-0.006237497053400793,-0.9997463176682684,-0.04175824671983719,-0.039565011858940125,-0.18925407528877258,2.3044490814208984,-1.1431779861450195,8.514715194702148,-0.042534828186035156,0.3648815155029297,-0.08297093212604523,-1.2379117012023926,0.005912871100008488,-0.9225986003875732,0.369840532541275,1.2600373029708862,0.010490577667951584,0.9359502792358398,-0.04749370738863945,-0.5266270041465759,0.045204851776361465,0.0871671661734581,0.8287556171417236,-0.4103078246116638,0.001795712043531239,-0.838674008846283,0.06160829961299896,-0.021553369238972664,1.343747615814209,-0.49506884813308716,0.011175548657774925,-0.2499181479215622,0.08095883578062057,-2.6465647220611572,0.26286154985427856,0.028552180156111717,-0.3556472659111023,3.1641128063201904,0.16942757368087769,0.07786025106906891,-0.35293304920196533,-0.4906846880912781,1.6383638381958008,0.07037748396396637,0.03763055056333542,-0.33926281332969666,-1.890390396118164,-0.25607216358184814,-2.8980512619018555,-0.7674340009689331,-0.5971938967704773,-3.1701505184173584,-0.2852284610271454,0.12819033861160278,1741530481.9887075,1741530481808,1.4309024658203124,1.0062169189453125,0.4922162441672722,3.0429372558593752,1.9589271240234376
1741530482.081546,0.4973406195640564,0.023073974090652306,-0.007054484822640254,-0.9997088706036129,0.02132190391421318,0.0880790427327156,-0.029732326045632362,0.4142528474330902,-0.9107416272163391,5.653898239135742,-0.043297767639160156,0.3637371063232422,-0.1199740618467331,-1.23447847366333,0.005531395319849253,-0.9401465058326721,0.421339750289917,1.2615631818771362,0.010109102353453636,0.9294651746749878,-0.04940108209848404,-0.4835202693939209,0.048638131469488144,0.08869306743144989,0.8253223299980164,-0.4503302276134491,-0.00431425403803587,-0.8798733353614807,0.043678950518369675,-0.03147173300385475,1.255245327949524,-0.46817368268966675,0.010406692512333393,-0.050038132816553116,-0.012591889128088951,-1.7157386541366577,0.17128652334213257,0.016726018860936165,-0.8409696817398071,3.4991655349731445,0.05698555335402489,-0.015118957497179508,-0.5516524314880371,0.08985638618469238,2.0948519706726074,0.12953022122383118,0.10668696463108063,-0.2265995442867279,-1.9950482845306396,-0.2773377299308777,-1.7750787734985352,-0.9164738655090332,-0.3945797383785248,-4.662110805511475,1.6310079097747803,0.07677052170038223,1741530481.9887075,1741530481808,1.4309024658203124,1.0062169189453125,0.4922162441672722,3.0429372558593752,1.9589271240234376
1741530482.101549,0.49625009298324585,0.02705878518881793,-0.006218880898022013,-0.9996144995269335,-0.029869765043258667,0.25510406494140625,-0.0133230434730649,1.8590421676635742,2.028714179992676,8.520041465759277,-0.049782752990722656,0.3633556365966797,-0.134470134973526,-1.2340970039367676,0.005531395319849253,-0.9569314122200012,0.45986875891685486,1.2573670148849487,0.009727626107633114,0.9233615398406982,-0.03376058489084244,-0.44575417041778564,0.048256658017635345,0.08373387902975082,0.8207446336746216,-0.48769813776016235,-0.011076006107032299,-0.8875028491020203,0.013542382046580315,-0.039101243019104004,1.1324101686477661,-0.4234122931957245,0.009110752493143082,-0.19004076719284058,0.0025589843280613422,-0.6220181584358215,0.022367648780345917,-0.004505158867686987,-0.8099099397659302,2.30255126953125,-0.3008410334587097,-0.004715139511972666,-0.4085676074028015,1.0172889232635498,2.130178451538086,-0.0554935596883297,-0.38101378083229065,-0.09365162253379822,-1.7940645217895508,-0.21099954843521118,-0.29763898253440857,-1.509136438369751,-0.5459890961647034,-6.445572853088379,2.2156190872192383,-0.09754323214292526,1741530481.9887075,1741530481808,1.4309024658203124,1.0062169189453125,0.4922162441672722,3.0429372558593752,1.9589271240234376
1741530482.1215992,0.49342113733291626,0.030519378095400562,-0.006100190553018521,-0.9995155602770208,0.01822766847908497,0.11133214831352234,-0.17659296095371246,-0.07356646656990051,-0.10403017699718475,5.955381870269775,-0.050164222717285156,0.3618297576904297,-0.12569619715213776,-1.2340970039367676,0.005531395319849253,-0.968757152557373,0.47932401299476624,1.2554595470428467,0.010109102353453636,0.918402373790741,0.0013351644156500697,-0.4045548141002655,0.037193864583969116,0.06466010212898254,0.8154039978981018,-0.5205217599868774,-0.00644676573574543,-0.8714808821678162,-0.02536812424659729,-0.0558861680328846,0.9718089699745178,-0.3780559301376343,0.0023997013922780752,-0.03583936020731926,-0.01697569154202938,0.7054178714752197,-0.00912727415561676,-0.005546336527913809,-0.503140926361084,1.0807079076766968,-0.14019878208637238,-0.030837789177894592,-0.3403344452381134,1.795914649963379,1.996500015258789,-0.7022308111190796,-0.8559386134147644,-0.30146947503089905,-1.5693167448043823,0.34657803177833557,1.0868780612945557,-1.9761046171188354,-0.9305016398429871,-8.137581825256348,2.166846752166748,-0.4166918098926544,1741530481.9887075,1741530481808,1.4309024658203124,1.0062169189453125,0.4922162441672722,3.0429372558593752,1.9589271240234376
1741530482.1415966,0.48790717124938965,0.029617122351112066,-0.008811326852100431,-0.9995224792783526,0.18926666676998138,-0.07580868899822235,-0.29764142632484436,1.0618391036987305,0.15136638283729553,7.218222141265869,-0.044442176818847656,0.3671703338623047,-0.09327077120542526,-1.2333340644836426,0.005531395319849253,-0.9729533791542053,0.4797055125236511,1.2516448497772217,0.009727626107633114,0.9149690866470337,0.034142062067985535,-0.3580147922039032,0.0009536888683214784,0.049782559275627136,0.8165484070777893,-0.5325043797492981,-0.0040510836988687515,-0.8276112079620361,-0.059319447726011276,-0.08564125746488571,0.7974746227264404,-0.35394564270973206,-0.008574573323130608,0.13931171596050262,0.1651024967432022,1.6735726594924927,0.029776431620121002,-0.0018501152517274022,-0.2160155028104782,-0.059584248811006546,-0.27670589089393616,-0.003315477631986141,-0.20444795489311218,1.5811500549316406,2.314307451248169,-1.7494240999221802,-0.5336789488792419,0.23073223233222961,-0.27463361620903015,-0.20193730294704437,2.2948734760284424,-1.6111873388290405,-1.3682689666748047,-8.531064987182617,0.9865679740905762,-0.45382219552993774,1741530481.9887075,1741530481808,1.4309024658203124,1.0062169189453125,0.4922162441672722,3.0429372558593752,1.9589271240234376
1741530482.161823,0.48313599824905396,0.02055672289279566,-0.016789922482221793,-0.9996476977650425,0.3953363597393036,-0.6559810042381287,-0.2562500238418579,-6.656230926513672,-1.198742389678955,15.295892715454102,-0.039101600646972656,0.3942546844482422,-0.04558632895350456,-1.232571005821228,0.005149920005351305,-0.9733348488807678,0.4697871506214142,1.2432523965835571,0.009727626107633114,0.9111543297767639,0.04558632895350456,-0.31490805745124817,0.009346150793135166,0.03757534176111221,0.8371480703353882,-0.518100380897522,-0.0017618637066334486,-0.7944228053092957,-0.07267109304666519,-0.10814831405878067,0.7726787328720093,-0.30905652046203613,-0.0030804562848061323,0.1671871691942215,0.9051061868667603,2.539027214050293,0.05190460756421089,-0.04088286682963371,-0.0007487789844162762,-0.7877284288406372,-0.6079490184783936,0.017719639465212822,-0.36955970525741577,0.23098862171173096,1.8632153272628784,0.8502253293991089,-0.6069517731666565,1.1852738857269287,0.7464277744293213,0.7208955883979797,2.025873899459839,0.051466766744852066,-1.005662441253662,1.183856725692749,2.4152936935424805,0.16867224872112274,1741530482.193638,1741530482008,1.6238865966796876,1.098765869140625,0.4456928932349349,3.02578759765625,1.9686343994140625
1741530482.1818492,0.47736310958862305,0.02034333633230231,-0.01702580420509057,-0.9996480734028554,-0.017879461869597435,0.018317993730306625,-0.07922397553920746,3.188002347946167,0.6187208890914917,0.6972061395645142,-0.058938026428222656,0.3854808807373047,0.01773861236870289,-1.2340970039367676,0.00667582219466567,-0.9725719094276428,0.42706188559532166,1.2371487617492676,0.009727626107633114,0.9088655114173889,0.024986648932099342,-0.30155640840530396,0.005531395319849253,0.04100862145423889,0.8943694233894348,-0.4882396459579468,0.010109880939126015,-0.7539864182472229,-0.06046387553215027,-0.07877469807863235,0.8230335116386414,-0.26111745834350586,-0.011203971691429615,-0.5920029878616333,-0.24663805961608887,2.915593147277832,-0.18724197149276733,0.1347218006849289,0.028306661173701286,-3.1975040435791016,-0.2467867136001587,-0.00882373284548521,0.010067583061754704,-1.0980994701385498,0.09613136202096939,-0.18849290907382965,0.08466948568820953,3.3377187252044678,1.672553300857544,0.35451948642730713,1.3939671516418457,0.3100172281265259,2.0568764209747314,1.3479276895523071,2.0097053050994873,-0.4623815715312958,1741530482.193638,1741530482008,1.6238865966796876,1.098765869140625,0.4456928932349349,3.02578759765625,1.9686343994140625
1741530482.201835,0.47763490676879883,0.01936557152422014,-0.023621179399520766,-0.9995333984031328,0.40185001492500305,0.08646148443222046,0.0918431356549263,-4.284258842468262,5.186270236968994,19.516490936279297,-0.03032684326171875,0.3896770477294922,0.08297093212604523,-1.2478300333023071,0.005149920005351305,-0.9725719094276428,0.36373692750930786,1.2379117012023926,0.010109102353453636,0.9142061471939087,0.009727626107633114,-0.3442816734313965,0.0024795911740511656,0.03337911143898964,1.022926688194275,-0.4456543028354645,0.02033938840031624,-0.7234683632850647,-0.03795681521296501,-0.03299763426184654,0.7948042750358582,-0.23945224285125732,-0.004951877053827047,0.7043395042419434,-0.02108948864042759,3.459409236907959,-1.0075408220291138,-0.06805627048015594,0.00022069647093303502,-4.123218536376953,-0.007338962983340025,-0.023055406287312508,0.32321423292160034,-0.8664629459381104,-2.47595477104187,0.023005208000540733,-0.6317499279975891,6.930037975311279,2.147754430770874,0.49517813324928284,1.9170525074005127,1.3414570093154907,1.779819130897522,-0.7992720007896423,1.0193073749542236,0.47910600900650024,1741530482.193638,1741530482008,1.6238865966796876,1.098765869140625,0.4456928932349349,3.02578759765625,1.9686343994140625
1741530482.2218814,0.48902928829193115,0.021789392711288526,-0.025106252590360915,-0.999447296482482,-0.08694842457771301,0.034860480576753616,0.7160208821296692,2.1684281826019287,4.105420112609863,8.857397079467773,-0.038338661193847656,0.4095144271850586,0.14553292095661163,-1.2611817121505737,0.005912871100008488,-0.9721904397010803,0.30308231711387634,1.2348599433898926,0.009346150793135166,0.9126802682876587,-0.0032425422687083483,-0.42706188559532166,-0.01430533267557621,0.02536812424659729,1.1934462785720825,-0.40195003151893616,0.023812294006347656,-0.6948577165603638,-0.013923857361078262,-0.009346150793135166,0.8226520419120789,-0.23087047040462494,-0.008360914885997772,-0.05542752891778946,0.5404490232467651,2.9705212116241455,-0.7396568059921265,0.006427735090255737,0.019757119938731194,-4.309669017791748,-0.24799303710460663,-0.021434558555483818,-0.046255774796009064,-0.5434481501579285,-4.156968116760254,-1.240704894065857,-0.09800809621810913,8.387896537780762,2.0684754848480225,-0.15925024449825287,0.8782970309257507,0.6772155165672302,1.3179268836975098,1.1213746070861816,0.12039781361818314,-0.2881360650062561,1741530482.193638,1741530482008,1.6238865966796876,1.098765869140625,0.4456928932349349,3.02578759765625,1.9686343994140625
1741530482.2419052,0.5087533593177795,0.016701206778335413,-0.02235238643245222,-0.9996106444575915,-0.1104821115732193,-0.18357214331626892,0.9431652426719666,-6.8433427810668945,3.4990413188934326,14.77658462524414,-0.034142494201660156,0.4293508529663086,0.20695048570632935,-1.2642335891723633,0.005531395319849253,-0.969520092010498,0.2313649207353592,1.232571005821228,0.009727626107633114,0.9149690866470337,-0.012397955171763897,-0.5296788215637207,-0.03681239113211632,0.032616160809993744,1.3433661460876465,-0.3875937759876251,0.0005731360288336873,-0.6704432964324951,-0.016212711110711098,-0.00019073777366429567,0.8337147831916809,-0.2446696013212204,-0.007788667920976877,0.15562891960144043,0.6470603346824646,3.3590810298919678,-0.26562657952308655,0.01727290078997612,0.15102174878120422,-4.768725872039795,-0.1003926694393158,0.01914243958890438,0.11645953357219696,-0.4166441559791565,-4.822862148284912,-1.1047650575637817,0.42370691895484924,7.181931018829346,0.35866597294807434,-0.8858570456504822,1.7372604608535767,-0.052906595170497894,0.20902003347873688,0.6817532777786255,-0.721130907535553,0.09243768453598022,1741530482.193638,1741530482008,1.6238865966796876,1.098765869140625,0.4456928932349349,3.02578759765625,1.9686343994140625
1741530482.2619264,0.530911386013031,0.017243426618338772,-0.02345086832999691,-0.9995762707332677,0.0011674981797114015,-0.07434651255607605,1.1109567880630493,5.063138484954834,4.046163558959961,11.18822956085205,-0.00400543212890625,0.4423208236694336,0.27180132269859314,-1.2726260423660278,0.005531395319849253,-0.960746169090271,0.15659570693969727,1.2321895360946655,0.008964675478637218,0.9157320261001587,-0.02040894143283367,-0.6177996397018433,-0.04139009863138199,0.05207141116261482,1.4333943128585815,-0.4123687744140625,0.011965489946305752,-0.6300068497657776,-0.01888304017484188,-0.0032425422687083483,0.8413442969322205,-0.2738942801952362,-0.007275733165442944,0.8777759075164795,0.44687214493751526,3.2496941089630127,-0.4740799367427826,-0.0029628186021000147,0.4786298871040344,-4.98039436340332,-0.07096805423498154,-0.025874918326735497,-0.05899878963828087,-0.38640615344047546,-4.314372539520264,-0.01359924953430891,0.9249124526977539,3.8039488792419434,-1.4185699224472046,0.7268345355987549,1.6531307697296143,-0.26503893733024597,-0.011528517119586468,0.17004670202732086,-1.6843441724777222,-0.06754889339208603,1741530482.2952511,1741530482188,1.8129822998046876,1.1696456298828126,0.48410770643504847,2.3068750000000002,2.23507080078125
1741530482.281965,0.551880955696106,0.011934397543657353,-0.02414689266248303,-0.9996371830469376,0.0059624239802360535,-0.09212120622396469,0.9756791591644287,2.268702983856201,1.288470983505249,8.118622779846191,0.00896453857421875,0.4560537338256836,0.33398184180259705,-1.2737704515457153,0.005531395319849253,-0.9489204287528992,0.086785688996315,1.230282187461853,0.009346150793135166,0.9157320261001587,-0.03299763426184654,-0.6914244294166565,-0.048256658017635345,0.08525978773832321,1.4478904008865356,-0.45163843035697937,0.005193372257053852,-0.5987258553504944,-0.01926451548933983,0.00019073777366429567,0.8382925391197205,-0.32020628452301025,-0.00279715983197093,0.44736552238464355,0.40095773339271545,2.835378408432007,-0.09152454882860184,-0.02448335848748684,0.5315570831298828,-4.469135284423828,-0.10970734059810638,-0.0017565380549058318,0.025067897513508797,-0.576316237449646,-3.4168734550476074,-0.42198604345321655,2.011037588119507,0.21453851461410522,-1.9393965005874634,-0.694191038608551,1.906826376914978,0.00019338037236593664,0.11803305149078369,-0.22748006880283356,-2.2836904525756836,0.3026542365550995,1741530482.2952511,1741530482188,1.8129822998046876,1.1696456298828126,0.48410770643504847,2.3068750000000002,2.23507080078125
1741530482.30237,0.561188817024231,0.015043659758642159,-0.024601076129803473,-0.9995841512120537,0.05821985378861427,0.19924160838127136,0.3732077181339264,2.886063575744629,4.730630874633789,9.573012351989746,0.039864540100097656,0.4674978256225586,0.3858625292778015,-1.2730075120925903,0.005531395319849253,-0.9405279755592346,0.027656977996230125,1.230282187461853,0.009346150793135166,0.9157320261001587,-0.03337911143898964,-0.7555122971534729,-0.04901960864663124,0.11234454810619354,1.4063096046447754,-0.47873950004577637,-0.013853824697434902,-0.54112309217453,-0.02079041674733162,0.00019073777366429567,0.8245593905448914,-0.36363932490348816,0.002966907573863864,0.8949801325798035,0.36415258049964905,2.5520122051239014,0.0641050711274147,0.01632540114223957,0.41195622086524963,-3.748833417892456,-0.001567722181789577,0.043018508702516556,0.016293518245220184,0.1877955049276352,-2.9628310203552246,0.10851284861564636,1.1220604181289673,-2.38030743598938,-1.1641395092010498,-0.5573781728744507,2.589040994644165,-0.08736546337604523,-0.09558230638504028,-0.8075547218322754,-2.1313233375549316,0.28243348002433777,1741530482.2952511,1741530482188,1.8129822998046876,1.1696456298828126,0.48410770643504847,2.3068750000000002,2.23507080078125
1741530482.3220353,0.5609173774719238,0.017045594356288524,-0.02565201441154965,-0.9995255984063992,0.020964713767170906,0.06856538355350494,-0.033504098653793335,-1.7287752628326416,-3.3058125972747803,9.023006439208984,0.07419681549072266,0.481231689453125,0.42744335532188416,-1.2741519212722778,0.005912871100008488,-0.9317540526390076,-0.026131074875593185,1.235241413116455,0.009727626107633114,0.9172579646110535,-0.02689402550458908,-0.80663001537323,-0.04291599988937378,0.12951095402240753,1.3273441791534424,-0.47684767842292786,-0.008216160349547863,-0.5125123858451843,-0.021553369238972664,-0.005531395319849253,0.80510413646698,-0.40005576610565186,0.005302887875586748,1.0164419412612915,0.397662490606308,2.092200517654419,-0.07829153537750244,0.028861651197075844,0.41520261764526367,-3.7793359756469727,0.41353511810302734,0.007552602794021368,0.1740272045135498,0.1204356774687767,-2.600893259048462,0.28371462225914,0.8677314519882202,-4.209414005279541,0.36143991351127625,0.1712397187948227,1.6909739971160889,-0.0819753035902977,-0.21708689630031586,-0.817894697189331,-1.774275779724121,-0.07307536154985428,1741530482.2952511,1741530482188,1.8129822998046876,1.1696456298828126,0.48410770643504847,2.3068750000000002,2.23507080078125
1741530482.3420126,0.5719594955444336,0.02564325133665819,-0.024866612396185803,-0.9993618339964874,-0.032150156795978546,0.4477112591266632,0.6063219308853149,1.3474252223968506,4.201146125793457,4.444070816040039,0.11196327209472656,0.49114990234375,0.4674982726573944,-1.2722445726394653,0.005531395319849253,-0.919165313243866,-0.07801175117492676,1.238293170928955,0.009727626107633114,0.9229800701141357,-0.04444190114736557,-0.8436331748962402,-0.026512550190091133,0.14133669435977936,1.2266346216201782,-0.44226503372192383,-0.011494298465549946,-0.45872434973716736,-0.025749599561095238,-0.007057297509163618,0.7921339869499207,-0.4324769377708435,0.00044459005584940314,1.1341865062713623,0.27515310049057007,1.8567858934402466,0.21025218069553375,-0.006818796508014202,0.6226138472557068,-3.056335687637329,0.12250802665948868,-0.01474660076200962,0.44101667404174805,-1.010319471359253,-1.646285891532898,1.0442034006118774,0.4815015196800232,-5.150747776031494,1.8647112846374512,-0.08505427092313766,2.461294651031494,-0.1676422655582428,-0.07886746525764465,-0.8183054327964783,-1.6626335382461548,-0.3083418607711792,1741530482.2952511,1741530482188,1.8129822998046876,1.1696456298828126,0.48410770643504847,2.3068750000000002,2.23507080078125
1741530482.3620596,0.5829909443855286,0.029731471911502865,-0.026830455634271104,-0.9991977613207673,0.06446024030447006,0.15233314037322998,0.5674177408218384,-6.597860336303711,0.2375187873840332,7.928456783294678,0.15545082092285156,0.516326904296875,0.4861905872821808,-1.2676668167114258,0.005531395319849253,-0.9031433463096619,-0.10204470902681351,1.236767292022705,0.008964675478637218,0.9298466444015503,-0.07038223743438721,-0.8504997491836548,0.0032425422687083483,0.1520180106163025,1.10837721824646,-0.3957580327987671,-0.008208345621824265,-0.43240252137184143,-0.02079041674733162,-0.009727626107633114,0.7730602025985718,-0.4595688283443451,0.0015356357907876372,1.2840495109558105,0.7196971774101257,0.8232431411743164,0.2105727642774582,-0.018487857654690742,0.8177405595779419,-1.5443294048309326,-0.07761146873235703,-0.012644500471651554,0.353085458278656,-1.5177885293960571,-0.14222091436386108,1.5244086980819702,0.6629369854927063,-5.930005073547363,2.3114209175109863,0.2610063850879669,1.60965895652771,0.30812767148017883,-0.005465867929160595,-0.7911466360092163,-1.2131147384643555,0.2028123438358307,1741530482.2952511,1741530482188,1.8129822998046876,1.1696456298828126,0.48410770643504847,2.3068750000000002,2.23507080078125
1741530482.3820548,0.5989030003547668,0.03625996349746409,-0.026166643931102424,-0.998999760656901,-0.09114436060190201,0.22376303374767303,0.7935186624526978,4.208601474761963,0.7630407214164734,5.873815059661865,0.19321727752685547,0.5437936782836914,0.4842832088470459,-1.2638521194458008,0.005531395319849253,-0.8848325610160828,-0.10624094307422638,1.2340970039367676,0.009346150793135166,0.9298466444015503,-0.10433356463909149,-0.8463035225868225,0.04406042397022247,0.17490653693675995,0.9817273020744324,-0.34637391567230225,-0.0009938428411260247,-0.3767071068286896,-0.012397955171763897,0.0024795911740511656,0.7574197053909302,-0.4679071009159088,0.004624600987881422,1.1574715375900269,0.7217641472816467,-0.20907647907733917,0.3073711693286896,-0.02418486773967743,0.9704661965370178,0.04588475450873375,-0.21270737051963806,-0.008030892349779606,-0.1613720804452896,-1.5567407608032227,0.3049352169036865,2.02213454246521,1.2330597639083862,-6.301259994506836,2.509859085083008,0.4568750560283661,2.6344213485717773,0.5134139657020569,0.6410506367683411,-1.0379530191421509,-0.28417840600013733,0.1708819717168808,1741530482.2952511,1741530482188,1.8129822998046876,1.1696456298828126,0.48410770643504847,2.3068750000000002,2.23507080078125
1741530482.4021082,0.6140689253807068,0.03195207525215894,-0.023017306021883278,-0.9992243334259706,-0.2227744311094284,-0.1853964924812317,0.7103844285011292,0.7802488207817078,3.5796058177948,5.41606330871582,0.23632431030273438,0.5865182876586914,0.4709315598011017,-1.2611817121505737,0.005531395319849253,-0.8634698987007141,-0.0875486359000206,1.23295259475708,0.009346150793135166,0.9206912517547607,-0.12722209095954895,-0.8295185565948486,0.06504157930612564,0.2149614691734314,0.8596551418304443,-0.3007776737213135,0.003203178057447076,-0.3271152675151825,0.01430533267557621,0.005912871100008488,0.7360570430755615,-0.4562528431415558,0.0030230798292905092,1.3064343929290771,1.3003369569778442,-0.7879339456558228,0.10332231968641281,-0.009966226294636726,1.060944676399231,1.3958327770233154,-0.040276095271110535,-0.003934982232749462,-0.6816507577896118,-1.1057370901107788,1.0108880996704102,0.8127147555351257,2.111950159072876,-6.015938758850098,2.142348051071167,0.18410688638687134,2.8553786277770996,1.4628247022628784,0.1309175044298172,-0.7341398596763611,0.6906919479370117,-0.2667601406574249,1741530482.2952511,1741530482188,1.8129822998046876,1.1696456298828126,0.48410770643504847,2.3068750000000002,2.23507080078125
1741530482.4220984,0.6276072263717651,0.02903025977350158,-0.014411384304053627,-0.9994746400084015,-0.47570091485977173,-0.229208841919899,0.6718218326568604,3.263077974319458,2.5975401401519775,7.963757514953613,0.2752342224121094,0.6166553497314453,0.44079500436782837,-1.2611817121505737,0.005531395319849253,-0.8413442969322205,-0.05397878959774971,1.2340970039367676,0.009346150793135166,0.9031433463096619,-0.13065537810325623,-0.7959487438201904,0.09250781685113907,0.23479819297790527,0.7433050870895386,-0.2781241536140442,0.006370058283209801,-0.2775234580039978,0.03643091395497322,-0.000572213320992887,0.7478827834129333,-0.4492299258708954,-0.014171465300023556,1.156508445739746,0.9592754244804382,-1.6336698532104492,0.009039368480443954,-0.00316414306871593,1.119062900543213,2.446139335632324,0.05396558344364166,0.004455246031284332,-1.2739368677139282,-0.025304824113845825,1.6182856559753418,1.3030897378921509,0.750346302986145,-5.736849308013916,0.8356429934501648,0.3280249238014221,2.0551605224609375,0.9541581273078918,-0.36304742097854614,0.7449550628662109,0.2876010537147522,-0.6881961226463318,1741530482.2952511,1741530482188,1.8129822998046876,1.1696456298828126,0.48410770643504847,2.3068750000000002,2.23507080078125
1741530482.4421675,0.6374433040618896,0.021739645795379924,0.0005565771230152192,-0.9997635110477865,-0.820117712020874,-0.2406173199415207,0.446115106344223,-5.563047885894775,-2.3355274200439453,10.165338516235352,0.3160524368286133,0.6467914581298828,0.3999771177768707,-1.2627075910568237,0.005531395319849253,-0.8199816942214966,-0.0078202486038208,1.23447847366333,0.009346150793135166,0.8783474564552307,-0.12569619715213776,-0.7631418108940125,0.10090028494596481,0.21877622604370117,0.6429770588874817,-0.2810371220111847,0.014292361214756966,-0.2630273997783661,0.046730753034353256,-0.006294346414506435,0.8054856061935425,-0.4399961829185486,-0.01946694776415825,1.1911057233810425,0.8951687812805176,-2.1652779579162598,-0.11579825729131699,0.008831043727695942,1.0934817790985107,3.1017203330993652,0.02789887599647045,-0.0003017623967025429,-1.7158823013305664,0.27606654167175293,1.53562593460083,0.2015865594148636,-1.0526244640350342,-4.460917949676514,0.034633126109838486,0.45248550176620483,0.6134036183357239,0.5718619227409363,-0.2304784208536148,3.6144394874572754,0.5643664598464966,-0.21096526086330414,1741530482.2952511,1741530482188,1.8129822998046876,1.1696456298828126,0.48410770643504847,2.3068750000000002,2.23507080078125
1741530482.4622118,0.6447672843933105,0.021795539842734038,0.016016280208689834,-0.9996341496823928,-0.5979957580566406,0.09908544272184372,0.4240509569644928,-2.5558483600616455,7.312865257263184,7.982990264892578,0.3664073944091797,0.6803617477416992,0.34695202112197876,-1.2627075910568237,0.005912871100008488,-0.7955672740936279,0.0394827201962471,1.2402005195617676,0.009346150793135166,0.8520256280899048,-0.11425192654132843,-0.7398717999458313,0.07038223743438721,0.1813916265964508,0.6830319762229919,-0.2613235414028168,0.029549140483140945,-0.28667888045310974,0.0551232174038887,-0.0036240178160369396,0.9267948269844055,-0.41449493169784546,-0.026173308491706848,1.4325392246246338,1.0247471332550049,-2.921250343322754,-0.012015001848340034,0.023892344906926155,1.2630959749221802,3.133120059967041,0.590013325214386,0.003363285679370165,-1.7052053213119507,0.8158272504806519,0.969912052154541,-1.8050920963287354,-2.1848371028900146,2.3879733085632324,0.8648020029067993,0.827451765537262,-1.513304591178894,0.5761245489120483,0.28682300448417664,6.2451043128967285,1.493428111076355,-0.3475174307823181,1741530482.5000668,1741530482328,1.93715576171875,1.251407958984375,0.5768986274439821,1.7856267089843751,2.4218017578125
1741530482.4821467,0.6515284776687622,0.024539082222609393,0.01394002800520843,-0.9996016752001199,0.11372396349906921,0.018175188452005386,0.26168882846832275,-6.849837303161621,4.016116142272949,7.983285427093506,0.4446096420288086,0.7299537658691406,0.27180132269859314,-1.2764407396316528,0.005531395319849253,-0.7738231420516968,0.09174486994743347,1.2527892589569092,0.009346150793135166,0.8260852694511414,-0.10929274559020996,-0.7398717999458313,0.04406042397022247,0.12760357558727264,0.7082093358039856,-0.2552050054073334,0.02765466272830963,-0.36526283621788025,0.07343403995037079,0.024605173617601395,1.0721369981765747,-0.3673619329929352,-0.0322529599070549,2.158466100692749,1.548316478729248,-3.9474940299987793,-1.1921346187591553,-0.03377338498830795,0.9754075407981873,3.458812952041626,0.8110513091087341,0.019965792074799538,-1.778533697128296,0.06063437834382057,0.4189099967479706,-1.0377179384231567,-2.418926477432251,1.0172462463378906,0.3256187438964844,-0.4331780970096588,-3.8686375617980957,0.8619114756584167,1.6914870738983154,7.461543560028076,2.3582611083984375,-0.20134872198104858,1741530482.5000668,1741530482328,1.93715576171875,1.251407958984375,0.5768986274439821,1.7856267089843751,2.4218017578125
1741530482.5022047,0.6553162336349487,0.029967829344797275,0.005623572420376651,-0.9995350442268615,0.4655340611934662,0.17997391521930695,0.08439759910106659,-0.8273701071739197,-2.9431965351104736,12.944463729858398,0.4945831298828125,0.7719154357910156,0.182917520403862,-1.2920812368392944,0.005531395319849253,-0.7585641145706177,0.14095520973205566,1.2642335891723633,0.009346150793135166,0.7982375621795654,-0.12531471252441406,-0.7059205174446106,0.03376058489084244,0.10204470902681351,0.7112611532211304,-0.23527386784553528,0.014752669259905815,-0.45643550157546997,0.1024261862039566,0.07495994865894318,1.2209124565124512,-0.323912650346756,-0.019269870594143867,1.6419435739517212,1.3264073133468628,-4.434391021728516,-0.921611487865448,0.0018325377022847533,0.7783612012863159,3.223435401916504,0.7641827464103699,-0.005836354568600655,-1.8459974527359009,-0.9346749186515808,1.4206688404083252,-0.47709891200065613,-0.9971919059753418,0.014101075008511543,1.1737596988677979,-0.40790584683418274,-4.832712650299072,1.6922035217285156,2.3850677013397217,7.025674343109131,1.8450857400894165,0.9055396914482117,1741530482.5000668,1741530482328,1.93715576171875,1.251407958984375,0.5768986274439821,1.7856267089843751,2.4218017578125
1741530482.5222008,0.6511492133140564,0.026805091843608606,-0.006005338764602582,-0.9996226402786094,0.5867353677749634,-0.06529972702264786,-0.20819145441055298,-3.410609722137451,-1.8367387056350708,8.624412536621094,0.528533935546875,0.803196907043457,0.10700388997793198,-1.303144097328186,0.005531395319849253,-0.7452124953269958,0.18520638346672058,1.2745333909988403,0.009727626107633114,0.7703898549079895,-0.14515145123004913,-0.6750209927558899,0.04406042397022247,0.10204470902681351,0.7146944403648376,-0.19571132957935333,0.01409224420785904,-0.5548561811447144,0.13752193748950958,0.10433356463909149,1.3250553607940674,-0.32656699419021606,-0.004759177565574646,0.956515908241272,0.8932694792747498,-3.5587754249572754,-0.8112524151802063,-0.015338112600147724,0.6315874457359314,2.9063830375671387,0.7611688375473022,0.006028331350535154,-1.803387999534607,-0.9918532967567444,1.908773422241211,0.6049296855926514,0.028974385932087898,0.28133425116539,2.119584798812866,0.03612585365772247,-4.909919261932373,1.6430089473724365,1.1140848398208618,4.737105369567871,-0.5672578811645508,0.4136636257171631,1741530482.5000668,1741530482328,1.93715576171875,1.251407958984375,0.5768986274439821,1.7856267089843751,2.4218017578125
1741530482.5422502,0.6436546444892883,0.025918862842780013,-0.01113549847687391,-0.9996020274202172,0.1728220134973526,-0.19262106716632843,-0.35262104868888855,-1.52574622631073,0.32823413610458374,10.652449607849121,0.5750741958618164,0.8142595291137695,0.05664911866188049,-1.3088661432266235,0.005531395319849253,-0.7337682247161865,0.22411687672138214,1.2905553579330444,0.009727626107633114,0.7429236173629761,-0.1646067053079605,-0.6319142580032349,0.05054550990462303,0.10090028494596481,0.7101167440414429,-0.14221033453941345,0.0017999914707615972,-0.6437399983406067,0.15621423721313477,0.1024261862039566,1.3776988983154297,-0.37056058645248413,-0.007672213949263096,1.3596765995025635,0.37250733375549316,-2.291335344314575,-0.2548119127750397,0.001082913251593709,0.6184103488922119,2.527808904647827,1.06741201877594,0.03175186365842819,-1.7642149925231934,-0.8931153416633606,1.9899203777313232,0.2852114140987396,-0.09411146491765976,-0.39481619000434875,2.6390862464904785,-0.6393378973007202,-4.584900856018066,0.5494242310523987,-0.11579867452383041,2.1207311153411865,-2.354731559753418,-0.10630770027637482,1741530482.5000668,1741530482328,1.93715576171875,1.251407958984375,0.5768986274439821,1.7856267089843751,2.4218017578125
1741530482.562318,0.6296094655990601,0.022601818008817248,-0.008015051262157184,-0.9997124170360001,-0.1489371359348297,-0.10962913185358047,-0.7824140787124634,-7.507424354553223,7.115962505340576,16.295005798339844,0.6338214874267578,0.8180742263793945,0.021171892061829567,-1.308484673500061,0.005149920005351305,-0.7227054238319397,0.25616082549095154,1.3081032037734985,0.010109102353453636,0.7150759100914001,-0.17528800666332245,-0.6132219433784485,0.04329747334122658,0.09670405089855194,0.7234683632850647,-0.11089947819709778,0.011555260047316551,-0.725375771522522,0.14362554252147675,0.09212634712457657,1.3761730194091797,-0.4239842891693115,0.0025129863061010838,1.832114577293396,0.10130990296602249,-1.8808492422103882,0.004194924607872963,-0.006542697083204985,0.5641480684280396,1.9838374853134155,1.1554011106491089,0.006610821932554245,-1.88310968875885,-0.1840403527021408,0.7933176755905151,-0.5847786664962769,-0.21239933371543884,1.053953766822815,1.0631273984909058,0.7848418354988098,-4.264702320098877,-0.6482419371604919,-0.4975687563419342,-0.48365306854248047,-2.7004799842834473,0.8904146552085876,1741530482.5000668,1741530482328,1.93715576171875,1.251407958984375,0.5768986274439821,1.7856267089843751,2.4218017578125
1741530482.582249,0.6183440089225769,0.02749898601233012,-0.015976436007906075,-0.9994941516891327,0.5426544547080994,0.20748138427734375,-0.4996930956840515,-0.911604106426239,-8.400556564331055,10.24146556854248,0.7196540832519531,0.8424882888793945,-0.018501564860343933,-1.310010552406311,0.005531395319849253,-0.7162203192710876,0.2790493667125702,1.3245066404342651,0.009346150793135166,0.6929503083229065,-0.17795833945274353,-0.614366352558136,0.03833829239010811,0.07534141838550568,0.760471522808075,-0.12636134028434753,0.010466823354363441,-0.7948042750358582,0.1337071806192398,0.0875486359000206,1.3273441791534424,-0.4578602910041809,0.010126638226211071,2.5842509269714355,0.7111583352088928,-1.8750234842300415,-0.14965055882930756,-0.017174426466226578,0.3206835687160492,1.432987928390503,0.9034324288368225,-0.02644493244588375,-1.3970587253570557,-0.5049498677253723,-0.19129586219787598,-0.22657285630702972,-1.1155093908309937,1.7123700380325317,-1.0121361017227173,-0.31182861328125,-3.2755565643310547,-0.3149098753929138,-0.30351778864860535,-2.696540117263794,-1.332261085510254,0.26996663212776184,1741530482.5000668,1741530482328,1.93715576171875,1.251407958984375,0.5768986274439821,1.7856267089843751,2.4218017578125
1741530482.6024404,0.6192913055419922,0.0334394547055321,-0.027159941250279006,-0.9990716393033475,0.5242099165916443,0.3088814616203308,0.13702158629894257,-13.730231285095215,4.962906360626221,7.591223239898682,0.7669563293457031,0.8505001068115234,-0.04596780240535736,-1.3168771266937256,0.005531395319849253,-0.7074463963508606,0.2927824854850769,1.3298473358154297,0.009346150793135166,0.6734950542449951,-0.20733195543289185,-0.6204699873924255,0.03643091395497322,0.061226826161146164,0.778782308101654,-0.16660480201244354,-0.008690237998962402,-0.8421072959899902,0.135233074426651,0.09594109654426575,1.2426565885543823,-0.44435134530067444,0.01021896954625845,1.4746639728546143,0.27283695340156555,-1.2180149555206299,-0.43079641461372375,-0.005479069426655769,0.3835623860359192,0.8570992350578308,0.3705907464027405,0.02577126771211624,-1.2697985172271729,-1.570300579071045,0.0937035009264946,-0.02616107650101185,-0.7820834517478943,0.9319889545440674,-2.109323740005493,-0.9843708872795105,-2.2289228439331055,-0.03806829825043678,0.597668468952179,-4.320631980895996,1.0493696928024292,-0.10712939500808716,1741530482.5000668,1741530482328,1.93715576171875,1.251407958984375,0.5768986274439821,1.7856267089843751,2.4218017578125
1741530482.6223154,0.6263548731803894,0.04584142588486136,-0.03491887309628698,-0.9983382372595613,0.30149808526039124,0.5224608778953552,0.2997083067893982,0.11832462251186371,-3.8618743419647217,4.188426494598389,0.8089189529418945,0.837529182434082,-0.05855649709701538,-1.3206919431686401,0.005531395319849253,-0.6994354128837585,0.3107118308544159,1.3397656679153442,0.010109102353453636,0.6525139212608337,-0.22602425515651703,-0.6074998378753662,0.03528648987412453,0.04482337832450867,0.8096818327903748,-0.21410314738750458,-0.011758186854422092,-0.8688105344772339,0.12340734153985977,0.12264438718557358,1.1072328090667725,-0.4019847512245178,0.006067331414669752,1.3001667261123657,-0.3513942062854767,-0.41567462682724,-0.20967361330986023,-0.033320844173431396,0.46650633215904236,1.3241901397705078,0.7030396461486816,0.014624301344156265,-1.5464837551116943,-0.8385878801345825,0.20231007039546967,-0.26735371351242065,-0.6759645938873291,1.5000747442245483,-2.355440616607666,0.024101635441184044,-0.8810319900512695,-0.530907154083252,1.1215900182724,-7.176436424255371,2.1980855464935303,-0.11841800808906555,1741530482.5000668,1741530482328,1.93715576171875,1.251407958984375,0.5768986274439821,1.7856267089843751,2.4218017578125
1741530482.6423888,0.6375315189361572,0.05181367008345386,-0.03722578186530114,-0.9979627171177288,0.1004994735121727,0.33061572909355164,0.615669846534729,0.46041619777679443,-2.1971325874328613,2.3881144523620605,0.8203630447387695,0.827610969543457,-0.05092698708176613,-1.3210734128952026,0.005531395319849253,-0.6845578551292419,0.32520791888237,1.3493025302886963,0.009727626107633114,0.6296253800392151,-0.22487983107566833,-0.6177996397018433,0.018120087683200836,0.031090257689356804,0.8581292629241943,-0.25159206986427307,-0.005252367351204157,-0.839436948299408,0.10013733059167862,0.14782176911830902,0.9119172692298889,-0.35242143273353577,0.003162129782140255,0.4316701591014862,-0.3345474898815155,0.3508833646774292,-0.03813431039452553,-0.004216363653540611,0.7511622309684753,0.8584487438201904,0.5536152124404907,0.010340528562664986,-1.490358829498291,0.1650005728006363,-0.6042698621749878,-0.9790599346160889,-0.45835649967193604,2.649656057357788,-1.6396968364715576,0.32458969950675964,1.860942006111145,-1.4879214763641357,1.2139219045639038,-10.07678508758545,2.4251339435577393,-0.119181789457798,1741530482.5000668,1741530482328,1.93715576171875,1.251407958984375,0.5768986274439821,1.7856267089843751,2.4218017578125
1741530482.6624205,0.6575263142585754,0.057664586390859064,-0.040019633385048145,-0.9975335705729895,0.0625026747584343,0.30550578236579895,1.0373729467391968,23.288806915283203,-31.359033584594727,29.135639190673828,0.8501186370849609,0.825322151184082,-0.03528648987412453,-1.3225992918014526,0.005531395319849253,-0.6662470698356628,0.33398184180259705,1.3519729375839233,0.009727626107633114,0.6078813076019287,-0.21000228822231293,-0.6376363635063171,-0.014686808921396732,0.04787518084049225,0.9355688095092773,-0.2665943503379822,-0.0029800347983837128,-0.7932783961296082,0.053215838968753815,0.14095520973205566,0.7410162687301636,-0.26601532101631165,0.026477307081222534,0.8883172273635864,-0.13950496912002563,0.9200347065925598,-0.1125471219420433,0.00579803716391325,1.0009346008300781,0.541442334651947,0.09714530408382416,0.01313826534897089,-1.4635248184204102,0.7506806254386902,-0.9167907238006592,-1.168569564819336,0.8717119693756104,3.8949084281921387,-0.5853862762451172,0.0986446961760521,1.6200284957885742,-2.4084312915802,-1.11215078830719,-6.369870185852051,5.32402229309082,1.7591770887374878,1741530482.7058597,1741530482508,2.089341796875,1.3577862548828126,0.6430992953374673,1.2482017822265625,2.614509033203125
1741530482.682601,0.677847683429718,0.06203378516592332,-0.03878322928646289,-0.9973202447679992,-0.12938980758190155,0.6468255519866943,0.9346302151679993,14.544780731201172,8.268561363220215,14.519259452819824,0.8676662445068359,0.813115119934082,-0.007057297509163618,-1.3260325193405151,0.005149920005351305,-0.6399252414703369,0.33131152391433716,1.3527358770370483,0.009727626107633114,0.5796520709991455,-0.2149614691734314,-0.654421329498291,0.008964675478637218,0.08220797777175903,0.9885938763618469,-0.2644387483596802,0.0022996857296675444,-0.7555122971534729,0.032616160809993744,0.10814831405878067,0.7669565677642822,-0.14353691041469574,0.042143791913986206,0.6285966038703918,-0.6086248159408569,1.5683988332748413,-0.2295227348804474,-0.010878418572247028,1.2824811935424805,-0.42614662647247314,0.08779715746641159,0.005658499430865049,-1.7120922803878784,-0.6148986220359802,-0.6337645053863525,0.5882222652435303,2.197300434112549,2.3732950687408447,0.311503142118454,0.23785430192947388,1.5841200351715088,-0.9390704035758972,-0.7641443014144897,0.7716549634933472,5.278439044952393,0.040487781167030334,1741530482.7058597,1741530482508,2.089341796875,1.3577862548828126,0.6430992953374673,1.2482017822265625,2.614509033203125
1741530482.7026343,0.702462911605835,0.0641717212460374,-0.03446125820265042,-0.9973436779141938,-0.08928744494915009,0.0504441000521183,1.2589466571807861,-1.4031715393066406,21.524105072021484,20.337244033813477,0.8810176849365234,0.8165483474731445,0.037193864583969116,-1.3283214569091797,0.005149920005351305,-0.6101701259613037,0.3084229826927185,1.3565505743026733,0.009727626107633114,0.5621042251586914,-0.22564278542995453,-0.6521324515342712,0.01430533267557621,0.1363775134086609,1.0126268863677979,-0.23951514065265656,0.0021139620803296566,-0.7364385724067688,0.0032425422687083483,0.12188144028186798,0.7505531311035156,-0.07121984660625458,0.01555494125932455,0.25457361340522766,-0.1404152810573578,2.0657525062561035,-0.18044978380203247,-0.09172385931015015,1.5411626100540161,-1.6390444040298462,0.3755236864089966,-0.01078087743371725,-1.1061186790466309,-0.7878278493881226,0.24200651049613953,0.49974048137664795,2.4443297386169434,1.1649703979492188,1.2521686553955078,0.07536210119724274,1.3538591861724854,-1.0422736406326294,0.36615124344825745,-0.9296522736549377,3.3961453437805176,-1.2625551223754883,1741530482.7058597,1741530482508,2.089341796875,1.3577862548828126,0.6430992953374673,1.2482017822265625,2.614509033203125
1741530482.7226496,0.7308880090713501,0.06336521650273057,-0.05262676218412638,-0.9966018629520905,0.8383595943450928,0.033438943326473236,1.5291513204574585,-4.700536727905273,-10.278902053833008,15.386075973510742,0.9119176864624023,0.8371477127075195,0.07877469807863235,-1.3531173467636108,0.005912871100008488,-0.5735484957695007,0.2786678969860077,1.3546432256698608,0.009727626107633114,0.5468451976776123,-0.2500572204589844,-0.6467918157577515,0.04100862145423889,0.17185473442077637,1.050011396408081,-0.2223990261554718,0.014115012250840664,-0.7211795449256897,0.013923857361078262,0.1203555315732956,0.7696269154548645,-0.051658038049936295,0.0024211180862039328,0.9028288722038269,0.4626728296279907,2.141256093978882,-1.941523790359497,-0.01984408125281334,1.8722726106643677,-1.9604790210723877,-0.31999504566192627,-0.01602521352469921,-1.1867016553878784,-1.2211601734161377,0.0410560667514801,1.334298014640808,1.8213640451431274,1.7977343797683716,0.7278920412063599,0.6831764578819275,0.18246373534202576,0.2608594596385956,0.45418065786361694,1.1407474279403687,0.43188974261283875,-0.29589158296585083,1741530482.7058597,1741530482508,2.089341796875,1.3577862548828126,0.6430992953374673,1.2482017822265625,2.614509033203125
1741530482.7426307,0.7600378394126892,0.06766555628854344,-0.060071136836964925,-0.9958980023131268,0.26002243161201477,0.3730110228061676,1.419124960899353,-1.0991100072860718,9.978767395019531,8.266861915588379,0.9046688079833984,0.8051042556762695,0.12645913660526276,-1.37142813205719,0.005531395319849253,-0.5403600931167603,0.248531311750412,1.3458693027496338,0.009727626107633114,0.5292973518371582,-0.2634088695049286,-0.6609063744544983,0.0558861680328846,0.20122835040092468,1.0835813283920288,-0.21845008432865143,0.009449427016079426,-0.7143129706382751,0.005149920005351305,0.15964750945568085,0.778782308101654,-0.05845937505364418,0.017159100621938705,-0.06647372990846634,-0.804257333278656,2.3559653759002686,-0.9614705443382263,-0.0004391055554151535,1.5244742631912231,-1.9781485795974731,-0.5578661561012268,-0.00048105025780387223,-1.1378211975097656,-0.3734043836593628,-0.8084016442298889,0.4925471246242523,1.2895201444625854,1.7126678228378296,0.05583552271127701,-0.377064049243927,0.7761215567588806,-0.4355944097042084,1.590962290763855,0.20694632828235626,-0.2937261164188385,0.7488920092582703,1741530482.7058597,1741530482508,2.089341796875,1.3577862548828126,0.6430992953374673,1.2482017822265625,2.614509033203125
1741530482.7626674,0.7819015383720398,0.07329652456774857,-0.0704800754696035,-0.9948166556949518,0.44324907660484314,0.24896948039531708,1.089762806892395,-4.124664783477783,0.5457435250282288,9.672178268432617,0.9275579452514648,0.788701057434082,0.17032882571220398,-1.374098539352417,0.005531395319849253,-0.5155642032623291,0.21953918039798737,1.3351880311965942,0.009727626107633114,0.5125123858451843,-0.2470054179430008,-0.6937133073806763,0.04329747334122658,0.20962081849575043,1.1198214292526245,-0.24161052703857422,0.004296066239476204,-0.6811245679855347,-0.012397955171763897,0.13866636157035828,0.7631418108940125,-0.061916325241327286,0.024122104048728943,0.6217944622039795,-0.5035920739173889,2.131885290145874,-0.11879857629537582,0.0015301116509363055,1.153778314590454,-1.9113608598709106,-0.8093523979187012,-0.001616543740965426,-1.1641041040420532,0.9879323840141296,-1.7422982454299927,-0.6785190105438232,0.48108720779418945,1.798351526260376,-1.4141877889633179,-0.12138855457305908,1.5071992874145508,-1.1048569679260254,-1.4386478662490845,-0.8965758681297302,-0.17513030767440796,0.20570923388004303,1741530482.8072171,1741530482708,2.24610205078125,1.439456298828125,0.801388309024122,0.7858176269531251,2.755494140625
1741530482.7827032,0.7954407930374146,0.08046951009950833,-0.07400873862143559,-0.9940057165590191,0.0999925285577774,0.40743374824523926,0.6696649789810181,-4.32553243637085,4.612435817718506,10.499093055725098,0.9275579452514648,0.7612342834472656,0.20618753135204315,-1.3817280530929565,0.005912871100008488,-0.4968718886375427,0.17948424816131592,1.3203104734420776,0.009346150793135166,0.5033569931983948,-0.21877622604370117,-0.7272831201553345,0.04329747334122658,0.22373540699481964,1.1449989080429077,-0.2921755611896515,0.008056452497839928,-0.6624323129653931,-0.05397878959774971,0.11005569249391556,0.7448310256004333,-0.06479816138744354,0.018855560570955276,0.054533179849386215,-0.8194686770439148,1.7629846334457397,-0.629884660243988,0.020194334909319878,0.8763895630836487,-3.130117416381836,-0.9470285773277283,-0.012453907169401646,-0.43100109696388245,1.3358943462371826,-1.782743215560913,0.08336322009563446,0.645063042640686,1.1031216382980347,-2.7040438652038574,0.17272920906543732,0.9632134437561035,-1.832754135131836,-1.371512532234192,-0.6587217450141907,-0.07911255210638046,-0.138482466340065,1741530482.8072171,1741530482708,2.24610205078125,1.439456298828125,0.801388309024122,0.7858176269531251,2.755494140625
1741530482.802717,0.8109650015830994,0.08790974683539714,-0.07464731996010521,-0.9933275663315249,-0.058563828468322754,0.46351689100265503,0.7979411482810974,1.0471327304840088,0.7628389596939087,6.934262275695801,0.9306097030639648,0.7410163879394531,0.2302204966545105,-1.386687159538269,0.005531395319849253,-0.49000534415245056,0.13141833245754242,1.3122994899749756,0.009346150793135166,0.5052643418312073,-0.1977950781583786,-0.7574197053909302,0.051689937710762024,0.2294575423002243,1.1484321355819702,-0.34986212849617004,0.003505970351397991,-0.6353475451469421,-0.07572289556264877,0.08869306743144989,0.7444495558738708,-0.06081429868936539,0.023115362972021103,0.06952038407325745,-0.632817804813385,1.058876395225525,-0.22942349314689636,-0.01560290902853012,0.25981444120407104,-2.868675947189331,-0.46577179431915283,-0.0188626516610384,0.20880848169326782,1.11772882938385,-1.4410825967788696,0.4215637445449829,0.26398965716362,-0.07625499367713928,-2.9007747173309326,-0.4785846769809723,1.2086831331253052,-1.2986199855804443,-0.8836687803268433,0.02667522244155407,0.2321755290031433,0.1628471463918686,1741530482.8072171,1741530482708,2.24610205078125,1.439456298828125,0.801388309024122,0.7858176269531251,2.755494140625
1741530482.8228986,0.8305284380912781,0.0915203327237041,-0.07395098848815723,-0.9930535131601754,-0.11253458261489868,0.2753129005432129,0.9713795185089111,-0.6363049745559692,-3.7812869548797607,6.854361534118652,0.9294652938842773,0.7181272506713867,0.2466239482164383,-1.3863056898117065,0.005531395319849253,-0.49000534415245056,0.10662241280078888,1.3088661432266235,0.009346150793135166,0.5140383243560791,-0.1825360506772995,-0.778019368648529,0.048638131469488144,0.2450980395078659,1.1305028200149536,-0.39428621530532837,-0.00642240047454834,-0.6124590039253235,-0.1039520874619484,0.07534141838550568,0.7440680265426636,-0.05763416737318039,0.02767767198383808,-0.01499140728265047,-0.640134871006012,0.896833598613739,-0.04160580039024353,-0.01314924843609333,0.007505460176616907,-1.466724157333374,-0.238618403673172,0.013507548719644547,0.6253767609596252,0.6464107036590576,-0.8631801009178162,-0.2656130790710449,1.0139132738113403,-0.807675302028656,-2.0383124351501465,-0.5097100138664246,1.256331443786621,-1.2153260707855225,-0.6562052965164185,-0.08792497962713242,0.18719574809074402,0.27841222286224365,1741530482.8072171,1741530482708,2.24610205078125,1.439456298828125,0.801388309024122,0.7858176269531251,2.755494140625
1741530482.8428748,0.8636170029640198,0.09146439838574828,-0.07524749885481852,-0.9929612669908263,-0.08710717409849167,0.06812991201877594,1.660766839981079,-2.6113805770874023,1.142385482788086,7.096620082855225,0.9294652938842773,0.6986722946166992,0.2576867341995239,-1.383635401725769,0.005531395319849253,-0.49420157074928284,0.09822995215654373,1.306195855140686,0.009346150793135166,0.5292973518371582,-0.17833982408046722,-0.7871748208999634,0.04634927958250046,0.25501641631126404,1.1030365228652954,-0.40920037031173706,-0.007725248113274574,-0.5876630544662476,-0.11692225188016891,0.071908138692379,0.7387273907661438,-0.05245932936668396,0.03575140982866287,-0.011319621466100216,-0.6413412094116211,0.3311004638671875,0.22778703272342682,-0.006454812828451395,-0.2551250457763672,-0.4042268395423889,-0.13536180555820465,0.0004710262583103031,1.0305112600326538,0.20744626224040985,-0.42407384514808655,-0.006920200772583485,0.3675377368927002,-1.6560873985290527,-0.47035935521125793,-0.03559737280011177,1.2014048099517822,-0.7001351118087769,-0.046215757727622986,-0.25794291496276855,0.20755022764205933,0.3542511761188507,1741530482.8072171,1741530482708,2.24610205078125,1.439456298828125,0.801388309024122,0.7858176269531251,2.755494140625
1741530482.8629446,0.9009193778038025,0.08739408033603215,-0.07690453318528412,-0.9932008696622113,-0.11069808900356293,-0.09436251223087311,1.8706245422363281,3.2011592388153076,3.7143397331237793,7.49079704284668,0.9344244003295898,0.6731138229370117,0.25196459889411926,-1.3790576457977295,0.005531395319849253,-0.5033569931983948,0.10051880776882172,1.3058143854141235,0.009346150793135166,0.5437933802604675,-0.17948424816131592,-0.7791637778282166,0.043678950518369675,0.26951247453689575,1.054970622062683,-0.39112719893455505,-0.010147939436137676,-0.569733738899231,-0.13065537810325623,0.07648584991693497,0.7330052852630615,-0.0520603284239769,0.03704792633652687,0.13852669298648834,-0.7476096749305725,-0.26418831944465637,0.28135615587234497,-0.005976930260658264,-0.504435122013092,0.1888296902179718,0.003215596079826355,0.0013152494793757796,0.9256570935249329,0.015307041816413403,0.5955447554588318,-0.16589634120464325,0.7201634049415588,-2.5290963649749756,1.1207648515701294,-0.060555022209882736,0.7573986649513245,-0.575459361076355,0.2968950867652893,-0.23028920590877533,0.009885430335998535,0.061128512024879456,1741530482.9101667,1741530482828,2.2805087890625,1.4952623291015625,0.9593075289010918,0.5444583740234376,2.8309423828125
1741530482.882946,0.9330272376537323,0.08154966496800578,-0.07638438348087252,-0.9937379323060245,-0.15976686775684357,-0.13835519552230835,1.4852337837219238,2.1900601387023926,4.130577564239502,8.2107572555542,0.9428167343139648,0.6464099884033203,0.2462424635887146,-1.375624418258667,0.005531395319849253,-0.5159456729888916,0.10547798871994019,1.307721734046936,0.009346150793135166,0.5533303022384644,-0.17261768877506256,-0.7494087219238281,0.040245670825242996,0.2748531401157379,0.9859235286712646,-0.3488568365573883,-0.008578917011618614,-0.5460822582244873,-0.13103684782981873,0.09632257372140884,0.7387273907661438,-0.052857656031847,0.03740096464753151,0.2367679625749588,-0.8096221089363098,-0.30226728320121765,0.20720037817955017,-0.004953177645802498,-0.6509383916854858,0.24082647264003754,0.10894674807786942,0.013315514661371708,0.6121936440467834,0.3501802086830139,1.4278258085250854,-0.2808206081390381,0.34332403540611267,-3.657930374145508,2.2487499713897705,0.23091921210289001,1.2897268533706665,-0.014867414720356464,1.0261335372924805,0.3694427013397217,-0.062456417828798294,0.014646446332335472,1741530482.9101667,1741530482828,2.2805087890625,1.4952623291015625,0.9593075289010918,0.5444583740234376,2.8309423828125
1741530482.9030054,0.9537423551082611,0.07244766295806611,-0.07527636869910095,-0.994527427699906,-0.12600328028202057,-0.37594982981681824,0.9824620485305786,1.396998405456543,3.614938259124756,6.93867301940918,0.9527349472045898,0.6258106231689453,0.23975738883018494,-1.374861478805542,0.005531395319849253,-0.5273899435997009,0.10814831405878067,1.3103920221328735,0.009346150793135166,0.5582894682884216,-0.16117341816425323,-0.7074463963508606,0.030708782374858856,0.2809567451477051,0.8855955004692078,-0.29538068175315857,-0.0037726545706391335,-0.5228122472763062,-0.13065537810325623,0.1203555315732956,0.7524605393409729,-0.05714281275868416,0.033917270600795746,0.27710384130477905,-0.6347073316574097,-0.3324749767780304,0.010101806372404099,-0.007314893417060375,-0.59298175573349,0.25431808829307556,0.1774434745311737,0.012969357892870903,0.26323458552360535,0.597762405872345,2.3025012016296387,-0.5369827151298523,0.15408901870250702,-5.341860771179199,2.7498743534088135,0.4233774244785309,1.140690803527832,0.10939882695674896,1.1799603700637817,0.782893717288971,-0.20753219723701477,-0.2198731005191803,1741530482.9101667,1741530482828,2.2805087890625,1.4952623291015625,0.9593075289010918,0.5444583740234376,2.8309423828125
1741530482.9230685,0.9636701345443726,0.06279357890729506,-0.07189653332763739,-0.9954335010152519,-0.20862144231796265,-0.47568032145500183,0.4216446876525879,-1.434250831604004,2.967430591583252,5.599847793579102,0.9573125839233398,0.6002521514892578,0.23327229917049408,-1.3744800090789795,0.005531395319849253,-0.5365453362464905,0.10967422276735306,1.3130624294281006,0.009346150793135166,0.5598153471946716,-0.14515145123004913,-0.6506065726280212,0.008201723918318748,0.28477150201797485,0.760471522808075,-0.23931506276130676,0.0016940580680966377,-0.5037384629249573,-0.12302586436271667,0.13981078565120697,0.7776378989219666,-0.0592842698097229,0.030677026137709618,0.12749557197093964,-0.7212519645690918,-0.3197479844093323,0.016946911811828613,-0.008119364269077778,-0.446995347738266,0.09678197652101517,0.216928169131279,0.01807970181107521,0.08461333066225052,0.7626073956489563,2.9084248542785645,-1.1956539154052734,0.2121986299753189,-6.25942325592041,2.820218563079834,0.3030133843421936,0.8681986331939697,0.4491788148880005,0.8742791414260864,1.350631833076477,-0.07261885702610016,-0.10945319384336472,1741530482.9101667,1741530482828,2.2805087890625,1.4952623291015625,0.9593075289010918,0.5444583740234376,2.8309423828125
1741530482.9429727,0.968134880065918,0.05324100870751963,-0.06666301382525493,-0.996354072395722,-0.27716299891471863,-0.4429696202278137,0.23266245424747467,-0.7449954152107239,2.0429749488830566,4.461495876312256,0.9580755233764648,0.5727853775024414,0.22564278542995453,-1.374098539352417,0.005531395319849253,-0.543411910533905,0.11348897218704224,1.3184030055999756,0.009346150793135166,0.5601968169212341,-0.1340886503458023,-0.5914778113365173,-0.005149920005351305,0.28400853276252747,0.6315327882766724,-0.18969833850860596,0.00026148915640078485,-0.5014495849609375,-0.11272602528333664,0.14515145123004913,0.8161669373512268,-0.058956410735845566,0.03066958859562874,0.028973670676350594,-0.804581344127655,-0.4000193774700165,0.020554639399051666,-0.0020265260245651007,-0.2877894341945648,0.30035966634750366,0.3533805012702942,-0.0019794635009020567,-0.00017170644423458725,0.5013195872306824,2.8286936283111572,-0.6132568120956421,-0.2382185310125351,-6.370166778564453,2.36549711227417,0.03957100212574005,-0.041372496634721756,0.4538634419441223,0.17187707126140594,2.082185745239258,0.03714228421449661,0.007178827188909054,1741530482.9101667,1741530482828,2.2805087890625,1.4952623291015625,0.9593075289010918,0.5444583740234376,2.8309423828125
1741530482.9630456,0.9724308252334595,0.04679159087261979,-0.058108049238019675,-0.997213117461539,-0.46949464082717896,-0.2760627567768097,0.21209578216075897,-0.9237743020057678,-0.5427681803703308,4.124618053436279,0.9592199325561523,0.5426492691040039,0.2149614691734314,-1.3737170696258545,0.005531395319849253,-0.5445563197135925,0.12149996310472488,1.3241251707077026,0.009346150793135166,0.5598153471946716,-0.1359960287809372,-0.5498970150947571,-0.006294346414506435,0.2740901708602905,0.5235751867294312,-0.15700019896030426,0.003535863012075424,-0.5136567950248718,-0.09060044586658478,0.13981078565120697,0.8722438216209412,-0.05786093324422836,0.02965686470270157,0.01080372929573059,-0.9235763549804688,-0.5282554030418396,0.03744758293032646,-0.009835832752287388,-0.05262015759944916,0.5767673850059509,0.3021734952926636,0.000810258905403316,-0.024749422445893288,-0.17909060418605804,1.846946120262146,-0.017266111448407173,-0.6239301562309265,-5.147433280944824,1.508718729019165,0.21547894179821014,-0.7062085866928101,1.1320865154266357,-0.30681097507476807,2.8347837924957275,0.03447026014328003,-0.044043514877557755,1741530483.0126705,1741530482928,2.28311083984375,1.5335301513671875,0.9932041792933903,0.3463076171875,2.8927495117187503
1741530482.983029,0.9787915349006653,0.04724263021672298,-0.0429609638608916,-0.9979591622277683,-0.8365095257759094,0.11849123239517212,0.3093755841255188,-2.7661612033843994,-4.105878829956055,7.800724983215332,0.9626531600952148,0.4983978271484375,0.20428015291690826,-1.3718096017837524,0.005531395319849253,-0.5445563197135925,0.13027389347553253,1.3267955780029297,0.009346150793135166,0.5598153471946716,-0.14553292095661163,-0.5285343527793884,0.0020981156267225742,0.2473868876695633,0.45757991075515747,-0.14177468419075012,0.009032679721713066,-0.5384527444839478,-0.06427863240242004,0.13828489184379578,0.9328984618186951,-0.058765023946762085,0.02802857756614685,0.09278516471385956,-1.33906090259552,-0.5418633818626404,0.14449788630008698,-0.010316840372979641,-0.008981653489172459,0.5660341382026672,0.1750859022140503,0.0023698722943663597,0.01801925338804722,-0.5046027302742004,0.9493322372436523,0.5588885545730591,-1.5412451028823853,-2.893968343734741,0.7464867830276489,0.35524266958236694,-1.314009189605713,1.2468562126159668,-0.04883766919374466,3.0277323722839355,-0.09583061188459396,-0.12339580059051514,1741530483.0126705,1741530482928,2.28311083984375,1.5335301513671875,0.9932041792933903,0.3463076171875,2.8927495117187503
1741530483.0030675,0.9908225238323212,0.0535037881334704,-0.020997892218716393,-0.9983468501366347,-1.1238819360733032,0.31860414147377014,0.5926818251609802,-0.09354040026664734,5.963150501251221,16.987871170043945,0.9645605087280273,0.4694061279296875,0.19512474536895752,-1.367613434791565,0.005531395319849253,-0.5430304408073425,0.13904783129692078,1.3302288055419922,0.009346150793135166,0.5582894682884216,-0.15888457000255585,-0.5289158225059509,0.02040894143283367,0.20962081849575043,0.47665369510650635,-0.112059086561203,0.03331810235977173,-0.5636301040649414,-0.051689937710762024,0.13828489184379578,0.9874494671821594,-0.06989698112010956,0.01555287279188633,0.029714014381170273,-0.9035674333572388,-0.5228248834609985,0.32479000091552734,0.015842478722333908,0.12186890840530396,0.5744014382362366,0.23314917087554932,-0.011947733350098133,-0.13714894652366638,-0.528049886226654,-0.1301775723695755,0.8415626287460327,-1.9065117835998535,1.6251673698425293,1.6515628099441528,1.3119648694992065,-1.2170236110687256,0.4711831212043762,0.00742547120898962,2.6082863807678223,-0.6831398010253906,-0.6775450110435486,1741530483.0126705,1741530482928,2.28311083984375,1.5335301513671875,0.9932041792933903,0.3463076171875,2.8927495117187503
1741530483.0231104,1.0047357976436615,0.05821087135647556,-0.0043614307275612755,-0.998294782305271,-0.8495954871177673,0.10161156952381134,0.6045515537261963,-8.472124099731445,-4.381606578826904,15.00578498840332,0.9702835083007812,0.4640645980834961,0.17299915850162506,-1.3637986183166504,0.005531395319849253,-0.5395971536636353,0.1489662081003189,1.3336620330810547,0.009346150793135166,0.5556191205978394,-0.16269932687282562,-0.5430304408073425,0.034142062067985535,0.16956588625907898,0.5159456729888916,-0.07171132415533066,0.044581715017557144,-0.5891889929771423,-0.01926451548933983,0.14133669435977936,1.030174732208252,-0.11009257286787033,-0.007329435087740421,0.1888696551322937,-0.19638372957706451,-1.1499581336975098,0.12909486889839172,0.003423407208174467,0.1216125562787056,0.7098454236984253,0.17188793420791626,0.010551104322075844,-0.20748035609722137,-0.4147200882434845,-0.6748377680778503,0.6597408652305603,-1.731524109840393,1.6510199308395386,2.008291244506836,0.044226184487342834,-1.0884796380996704,1.7080351114273071,0.16208764910697937,2.104863405227661,-2.2956550121307373,-1.1118481159210205,1741530483.0126705,1741530482928,2.28311083984375,1.5335301513671875,0.9932041792933903,0.3463076171875,2.8927495117187503
1741530483.04313,1.0173976719379425,0.0605267404762601,0.013827356853066046,-0.9980707980347774,-0.9377397298812866,0.08286011964082718,0.6681850552558899,-1.9327887296676636,5.127096176147461,17.760770797729492,0.9679937362670898,0.4674978256225586,0.15697719156742096,-1.360365390777588,0.005531395319849253,-0.5399786233901978,0.15392538905143738,1.3431990146636963,0.009727626107633114,0.5506599545478821,-0.17566949129104614,-0.5521858334541321,0.040245670825242996,0.15430685877799988,0.54112309217453,-0.03322938457131386,0.03387118875980377,-0.612840473651886,0.00858320016413927,0.14438849687576294,1.0816738605499268,-0.17971473932266235,-0.024384083226323128,-0.08785803616046906,0.10588181018829346,-0.8098933100700378,0.2675495743751526,0.002636966062709689,-0.03611891344189644,0.19040802121162415,0.8916938304901123,0.010165590792894363,-0.33727848529815674,-0.36300888657569885,-0.5563311576843262,0.38621121644973755,-0.7055144906044006,1.2210363149642944,1.659580945968628,-0.1699293553829193,-1.3557446002960205,1.159630298614502,0.08656008541584015,2.5779247283935547,-3.6155166625976562,-0.7841479182243347,1741530483.0126705,1741530482928,2.28311083984375,1.5335301513671875,0.9932041792933903,0.3463076171875,2.8927495117187503
1741530483.0631025,1.0313685536384583,0.06301339678252985,0.018439443256707082,-0.9978423215910969,-0.14885222911834717,0.1839950531721115,0.611264705657959,-2.230104684829712,-1.0121177434921265,9.020833015441895,0.9870681762695312,0.4816131591796875,0.1348516047000885,-1.3607468605041504,0.005531395319849253,-0.5399786233901978,0.15583276748657227,1.360365390777588,0.009727626107633114,0.5483710765838623,-0.17261768877506256,-0.5663004517555237,0.046730753034353256,0.13065537810325623,0.5632486343383789,-0.023255499079823494,0.041641153395175934,-0.6475547552108765,0.02880140393972397,0.12836651504039764,1.127450942993164,-0.25830528140068054,-0.02673378586769104,0.5437929034233093,0.3713797330856323,-1.029907464981079,-0.150948166847229,0.0019190754974260926,-0.0056075588800013065,0.191067636013031,0.9592688083648682,-0.003740980988368392,-0.11071345955133438,0.04569555073976517,-0.5981072783470154,0.0433029904961586,-1.2281584739685059,1.025113821029663,0.3806132972240448,0.1745690554380417,-1.8207241296768188,1.202683448791504,-1.0179224014282227,2.1742312908172607,-3.94403338432312,-0.15705767273902893,1741530483.0126705,1741530482928,2.28311083984375,1.5335301513671875,0.9932041792933903,0.3463076171875,2.8927495117187503
1741530483.083187,1.0448415279388428,0.06781679758922717,0.017822553481616876,-0.9975385900064903,-0.03833499923348427,0.2086261808872223,0.7170169353485107,-1.0782639980316162,2.13808274269104,9.16487979888916,0.9878311157226562,0.4701690673828125,0.12645913660526276,-1.3615097999572754,0.005531395319849253,-0.5403600931167603,0.15697719156742096,1.3657060861587524,0.009727626107633114,0.5468451976776123,-0.1810101419687271,-0.570496678352356,0.046730753034353256,0.09822995215654373,0.5678263306617737,-0.018580256029963493,0.024448581039905548,-0.6952391862869263,0.0551232174038887,0.10929274559020996,1.1602579355239868,-0.3318014144897461,-0.021550677716732025,0.005935797467827797,-0.2745558023452759,-0.38345539569854736,0.02049574814736843,-0.0005311761051416397,-0.01805553212761879,0.04940621182322502,0.3167503774166107,0.01068770233541727,-0.06443209946155548,-0.32104599475860596,-0.20239563286304474,0.1398821473121643,-1.6138660907745361,0.09556514024734497,0.20715798437595367,-0.8700852394104004,-2.429197311401367,1.2507644891738892,-0.7017142176628113,1.5650551319122314,-3.627957820892334,0.07779483497142792,1741530483.1151536,1741530483008,2.2784443359375,1.56770947265625,1.0246078125086229,0.18912892150878907,2.938029541015625
1741530483.10316,1.0567202866077423,0.07096866582007003,0.020908122895839064,-0.9972593939736499,-0.21201054751873016,0.20720291137695312,0.5383978486061096,-0.39252907037734985,-0.500228226184845,8.43661117553711,0.9794387817382812,0.4564352035522461,0.12607766687870026,-1.358839511871338,0.005531395319849253,-0.5437933802604675,0.15659570693969727,1.372191071510315,0.010109102353453636,0.5460822582244873,-0.17452506721019745,-0.5743114352226257,0.05054550990462303,0.07534141838550568,0.570496678352356,-0.021784115582704544,0.014783142134547234,-0.7375829815864563,0.0722896158695221,0.09937438368797302,1.1781872510910034,-0.3918573260307312,-0.003484084503725171,-0.25132066011428833,-0.4256335496902466,-0.007189294323325157,0.19640350341796875,-0.0033361874520778656,-0.1704544872045517,-0.04778418689966202,0.4850839674472809,0.028970925137400627,-0.060656674206256866,0.3764198124408722,-0.21444538235664368,0.11179184913635254,-1.005751371383667,0.20296940207481384,-0.19587337970733643,-0.3866729736328125,-2.0128324031829834,0.8373442888259888,-0.5622199177742004,0.6701163053512573,-2.9133102893829346,1.3599835634231567,1741530483.1151536,1741530483008,2.2784443359375,1.56770947265625,1.0246078125086229,0.18912892150878907,2.938029541015625
1741530483.123236,1.0632573962211609,0.07449832374134058,0.026899149435198656,-0.9968582825654774,-0.3324843943119049,0.16040371358394623,0.30231547355651855,-0.8500403761863708,-1.8021806478500366,6.723522186279297,0.9805831909179688,0.4449911117553711,0.1337071806192398,-1.3561691045761108,0.005531395319849253,-0.5453193187713623,0.15468832850456238,1.378676176071167,0.009727626107633114,0.5468451976776123,-0.17299915850162506,-0.5830853581428528,0.05245288833975792,0.058175019919872284,0.580033540725708,-0.025859614834189415,0.009805377572774887,-0.7658121585845947,0.09479667246341705,0.08030059933662415,1.1591134071350098,-0.4228088855743408,0.015703415498137474,0.014127063564956188,-0.3438791334629059,0.47109338641166687,0.18927042186260223,0.001490219496190548,-0.06914624571800232,-0.12131185084581375,0.37363651394844055,0.0057148016057908535,0.04064878821372986,0.046558067202568054,-0.5028896927833557,0.06537216901779175,-0.9079539775848389,0.5743210911750793,-0.20554058253765106,-0.24697723984718323,-1.2942802906036377,1.153026819229126,-0.9390069246292114,-1.3398314714431763,-1.2874120473861694,0.7392091751098633,1741530483.1151536,1741530483008,2.2784443359375,1.56770947265625,1.0246078125086229,0.18912892150878907,2.938029541015625
1741530483.145937,1.0711024105548859,0.07541494571818279,0.03590466386356676,-0.9965056151749311,-0.5031939148902893,0.02690461091697216,0.40632206201553345,0.1876698136329651,-1.0937098264694214,6.395198822021484,0.9790573120117188,0.4362173080444336,0.14591439068317413,-1.3508285284042358,0.005531395319849253,-0.5468451976776123,0.15468832850456238,1.380202054977417,0.009727626107633114,0.5472266674041748,-0.16308079659938812,-0.5975814461708069,0.05397878959774971,0.04406042397022247,0.6010147333145142,-0.032277289777994156,0.007997392676770687,-0.7715343236923218,0.11539635062217712,0.06885633617639542,1.0942625999450684,-0.4192945957183838,0.008078066632151604,-0.04188093543052673,-0.2745661735534668,0.5846887230873108,0.36652982234954834,-0.006180389318615198,-0.0890648141503334,0.027486268430948257,0.10007456690073013,0.0028932513669133186,0.03210951015353203,0.4710182845592499,-0.7730802893638611,0.06970920413732529,-0.7273388504981995,1.106427550315857,-0.3507421016693115,-0.0005619513685815036,0.0021125839557498693,0.9857638478279114,-0.4285856783390045,-3.4434988498687744,0.4336564838886261,-0.33624738454818726,1741530483.1151536,1741530483008,2.2784443359375,1.56770947265625,1.0246078125086229,0.18912892150878907,2.938029541015625
1741530483.163378,1.0861720591783524,0.07548680232237988,0.0452432378621643,-0.9961198683405976,-0.5113750100135803,-0.02076410874724388,0.8210052847862244,-1.5195956230163574,0.7166606783866882,5.850103378295898,0.9775314331054688,0.4232473373413086,0.15583276748657227,-1.3454878330230713,0.005531395319849253,-0.5514228940010071,0.15697719156742096,1.380202054977417,0.009727626107633114,0.5476081371307373,-0.16269932687282562,-0.6181811094284058,0.0551232174038887,0.02841992862522602,0.6334401369094849,-0.04404536262154579,0.010781033895909786,-0.7452124953269958,0.13103684782981873,0.06694895774126053,0.9863049983978271,-0.38566285371780396,0.009741311892867088,-0.05290207639336586,-0.3859613239765167,0.4448286294937134,0.3392074406147003,-0.013216265477240086,-0.21682587265968323,0.1848786473274231,-0.017104484140872955,-0.0034519131295382977,0.013471188023686409,-0.004886422771960497,-1.0729849338531494,-0.0015321980463340878,-0.6227021217346191,1.707863450050354,-0.6715583801269531,0.12428304553031921,1.5389593839645386,0.8287253379821777,-0.019896715879440308,-5.727484226226807,1.8553440570831299,0.08581482619047165,1741530483.1151536,1741530483008,2.2784443359375,1.56770947265625,1.0246078125086229,0.18912892150878907,2.938029541015625
1741530483.1834488,1.1085365563631058,0.07392820974699056,0.05272593448178505,-0.9958687642639603,-0.4592142403125763,-0.1721731424331665,1.1055028438568115,-0.35601383447647095,-0.4432712197303772,5.007856845855713,0.9794387817382812,0.4102773666381836,0.16346226632595062,-1.3428175449371338,0.005531395319849253,-0.5525673031806946,0.16155488789081573,1.3775317668914795,0.009727626107633114,0.5472266674041748,-0.16384375095367432,-0.6425955891609192,0.054741740226745605,0.02841992862522602,0.6734950542449951,-0.06608310341835022,0.012662440538406372,-0.7085908055305481,0.14324407279491425,0.06733043491840363,0.8424887657165527,-0.33727267384529114,0.006424697581678629,0.03707822784781456,-0.37268972396850586,0.4172368347644806,0.1678580790758133,-0.006794319022446871,-0.036777667701244354,0.3299206495285034,-0.22388812899589539,0.011389275081455708,-0.03235328942537308,-0.10985390841960907,-1.2282408475875854,-0.08098440617322922,0.1976156383752823,1.9469093084335327,-1.1483625173568726,0.1195715144276619,1.8621764183044434,0.5595971941947937,0.01856921799480915,-7.287897109985352,2.4425618648529053,-0.32045063376426697,1741530483.2168443,1741530483068,2.2806318359375,1.578123291015625,1.0562450825570011,0.07384782409667968,2.97435400390625
1741530483.203435,1.1356660425662994,0.07051292593898552,0.05585774951841995,-0.9959457008764386,-0.1878635734319687,-0.22366860508918762,1.379443645477295,-2.4675583839416504,2.963949680328369,8.13404369354248,0.9805831909179688,0.3992137908935547,0.16918440163135529,-1.3386212587356567,0.005531395319849253,-0.5510414242744446,0.1665140837430954,1.373335599899292,0.009727626107633114,0.5476081371307373,-0.17032882571220398,-0.6670100092887878,0.04329747334122658,0.032616160809993744,0.7101167440414429,-0.09835704416036606,0.016223227605223656,-0.6624323129653931,0.14400701224803925,0.0715266615152359,0.691042959690094,-0.29099294543266296,-0.002344587817788124,0.0334986075758934,-0.32759228348731995,0.2545531392097473,0.290595144033432,-0.006256037391722202,0.08491452783346176,0.3626074194908142,-0.28986823558807373,0.005993943195790052,0.015261170454323292,-0.24754051864147186,-1.1187937259674072,-0.6729114651679993,0.13316896557807922,1.769670009613037,-1.7311124801635742,0.30846694111824036,2.252047061920166,-0.12442831695079803,0.3859829008579254,-7.420931339263916,2.2028558254241943,-0.3016413152217865,1741530483.2168443,1741530483068,2.2806318359375,1.578123291015625,1.0562450825570011,0.07384782409667968,2.97435400390625
1741530483.22558,1.1621244102716446,0.06427067632645495,0.05006858725857888,-0.9966756828248947,0.20691940188407898,-0.5501455664634705,1.3530083894729614,-13.242313385009766,1.8024102449417114,15.06463623046875,0.9901199340820312,0.3984508514404297,0.16994735598564148,-1.3359509706497192,0.005531395319849253,-0.5479896068572998,0.17414358258247375,1.364180088043213,0.009727626107633114,0.5460822582244873,-0.1653696447610855,-0.6834134459495544,0.03643091395497322,0.02994582988321781,0.7417792081832886,-0.14537619054317474,0.02741232141852379,-0.6536583304405212,0.1359960287809372,0.0711451917886734,0.6403067111968994,-0.2195688933134079,0.0027709375135600567,0.2653745114803314,0.02691970393061638,0.001319131813943386,0.14141422510147095,-0.008081960491836071,0.21712236106395721,0.49367424845695496,-0.63083815574646,0.004214839544147253,-0.1962261199951172,0.35550057888031006,-0.7526223659515381,-0.2527688443660736,-0.13324879109859467,1.437261939048767,-2.423541784286499,0.6742344498634338,0.2464287132024765,-0.1988651156425476,-0.20372799038887024,-1.0638993978500366,3.5976126194000244,0.17450536787509918,1741530483.2168443,1741530483068,2.2806318359375,1.578123291015625,1.0562450825570011,0.07384782409667968,2.97435400390625
1741530483.2440727,1.176962599158287,0.06222670215067119,0.04726984674046592,-0.9969420239555481,0.07919459789991379,-0.17914502322673798,0.5579678416252136,1.812031865119934,7.291047096252441,9.732686996459961,0.9878311157226562,0.3793773651123047,0.17109178006649017,-1.3374768495559692,0.005149920005351305,-0.5491340756416321,0.17948424816131592,1.3573135137557983,0.009727626107633114,0.5403600931167603,-0.17071031033992767,-0.6868467330932617,0.027656977996230125,0.048256658017635345,0.7448310256004333,-0.1933758705854416,0.03395117446780205,-0.6521324515342712,0.11463340371847153,0.07457847148180008,0.6540398001670837,-0.16703110933303833,-0.005885656923055649,-0.06136355549097061,-0.5205743908882141,0.068886898458004,-0.154804989695549,-0.02215641923248768,-0.13129253685474396,0.32223743200302124,-0.3803396224975586,0.04280104860663414,-0.31089961528778076,-0.307242214679718,-0.02837206982076168,-0.6037580966949463,1.1044998168945312,0.15123245120048523,-2.3267180919647217,0.3242189586162567,0.13782240450382233,-1.5524592399597168,0.33737292885780334,0.34275320172309875,2.356049060821533,-0.3912559747695923,1741530483.2168443,1741530483068,2.2806318359375,1.578123291015625,1.0562450825570011,0.07384782409667968,2.97435400390625
1741530483.2634232,1.1860261410474777,0.05348600674311971,0.03278260236052301,-0.9980303342409722,0.7811234593391418,-0.4793517291545868,0.3944239318370819,-0.11589202284812927,2.6063249111175537,12.27394962310791,0.9966049194335938,0.3820476531982422,0.17833982408046722,-1.3477766513824463,0.005531395319849253,-0.5483710765838623,0.1806286722421646,1.3523544073104858,0.009346150793135166,0.5388342142105103,-0.16308079659938812,-0.6879911422729492,0.0013351644156500697,0.07457847148180008,0.7612344622612,-0.2296789586544037,0.049246031790971756,-0.6326771974563599,0.0722896158695221,0.07763027399778366,0.6353475451469421,-0.13507433235645294,-0.004401131067425013,0.26518866419792175,0.002191073726862669,0.4670571982860565,-0.8616251945495605,-0.031658072024583817,0.15759921073913574,-0.030655311420559883,-0.33393287658691406,-0.05970184504985809,-0.024590108543634415,0.2578537166118622,-0.17914624512195587,-1.136136770248413,1.4587059020996094,0.9841586351394653,-1.7697430849075317,0.6613293290138245,1.125317931175232,-1.970996379852295,-0.09446293115615845,-0.9585185050964355,1.5594730377197266,0.4184875786304474,1741530483.2168443,1741530483068,2.2806318359375,1.578123291015625,1.0562450825570011,0.07384782409667968,2.97435400390625
1741530483.2835324,1.1966532319784164,0.03958831441029542,0.006184057026182674,-0.9991969389468968,1.323044776916504,-0.7315798401832581,0.6877012848854065,1.9217478036880493,-1.9884634017944336,6.7025322914123535,0.9943161010742188,0.3728923797607422,0.19092851877212524,-1.363417148590088,0.005531395319849253,-0.5476081371307373,0.17872129380702972,1.3473951816558838,0.009346150793135166,0.54112309217453,-0.1802472025156021,-0.6960021257400513,0.005531395319849253,0.10471503436565399,0.7986190319061279,-0.26908835768699646,0.0383911058306694,-0.613603413105011,0.04444190114736557,0.07534141838550568,0.6273365616798401,-0.09756390750408173,0.015487933531403542,-0.048089466989040375,-0.28407350182533264,0.5555716156959534,-0.9455534815788269,0.00592535175383091,-0.011333777569234371,-0.02546560764312744,-0.3223319351673126,0.010982749052345753,0.10740737617015839,-0.9631218314170837,-0.40441983938217163,0.297090083360672,1.613345980644226,2.185595750808716,-2.0790374279022217,-0.9419943690299988,0.6776313781738281,-1.107299566268921,-0.03277892246842384,-0.27176573872566223,1.8745052814483643,0.8918367028236389,1741530483.3193643,1741530483208,2.27969775390625,1.5750928955078125,1.1684593750032803,-0.18839556884765626,3.0492060546875
1741530483.3034616,1.2155904024839401,0.026561632121205894,-0.015111467694855276,-0.9995329525549246,0.9629383087158203,-0.5332992076873779,1.0437253713607788,2.854334592819214,-0.18236534297466278,10.994189262390137,0.9836349487304688,0.3389406204223633,0.1970321238040924,-1.3687578439712524,0.005531395319849253,-0.5510414242744446,0.1813916265964508,1.3412915468215942,0.009346150793135166,0.5407415628433228,-0.19054703414440155,-0.7166017889976501,0.02040894143283367,0.14782176911830902,0.8791103959083557,-0.30820104479789734,-0.006669963244348764,-0.6147478222846985,0.011635004542768002,0.07763027399778366,0.6307697892189026,-0.06632179021835327,0.014216365292668343,-0.30811822414398193,-0.9922731518745422,0.1913636326789856,-0.19407115876674652,-0.015944255515933037,-0.17189395427703857,0.22947946190834045,-0.380357950925827,-0.005220935679972172,-0.0019308405462652445,-0.46138858795166016,-1.4317972660064697,0.7183840274810791,2.0803959369659424,4.140115261077881,-1.9075311422348022,-2.5185673236846924,0.023125581443309784,-1.4864836931228638,-0.27924811840057373,0.3474796712398529,1.4208886623382568,-0.27872195839881897,1741530483.3193643,1741530483208,2.27969775390625,1.5750928955078125,1.1684593750032803,-0.18839556884765626,3.0492060546875
1741530483.32351,1.2381088137626648,0.01733136757855278,-0.027883942617087133,-0.9994609094116608,0.5281303524971008,-0.3918614685535431,1.159825086593628,-4.28781270980835,-1.007347822189331,11.501311302185059,0.9828720092773438,0.2901124954223633,0.19130998849868774,-1.36990225315094,0.005531395319849253,-0.5525673031806946,0.18558785319328308,1.3332805633544922,0.009346150793135166,0.5388342142105103,-0.1962691694498062,-0.7719157934188843,0.032616160809993744,0.17795833945274353,0.9817273020744324,-0.32946157455444336,-0.012972889468073845,-0.621614396572113,-0.0024795911740511656,0.040627144277095795,0.6406881809234619,-0.057492781430482864,0.004336338024586439,-0.06031075492501259,-1.4901703596115112,-0.3634834885597229,-0.07529831677675247,-0.005051146727055311,-0.03196476027369499,0.2536798119544983,-0.5843362808227539,0.004802071955054998,-0.150777205824852,-0.07833456248044968,-2.5591719150543213,0.4489293694496155,1.2381733655929565,5.254909038543701,-0.8978185653686523,0.1866234540939331,-0.4122433066368103,-0.7358556985855103,-1.9480260610580444,0.40624451637268066,0.18931791186332703,-0.4197169840335846,1741530483.3193643,1741530483208,2.27969775390625,1.5750928955078125,1.1684593750032803,-0.18839556884765626,3.0492060546875
1741530483.3435016,1.2605630084872246,0.014054888952004433,-0.02728233469771115,-0.9995289562138703,-0.1087736040353775,-0.13163124024868011,1.0977232456207275,-2.945693016052246,2.5605127811431885,12.789313316345215,0.9851608276367188,0.24319076538085938,0.182154580950737,-1.366087555885315,0.005531395319849253,-0.5510414242744446,0.18596932291984558,1.3290843963623047,0.009346150793135166,0.5388342142105103,-0.17261768877506256,-0.8146410584449768,0.03604944050312042,0.18558785319328308,1.0790035724639893,-0.3267817497253418,0.0011874662013724446,-0.6288624405860901,-0.024605173617601395,0.021553369238972664,0.6456473469734192,-0.07369248569011688,0.007854246534407139,0.06001896783709526,-1.4442881345748901,-0.45428329706192017,0.3105517029762268,-0.0008751510758884251,0.07280763983726501,0.004749380983412266,-0.18975898623466492,0.0016944941598922014,0.005232717841863632,1.1584316492080688,-1.8775330781936646,0.2478504627943039,0.2659977078437805,4.4289045333862305,0.3142426908016205,0.41947439312934875,-0.347515344619751,-1.1820803880691528,-0.9628115296363831,0.20278361439704895,-0.9504188299179077,0.3938007354736328,1741530483.3193643,1741530483208,2.27969775390625,1.5750928955078125,1.1684593750032803,-0.18839556884765626,3.0492060546875
1741530483.363578,1.2822971120476723,0.010354909389412326,-0.02014725292580144,-0.9997433991035305,-0.3941245973110199,-0.21657781302928925,1.113694190979004,0.42485135793685913,8.899829864501953,11.303874969482422,0.9802017211914062,0.21572399139404297,0.17299915850162506,-1.3599839210510254,0.005531395319849253,-0.5495155453681946,0.18520638346672058,1.3306102752685547,0.009346150793135166,0.5392156839370728,-0.15964750945568085,-0.8329518437385559,0.03604944050312042,0.17490653693675995,1.118677020072937,-0.306021511554718,-0.005090693011879921,-0.6284809708595276,-0.05130846053361893,-0.00667582219466567,0.6517509818077087,-0.09988637268543243,0.016162846237421036,-0.1290692836046219,-0.8290625214576721,-0.4290817677974701,0.32075080275535583,0.008307931944727898,0.1043659895658493,-0.027648242190480232,0.10599187761545181,-0.0014153082156553864,0.020588111132383347,0.6171324253082275,-0.7699192762374878,0.046318419277668,-0.6028690934181213,1.3966290950775146,1.0702967643737793,-0.2359064519405365,0.288100928068161,-1.46714186668396,-1.2541428804397583,0.44403472542762756,-1.3007196187973022,0.397943377494812,1741530483.3193643,1741530483208,2.27969775390625,1.5750928955078125,1.1684593750032803,-0.18839556884765626,3.0492060546875
1741530483.3835566,1.300661314278841,0.002959029621830713,-0.014488906143818658,-0.9998906518927221,-0.2939225435256958,-0.3800196647644043,0.8196782469749451,-1.6786223649978638,1.0512560606002808,9.680819511413574,0.9840164184570312,0.19932079315185547,0.1665140837430954,-1.3607468605041504,0.005531395319849253,-0.5506599545478821,0.18520638346672058,1.3328990936279297,0.009346150793135166,0.5388342142105103,-0.13904783129692078,-0.8134965896606445,0.03681239113211632,0.1668955534696579,1.0957884788513184,-0.28537717461586,-0.001984132220968604,-0.6166552305221558,-0.08030059933662415,-0.01506828423589468,0.6601434350013733,-0.1248842179775238,0.024444246664643288,0.0917230024933815,-0.5463502407073975,-0.2985401749610901,-0.05474025756120682,-0.017939424142241478,-0.09793275594711304,-0.012582178227603436,0.14530718326568604,0.009511468932032585,-0.0646115243434906,0.7680822014808655,1.3132578134536743,0.057439446449279785,-0.2379300445318222,-1.5016801357269287,0.9286432862281799,0.28669610619544983,0.587555468082428,-1.3620516061782837,-0.3670788109302521,0.4319625198841095,-1.192700743675232,0.526477038860321,1741530483.4212363,1741530483328,2.265661865234375,1.5532259521484375,1.2798239683400023,-0.4100074768066406,3.10969091796875
1741530483.403596,1.311553685925901,-0.009157956154042022,-0.014290355289167604,-0.9998559484169657,0.04858987778425217,-0.6340439319610596,0.6061060428619385,1.8652498722076416,2.612593173980713,6.541790008544922,0.9832534790039062,0.20351696014404297,0.1680399775505066,-1.362654209136963,0.005912871100008488,-0.5502784848213196,0.18520638346672058,1.3325176239013672,0.009346150793135166,0.5395971536636353,-0.13790340721607208,-0.76276034116745,0.03795681521296501,0.16918440163135529,1.0370413064956665,-0.2764648497104645,0.006650546565651894,-0.6101701259613037,-0.09708552807569504,-0.016212711110711098,0.6727321147918701,-0.14474083483219147,0.034135833382606506,-0.023867007344961166,0.03440603241324425,0.11260184645652771,-0.16748489439487457,0.016812032088637352,0.05542650446295738,0.042374882847070694,-0.038918375968933105,0.0009133447310887277,0.10856879502534866,0.0437014140188694,2.701017379760742,-0.12973350286483765,0.1793416440486908,-3.11639666557312,0.35620245337486267,0.368892639875412,0.2306356430053711,-0.586392879486084,0.1447460800409317,0.5970581769943237,-1.05199134349823,0.3169398605823517,1741530483.4212363,1741530483328,2.265661865234375,1.5532259521484375,1.2798239683400023,-0.4100074768066406,3.10969091796875
1741530483.423695,1.31883331714198,-0.023219681436600245,-0.01896601345220338,-0.9995504673240434,0.2542318105697632,-0.679158091545105,0.29266661405563354,0.042422182857990265,2.392753839492798,5.747016429901123,0.9897384643554688,0.19283580780029297,0.17071031033992767,-1.36685049533844,0.005531395319849253,-0.5506599545478821,0.18596932291984558,1.3325176239013672,0.009346150793135166,0.5407415628433228,-0.14362554252147675,-0.6940947771072388,0.037193864583969116,0.17376211285591125,0.9554055333137512,-0.2782346308231354,0.00043436879059299827,-0.6094071865081787,-0.10433356463909149,-0.007438773289322853,0.6898985505104065,-0.16662220656871796,0.03670346364378929,0.19835549592971802,-0.28634393215179443,0.10361092537641525,-0.25884658098220825,-0.008572803810238838,-0.04423874244093895,0.03389349579811096,-0.014079522341489792,0.003686893731355667,0.054979968816041946,-0.5528454780578613,3.5370092391967773,-0.040460437536239624,0.12297216057777405,-4.169312000274658,-0.14529448747634888,-0.3521040976047516,0.010067206807434559,-0.24494414031505585,0.45409566164016724,0.9998785257339478,-1.0844428539276123,0.1984211504459381,1741530483.4212363,1741530483328,2.265661865234375,1.5532259521484375,1.2798239683400023,-0.4100074768066406,3.10969091796875
1741530483.4436202,1.3236328547936864,-0.034550260051118234,-0.025887566844285035,-0.9990676220423135,0.3428278863430023,-0.5481974482536316,0.2835911214351654,4.188072204589844,-0.6652876138687134,3.908777952194214,0.9882125854492188,0.17833995819091797,0.17223620414733887,-1.36685049533844,0.005531395319849253,-0.5502784848213196,0.1844434291124344,1.3325176239013672,0.009346150793135166,0.5407415628433228,-0.17223620414733887,-0.6303883194923401,0.035667963325977325,0.17414358258247375,0.8623254895210266,-0.28650015592575073,-0.0018951832316815853,-0.6185625791549683,-0.10509651154279709,0.0009536888683214784,0.7215610146522522,-0.18941457569599152,0.0427076555788517,-0.03569786623120308,-0.41426169872283936,0.08690645545721054,-0.022943975403904915,0.006317161954939365,0.06615393608808517,-0.07657447457313538,-0.009289408102631569,0.0022381029557436705,0.0186979528516531,-1.4861571788787842,3.0246613025665283,-0.13645684719085693,0.03730246424674988,-4.69451904296875,-0.4656248688697815,0.095024473965168,-0.6265643239021301,-0.017155302688479424,0.4960789084434509,1.6729727983474731,-1.193793535232544,0.3612670600414276,1741530483.4212363,1741530483328,2.265661865234375,1.5532259521484375,1.2798239683400023,-0.4100074768066406,3.10969091796875
1741530483.4636145,1.3350309459492564,-0.04148206860974983,-0.027215388855084975,-0.9987685220276631,0.03117671050131321,-0.2080085128545761,0.6257110834121704,-1.2421517372131348,-12.444519996643066,13.522356033325195,0.9855422973632812,0.15621376037597656,0.17566949129104614,-1.364943027496338,0.005531395319849253,-0.5506599545478821,0.1844434291124344,1.3325176239013672,0.009346150793135166,0.5407415628433228,-0.19398032128810883,-0.578507661819458,0.02079041674733162,0.1832990050315857,0.7742046117782593,-0.29073286056518555,0.0049073221161961555,-0.6410696506500244,-0.10166323184967041,0.004386968910694122,0.7646677494049072,-0.21294862031936646,0.054011810570955276,-0.08356533944606781,-0.6516029834747314,0.17594115436077118,0.1916743814945221,-0.010970818810164928,-0.05719585716724396,0.015908798202872276,-0.006986903492361307,-8.434295159531757e-05,-0.016790764406323433,-1.1255706548690796,2.321178913116455,-0.8745924234390259,0.5708525776863098,-4.091536045074463,0.047546062618494034,0.3901241421699524,-1.124985933303833,0.19578005373477936,0.08030454814434052,2.280829429626465,-1.1626814603805542,0.6273227334022522,1741530483.4212363,1741530483328,2.265661865234375,1.5532259521484375,1.2798239683400023,-0.4100074768066406,3.10969091796875
1741530483.483639,1.361616488546133,-0.04397885541613337,-0.02563018601547686,-0.9987036366415709,0.12179649621248245,-0.1467430293560028,1.4991167783737183,-0.10220394283533096,0.16987469792366028,13.759150505065918,0.9836349487304688,0.15430641174316406,0.17528800666332245,-1.3599839210510254,0.005912871100008488,-0.5468451976776123,0.18520638346672058,1.3336620330810547,0.008964675478637218,0.5384527444839478,-0.2161058932542801,-0.5758373141288757,0.00667582219466567,0.20962081849575043,0.7696269154548645,-0.25613322854042053,0.03603534400463104,-0.6589990258216858,-0.11577782779932022,0.004005493130534887,0.8154039978981018,-0.23706820607185364,0.05887548625469208,-0.04748808220028877,-0.07716301083564758,-0.1522761583328247,0.2481633871793747,0.01247822493314743,0.2379959672689438,0.06476388871669769,0.08931464701890945,-0.015618069097399712,-0.12617556750774384,-1.0673402547836304,-0.20394179224967957,-0.629487931728363,0.7509923577308655,0.02521766908466816,1.716771125793457,1.519932746887207,-0.8118112087249756,-0.6765567064285278,0.2530120313167572,2.2822766304016113,-1.3697856664657593,-0.13640671968460083,1741530483.5246537,1741530483408,2.246326416015625,1.5394019775390626,1.3127164293308897,-0.5519277954101562,3.1457075195312503
1741530483.5036895,1.3944718092679977,-0.05711394012257891,-0.032617633916704206,-0.997834699637846,0.3544342517852783,-0.6901933550834656,1.610884189605713,-8.697580337524414,-4.511693954467773,10.525946617126465,0.9840164184570312,0.16613292694091797,0.1668955534696579,-1.362654209136963,0.005531395319849253,-0.5510414242744446,0.18635080754756927,1.3332805633544922,0.009346150793135166,0.5395971536636353,-0.24319066107273102,-0.577744722366333,0.006294346414506435,0.1817730963230133,0.7471198439598083,-0.22460506856441498,0.036248162388801575,-0.6853207945823669,-0.10166323184967041,0.030708782374858856,0.8440146446228027,-0.2776511013507843,0.03230290859937668,0.024149281904101372,0.4168260991573334,-0.36457359790802,-0.09358242899179459,0.013471007347106934,-0.316986083984375,0.08818221837282181,-0.051314614713191986,0.02033825032413006,0.03996329754590988,-1.24088716506958,0.5469973087310791,-0.0324702188372612,-1.4269862174987793,-1.2577881813049316,1.5940037965774536,-0.43000468611717224,-1.4843209981918335,0.8234356641769409,1.602224349975586,1.418243646621704,-2.0059823989868164,-1.4221073389053345,1741530483.5246537,1741530483408,2.246326416015625,1.5394019775390626,1.3127164293308897,-0.5519277954101562,3.1457075195312503
