Freshhhhh-LC/Legged_odom/data/7/segments/booster_seg_9.8s.csv
time,yaw,projected_gravity_x,projected_gravity_y,projected_gravity_z,ang_vel_x,ang_vel_y,ang_vel_z,lin_acc_x,lin_acc_y,lin_acc_z,q_0,q_1,q_2,q_3,q_4,q_5,q_6,q_7,q_8,q_9,q_10,q_11,q_12,q_13,q_14,q_15,q_16,q_17,q_18,q_19,q_20,q_21,q_22,dq_0,dq_1,dq_2,dq_3,dq_4,dq_5,dq_6,dq_7,dq_8,dq_9,dq_10,dq_11,dq_12,dq_13,dq_14,dq_15,dq_16,dq_17,dq_18,dq_19,dq_20,dq_21,dq_22,mocap_time,mocap_timestamp,robot_x,robot_y,robot_yaw,ball_x,ball_y
1741530353.3526654,-1.6730716228485107,0.00458825446103855,0.0012033457983565124,-0.9999887498766625,-0.0026741037145256996,0.15489239990711212,0.2577221989631653,-7.143245220184326,-3.284519672393799,14.648788452148438,-0.09632301330566406,0.3641185760498047,0.14667734503746033,-1.23295259475708,0.005531395319849253,-0.9618905782699585,0.3118562698364258,1.2485930919647217,0.010872052982449532,0.9149690866470337,0.10547798871994019,-0.3130006790161133,-0.03604944050312042,-0.13103684782981873,1.049248456954956,-0.40503954887390137,0.027706732973456383,-0.6815060377120972,-0.09327077120542526,-0.2290760725736618,0.7738231420516968,-0.33247217535972595,-0.039273008704185486,0.21390649676322937,0.0817045271396637,3.380221366882324,-0.22331295907497406,0.004026998765766621,0.3835744559764862,-5.102169513702393,0.4716295003890991,-0.0016536349430680275,0.13617821037769318,-1.1358977556228638,-3.8791587352752686,-1.0661638975143433,-1.206235647201538,8.386870384216309,2.3069019317626953,0.5218660831451416,1.2295838594436646,1.7687290906906128,1.668343186378479,0.3342397212982178,-0.2740468680858612,0.028498489409685135,1741530353.3715324,1741530353288,2.1002578125,-1.1440531005859376,-2.198062819142977,0.07693148803710938,-2.44424267578125
1741530353.354768,-1.650320053100586,0.008058785774326983,0.01991939045529351,-0.9997691102728335,-0.6086931228637695,0.03635672479867935,0.8434469103813171,-1.2725764513015747,0.5487573742866516,10.27190113067627,-0.10280799865722656,0.3904399871826172,0.25272753834724426,-1.238293170928955,0.005531395319849253,-0.9496833682060242,0.17452506721019745,1.2566040754318237,0.010109102353453636,0.9145876169204712,0.0883115902543068,-0.5037384629249573,-0.09632257372140884,-0.15850308537483215,1.339932918548584,-0.36943063139915466,0.004237974528223276,-0.6277180314064026,-0.08297093212604523,-0.22297245264053345,0.776493489742279,-0.3299804627895355,-0.030802275985479355,0.01431575883179903,0.48512378334999084,2.755017042160034,-0.06834446638822556,0.00494350166991353,0.39466965198516846,-5.4423980712890625,0.31254395842552185,0.007051700260490179,0.048691727221012115,-0.37288305163383484,-5.837455749511719,-1.7542121410369873,-0.12240787595510483,7.578784942626953,-0.12516143918037415,-0.475037157535553,1.9394525289535522,-0.07339192926883698,-0.4207741618156433,0.206374853849411,0.0795905590057373,0.7340108752250671,1741530353.3715324,1741530353288,2.1002578125,-1.1440531005859376,-2.198062819142977,0.07693148803710938,-2.44424267578125
1741530353.3602102,4.04935359954834,0.023161921447681564,0.0320056485912112,-0.9992192771624793,-0.45526212453842163,-0.4507477879524231,-2.0002198219299316,-0.17540620267391205,-2.7725164890289307,13.022061347961426,-0.525482177734375,0.2565422058105469,0.14286258816719055,-1.2638521194458008,0.005149920005351305,-0.7330052852630615,0.16193637251853943,1.3161141872406006,0.00858320016413927,0.7368200421333313,0.19474326074123383,-0.6914244294166565,-0.02231631986796856,-0.14553292095661163,0.724612832069397,-0.13470759987831116,-0.012874297797679901,-0.620851457118988,-0.03681239113211632,-0.2466239482164383,1.1442358493804932,-0.39074960350990295,-0.0009351279004476964,-0.024453120306134224,-0.4403231739997864,-1.8149715662002563,0.5808654427528381,-0.015073789283633232,-0.08423411846160889,1.7593555450439453,0.00937296450138092,-0.10234750807285309,-0.22084760665893555,0.09741020947694778,0.7411612272262573,0.6277742385864258,-0.22993287444114685,0.6362770199775696,0.19456811249256134,-0.6120139360427856,-2.3902852535247803,-0.24527588486671448,-1.762042760848999,4.495439052581787,-1.5985146760940552,0.3815367817878723,1741530353.3715324,1741530353288,2.1002578125,-1.1440531005859376,-2.198062819142977,0.07693148803710938,-2.44424267578125
1741530353.380259,4.01606559753418,0.012120649516443505,0.03743975140386049,-0.9992253774149837,-0.2122146636247635,-0.44611263275146484,-1.4959148168563843,-1.3065046072006226,-1.1626819372177124,14.600618362426758,-0.5212860107421875,0.23403549194335938,0.11501488089561462,-1.2592743635177612,0.005912871100008488,-0.727664589881897,0.18978407979011536,1.3153512477874756,0.008964675478637218,0.7337682247161865,0.19359883666038513,-0.6811245679855347,-0.000572213320992887,-0.1325627565383911,0.7406347990036011,-0.15531094372272491,-0.021961208432912827,-0.6612878441810608,-0.05054550990462303,-0.266460657119751,1.2113755941390991,-0.42936503887176514,-0.001184308435767889,0.12440914660692215,-0.7275184988975525,-1.3350180387496948,0.15379531681537628,0.061424702405929565,0.3434479534626007,1.8948763608932495,0.021312521770596504,-0.003447822527959943,-0.15046493709087372,0.15427547693252563,0.680007815361023,1.1738972663879395,0.6668723225593567,0.7974156737327576,-1.2723705768585205,-0.3412048816680908,-1.9259212017059326,-0.7697140574455261,-0.8298586010932922,3.0151710510253906,-1.939638614654541,-0.04397222399711609,1741530353.3715324,1741530353288,2.1002578125,-1.1440531005859376,-2.198062819142977,0.07693148803710938,-2.44424267578125
1741530353.4002576,4.001462936401367,0.007650573608786199,0.038941059852186946,-0.9992122209926403,-0.06548038125038147,-0.23211687803268433,-0.6408941149711609,1.2178117036819458,-0.13363327085971832,11.094925880432129,-0.514801025390625,0.22182846069335938,0.08335240930318832,-1.2623261213302612,0.00476844422519207,-0.724612832069397,0.22144655883312225,1.3153512477874756,0.008964675478637218,0.734149694442749,0.18558785319328308,-0.6582360863685608,0.01773861236870289,-0.12951095402240753,0.7452124953269958,-0.19407616555690765,-0.028412863612174988,-0.6891355514526367,-0.05359731614589691,-0.2740901708602905,1.2296863794326782,-0.45834654569625854,0.0017000007210299373,0.1608796864748001,-0.4508219063282013,-1.7895084619522095,-0.23620034754276276,-0.010912833735346794,0.06174694001674652,2.2447922229766846,-0.018683014437556267,0.02556525357067585,-0.0036698689218610525,-0.45297351479530334,1.1604316234588623,0.801093339920044,0.1877359002828598,0.08584296703338623,-1.9387493133544922,-0.43144333362579346,-1.2534172534942627,-0.045525919646024704,-0.39751914143562317,0.5258264541625977,-1.3248499631881714,0.3545801341533661,1741530353.3715324,1741530353288,2.1002578125,-1.1440531005859376,-2.198062819142977,0.07693148803710938,-2.44424267578125
1741530353.420297,3.9931561946868896,0.0014024485194688947,0.04063905134106991,-0.999172908281769,-0.07895003259181976,-0.29961439967155457,-0.3572550415992737,-0.6259275674819946,-2.7567138671875,10.059675216674805,-0.508697509765625,0.21114635467529297,0.040627144277095795,-1.2649965286254883,0.005149920005351305,-0.7337682247161865,0.2580682039260864,1.316495656967163,0.008964675478637218,0.7352941036224365,0.17948424816131592,-0.6322957277297974,0.032616160809993744,-0.12645913660526276,0.7448310256004333,-0.22943662106990814,-0.04798431694507599,-0.700579822063446,-0.053215838968753815,-0.2759975492954254,1.2014572620391846,-0.46748456358909607,0.008380497805774212,0.15529188513755798,-0.34646376967430115,-2.0037593841552734,-0.15854254364967346,-0.043954044580459595,-0.5678265690803528,2.4788506031036377,0.08053451776504517,0.01821846514940262,0.05323442444205284,-0.29919564723968506,1.3323948383331299,0.7890177965164185,0.08742295950651169,-0.0019626182038336992,-1.7492913007736206,-0.912850022315979,-0.3917005956172943,-0.06826238334178925,-0.11085765063762665,-1.688054084777832,-0.29816365242004395,0.2379171997308731,1741530353.3715324,1741530353288,2.1002578125,-1.1440531005859376,-2.198062819142977,0.07693148803710938,-2.44424267578125
1741530353.4403508,3.9886834621429443,-0.0038382640393173732,0.0424106585830167,-0.9990928904600009,-0.10341977328062057,-0.2518085241317749,-0.2903570234775543,1.6145641803741455,-1.560220718383789,8.25491714477539,-0.4957275390625,0.20389842987060547,0.010872052982449532,-1.2646150588989258,0.005531395319849253,-0.7528420090675354,0.2950713336467743,1.3195475339889526,0.010109102353453636,0.7379644513130188,0.18520638346672058,-0.6071183085441589,0.04940108209848404,-0.12607766687870026,0.7436865568161011,-0.260372132062912,-0.0575694777071476,-0.6940947771072388,-0.05664911866188049,-0.28591591119766235,1.1411840915679932,-0.45869049429893494,0.006361609790474176,0.3811432123184204,-0.19943873584270477,-1.3390201330184937,0.05978284403681755,-0.0009017092525027692,-0.9822465181350708,2.4420628547668457,0.2290894091129303,0.0712389126420021,0.23405660688877106,0.43870487809181213,1.1733834743499756,0.7301398515701294,0.04014340415596962,-0.10490752756595612,-1.5279009342193604,-0.4554969370365143,0.4033223092556,-0.23024722933769226,-0.4955117404460907,-3.2114551067352295,0.5465171337127686,-0.11324314773082733,1741530353.477921,1741530353388,2.0822021484375,-1.1656380615234376,-2.287933339275527,-0.027780900955200197,-2.4911865234375
1741530353.4603343,3.978402853012085,-0.009866647515221406,0.04611475078760333,-0.9988874205968397,-0.20341141521930695,-0.28155744075775146,-0.5476454496383667,0.1019749566912651,-0.36493799090385437,7.888385772705078,-0.4846649169921875,0.20313549041748047,0.0020981156267225742,-1.2627075910568237,0.005531395319849253,-0.7761120200157166,0.3271152675151825,1.3187845945358276,0.009727626107633114,0.7475013136863708,0.20656901597976685,-0.5910963416099548,0.06008239835500717,-0.12951095402240753,0.7417792081832886,-0.2861371636390686,-0.0632920041680336,-0.6765468716621399,-0.0707637146115303,-0.30384528636932373,1.0626001358032227,-0.43478667736053467,0.005746365059167147,0.3350628614425659,-0.018449006602168083,-0.3211699426174164,0.11368661373853683,-0.004678401164710522,-1.2271298170089722,2.109039545059204,-0.1048235073685646,0.011326399631798267,0.6842456459999084,1.203279733657837,0.7496320009231567,0.5169678330421448,-0.20135435461997986,-0.05721237510442734,-1.3007822036743164,-0.3625197112560272,0.9918015003204346,-0.7984693050384521,-0.8428881168365479,-3.95644211769104,1.2924963235855103,-0.024248603731393814,1741530353.477921,1741530353388,2.0822021484375,-1.1656380615234376,-2.287933339275527,-0.027780900955200197,-2.4911865234375
1741530353.4805999,3.9599149227142334,-0.01553375008616967,0.04945824452277501,-0.9986553883382324,-0.13714754581451416,-0.22686323523521423,-0.9063666462898254,-0.49604734778404236,-0.16671817004680634,8.356246948242188,-0.4724578857421875,0.20199108123779297,0.007438773289322853,-1.2611817121505737,0.005531395319849253,-0.8024337887763977,0.35114824771881104,1.3145883083343506,0.009727626107633114,0.76276034116745,0.24319066107273102,-0.5804150700569153,0.06847485899925232,-0.13179980218410492,0.7421606779098511,-0.30924955010414124,-0.0705111026763916,-0.6513695120811462,-0.09098191559314728,-0.3263523280620575,0.9683756828308105,-0.4012458026409149,0.0051702335476875305,0.36302104592323303,-0.018590709194540977,0.3899393081665039,0.09379120916128159,-0.0045524947345256805,-1.3031420707702637,1.4259600639343262,-0.3322935998439789,0.0062876916490495205,1.0203461647033691,1.7664040327072144,0.45154696702957153,0.3263368308544159,-0.10378266125917435,-0.00072419986827299,-1.1047860383987427,-0.3540397882461548,1.2897655963897705,-0.9724651575088501,-1.0880534648895264,-4.618442535400391,1.6455621719360352,-0.14738714694976807,1741530353.477921,1741530353388,2.0822021484375,-1.1656380615234376,-2.287933339275527,-0.027780900955200197,-2.4911865234375
1741530353.5005598,3.936382293701172,-0.020090535795343093,0.04879021676842056,-0.9986069722964819,0.04616504907608032,-0.157367542386055,-1.1781131029129028,-1.0314048528671265,-1.5729336738586426,8.158150672912598,-0.4510946273803711,0.20160961151123047,0.025749599561095238,-1.2608002424240112,0.005531395319849253,-0.8268482685089111,0.3614480793476105,1.3050514459609985,0.009727626107633114,0.7829785346984863,0.2782863974571228,-0.5746929049491882,0.0715266615152359,-0.1329442262649536,0.7440680265426636,-0.3283296227455139,-0.07662816345691681,-0.620088517665863,-0.10967422276735306,-0.34695202112197876,0.8684290647506714,-0.3673684597015381,0.002111713169142604,0.6125459671020508,-0.0005035821814090014,1.005459189414978,0.0043634772300720215,-0.0033962305169552565,-1.1775542497634888,0.5758348107337952,-0.7047976851463318,0.00527852913364768,1.3869030475616455,1.7164275646209717,0.4073461592197418,0.15039080381393433,-0.06929266452789307,0.16920414566993713,-0.9114599823951721,-0.28837674856185913,1.5219032764434814,-0.8964049220085144,-0.98731929063797,-4.926015853881836,1.6522823572158813,-0.17190220952033997,1741530353.477921,1741530353388,2.0822021484375,-1.1656380615234376,-2.287933339275527,-0.027780900955200197,-2.4911865234375
1741530353.5206568,3.9110798835754395,-0.01945905310406261,0.04368609091949228,-0.9988557807373731,0.2748766839504242,0.11212367564439774,-1.3058302402496338,1.487960934638977,0.24632850289344788,7.834194183349609,-0.4400320053100586,0.18368053436279297,0.05283436179161072,-1.2608002424240112,0.005531395319849253,-0.8493552803993225,0.361066609621048,1.293225646018982,0.009727626107633114,0.8054856061935425,0.3057526648044586,-0.5621042251586914,0.07038223743438721,-0.13065537810325623,0.7501716613769531,-0.3463146686553955,-0.07645168155431747,-0.5914778113365173,-0.1188296303153038,-0.36678874492645264,0.7646677494049072,-0.34556668996810913,-0.002139134332537651,0.3611033260822296,-0.4898916184902191,1.4691576957702637,-0.015043050982058048,-0.0003951924154534936,-1.0341119766235352,-0.07307619601488113,-0.8203442692756653,-0.0038888207636773586,1.4975782632827759,1.1533650159835815,0.5266194343566895,-0.09559673815965652,0.12326336652040482,0.28672873973846436,-0.9081942439079285,0.07352612167596817,1.3568942546844482,-0.4281427264213562,-0.9056177735328674,-5.26509428024292,0.962131142616272,-0.21729932725429535,1741530353.477921,1741530353388,2.0822021484375,-1.1656380615234376,-2.287933339275527,-0.027780900955200197,-2.4911865234375
1741530353.5406153,3.887033462524414,-0.01676481092921378,0.033107715603663115,-0.9993111728996201,0.525851309299469,0.20408743619918823,-1.1642320156097412,13.308343887329102,-8.263280868530273,11.340235710144043,-0.4240102767944336,0.17681407928466797,0.08449683338403702,-1.2627075910568237,0.005531395319849253,-0.8672846555709839,0.3526741564273834,1.2791110277175903,0.009727626107633114,0.8291370868682861,0.31528952717781067,-0.5491340756416321,0.06198977679014206,-0.13141833245754242,0.763523280620575,-0.3618074655532837,-0.0738668367266655,-0.5727855563163757,-0.1325627565383911,-0.37899595499038696,0.6960021257400513,-0.3310122787952423,-0.01062216330319643,0.46601712703704834,-0.20317232608795166,1.6843476295471191,-0.1725553423166275,0.009143050760030746,-0.9028250575065613,-0.618121325969696,-0.971409261226654,-0.003272103378549218,1.5385111570358276,0.4467916786670685,0.7816902995109558,-0.4975825548171997,-0.07623302191495895,0.7870108485221863,-0.7469995617866516,0.07428508251905441,0.8372613787651062,-0.6601836085319519,-0.6588307619094849,-2.364290952682495,0.8166174292564392,-0.5113181471824646,1741530353.477921,1741530353388,2.0822021484375,-1.1656380615234376,-2.287933339275527,-0.027780900955200197,-2.4911865234375
1741530353.5607083,3.8647308349609375,-0.01927379191653318,0.028158198656360777,-0.9994176488303511,0.17171010375022888,-0.03894228860735893,-1.1886868476867676,0.4129740595817566,0.0998687595129013,9.8676118850708,-0.4091329574584961,0.18635082244873047,0.12111848592758179,-1.2634705305099487,0.005149920005351305,-0.8859769701957703,0.33512628078460693,1.2688112258911133,0.010109102353453636,0.8485923409461975,0.3133821487426758,-0.5262455344200134,0.05245288833975792,-0.13828489184379578,0.7719157934188843,-0.38307857513427734,-0.061335138976573944,-0.5518043637275696,-0.11387044936418533,-0.3839551508426666,0.7001983523368835,-0.3304450213909149,-0.02093633823096752,0.4675610065460205,0.2564198672771454,1.837929368019104,0.040113627910614014,-0.01973884366452694,-0.942074716091156,-1.3925838470458984,-0.564659595489502,0.05469866096973419,1.2843862771987915,-0.2850538194179535,1.1828824281692505,-0.563258171081543,-0.3807229995727539,0.2527971565723419,-1.1556627750396729,0.831468939781189,1.0879709720611572,0.8552514910697937,0.01962752640247345,0.00022110168356448412,-0.17777347564697266,-0.34133443236351013,1741530353.477921,1741530353388,2.0822021484375,-1.1656380615234376,-2.287933339275527,-0.027780900955200197,-2.4911865234375
1741530353.5806382,3.8467793464660645,-0.018786872914311775,0.02358825744541312,-0.9995452203461285,0.20148567855358124,0.020695388317108154,-0.7975649237632751,0.5742096304893494,-1.905441164970398,11.097559928894043,-0.4034099578857422,0.19703197479248047,0.1653696447610855,-1.2627075910568237,0.005912871100008488,-0.9016174674034119,0.30155640840530396,1.2665224075317383,0.009727626107633114,0.8710994124412537,0.3057526648044586,-0.50030517578125,0.03223468363285065,-0.1672770231962204,0.7822155952453613,-0.40771162509918213,-0.03304572403430939,-0.5289158225059509,-0.1024261862039566,-0.3526741564273834,0.6952391862869263,-0.34552910923957825,-0.025545064359903336,0.18690282106399536,0.2749951183795929,2.2587671279907227,0.0039418661035597324,0.042468566447496414,-0.7856419086456299,-2.2621705532073975,-0.10385771840810776,-0.04251278564333916,1.4736844301223755,-0.31676948070526123,1.1460813283920288,-1.2353345155715942,-1.8128916025161743,0.6467933654785156,-1.22032630443573,1.4103626012802124,1.2752368450164795,0.6393802165985107,1.851318597793579,-0.16517382860183716,-0.7818472385406494,-0.38748279213905334,1741530353.6789846,1741530353508,2.0344853515625,-1.1828863525390625,-2.347156864341421,-0.13876788330078124,-2.556566650390625
1741530353.6006677,3.83561110496521,-0.019157318010257517,0.023011450086730143,-0.9995516346500364,0.00183950737118721,-0.014183305203914642,-0.48563554883003235,1.3986310958862305,2.582512140274048,9.083024978637695,-0.3866252899169922,0.21114635467529297,0.20580606162548065,-1.2615631818771362,0.005531395319849253,-0.919165313243866,0.265697717666626,1.2642335891723633,0.009727626107633114,0.88979172706604,0.2977416515350342,-0.4968718886375427,-0.00667582219466567,-0.22373540699481964,0.8272297382354736,-0.4370686113834381,0.0032054162584245205,-0.5079346895217896,-0.08373387902975082,-0.31910428404808044,0.6921873688697815,-0.35773420333862305,-0.03461292386054993,0.47134673595428467,0.39309391379356384,1.9637223482131958,0.09116606414318085,0.010464110411703587,-0.8997841477394104,-2.4139609336853027,-0.17429344356060028,0.0035319968592375517,1.2737964391708374,-0.4382145404815674,-0.08627083152532578,-2.0454185009002686,-2.8260300159454346,2.692922592163086,-1.4622623920440674,1.8204033374786377,0.8041461706161499,1.1473472118377686,1.297463297843933,-0.16880883276462555,-0.5238702893257141,-0.4261685907840729,1741530353.6789846,1741530353508,2.0344853515625,-1.1828863525390625,-2.347156864341421,-0.13876788330078124,-2.556566650390625
1741530353.620741,3.8342299461364746,-0.01965837946555743,0.023438134858799295,-0.9995319914595674,-0.0624702125787735,0.02381833642721176,-0.001818667515181005,-9.026165008544922,0.18969585001468658,6.088459491729736,-0.3767070770263672,0.21801280975341797,0.24319066107273102,-1.2615631818771362,0.005531395319849253,-0.9355688095092773,0.22449836134910583,1.2596558332443237,0.009727626107633114,0.9077210426330566,0.2939268946647644,-0.5384527444839478,-0.056267641484737396,-0.2653162479400635,0.9443427324295044,-0.46108105778694153,0.0002423756814096123,-0.4964904189109802,-0.06275273114442825,-0.2977416515350342,0.6891355514526367,-0.3666558265686035,-0.03497491031885147,0.31567007303237915,0.23027193546295166,1.8373172283172607,0.019811075180768967,-0.0041129617020487785,-0.822276771068573,-2.832418441772461,-0.32140955328941345,0.014278045855462551,1.1548962593078613,-0.16992022097110748,-2.5098226070404053,-2.4476211071014404,-1.8041313886642456,6.271976470947266,-1.1823132038116455,-0.5308183431625366,0.6434822678565979,0.95292067527771,1.0219643115997314,-0.1107068881392479,-0.39764049649238586,0.07471105456352234,1741530353.6789846,1741530353508,2.0344853515625,-1.1828863525390625,-2.347156864341421,-0.13876788330078124,-2.556566650390625
1741530353.6428974,3.84132981300354,-0.01643981670097436,0.02679849428983293,-0.9995056643814662,-0.16904762387275696,0.13978447020053864,0.39189383387565613,-0.7320417761802673,0.5172741413116455,7.998282432556152,-0.3671703338623047,0.22259140014648438,0.2759975492954254,-1.2600373029708862,0.005531395319849253,-0.9500648379325867,0.17833982408046722,1.2546966075897217,0.009727626107633114,0.9210727214813232,0.28934919834136963,-0.6319142580032349,-0.10585946589708328,-0.2641718089580536,1.10990309715271,-0.4834284484386444,-0.007332555949687958,-0.49343863129615784,-0.04787518084049225,-0.28667888045310974,0.6948577165603638,-0.3717741072177887,-0.037628404796123505,0.27935928106307983,0.15351548790931702,1.4832066297531128,0.07859323918819427,-0.0017750693950802088,-0.6924043893814087,-3.1196889877319336,-0.31301888823509216,0.008186728693544865,0.8935880661010742,-0.22561198472976685,-4.988386154174805,-2.3939473628997803,0.27676212787628174,8.388622283935547,-1.1314330101013184,0.06641057133674622,0.03596911206841469,0.653208315372467,0.5357855558395386,0.36877286434173584,-0.3032918870449066,-0.16223996877670288,1741530353.6789846,1741530353508,2.0344853515625,-1.1828863525390625,-2.347156864341421,-0.13876788330078124,-2.556566650390625
1741530353.6607509,3.8517165184020996,-0.011292260418594664,0.03105374001805382,-0.9994539259443278,-0.2050226330757141,0.24217568337917328,0.50071120262146,2.0771641731262207,2.452406883239746,10.465551376342773,-0.3484783172607422,0.22564315795898438,0.3057526648044586,-1.2585114240646362,0.005531395319849253,-0.9576943516731262,0.12645913660526276,1.2501189708709717,0.009727626107633114,0.9313725233078003,0.28515297174453735,-0.7444495558738708,-0.13752193748950958,-0.23556114733219147,1.2754634618759155,-0.5022739171981812,0.00742257758975029,-0.4980163276195526,-0.04177157208323479,-0.2801937758922577,0.7127870321273804,-0.38354694843292236,-0.04041080176830292,0.528884768486023,0.1026344895362854,1.5453133583068848,0.08868645131587982,-0.0026975013315677643,-0.32395365834236145,-3.413857936859131,-0.3535676896572113,0.0011309559922665358,0.6535421013832092,-0.2067638337612152,-5.472342491149902,-1.391128659248352,1.5808236598968506,7.660343170166016,-0.8367716670036316,0.5307134985923767,-0.2735603153705597,0.21603623032569885,0.3442695736885071,0.9273501634597778,-0.627511203289032,-0.18359431624412537,1741530353.6789846,1741530353508,2.0344853515625,-1.1828863525390625,-2.347156864341421,-0.13876788330078124,-2.556566650390625
1741530353.6808076,3.8623812198638916,-0.007710903371203913,0.03478176030621647,-0.9993651840639641,-0.17668676376342773,0.18021635711193085,0.5235790610313416,0.4101199209690094,4.548521041870117,10.99296760559082,-0.3324556350708008,0.23556137084960938,0.33550775051116943,-1.2585114240646362,0.005531395319849253,-0.9580758213996887,0.07495994865894318,1.2428709268569946,0.009727626107633114,0.9355688095092773,0.2821011543273926,-0.8329518437385559,-0.16269932687282562,-0.1981765478849411,1.3807507753372192,-0.5060298442840576,-0.010214955545961857,-0.5086976289749146,-0.03604944050312042,-0.26874953508377075,0.7345311641693115,-0.40139836072921753,-0.049209848046302795,0.47346052527427673,0.28585419058799744,1.47609543800354,0.0011077659437432885,0.001819938886910677,-0.0032409746199846268,-3.3888468742370605,-0.5043953061103821,0.0024059582501649857,0.28751036524772644,-0.14468713104724884,-4.048581600189209,-1.220426321029663,1.9023878574371338,4.512212753295898,-0.050574906170368195,-0.9375495910644531,-0.42558789253234863,0.3617284297943115,0.6412650942802429,1.1307857036590576,-0.9673123359680176,-0.4719185531139374,1741530353.6789846,1741530353508,2.0344853515625,-1.1828863525390625,-2.347156864341421,-0.13876788330078124,-2.556566650390625
1741530353.7008386,3.860718250274658,-0.004371899688438587,0.035570792703114355,-0.9993575962585097,0.015095324255526066,0.16393639147281647,-0.16531851887702942,5.411250591278076,3.8479206562042236,11.471134185791016,-0.3049898147583008,0.24052047729492188,0.36488136649131775,-1.2608002424240112,0.005149920005351305,-0.9569314122200012,0.03185320645570755,1.239819049835205,0.010109102353453636,0.9374761581420898,0.272945761680603,-0.8806362748146057,-0.17490653693675995,-0.17605096101760864,1.3899061679840088,-0.49740874767303467,-0.006479193922132254,-0.5174715518951416,-0.03223468363285065,-0.2573052644729614,0.7513160705566406,-0.4236418604850769,-0.05121784657239914,0.7991556525230408,0.17384719848632812,1.420683741569519,-0.1365276575088501,-0.007007393520325422,0.09007246047258377,-2.767916202545166,-0.12241001427173615,0.039895541965961456,0.11630900949239731,-0.33061331510543823,-1.9484370946884155,-0.4431595504283905,1.0016144514083862,-0.2920381426811218,0.5030879974365234,0.5932097434997559,-0.45216119289398193,0.2094215452671051,0.6140266060829163,0.8164364695549011,-1.0636568069458008,-0.08274898678064346,1741530353.6789846,1741530353508,2.0344853515625,-1.1828863525390625,-2.347156864341421,-0.13876788330078124,-2.556566650390625
1741530353.7209466,3.8460581302642822,-0.001528452486725567,0.03116504997774773,-0.9995130832024562,0.22657617926597595,0.18299946188926697,-0.8375693559646606,-0.15680915117263794,-2.5901272296905518,11.428573608398438,-0.2885866165161133,0.23823165893554688,0.3919661343097687,-1.2646150588989258,0.005531395319849253,-0.9504463076591492,-0.00019073777366429567,1.2405821084976196,0.009727626107633114,0.9382390975952148,0.27103838324546814,-0.8756771087646484,-0.17032882571220398,-0.1657511293888092,1.3052185773849487,-0.479214608669281,0.001206303364597261,-0.5159456729888916,-0.026512550190091133,-0.2447165697813034,0.769245445728302,-0.4456719756126404,-0.051283977925777435,0.5023229122161865,-0.06632755696773529,1.3283963203430176,-0.3501303195953369,-0.053142014890909195,0.3435896635055542,-2.0308213233947754,0.1068696603178978,-0.003223698353394866,0.01621774211525917,-0.10989851504564285,0.5912545919418335,0.33917075395584106,0.33232730627059937,-4.908901691436768,0.9420089721679688,-0.015758369117975235,0.11890260130167007,0.2276727259159088,0.6079218983650208,0.9243065714836121,-1.1024744510650635,0.01008355338126421,1741530353.6789846,1741530353508,2.0344853515625,-1.1828863525390625,-2.347156864341421,-0.13876788330078124,-2.556566650390625
1741530353.740863,3.832750082015991,0.001806946302942819,0.023391693740461246,-0.999724743921551,0.42198988795280457,0.19039732217788696,-0.5467164516448975,-1.191440463066101,-1.4796257019042969,7.496591567993164,-0.2775230407714844,0.23785018920898438,0.40989547967910767,-1.2653779983520508,0.006294346414506435,-0.9401465058326721,-0.03833829239010811,1.2455412149429321,0.010109102353453636,0.9412909150123596,0.2584496736526489,-0.8413442969322205,-0.15735866129398346,-0.1668955534696579,1.1446174383163452,-0.4646362066268921,-0.005061374511569738,-0.5144197940826416,-0.024605173617601395,-0.23861294984817505,0.7883192300796509,-0.4685310125350952,-0.05210310220718384,0.3047816753387451,-0.02183239907026291,0.7993236184120178,-0.018216397613286972,0.05071794241666794,0.5034475922584534,-2.462519884109497,0.2568107843399048,0.017688455060124397,0.1911497861146927,-0.7120196223258972,1.8723268508911133,0.7738462686538696,-0.10560943931341171,-8.647100448608398,0.6124714612960815,-0.03225049376487732,0.12438736855983734,0.11607257276773453,0.1791456937789917,1.0394669771194458,-1.1262664794921875,0.05280096456408501,1741530353.6789846,1741530353508,2.0344853515625,-1.1828863525390625,-2.347156864341421,-0.13876788330078124,-2.556566650390625
1741530353.7609062,3.825502634048462,0.0072872026325487655,0.01739988567432993,-0.999822054495855,0.2687646746635437,0.2504280209541321,-0.31566545367240906,4.262833595275879,-3.461538553237915,3.3838820457458496,-0.2660789489746094,0.23708724975585938,0.41676202416419983,-1.2649965286254883,0.005531395319849253,-0.9313725233078003,-0.05436026677489281,1.2421079874038696,0.009346150793135166,0.9477760195732117,0.2450980395078659,-0.7909895181655884,-0.13103684782981873,-0.15850308537483215,0.9580758213996887,-0.46658238768577576,0.008924206718802452,-0.509079098701477,-0.016212711110711098,-0.24319066107273102,0.8062485456466675,-0.4904334545135498,-0.044670216739177704,0.3429657816886902,-0.005351835396140814,0.2631063461303711,0.09169351309537888,0.002867592964321375,0.38823235034942627,-0.8122760057449341,-0.2624764144420624,-0.072392039000988,0.45245876908302307,-0.6078624725341797,2.5065383911132812,1.3594921827316284,0.6098920702934265,-9.320494651794434,-0.23444156348705292,0.6468778848648071,0.23836439847946167,0.4092964828014374,-0.3127439022064209,0.8391010761260986,-1.0713632106781006,0.4473308026790619,1741530353.6789846,1741530353508,2.0344853515625,-1.1828863525390625,-2.347156864341421,-0.13876788330078124,-2.556566650390625
1741530353.7809718,3.821439027786255,0.007631459236625801,0.023170140319096786,-0.9997024084333863,-0.4789721965789795,-0.031840819865465164,-0.19446201622486115,-5.404145240783691,30.8648738861084,-3.5776774883270264,-0.2672233581542969,0.2515830993652344,0.41523614525794983,-1.2592743635177612,0.00476844422519207,-0.926413357257843,-0.05283436179161072,1.2363858222961426,0.009346150793135166,0.953498125076294,0.23517967760562897,-0.7494087219238281,-0.10662241280078888,-0.14019227027893066,0.8611810207366943,-0.4455031752586365,-0.011111094616353512,-0.5037384629249573,-0.008201723918318748,-0.25349050760269165,0.8272297382354736,-0.5041000247001648,-0.04026546701788902,0.007238594815135002,0.4252955913543701,-0.06454195082187653,0.40217071771621704,-0.05669921636581421,0.2180703580379486,0.2714368402957916,-0.3691585063934326,0.02697783149778843,0.3154543340206146,-0.6240934729576111,1.8656423091888428,1.1517709493637085,1.164394497871399,-2.068572759628296,1.7704793214797974,-1.220973014831543,0.3899768888950348,0.11867642402648926,-0.4652145504951477,1.2569397687911987,-0.5457875728607178,0.11212415248155594,1741530353.6789846,1741530353508,2.0344853515625,-1.1828863525390625,-2.347156864341421,-0.13876788330078124,-2.556566650390625
1741530353.8009608,3.8264834880828857,0.012345157824866546,0.024411769264262275,-0.9996257612725212,-0.04729995131492615,0.3927696645259857,0.36641255021095276,10.101983070373535,1.85381019115448,3.2621970176696777,-0.24395370483398438,0.23556137084960938,0.4037918746471405,-1.2478300333023071,0.005912871100008488,-0.9145876169204712,-0.034142062067985535,1.2428709268569946,0.009727626107633114,0.9538795948028564,0.2573052644729614,-0.7303349375724792,-0.08030059933662415,-0.14705882966518402,0.8989471197128296,-0.4167332351207733,-0.03927265480160713,-0.4800869822502136,-0.009727626107633114,-0.27065691351890564,0.8352407217025757,-0.5120429992675781,-0.01345792505890131,0.7019926905632019,-0.5185147523880005,-0.8767274618148804,0.7703301310539246,0.01436635572463274,0.4100973308086395,1.5973527431488037,0.3589196503162384,0.0030697013717144728,-0.017624685540795326,1.4783549308776855,0.5616544485092163,1.4063774347305298,-1.0598249435424805,1.0519568920135498,1.1442979574203491,-0.8201518654823303,1.0054051876068115,0.5723261833190918,-1.1183234453201294,0.29422128200531006,-0.40337660908699036,1.7884188890457153,1741530353.883258,1741530353688,1.9665281982421876,-1.2304599609375,-2.3803360363231256,-0.3194561767578125,-2.6337392578125
1741530353.821027,3.823923110961914,0.008227182870061212,0.028489986794672465,-0.9995602203541626,-0.29295244812965393,-0.21314185857772827,-0.18607266247272491,0.6632664799690247,-14.51620864868164,16.728511810302734,-0.23708724975585938,0.24662399291992188,0.3591592311859131,-1.2348599433898926,0.00476844422519207,-0.9138246774673462,0.010109102353453636,1.2440153360366821,0.010109102353453636,0.9500648379325867,0.2775234580039978,-0.7101167440414429,-0.05664911866188049,-0.17643244564533234,0.8745326995849609,-0.4016077518463135,-0.04039716348052025,-0.464446485042572,0.001716639962978661,-0.2977416515350342,0.8497368097305298,-0.5101845860481262,-0.000923511921428144,0.16275890171527863,0.17335733771324158,-2.4954464435577393,0.8299606442451477,-0.07292742282152176,0.028730522841215134,2.9828410148620605,-0.008464309386909008,0.08571796864271164,-0.2792428731918335,1.1079556941986084,1.5486524105072021,0.9579276442527771,-0.7425379157066345,-0.9291329979896545,0.806573748588562,-0.11433149129152298,0.7940229177474976,0.29805633425712585,-1.2879300117492676,1.0337011814117432,0.16030074656009674,0.03935440629720688,1741530353.883258,1741530353688,1.9665281982421876,-1.2304599609375,-2.3803360363231256,-0.3194561767578125,-2.6337392578125
1741530353.841016,3.820113182067871,0.0019323232898621632,0.0404295957993606,-0.9991805211823356,-0.49425438046455383,-0.380797803401947,-0.35304516553878784,-5.243023872375488,0.7143889665603638,8.992419242858887,-0.23975753784179688,0.2523460388183594,0.3133821487426758,-1.224941611289978,0.005531395319849253,-0.9096284508705139,0.053215838968753815,1.2531707286834717,0.010490577667951584,0.9477760195732117,0.30041199922561646,-0.6818875670433044,-0.059319447726011276,-0.19207294285297394,0.8775845170021057,-0.38943466544151306,-0.02722368948161602,-0.4694056510925293,-0.016212711110711098,-0.32101166248321533,0.9225986003875732,-0.4916335940361023,-0.004125647246837616,0.04383828490972519,-0.0074240961112082005,-2.0697054862976074,0.6001806259155273,0.03885643929243088,0.3033222556114197,2.841604471206665,0.791426420211792,0.11441077291965485,-0.10848330706357956,1.0218971967697144,0.8048593401908875,-0.04784737899899483,-1.1744561195373535,-0.02700660191476345,0.4547504782676697,0.6938009262084961,-0.7396103739738464,-0.977461040019989,-1.2910875082015991,4.268293857574463,0.9977877736091614,0.16752281785011292,1741530353.883258,1741530353688,1.9665281982421876,-1.2304599609375,-2.3803360363231256,-0.3194561767578125,-2.6337392578125
1741530353.8610404,3.8084230422973633,-0.00475867066106623,0.041897913112061314,-0.999110564417369,-0.08252890408039093,-0.19271229207515717,-0.6404448747634888,9.624354362487793,-6.994876384735107,13.199210166931152,-0.20695018768310547,0.24204635620117188,0.26684215664863586,-1.2218897342681885,0.005149920005351305,-0.9119172692298889,0.10509651154279709,1.2600373029708862,0.010872052982449532,0.9489204287528992,0.3114747703075409,-0.6563286781311035,-0.06389715522527695,-0.212672621011734,0.8772030472755432,-0.38716259598731995,-0.028856167569756508,-0.5251010656356812,-0.037193864583969116,-0.35076677799224854,1.0370413064956665,-0.4756314754486084,0.004642875865101814,0.8860166072845459,-0.4736076295375824,-2.6847310066223145,0.11226461827754974,-0.01107611320912838,-0.23235858976840973,3.5162577629089355,0.2736758887767792,-0.05388706550002098,0.08482682704925537,0.5406685471534729,1.4166089296340942,-0.17349447309970856,-0.7730919718742371,-0.006024586036801338,0.05140215903520584,-0.17140509188175201,-2.8706281185150146,-1.1152684688568115,-1.3538830280303955,5.973159313201904,0.7022296190261841,0.4138032793998718,1741530353.883258,1741530353688,1.9665281982421876,-1.2304599609375,-2.3803360363231256,-0.3194561767578125,-2.6337392578125
1741530353.8812275,3.7870960235595703,-0.0074628159571683145,0.040869536993287985,-0.9991366209502801,0.11315436661243439,-0.12674514949321747,-1.1550599336624146,2.9510111808776855,-0.352487713098526,10.962522506713867,-0.21114635467529297,0.24013900756835938,0.20504310727119446,-1.2241785526275635,0.005531395319849253,-0.9153505563735962,0.15774014592170715,1.2577484846115112,0.008964675478637218,0.9504463076591492,0.31948578357696533,-0.6296253800392151,-0.05664911866188049,-0.20695048570632935,0.8737697601318359,-0.3910523056983948,-0.023703251034021378,-0.5930037498474121,-0.06580453366041183,-0.3583962619304657,1.1640726327896118,-0.4731021523475647,-0.005120259243994951,-0.032286569476127625,-0.06223979592323303,-3.101454973220825,-0.22149229049682617,-0.01924740895628929,-0.1291646510362625,3.4788918495178223,-0.13173240423202515,-0.024659540504217148,0.08827323466539383,0.4180722236633301,1.3078337907791138,0.5816369652748108,0.42413607239723206,-0.1872437596321106,-0.27595868706703186,0.25944358110427856,-3.6007580757141113,-1.5356813669204712,-0.16706329584121704,6.037571907043457,0.051920335739851,-0.48626935482025146,1741530353.883258,1741530353688,1.9665281982421876,-1.2304599609375,-2.3803360363231256,-0.3194561767578125,-2.6337392578125
1741530353.901168,3.7606208324432373,-0.011233778002003756,0.03303984774059292,-0.9993908998450407,0.35731396079063416,-0.10410469025373459,-1.367483377456665,1.8441799879074097,-1.8340001106262207,9.724662780761719,-0.19130992889404297,0.22564315795898438,0.14515145123004913,-1.229519248008728,0.005531395319849253,-0.9153505563735962,0.21229113638401031,1.2558410167694092,0.010109102353453636,0.951209306716919,0.32520791888237,-0.6010147333145142,-0.032616160809993744,-0.18825818598270416,0.8680475950241089,-0.4047345519065857,-0.027878524735569954,-0.6563286781311035,-0.09212634712457657,-0.3534370958805084,1.2548638582229614,-0.4752262532711029,0.0009654295281507075,0.5726012587547302,-0.35505765676498413,-2.82177472114563,-0.29644978046417236,-0.007612612564116716,-0.010027781128883362,3.6683201789855957,-0.10826050490140915,0.01654694974422455,-0.02370821125805378,0.28003427386283875,1.532159447669983,1.1314321756362915,1.1283870935440063,-0.29437771439552307,-0.7657091021537781,-0.49253031611442566,-3.151127815246582,-1.1940739154815674,0.2525840103626251,3.8951668739318848,-0.13084404170513153,0.5366515517234802,1741530353.883258,1741530353688,1.9665281982421876,-1.2304599609375,-2.3803360363231256,-0.3194561767578125,-2.6337392578125
1741530353.9211488,3.7348625659942627,-0.014239615990696343,0.02571489422093455,-0.9995678954186371,0.3506302237510681,-0.11888688802719116,-1.2923331260681152,2.638615369796753,-2.4307358264923096,10.544923782348633,-0.19474315643310547,0.21724987030029297,0.08487831056118011,-1.228756308555603,0.005531395319849253,-0.9157320261001587,0.26836803555488586,1.2550780773162842,0.009346150793135166,0.9493018984794617,0.3217746317386627,-0.5659189820289612,-0.00476844422519207,-0.1668955534696579,0.8581292629241943,-0.42423540353775024,-0.04471724480390549,-0.7066834568977356,-0.11310750246047974,-0.3416113555431366,1.2907224893569946,-0.47563663125038147,0.0009076997521333396,-0.06981025636196136,-0.26063328981399536,-3.2230582237243652,0.0620889812707901,-0.008442279882729053,-0.026977961882948875,3.786550521850586,-0.09164243936538696,-0.01589406281709671,-0.11298324167728424,-0.2811541259288788,1.740206241607666,1.3651866912841797,1.0194964408874512,-0.504593551158905,-0.9607179760932922,-0.7684680819511414,-2.2893872261047363,-1.0588610172271729,0.5725530385971069,1.3317928314208984,0.012270347215235233,-0.0984354019165039,1741530353.883258,1741530353688,1.9665281982421876,-1.2304599609375,-2.3803360363231256,-0.3194561767578125,-2.6337392578125
1741530353.9411092,3.7142345905303955,-0.017578653783612765,0.01820914567945978,-0.9996796576627837,0.3697117269039154,-0.1467621624469757,-0.8978776931762695,2.589371681213379,-0.7033820152282715,10.142572402954102,-0.19283580780029297,0.20809459686279297,0.02880140393972397,-1.228756308555603,0.005912871100008488,-0.9157320261001587,0.3225375711917877,1.2531707286834717,0.008964675478637218,0.9489204287528992,0.31719690561294556,-0.5327305793762207,0.018501564860343933,-0.1489662081003189,0.8421072959899902,-0.4430130124092102,-0.056120365858078,-0.7375829815864563,-0.13790340721607208,-0.33054855465888977,1.278515338897705,-0.4700135886669159,-0.00042851988109759986,0.028229057788848877,-0.2752431035041809,-2.7383675575256348,0.050115667283535004,0.023569943383336067,-0.014430190436542034,3.587132453918457,-0.11204996705055237,-0.018887292593717575,-0.023113641887903214,-0.18535009026527405,1.6215713024139404,1.0467467308044434,0.9012700319290161,-0.9029610753059387,-0.8918059468269348,-0.560836911201477,-1.3924193382263184,-1.2743319272994995,0.5638368129730225,-0.9186882376670837,0.313580185174942,0.038104936480522156,1741530353.985839,1741530353788,1.9261693115234375,-1.26937353515625,-2.3977847304591506,-0.4162275085449219,-2.678336669921875
1741530353.9611576,3.7030043601989746,-0.02083616224261147,0.010559578529054318,-0.9997271375951982,0.3655414879322052,-0.10717206448316574,-0.47456949949264526,1.5401054620742798,-1.8500370979309082,9.25387191772461,-0.19054698944091797,0.20427989959716797,-0.013923857361078262,-1.2291377782821655,0.005531395319849253,-0.9180209040641785,0.3706035017967224,1.2508819103240967,0.009346150793135166,0.9477760195732117,0.3091859221458435,-0.49000534415245056,0.03299763426184654,-0.13790340721607208,0.8199816942214966,-0.45796892046928406,-0.061885491013526917,-0.7536049485206604,-0.17147326469421387,-0.3282597064971924,1.2327382564544678,-0.4567650854587555,0.008174669928848743,0.044553134590387344,-0.12593865394592285,-2.0447325706481934,-0.010113876312971115,-0.005848899018019438,-0.12454631179571152,3.1136980056762695,-0.11249151825904846,0.01252403948456049,-0.08184982091188431,-0.3329116106033325,2.301046848297119,0.6760544180870056,0.4752745032310486,-1.034173607826233,-0.7074848413467407,-0.2908366620540619,-0.6782204508781433,-1.7585806846618652,0.09730987995862961,-2.453115701675415,0.6978062987327576,0.38213881850242615,1741530353.985839,1741530353788,1.9261693115234375,-1.26937353515625,-2.3977847304591506,-0.4162275085449219,-2.678336669921875
1741530353.9811983,3.6945786476135254,-0.020964598954384826,0.0041261859924092,-0.9997717040303942,0.2935275733470917,-0.0006986280786804855,-0.53167724609375,0.058265022933483124,-0.8757889866828918,10.079071044921875,-0.18635082244873047,0.19741344451904297,-0.04901960864663124,-1.228756308555603,0.005531395319849253,-0.9237430095672607,0.4190509021282196,1.2546966075897217,0.010109102353453636,0.9412909150123596,0.3084229826927185,-0.44728007912635803,0.046730753034353256,-0.12912946939468384,0.7963302135467529,-0.4732417166233063,-0.06724522262811661,-0.7513160705566406,-0.20771344006061554,-0.3282597064971924,1.1655985116958618,-0.43668776750564575,0.003984104376286268,0.12286337465047836,-0.17644405364990234,-1.8137874603271484,0.07646970450878143,0.0033391141332685947,-0.3782123923301697,3.4210338592529297,0.23916812241077423,0.09445696324110031,-0.5766388177871704,0.1466197967529297,2.182295799255371,0.712073802947998,0.3768358528614044,-1.1322152614593506,-0.7440178990364075,-0.3067833185195923,0.24306915700435638,-1.694019079208374,-0.00324333761818707,-3.503471612930298,1.0224775075912476,-0.2766302227973938,1741530353.985839,1741530353788,1.9261693115234375,-1.26937353515625,-2.3977847304591506,-0.4162275085449219,-2.678336669921875
1741530354.001157,3.680269718170166,-0.018544717224784138,-0.0009707664060754859,-0.9998275606701577,0.23685482144355774,0.08647043257951736,-0.6738810539245605,3.3705718517303467,-0.5605118274688721,7.965597152709961,-0.18177318572998047,0.19054698944091797,-0.07038223743438721,-1.224560022354126,0.005149920005351305,-0.9393835067749023,0.4560540020465851,1.2562226057052612,0.009727626107633114,0.9309910535812378,0.31757840514183044,-0.4030289053916931,0.0551232174038887,-0.12836651504039764,0.7722972631454468,-0.4891074597835541,-0.07161661982536316,-0.7379644513130188,-0.23899443447589874,-0.33512628078460693,1.0759518146514893,-0.4131704270839691,0.00033246687962673604,0.13318660855293274,-0.19496086239814758,-0.9398874044418335,0.26177892088890076,-0.015170707367360592,-0.8269437551498413,2.1466705799102783,0.07993971556425095,-0.0284910686314106,-0.6427315473556519,0.4855867028236389,2.2365779876708984,0.36805459856987,-0.059397242963314056,-1.2803648710250854,-0.7819968461990356,-0.15004168450832367,0.675912618637085,-1.5298157930374146,-0.4456826150417328,-4.6101884841918945,1.1523289680480957,-0.15129533410072327,1741530353.985839,1741530353788,1.9261693115234375,-1.26937353515625,-2.3977847304591506,-0.4162275085449219,-2.678336669921875
1741530354.0250945,3.6629514694213867,-0.01784149697633367,-0.005419580351673016,-0.9998261394534828,0.23545502126216888,0.023652318865060806,-0.9107710123062134,2.780301094055176,-0.3737011253833771,8.697990417480469,-0.17414379119873047,0.18482494354248047,-0.07038223743438721,-1.222271203994751,0.005149920005351305,-0.9546425342559814,0.47398337721824646,1.2566040754318237,0.009727626107633114,0.9214541912078857,0.33169299364089966,-0.34771496057510376,0.0558861680328846,-0.13179980218410492,0.7394903302192688,-0.501714825630188,-0.06693018227815628,-0.7089722752571106,-0.2603570520877838,-0.3526741564273834,0.9596017599105835,-0.39811304211616516,0.0011298969620838761,0.20865586400032043,-0.16922572255134583,0.16595371067523956,0.12232763320207596,-0.008042262867093086,-0.727167010307312,0.9786299467086792,0.0057426998391747475,-0.033844929188489914,-0.5873335003852844,0.6813615560531616,2.789358615875244,0.007036773022264242,-0.1840139478445053,-1.6354647874832153,-0.5688707828521729,0.40441519021987915,1.556809902191162,-0.951190710067749,-1.0364344120025635,-5.9689226150512695,0.6244345307350159,-0.02549688145518303,1741530353.985839,1741530353788,1.9261693115234375,-1.26937353515625,-2.3977847304591506,-0.4162275085449219,-2.678336669921875
1741530354.0412636,3.6414613723754883,-0.019404921820455955,-0.014113812236879767,-0.9997120832086026,0.45157721638679504,-0.11959077417850494,-1.0894615650177002,2.1870663166046143,-0.6182515025138855,6.331606388092041,-0.16117382049560547,0.18215465545654297,-0.04711223021149635,-1.2226526737213135,0.005531395319849253,-0.9634165167808533,0.4736018776893616,1.2543151378631592,0.009727626107633114,0.9149690866470337,0.3404669165611267,-0.28667888045310974,0.04558632895350456,-0.14248111844062805,0.7097352743148804,-0.5114410519599915,-0.04282532259821892,-0.6719691753387451,-0.272945761680603,-0.3778515160083771,0.8279926776885986,-0.40008607506752014,-0.006919718347489834,0.4005509912967682,-0.055101897567510605,1.3624235391616821,-0.02195851318538189,-0.010182674042880535,-0.4200747311115265,-0.10213296860456467,-0.1799100935459137,0.0030598328448832035,-0.45240840315818787,0.3486398160457611,3.0594687461853027,-0.7329115271568298,-0.5015507936477661,-1.4400057792663574,-0.4356096684932709,1.183413028717041,1.8462400436401367,-0.5650936365127563,-1.1980739831924438,-6.5801286697387695,-0.09548256546258926,-0.36665043234825134,1741530354.088414,1741530353888,1.86517919921875,-1.2846577148437501,-2.5516693147083345,-0.49696783447265624,-2.71004833984375
1741530354.0612533,3.6189053058624268,-0.027173977219944474,-0.024109441270599902,-0.9993399370602927,0.4082123041152954,-0.5188286304473877,-1.1496866941452026,-4.227455139160156,-0.8032869696617126,8.253252983093262,-0.15392494201660156,0.18673229217529297,-0.008201723918318748,-1.223034143447876,0.005149920005351305,-0.9645609259605408,0.45948728919029236,1.2493560314178467,0.009727626107633114,0.9096284508705139,0.3412298858165741,-0.22144655883312225,0.037193864583969116,-0.1653696447610855,0.692568838596344,-0.5065454840660095,-0.029499348253011703,-0.6307697892189026,-0.26684215664863586,-0.41142138838768005,0.8073930144309998,-0.3847845494747162,-0.0165833942592144,0.221140056848526,0.09323105216026306,2.054389715194702,-0.06422387808561325,-0.010427277535200119,0.0003941273607779294,-1.1660772562026978,-0.37763065099716187,0.008342652581632137,-0.40673235058784485,-0.10884667187929153,3.1971681118011475,-0.20484168827533722,-1.4177056550979614,-0.8406926393508911,0.5017151236534119,0.4350891709327698,2.3276760578155518,0.8815119862556458,-1.6653163433074951,0.3727283775806427,0.6501414179801941,-0.6813784837722778,1741530354.088414,1741530353888,1.86517919921875,-1.2846577148437501,-2.5516693147083345,-0.49696783447265624,-2.71004833984375
1741530354.0813165,3.596017599105835,-0.029564732331290623,-0.0273035843071548,-0.9991898923058425,0.10529378801584244,-0.10364304482936859,-1.0499545335769653,1.7484116554260254,-0.20523279905319214,9.042919158935547,-0.15545082092285156,0.18978404998779297,0.04444190114736557,-1.224560022354126,0.005912871100008488,-0.960746169090271,0.4190509021282196,1.2463041543960571,0.009727626107633114,0.9096284508705139,0.3233005404472351,-0.182154580950737,0.013923857361078262,-0.2134355753660202,0.7009612917900085,-0.4728959798812866,-0.022031981498003006,-0.5895704627037048,-0.24013885855674744,-0.4022659659385681,0.8146410584449768,-0.39720338582992554,-0.029463229700922966,-0.04467857629060745,0.08667776733636856,2.714256525039673,-0.07493201643228531,0.04605163261294365,0.15942136943340302,-2.8834261894226074,-0.12150046974420547,0.012551493011415005,0.0668262466788292,-0.7682345509529114,1.6089688539505005,-1.0759254693984985,-2.4756014347076416,0.9097734689712524,1.7095582485198975,0.5476530194282532,1.731864333152771,0.783991813659668,0.923295259475708,-0.13576318323612213,-0.67914879322052,-0.48969388008117676,1741530354.088414,1741530353888,1.86517919921875,-1.2846577148437501,-2.5516693147083345,-0.49696783447265624,-2.71004833984375
1741530354.1012995,3.5785951614379883,-0.02738606471612974,-0.023838561311874045,-0.9993406458530263,-0.25669652223587036,0.14078691601753235,-0.8581439852714539,-11.614042282104492,-0.8707788586616516,11.622278213500977,-0.14095497131347656,0.18978404998779297,0.09403372555971146,-1.2241785526275635,0.005531395319849253,-0.961509108543396,0.36717021465301514,1.2501189708709717,0.010109102353453636,0.9088655114173889,0.309567391872406,-0.2004653960466385,-0.007057297509163618,-0.2767605185508728,0.8005264401435852,-0.4372642934322357,-0.00442255474627018,-0.5678263306617737,-0.21114671230316162,-0.36564430594444275,0.8054856061935425,-0.40262076258659363,-0.03273851424455643,0.38980454206466675,0.042261458933353424,2.557995080947876,0.013518542051315308,-0.000784375995863229,-0.08606155216693878,-3.61063814163208,0.27679410576820374,0.01520976610481739,-0.012082206085324287,-0.7989072203636169,-1.4908685684204102,-1.0588467121124268,-3.0024595260620117,5.774579048156738,1.8458632230758667,0.8974895477294922,1.077187418937683,1.8033711910247803,1.5052556991577148,-0.2337951511144638,-0.10467731207609177,-0.0702131912112236,1741530354.088414,1741530353888,1.86517919921875,-1.2846577148437501,-2.5516693147083345,-0.49696783447265624,-2.71004833984375
1741530354.121551,3.57710599899292,-0.020015490014518744,-0.01539423099720865,-0.9996811480724658,-0.4657260477542877,0.3359551429748535,0.06994139403104782,-3.0905346870422363,-2.4864912033081055,8.946642875671387,-0.14324378967285156,0.19092845916748047,0.1359960287809372,-1.23295259475708,0.005912871100008488,-0.961509108543396,0.30308231711387634,1.2554595470428467,0.009727626107633114,0.9107728600502014,0.2920195460319519,-0.2904936373233795,-0.040245670825242996,-0.32940414547920227,0.9832532405853271,-0.392345666885376,0.005479861982166767,-0.5487525463104248,-0.1680399775505066,-0.3538185656070709,0.7955672740936279,-0.4053381681442261,-0.03857845067977905,-0.05335528403520584,0.08062202483415604,2.0355546474456787,-0.6958633661270142,-0.025605421513319016,0.0350007638335228,-4.365534782409668,0.30480071902275085,0.009555059485137463,0.08828197419643402,-0.8450883626937866,-4.882965087890625,-1.7915157079696655,-2.446056842803955,9.548064231872559,2.2851200103759766,0.4609227180480957,0.9413697719573975,1.8505635261535645,0.6880133748054504,-0.6573764085769653,-0.15300194919109344,-0.31682246923446655,1741530354.088414,1741530353888,1.86517919921875,-1.2846577148437501,-2.5516693147083345,-0.49696783447265624,-2.71004833984375
1741530354.1456673,3.5937771797180176,-0.014857854666455938,-0.001961193909445459,-0.9998876926301073,-0.6643381118774414,0.22743825614452362,0.9053749442100525,0.5656764507293701,5.820305824279785,7.741959095001221,-0.13446998596191406,0.20046520233154297,0.17681391537189484,-1.2417265176773071,0.005531395319849253,-0.9611276388168335,0.24357213079929352,1.2573670148849487,0.009727626107633114,0.9119172692298889,0.27103838324546814,-0.41409170627593994,-0.0879301130771637,-0.34924086928367615,1.19916832447052,-0.36228200793266296,0.004849212244153023,-0.5304417610168457,-0.14171816408634186,-0.3534370958805084,0.7810711860656738,-0.4047071635723114,-0.036999523639678955,0.22548653185367584,0.29235854744911194,2.0133109092712402,-0.5107699036598206,-0.01672106795012951,0.00135278538800776,-3.92043137550354,0.019540028646588326,0.001212375471368432,0.0776539072394371,-1.0857288837432861,-6.215503692626953,-2.395200490951538,-0.6406216025352478,10.691962242126465,1.1973248720169067,-0.01989310421049595,0.9932804107666016,1.2691009044647217,-0.09157740324735641,-0.6793166399002075,0.013708927668631077,0.07824715226888657,1741530354.19111,1741530354068,1.7150164794921876,-1.3115670166015625,-2.7124560792651815,-0.6600339965820312,-2.790302734375
1741530354.1614397,3.618112564086914,-0.010330240905219647,0.010728817644543307,-0.9998890831461208,-0.6176729798316956,0.20724450051784515,1.210374355316162,4.585692882537842,0.8109800815582275,10.477190971374512,-0.11692237854003906,0.21114635467529297,0.21992065012454987,-1.2485930919647217,0.005531395319849253,-0.9611276388168335,0.1802472025156021,1.2543151378631592,0.009727626107633114,0.9149690866470337,0.2470054179430008,-0.5407415628433228,-0.13141833245754242,-0.33665215969085693,1.3830395936965942,-0.37394899129867554,0.00949330348521471,-0.5033569931983948,-0.12149996310472488,-0.3557259440422058,0.7661936283111572,-0.4061921238899231,-0.03329847380518913,0.5009697079658508,0.3402562141418457,2.1978235244750977,-0.48140376806259155,-0.005237327888607979,-0.00012397496902849525,-4.121581077575684,-0.2109190970659256,-0.003062271745875478,0.19836001098155975,-1.1980518102645874,-6.269301414489746,-2.0859389305114746,0.8926749229431152,8.754058837890625,-0.8661085367202759,0.2793932557106018,1.3377456665039062,0.8672916889190674,-0.06087733805179596,-0.7977926135063171,-0.1032203733921051,0.2180798351764679,1741530354.19111,1741530354068,1.7150164794921876,-1.3115670166015625,-2.7124560792651815,-0.6600339965820312,-2.790302734375
1741530354.1814027,3.6417553424835205,-0.009330603874541566,0.021207991102503706,-0.9997315444381718,-0.4857788681983948,0.03858271241188049,1.1616530418395996,-0.5311428904533386,6.2203497886657715,11.544133186340332,-0.10090065002441406,0.21686840057373047,0.27218279242515564,-1.2516448497772217,0.005531395319849253,-0.9580758213996887,0.11768520623445511,1.2485930919647217,0.009727626107633114,0.9172579646110535,0.2309834510087967,-0.6555657386779785,-0.16117341816425323,-0.2931639552116394,1.489089846611023,-0.41791486740112305,0.011724036186933517,-0.47550925612449646,-0.11234454810619354,-0.3545815348625183,0.7536049485206604,-0.4103911817073822,-0.02802726812660694,0.47411471605300903,0.19298705458641052,2.687868595123291,-0.175307497382164,-0.0014713259879499674,0.15262578427791595,-4.126565933227539,-0.41281095147132874,0.0004716308321803808,0.09902429580688477,-0.6274836659431458,-5.536792755126953,-1.3233929872512817,2.2260868549346924,4.666816234588623,-2.325904607772827,0.03058924525976181,1.4794706106185913,0.41061848402023315,0.05291878804564476,-0.4948970079421997,-0.21038363873958588,0.17231930792331696,1741530354.19111,1741530354068,1.7150164794921876,-1.3115670166015625,-2.7124560792651815,-0.6600339965820312,-2.790302734375
1741530354.201439,3.655550241470337,-0.005940387011925208,0.022342696945339503,-0.9997327221289485,0.01406837347894907,0.16015847027301788,0.5380061268806458,1.9144580364227295,3.794377326965332,9.864965438842773,-0.07648563385009766,0.21572399139404297,0.32978561520576477,-1.2581299543380737,0.005531395319849253,-0.954261064529419,0.059319447726011276,1.239819049835205,0.009727626107633114,0.9180209040641785,0.2161058932542801,-0.7490272521972656,-0.164988175034523,-0.23861294984817505,1.508926510810852,-0.4677799642086029,0.004345175810158253,-0.44499123096466064,-0.10204470902681351,-0.34885939955711365,0.7429236173629761,-0.42246004939079285,-0.02087871916592121,0.7287615537643433,-0.018058886751532555,2.995737075805664,-0.48743167519569397,-0.003882269375026226,0.19702674448490143,-3.7224385738372803,-0.5963492393493652,-0.0030866505112499,0.022645805031061172,-0.6903699636459351,-4.369835376739502,0.004030975978821516,2.646862268447876,0.2952812910079956,-2.481618642807007,-0.46318066120147705,1.4495168924331665,0.48890790343284607,0.4471505880355835,-0.5436155796051025,-0.6875466704368591,0.38334378600120544,1741530354.19111,1741530354068,1.7150164794921876,-1.3115670166015625,-2.7124560792651815,-0.6600339965820312,-2.790302734375
1741530354.2214112,3.655522584915161,-0.0027313934203948304,0.01593935430241166,-0.9998692296867653,0.354929119348526,0.18942749500274658,-0.07971515506505966,-0.1222379207611084,-0.27198076248168945,8.638847351074219,-0.058938026428222656,0.21496105194091797,0.3847180902957916,-1.2638521194458008,0.005531395319849253,-0.9454871416091919,0.01125352829694748,1.2306636571884155,0.009727626107633114,0.9195467829704285,0.21076524257659912,-0.8196002244949341,-0.1661325991153717,-0.17910276353359222,1.4513237476348877,-0.5037401914596558,-0.007226899266242981,-0.42744335532188416,-0.08983749151229858,-0.33321890234947205,0.7375829815864563,-0.4464304447174072,-0.025103434920310974,0.5166788101196289,-0.004223126918077469,2.7262606620788574,-0.39678120613098145,-0.014675532467663288,0.4652577340602875,-3.0626285076141357,-0.5960781574249268,0.007130220998078585,0.15595877170562744,-0.22931472957134247,-3.294163465499878,-0.07478153705596924,3.0865542888641357,-3.48482084274292,-1.5933438539505005,-0.5469619631767273,0.8231882452964783,0.6684888005256653,0.7266728281974792,-0.2019922435283661,-1.2543116807937622,-0.17501313984394073,1741530354.19111,1741530354068,1.7150164794921876,-1.3115670166015625,-2.7124560792651815,-0.6600339965820312,-2.790302734375
1741530354.241447,3.6534323692321777,0.002397721198511011,0.00691730241801412,-0.9999732005710513,0.48294615745544434,0.26975250244140625,0.01494468655437231,-1.3157780170440674,0.7465127110481262,8.8883695602417,-0.049401283264160156,0.20771312713623047,0.42820629477500916,-1.2649965286254883,0.006294346414506435,-0.9370946884155273,-0.040627144277095795,1.228756308555603,0.008964675478637218,0.9275577664375305,0.1962691694498062,-0.8642328381538391,-0.16308079659938812,-0.13065537810325623,1.337262511253357,-0.507830798625946,-0.007746496703475714,-0.41523614525794983,-0.08449683338403702,-0.31872281432151794,0.7375829815864563,-0.47379833459854126,-0.03291378542780876,0.2552565932273865,-0.1825057715177536,2.086026191711426,-0.040928419679403305,0.03057786449790001,0.44008320569992065,-3.6441192626953125,-0.09684247523546219,-0.029523028060793877,0.65721195936203,-0.7529907822608948,-2.043503761291504,0.20636072754859924,2.3077216148376465,-5.923750877380371,0.06219125911593437,0.133855938911438,0.7814620733261108,0.2520540952682495,0.7443565130233765,0.05415555089712143,-1.3326576948165894,-0.3611285388469696,1741530354.19111,1741530354068,1.7150164794921876,-1.3115670166015625,-2.7124560792651815,-0.6600339965820312,-2.790302734375
1741530354.2614741,3.659623146057129,0.013928557167989731,-0.0014985904920979689,-0.9999018699461238,0.3871041536331177,0.5842464566230774,0.33927425742149353,-1.3629651069641113,-0.380109578371048,8.613362312316895,-0.038720130920410156,0.19626903533935547,0.46025025844573975,-1.2657594680786133,0.005531395319849253,-0.9279392957687378,-0.07610437273979187,1.227230429649353,0.009346150793135166,0.9397650361061096,0.17566949129104614,-0.8787289261817932,-0.15506981313228607,-0.1028076633810997,1.1934462785720825,-0.4801100492477417,-0.011534562334418297,-0.4026474356651306,-0.07648584991693497,-0.3084229826927185,0.7383459210395813,-0.49819090962409973,-0.0347183533012867,0.28028640151023865,-0.27853551506996155,1.5465532541275024,0.005603312980383635,-0.020377540960907936,0.4062851369380951,-2.019474506378174,-0.10553326457738876,-0.014849520288407803,0.8064925670623779,-1.0610275268554688,-0.42038124799728394,0.4669483006000519,1.2767590284347534,-7.301820278167725,1.545700192451477,-0.10959959030151367,0.5812264084815979,0.41642525792121887,0.42573538422584534,0.023436015471816063,-1.2208342552185059,-0.09441638737916946,1741530354.2932525,1741530354188,1.6266353759765626,-1.3701029052734375,-2.6532658966939833,-0.7575796508789062,-2.832861572265625
1741530354.2815645,3.6665191650390625,0.0289130294143999,-0.004620315887004406,-0.9995712527935096,0.09183978289365768,0.6871257424354553,0.3595238924026489,1.5440839529037476,-2.9882471561431885,9.018209457397461,-0.037957191467285156,0.18978404998779297,0.47665369510650635,-1.2608002424240112,0.005531395319849253,-0.9206912517547607,-0.09021896868944168,1.226467490196228,0.008964675478637218,0.953498125076294,0.1516365259885788,-0.8779659867286682,-0.1340886503458023,-0.07953765243291855,1.0206378698349,-0.43991467356681824,-0.007162836380302906,-0.3843366205692291,-0.06237125024199486,-0.29850462079048157,0.7372015118598938,-0.5198392271995544,-0.033904239535331726,0.04384235292673111,-0.18592007458209991,0.6750428676605225,0.4037114679813385,0.0047753797844052315,0.3344539701938629,-0.7591790556907654,-0.05734783783555031,0.020229414105415344,0.8632329106330872,-1.2424421310424805,-0.05434718355536461,1.1922682523727417,1.2019375562667847,-8.58311653137207,1.9514260292053223,0.42514973878860474,0.9659780263900757,0.7234992384910583,0.5384873151779175,-0.09247467666864395,-1.0476748943328857,0.1999056190252304,1741530354.2932525,1741530354188,1.6266353759765626,-1.3701029052734375,-2.6532658966939833,-0.7575796508789062,-2.832861572265625
1741530354.3015358,3.6747703552246094,0.03829991006111719,0.000543098473461736,-0.9992661416926716,-0.3236709535121918,0.4424644112586975,0.3840237259864807,7.244338512420654,-1.3344746828079224,4.740537643432617,-0.036049842834472656,0.19169139862060547,0.47894254326820374,-1.2524077892303467,0.005531395319849253,-0.9172579646110535,-0.08411535620689392,1.226467490196228,0.009346150793135166,0.9618905782699585,0.1359960287809372,-0.8615625500679016,-0.10509651154279709,-0.04634927958250046,0.8646143078804016,-0.4091792702674866,0.007091162726283073,-0.35114824771881104,-0.038719769567251205,-0.28934919834136963,0.7295719981193542,-0.5342060327529907,-0.017353316769003868,0.04759521782398224,0.06457942724227905,0.01532512903213501,0.5813852548599243,0.00220189755782485,0.16625504195690155,0.5535458922386169,-0.00374465249478817,0.002468298189342022,0.48256123065948486,-0.7213778495788574,0.824163556098938,1.4786521196365356,1.787886142730713,-7.4293532371521,1.341875433921814,0.5055277347564697,1.8141236305236816,1.3204156160354614,0.2711735665798187,-0.39019253849983215,-0.5939934253692627,0.8915392160415649,1741530354.2932525,1741530354188,1.6266353759765626,-1.3701029052734375,-2.6532658966939833,-0.7575796508789062,-2.832861572265625
1741530354.3215625,3.6796042919158936,0.037236033878058766,0.01253146039972825,-0.9992279220884903,-0.6531572937965393,-0.128936767578125,0.20920853316783905,0.5950055718421936,-0.8431726098060608,7.161923885345459,-0.03108978271484375,0.21343517303466797,0.4709315598011017,-1.2417265176773071,0.005531395319849253,-0.9142061471939087,-0.05970092490315437,1.2268489599227905,0.009346150793135166,0.9641794562339783,0.13103684782981873,-0.8421072959899902,-0.07419699430465698,-0.015449759550392628,0.768482506275177,-0.39129573106765747,0.008256091736257076,-0.29926756024360657,-0.004386968910694122,-0.2977416515350342,0.7177462577819824,-0.5220320224761963,-0.010111028328537941,0.1359873116016388,0.592953085899353,-0.5222258567810059,0.6977440118789673,-0.01283032912760973,0.11713258922100067,1.8795562982559204,0.00255868723616004,0.013263070955872536,0.06822122633457184,-0.14919205009937286,0.9606671333312988,1.4850293397903442,1.3968549966812134,-4.120979309082031,0.9659414291381836,0.13728003203868866,2.6632111072540283,1.733821988105774,-0.5261179208755493,-0.5607121586799622,0.785028874874115,0.05332567170262337,1741530354.2932525,1741530354188,1.6266353759765626,-1.3701029052734375,-2.6532658966939833,-0.7575796508789062,-2.832861572265625
1741530354.3416553,3.6802384853363037,0.02318773263805948,0.026627749214673802,-0.999376451607134,-0.5985500812530518,-0.7026426792144775,0.04967062175273895,-0.41799893975257874,0.2713823616504669,14.663176536560059,-0.02613067626953125,0.23060226440429688,0.4503318965435028,-1.231808066368103,0.005531395319849253,-0.9073395729064941,-0.02040894143283367,1.2340970039367676,0.009346150793135166,0.961509108543396,0.13141833245754242,-0.8054856061935425,-0.04253452271223068,-0.025749599561095238,0.80357825756073,-0.3721196949481964,0.02252795733511448,-0.25158312916755676,0.013923857361078262,-0.30384528636932373,0.7387273907661438,-0.5007027983665466,-0.03629669174551964,0.10460525006055832,0.4866143763065338,-1.2604620456695557,0.6551603674888611,0.001385844312608242,0.33296021819114685,2.721248149871826,0.7110764980316162,0.033184636384248734,-0.16504427790641785,0.22802895307540894,2.2182493209838867,1.5746146440505981,-0.7563127279281616,2.3126814365386963,0.7356677651405334,0.6546338796615601,2.121506452560425,0.6814253330230713,-0.111147440969944,1.4088459014892578,0.9557474255561829,-1.2002122402191162,1741530354.2932525,1741530354188,1.6266353759765626,-1.3701029052734375,-2.6532658966939833,-0.7575796508789062,-2.832861572265625
1741530354.3616843,3.6826436519622803,0.014845656617563876,0.031084483727332107,-0.9994065045570789,-0.22746017575263977,-0.5455780029296875,-0.014042029157280922,-6.317849159240723,-3.25972318649292,15.293886184692383,-0.01392364501953125,0.22831344604492188,0.3927290737628937,-1.230282187461853,0.005912871100008488,-0.9065766334533691,0.03185320645570755,1.2436338663101196,0.009727626107633114,0.9603646993637085,0.134470134973526,-0.7825970649719238,-0.04253452271223068,-0.05092698708176613,0.8279926776885986,-0.37315797805786133,0.018875664100050926,-0.2595941126346588,0.021171892061829567,-0.28667888045310974,0.8257037997245789,-0.4722866117954254,-0.04594102129340172,0.34117570519447327,0.019780835136771202,-3.0249407291412354,-0.12144725024700165,0.03925051912665367,-0.0024113499093800783,3.4642891883850098,0.5367802977561951,0.023378994315862656,-0.10342389345169067,-0.004721527453511953,1.1980748176574707,-0.24647684395313263,-1.1025279760360718,0.8884313702583313,-0.05772475153207779,-0.22873497009277344,-1.1841329336166382,0.13018953800201416,1.038901925086975,4.831033706665039,1.5433275699615479,-0.45313748717308044,1741530354.2932525,1741530354188,1.6266353759765626,-1.3701029052734375,-2.6532658966939833,-0.7575796508789062,-2.832861572265625
1741530354.381657,3.681767463684082,0.008005947030048755,0.030991853746833838,-0.9994875736163441,0.11468227207660675,-0.18093477189540863,-0.061343949288129807,2.675696611404419,2.033928155899048,13.5863676071167,-0.01850128173828125,0.22411727905273438,0.3114747703075409,-1.23905611038208,0.005531395319849253,-0.9065766334533691,0.08373387902975082,1.2508819103240967,0.009346150793135166,0.9588387608528137,0.12226291000843048,-0.7372015118598938,-0.061226826161146164,-0.07534141838550568,0.8356221914291382,-0.37244442105293274,0.020676815882325172,-0.3255893886089325,0.01201647985726595,-0.23823148012161255,0.9790570139884949,-0.43078505992889404,-0.048490993678569794,-0.1050197035074234,-0.1505199819803238,-4.13542366027832,-0.588094174861908,-0.01970326341688633,-0.007579331751912832,3.482412815093994,0.400015652179718,-0.019994238391518593,-0.0779414102435112,-0.5935755372047424,2.1389269828796387,-0.8023452162742615,-1.3265998363494873,0.2603423297405243,0.04212869703769684,0.08007418364286423,-3.562803268432617,-0.43570676445961,2.4375932216644287,7.830493927001953,2.0118465423583984,0.07350213825702667,1741530354.2932525,1741530354188,1.6266353759765626,-1.3701029052734375,-2.6532658966939833,-0.7575796508789062,-2.832861572265625
1741530354.4017131,3.6722633838653564,0.00461943434473408,0.021738397088042462,-0.9997530209598655,0.45030486583709717,-0.1070009395480156,-0.5422704219818115,-0.5789151787757874,-3.8975369930267334,9.16976261138916,-0.00324249267578125,0.22182846069335938,0.22487983107566833,-1.2466856241226196,0.005531395319849253,-0.9077210426330566,0.13752193748950958,1.2524077892303467,0.009346150793135166,0.9584572911262512,0.11043716967105865,-0.7040131092071533,-0.06237125024199486,-0.08373387902975082,0.8390554785728455,-0.3741884231567383,0.020435351878404617,-0.42629891633987427,0.009346150793135166,-0.18787670135498047,1.1484321355819702,-0.4090851843357086,-0.005103415809571743,0.4158889353275299,-0.12078803032636642,-4.337023735046387,-0.48799648880958557,-0.010495945811271667,-0.08384550362825394,3.5031368732452393,0.14561724662780762,0.02077294886112213,-0.04100973531603813,-0.5413362979888916,1.8445816040039062,0.05682972073554993,-0.11751335114240646,0.19573049247264862,-0.15224698185920715,-0.01644022762775421,-5.039317607879639,-0.04920776188373566,2.429414987564087,8.33106517791748,0.7760412096977234,2.1551430225372314,1741530354.4969811,1741530354388,1.4654261474609376,-1.4569688720703124,-2.706869831495344,-0.9114218139648438,-2.897667236328125
1741530354.4217124,3.6558923721313477,0.0054209935389515525,0.014569658392182789,-0.9998791616407383,0.35223522782325745,0.02943127043545246,-0.847822368144989,0.8943198919296265,-0.6781764626502991,12.741718292236328,-0.01354217529296875,0.21457958221435547,0.13752193748950958,-1.2482116222381592,0.005531395319849253,-0.9130617380142212,0.18940261006355286,1.2596558332443237,0.010109102353453636,0.9576943516731262,0.09822995215654373,-0.6578545570373535,-0.04901960864663124,-0.0707637146115303,0.8318074345588684,-0.38557103276252747,0.021975575014948845,-0.5243381261825562,0.012397955171763897,-0.15812161564826965,1.2773709297180176,-0.4318460524082184,0.001031822175718844,-0.22816431522369385,-0.22542472183704376,-4.312541961669922,-0.035737544298172,0.0011173192178830504,-0.29148751497268677,3.511979341506958,0.46934774518013,0.056558236479759216,-0.08217663317918777,-0.614655077457428,2.233426332473755,0.7083515524864197,0.7054263949394226,-0.4904606342315674,-0.6704445481300354,-0.0015498425345867872,-4.782829761505127,0.15606993436813354,1.3828004598617554,5.906249046325684,-1.43314790725708,-0.019860396161675453,1741530354.4969811,1741530354388,1.4654261474609376,-1.4569688720703124,-2.706869831495344,-0.9114218139648438,-2.897667236328125
1741530354.4417,3.6371877193450928,0.0016500541903290192,0.007524607475630339,-0.9999703283615502,0.34664613008499146,-0.19389556348323822,-0.9678759574890137,-2.9939098358154297,-1.8463242053985596,12.080504417419434,-0.01430511474609375,0.21496105194091797,0.05703059583902359,-1.2478300333023071,0.005531395319849253,-0.918402373790741,0.2470054179430008,1.2604187726974487,0.009727626107633114,0.9554055333137512,0.08258945494890213,-0.615129292011261,-0.03337911143898964,-0.059319447726011276,0.8215075731277466,-0.40165823698043823,0.015932990238070488,-0.6124590039253235,0.010872052982449532,-0.14095520973205566,1.340695858001709,-0.4757521450519562,-0.0012427967740222812,-0.02994939684867859,-0.004453526344150305,-3.912735939025879,0.0028440526220947504,0.002091323956847191,-0.2899256646633148,3.833662748336792,-0.0047392770648002625,-0.03137875348329544,-0.19004382193088531,-0.9149593114852905,2.2166430950164795,0.7020074129104614,0.5314168930053711,-0.46117857098579407,-0.8903533220291138,-0.2270912081003189,-4.317028999328613,-0.15428107976913452,0.6792661547660828,2.6568081378936768,-2.2826268672943115,0.21048381924629211,1741530354.4969811,1741530354388,1.4654261474609376,-1.4569688720703124,-2.706869831495344,-0.9114218139648438,-2.897667236328125
1741530354.461829,3.6246824264526367,0.0005179855275233505,0.0019279647989319446,-0.9999980073193783,0.27347710728645325,-0.04443933069705963,-0.474115252494812,3.5736947059631348,-4.692642688751221,9.18689250946045,-0.01621246337890625,0.20695018768310547,-0.007057297509163618,-1.2478300333023071,0.005531395319849253,-0.9233615398406982,0.30308231711387634,1.2600373029708862,0.009727626107633114,0.951209306716919,0.06351567804813385,-0.5655375123023987,-0.01926451548933983,-0.048256658017635345,0.8070115447044373,-0.4242701232433319,0.007072385400533676,-0.6864652633666992,0.005912871100008488,-0.13218127191066742,1.3464179039001465,-0.5200351476669312,0.007643037475645542,-0.07002553343772888,-0.22702325880527496,-3.3116159439086914,-0.027969779446721077,0.02501915581524372,-0.27142879366874695,3.7087786197662354,-0.07740205526351929,-0.0034489044919610023,-0.29269781708717346,-1.0626405477523804,2.408245801925659,0.6470838189125061,0.5511603355407715,-0.7658631801605225,-1.1343196630477905,-0.47099393606185913,-3.6553351879119873,-0.38927972316741943,0.59538334608078,-0.19046428799629211,-2.149541139602661,0.25240808725357056,1741530354.4969811,1741530354388,1.4654261474609376,-1.4569688720703124,-2.706869831495344,-0.9114218139648438,-2.897667236328125
1741530354.4818425,3.6213982105255127,4.553916367758003e-05,-0.0008814771440338553,-0.9999996104620388,0.1284998655319214,0.0033261096104979515,-0.14845968782901764,8.505569458007812,6.651139736175537,5.344207286834717,-0.01811981201171875,0.20008373260498047,-0.06427863240242004,-1.2485930919647217,0.005531395319849253,-0.9313725233078003,0.3549630045890808,1.2573670148849487,0.009727626107633114,0.9470130205154419,0.03452353551983833,-0.5323491096496582,-0.008201723918318748,-0.02689402550458908,0.7898451089859009,-0.4480583965778351,0.002111867070198059,-0.7516975402832031,-0.004386968910694122,-0.11577782779932022,1.3097963333129883,-0.540256917476654,0.0033997874706983566,-0.04862719774246216,-0.21484200656414032,-3.222478151321411,-0.03284173458814621,-0.0013005572836846113,-0.4207388758659363,3.380781650543213,-0.1155434399843216,0.013691927306354046,-0.25818443298339844,-1.4071400165557861,1.5256978273391724,0.5923123359680176,1.1289902925491333,-0.80183345079422,-1.1759467124938965,-0.2367016077041626,-3.195399284362793,-0.49022796750068665,0.9651053547859192,-2.1202306747436523,-0.7525386810302734,-0.1583329290151596,1741530354.4969811,1741530354388,1.4654261474609376,-1.4569688720703124,-2.706869831495344,-0.9114218139648438,-2.897667236328125
1741530354.5019064,3.6186623573303223,0.005263931488006228,-0.006819984197545108,-0.9999628887317943,0.3265831172466278,0.3338977098464966,-0.08180665969848633,1.476324439048767,-2.9953386783599854,5.850838661193848,-0.01964569091796875,0.18024730682373047,-0.11730372905731201,-1.2482116222381592,0.005149920005351305,-0.9485389590263367,0.39730677008628845,1.2569855451583862,0.009727626107633114,0.9412909150123596,0.008964675478637218,-0.49153125286102295,0.007438773289322853,-0.005912871100008488,0.7856488823890686,-0.47458139061927795,-0.0015888478374108672,-0.8081559538841248,-0.01201647985726595,-0.09517814964056015,1.2457083463668823,-0.5232969522476196,0.015053792856633663,-0.06751208007335663,-0.617082953453064,-2.5418386459350586,0.03367413207888603,-0.05261195823550224,-0.909232497215271,2.8220903873443604,-0.01403315830975771,-0.00732589652761817,-0.3770960867404938,-1.291528344154358,1.8652766942977905,0.7822902798652649,1.1235641241073608,-0.21980313956737518,-1.3464800119400024,-0.1397201120853424,-2.6162185668945312,-0.455655038356781,1.1563835144042969,-3.291853189468384,1.0992791652679443,0.6363663673400879,1741530354.4969811,1741530354388,1.4654261474609376,-1.4569688720703124,-2.706869831495344,-0.9114218139648438,-2.897667236328125
1741530354.521799,3.613351345062256,0.0140197415074199,-0.010324657258793118,-0.9998484126609162,0.1455245167016983,0.4959287941455841,-0.2742915749549866,2.9194018840789795,0.1276838183403015,6.522760391235352,-0.01964569091796875,0.16269969940185547,-0.14553292095661163,-1.2459226846694946,0.005531395319849253,-0.9641794562339783,0.44270238280296326,1.2562226057052612,0.009727626107633114,0.9317540526390076,0.001716639962978661,-0.46063172817230225,0.016212711110711098,0.01583123579621315,0.7818341255187988,-0.5021169781684875,-0.010208867490291595,-0.8325703740119934,-0.02536812424659729,-0.07457847148180008,1.1511024236679077,-0.4824223816394806,0.01983650028705597,-0.010590310208499432,-0.5775840282440186,-1.207401156425476,0.1754308044910431,-0.007352681364864111,-0.7621951699256897,2.913696050643921,-0.06946072727441788,-0.010525674559175968,-0.636910617351532,-0.17940235137939453,1.6951398849487305,0.3841959238052368,0.9373644590377808,-0.0320092998445034,-1.2903108596801758,-0.31084778904914856,-1.0997086763381958,-0.7613410949707031,0.891433835029602,-4.976722717285156,2.094691276550293,0.13660328090190887,1741530354.4969811,1741530354388,1.4654261474609376,-1.4569688720703124,-2.706869831495344,-0.9114218139648438,-2.897667236328125
1741530354.5417862,3.6052536964416504,0.021361659477976556,-0.012425398785054508,-0.9996945978494528,0.133689746260643,0.2749990224838257,-0.431314080953598,1.2650210857391357,-0.18135122954845428,6.252317905426025,-0.01888275146484375,0.16117382049560547,-0.14820325374603271,-1.2413450479507446,0.005531395319849253,-0.9748607873916626,0.4678797721862793,1.2546966075897217,0.010109102353453636,0.9225986003875732,0.016212711110711098,-0.42668038606643677,0.016594186425209045,0.016212711110711098,0.7848859429359436,-0.5312435626983643,-0.011078148148953915,-0.8360036611557007,-0.054741740226745605,-0.06771191209554672,1.0130083560943604,-0.4418143928050995,0.00898239016532898,0.021722128614783287,-0.07465214282274246,0.11527705192565918,0.3409269452095032,-0.012217100709676743,-0.46550244092941284,1.4946327209472656,-0.10079382359981537,0.05456269904971123,-0.5676047801971436,0.8276523351669312,1.5739984512329102,-0.14959745109081268,-0.1223703920841217,0.1045524999499321,-1.4417303800582886,-0.008392947725951672,0.18869051337242126,-1.549747347831726,0.20797494053840637,-7.159472942352295,1.9756641387939453,-0.6432304382324219,1741530354.4969811,1741530354388,1.4654261474609376,-1.4569688720703124,-2.706869831495344,-0.9114218139648438,-2.897667236328125
1741530354.5619254,3.594546318054199,0.02286945934476294,-0.015729303082193866,-0.9996147142043412,0.1999666541814804,0.04551129415631294,-0.5506134629249573,3.5096817016601562,2.793354034423828,3.497053384780884,-0.01773834228515625,0.16498851776123047,-0.12378881871700287,-1.233715534210205,0.005531395319849253,-0.9767681360244751,0.47589075565338135,1.2539336681365967,0.009727626107633114,0.9157320261001587,0.034142062067985535,-0.3873884081840515,-0.01506828423589468,0.009727626107633114,0.7913710474967957,-0.5549376606941223,0.0007555580814369023,-0.8031967878341675,-0.08297093212604523,-0.086785688996315,0.8527885675430298,-0.4181804060935974,-0.00876536313444376,0.017707712948322296,0.13748739659786224,1.4218418598175049,0.5439122319221497,-0.006330677308142185,-0.056127890944480896,0.3507171869277954,-0.04941239207983017,-0.0018345055868849158,-0.42206862568855286,0.847311794757843,1.9574590921401978,-1.8487870693206787,-0.32049065828323364,0.3671259582042694,-1.062320351600647,0.5811871886253357,1.8311442136764526,-1.368428349494934,-1.0665615797042847,-7.895026206970215,0.9961074590682983,-0.6176562309265137,1741530354.600027,1741530354488,1.3742900390625001,-1.484836181640625,-2.75433872901723,-0.985287353515625,-2.924341064453125
1741530354.5907388,3.586071014404297,0.015274942972482336,-0.02328563832857986,-0.9996121523695167,0.3305274248123169,-0.6097930669784546,-0.3386540114879608,-19.616886138916016,-6.946782112121582,13.173491477966309,-0.00972747802734375,0.19207286834716797,-0.08220797777175903,-1.227993369102478,0.005149920005351305,-0.9721904397010803,0.4728389382362366,1.2493560314178467,0.009727626107633114,0.9092469811439514,0.04406042397022247,-0.3423742949962616,-0.02193484455347061,-0.004386968910694122,0.8077744841575623,-0.547609806060791,-0.002792883198708296,-0.7715343236923218,-0.1031891331076622,-0.12188144028186798,0.8165484070777893,-0.3686290681362152,0.014235686510801315,0.21877701580524445,0.8817498087882996,2.281299591064453,0.28913795948028564,-0.030078096315264702,0.2761310935020447,-0.2552782893180847,-0.33230069279670715,-0.008548393845558167,-0.5367020964622498,0.24434146285057068,2.177793264389038,0.19009193778038025,-0.9624274969100952,0.8286546468734741,0.6808575391769409,-0.2698971927165985,1.8067983388900757,-0.4590223431587219,-1.8522536754608154,0.6860436201095581,2.7300148010253906,1.2000502347946167,1741530354.600027,1741530354488,1.3742900390625001,-1.484836181640625,-2.75433872901723,-0.985287353515625,-2.924341064453125
1741530354.6019776,3.5759377479553223,0.014788686419994476,-0.018639917907475167,-0.9997168840298606,-0.2835140526294708,-0.006170091684907675,-0.2083989530801773,11.292268753051758,7.704723834991455,3.51948881149292,-0.03108978271484375,0.17605113983154297,-0.021171892061829567,-1.2283748388290405,0.005912871100008488,-0.970283031463623,0.438506156206131,1.2424894571304321,0.010109102353453636,0.9050507545471191,0.01926451548933983,-0.3130006790161133,-0.040245670825242996,-0.002861066721379757,0.8375295400619507,-0.5113638043403625,0.007780406624078751,-0.7257572412490845,-0.08983749151229858,-0.1039520874619484,0.8539330363273621,-0.3235681653022766,0.016123143956065178,-0.6301632523536682,-0.2934294641017914,3.057737112045288,0.06914254277944565,0.08782373368740082,0.05292423069477081,-2.602091073989868,-0.37831535935401917,0.03924335166811943,-0.08558014035224915,-1.2142622470855713,1.2745063304901123,-0.6885386109352112,0.1281694620847702,1.892548680305481,1.8739999532699585,0.4790304899215698,1.508429765701294,0.1856033056974411,1.4153140783309937,0.8736112713813782,1.9995394945144653,-0.09683775901794434,1741530354.600027,1741530354488,1.3742900390625001,-1.484836181640625,-2.75433872901723,-0.985287353515625,-2.924341064453125
1741530354.621927,3.5718860626220703,0.008878071575112537,-0.015355212734125821,-0.9998426862696935,-0.08984576910734177,-0.22285990417003632,-0.16554400324821472,-6.9391374588012695,2.9341161251068115,20.642656326293945,-0.00858306884765625,0.17795848846435547,0.04406042397022247,-1.226467490196228,0.005149920005351305,-0.968757152557373,0.3854810297489166,1.2466856241226196,0.010109102353453636,0.9065766334533691,-0.0032425422687083483,-0.33131152391433716,-0.03604944050312042,0.002861066721379757,0.9367132186889648,-0.4766329526901245,0.032356102019548416,-0.700579822063446,-0.071908138692379,-0.06389715522527695,0.8329518437385559,-0.29988762736320496,0.02344208024442196,0.544487476348877,-0.0533134788274765,3.2307662963867188,0.038745149970054626,-0.04794975370168686,0.09567715972661972,-3.4721553325653076,0.19375991821289062,-0.02427777461707592,0.012557662092149258,-1.0408402681350708,-1.3601419925689697,0.3649391531944275,0.22729390859603882,5.654058456420898,1.783455729484558,1.1595191955566406,1.7644630670547485,1.4342420101165771,1.4596655368804932,-0.4836306869983673,1.106656789779663,0.4732818901538849,1741530354.600027,1741530354488,1.3742900390625001,-1.484836181640625,-2.75433872901723,-0.985287353515625,-2.924341064453125
1741530354.64199,3.5790634155273438,0.012370481345766213,-0.011275804485807287,-0.9998599038987772,-0.2767271101474762,0.14573708176612854,0.5542819499969482,5.218724727630615,-1.4790009260177612,4.801573753356934,-0.01926422119140625,0.17986583709716797,0.10852979123592377,-1.2405821084976196,0.006294346414506435,-0.961509108543396,0.3274967670440674,1.2451597452163696,0.008964675478637218,0.9073395729064941,-0.02994582988321781,-0.39806973934173584,-0.02841992862522602,0.018120087683200836,1.104943871498108,-0.43690359592437744,0.03532674163579941,-0.6673914790153503,-0.05054550990462303,-0.043678950518369675,0.8524070978164673,-0.2898532450199127,0.009374232962727547,-0.25086402893066406,0.06639018654823303,3.2389278411865234,-1.0575634241104126,0.007480287458747625,0.4016627073287964,-4.016016006469727,-0.060683608055114746,-0.061437033116817474,0.037156347185373306,-1.4047263860702515,-3.7725281715393066,0.16532622277736664,0.9122048020362854,8.76125431060791,1.9483736753463745,-0.23525692522525787,1.058197259902954,0.7000747323036194,1.2116745710372925,0.7001308798789978,0.268582820892334,-0.7243859171867371,1741530354.600027,1741530354488,1.3742900390625001,-1.484836181640625,-2.75433872901723,-0.985287353515625,-2.924341064453125
1741530354.662003,3.602616548538208,0.009256912433267765,-0.008155307463821867,-0.9999238973703816,-0.11045512557029724,-0.060798607766628265,1.2158666849136353,-10.286684036254883,4.077389717102051,17.599695205688477,-0.02117156982421875,0.18940258026123047,0.17109178006649017,-1.2512633800506592,0.005531395319849253,-0.9546425342559814,0.26798656582832336,1.2440153360366821,0.009727626107633114,0.9088655114173889,-0.06389715522527695,-0.4991607666015625,-0.027656977996230125,0.04901960864663124,1.273556113243103,-0.41619107127189636,0.000533454236574471,-0.6521324515342712,-0.04787518084049225,-0.035667963325977325,0.8585107326507568,-0.2995527982711792,0.013447072356939316,0.05091508850455284,0.22370930016040802,3.0115950107574463,-0.6478148102760315,0.006117528770118952,0.30876365303993225,-3.9538562297821045,-0.16538862884044647,0.01267043873667717,0.08585260063409805,-1.7568669319152832,-5.025206565856934,0.09473273158073425,1.656377911567688,8.330028533935547,0.7879668474197388,-1.557651162147522,1.1322335004806519,0.009558958001434803,0.3416149318218231,0.5124744772911072,-0.5506061315536499,0.20287440717220306,1741530354.7114556,1741530354588,1.2767550048828125,-1.523334716796875,-2.7297527724366124,-1.0600733642578126,-2.95061376953125
1741530354.6821535,3.6307284832000732,0.016736539942893387,-0.008576295388279385,-0.999823152056479,-0.0372120700776577,0.30798402428627014,1.420218825340271,2.3735716342926025,4.700630187988281,10.719565391540527,-0.00820159912109375,0.18825817108154297,0.23365376889705658,-1.2634705305099487,0.005531395319849253,-0.9462500810623169,0.1989395022392273,1.2386746406555176,0.008964675478637218,0.9107728600502014,-0.09822995215654373,-0.5956740379333496,-0.016212711110711098,0.08373387902975082,1.3990615606307983,-0.4351709485054016,0.009571686387062073,-0.6219958662986755,-0.05092698708176613,-0.03223468363285065,0.8661402463912964,-0.3268868923187256,0.011380564421415329,0.35273244976997375,-0.07078143209218979,3.2271127700805664,-0.7560113072395325,-0.007374943699687719,0.4530474543571472,-4.640914440155029,-0.39136257767677307,-0.01662266068160534,0.10116595774888992,-1.696447491645813,-4.797985076904297,0.6790184378623962,1.689898133277893,5.711215972900391,-1.203588604927063,0.8458961844444275,1.1541837453842163,-0.1771567463874817,0.22227078676223755,0.12143941223621368,-1.5918159484863281,-0.08693169057369232,1741530354.7114556,1741530354588,1.2767550048828125,-1.523334716796875,-2.7297527724366124,-1.0600733642578126,-2.95061376953125
1741530354.7020767,3.6597886085510254,0.015964764860219065,-0.008236294378176212,-0.9998386318490969,-0.01932799629867077,0.07556093484163284,1.4720935821533203,0.920746386051178,1.3346030712127686,9.968477249145508,-0.01316070556640625,0.19779491424560547,0.30117493867874146,-1.2676668167114258,0.005531395319849253,-0.9390020370483398,0.13027389347553253,1.231045126914978,0.010109102353453636,0.9138246774673462,-0.12226291000843048,-0.6815060377120972,-0.009346150793135166,0.11730372905731201,1.4528496265411377,-0.4727693200111389,0.010920729488134384,-0.5949110984802246,-0.05245288833975792,-0.02079041674733162,0.8619440197944641,-0.36665812134742737,0.026645468547940254,-0.11392772942781448,0.265952467918396,3.415595769882202,-0.2632978856563568,-0.012656244449317455,0.33589988946914673,-4.509640216827393,-0.5413447022438049,0.041084207594394684,0.2767956852912903,-0.9977433681488037,-3.804394483566284,0.23020093142986298,2.0140559673309326,2.1664772033691406,-1.8840526342391968,-0.46911853551864624,1.7167993783950806,-0.11477460712194443,0.4823542833328247,-0.24695563316345215,-1.9278010129928589,1.0423669815063477,1741530354.7114556,1741530354588,1.2767550048828125,-1.523334716796875,-2.7297527724366124,-1.0600733642578126,-2.95061376953125
1741530354.723614,3.6809744834899902,0.022651537901946264,-0.009060240408836923,-0.9997023656441004,0.029165098443627357,0.3174680471420288,0.8631779551506042,3.509770393371582,3.739746570587158,7.077859401702881,-0.00324249267578125,0.18940258026123047,0.36335545778274536,-1.2676668167114258,0.005531395319849253,-0.9340428709983826,0.06580453366041183,1.224560022354126,0.008964675478637218,0.916876494884491,-0.13065537810325623,-0.7482643127441406,-0.004386968910694122,0.14515145123004913,1.4414052963256836,-0.5044695734977722,-0.012087853625416756,-0.5445563197135925,-0.05741206929087639,-0.01125352829694748,0.8493552803993225,-0.40231797099113464,0.036422647535800934,0.2837987542152405,-0.17670363187789917,3.019151449203491,0.01110054086893797,0.004100654274225235,0.18234941363334656,-4.215188980102539,-0.41853541135787964,0.004965345375239849,0.13438446819782257,-0.3115234971046448,-3.12351393699646,0.4183104634284973,1.2258353233337402,-0.9531121850013733,-1.4703103303909302,-0.9052371382713318,2.2894976139068604,-0.359525591135025,0.43948787450790405,-0.8284010887145996,-1.664748191833496,0.3983030319213867,1741530354.7114556,1741530354588,1.2767550048828125,-1.523334716796875,-2.7297527724366124,-1.0600733642578126,-2.95061376953125
1741530354.7421792,3.687340259552002,0.022669392357768763,-0.010317347625151215,-0.9996897773750172,0.022029757499694824,-0.008209404535591602,0.22178110480308533,0.4031592011451721,-2.0149753093719482,8.567831039428711,0.00514984130859375,0.19512462615966797,0.41599908471107483,-1.2672853469848633,0.005531395319849253,-0.9348058104515076,0.01125352829694748,1.219982385635376,0.010490577667951584,0.916876494884491,-0.12836651504039764,-0.7982375621795654,0.013542382046580315,0.16880293190479279,1.3815137147903442,-0.5140516757965088,-0.000149201849126257,-0.5064088106155396,-0.06046387553215027,-0.0078202486038208,0.8234149813652039,-0.4289945662021637,0.03778704255819321,0.258089154958725,0.2103571891784668,2.598214626312256,-0.022635845467448235,0.007358255330473185,-0.08616690337657928,-3.5619137287139893,-0.30143773555755615,0.07735198736190796,-0.013620608486235142,0.10037960857152939,-2.294665575027466,1.0094119310379028,1.2326537370681763,-3.319946527481079,-0.22417981922626495,0.6391370296478271,1.993815302848816,-0.17211546003818512,0.1322093904018402,-1.338222622871399,-1.2915029525756836,0.12487632781267166,1741530354.7114556,1741530354588,1.2767550048828125,-1.523334716796875,-2.7297527724366124,-1.0600733642578126,-2.95061376953125
1741530354.7621486,3.6920454502105713,0.025515180522082688,-0.008218810463622467,-0.999640648792099,-0.10449756681919098,0.16010330617427826,0.32469096779823303,0.6669434309005737,1.8351998329162598,7.824808120727539,0.00476837158203125,0.18787670135498047,0.47512778639793396,-1.2661409378051758,0.005531395319849253,-0.9336614012718201,-0.04749370738863945,1.2234156131744385,0.008964675478637218,0.9237430095672607,-0.14057374000549316,-0.8306630253791809,0.04711223021149635,0.19283588230609894,1.2926298379898071,-0.4920690357685089,-0.009946548379957676,-0.4396505653858185,-0.06504157930612564,-0.0024795911740511656,0.7970931529998779,-0.45031437277793884,0.029184572398662567,-0.005092025734484196,-0.16927197575569153,2.9605114459991455,0.11537481844425201,-0.008016356267035007,0.06402537226676941,-3.9913082122802734,0.2238420695066452,-0.06761211156845093,0.5438510179519653,-0.7892252802848816,-1.4647170305252075,1.825631022453308,1.1083037853240967,-4.507510662078857,1.292293906211853,-0.7019389867782593,3.3633694648742676,-0.16453567147254944,0.23005613684654236,-1.3521333932876587,-1.0391407012939453,-0.4170168340206146,1741530354.7114556,1741530354588,1.2767550048828125,-1.523334716796875,-2.7297527724366124,-1.0600733642578126,-2.95061376953125
1741530354.7822123,3.7004504203796387,0.027026563902791782,-0.0068032953095117235,-0.9996115645672272,-0.0948280617594719,0.011057754047214985,0.3982678949832916,12.05972957611084,-4.435500144958496,4.952666282653809,0.00896453857421875,0.19054698944091797,0.5128938555717468,-1.2592743635177612,0.005531395319849253,-0.9340428709983826,-0.0875486359000206,1.2226526737213135,0.009727626107633114,0.9355688095092773,-0.16422522068023682,-0.8413442969322205,0.09212634712457657,0.2138170450925827,1.183146357536316,-0.4498049318790436,-0.016289785504341125,-0.4022659659385681,-0.06313420087099075,0.004386968910694122,0.7608529925346375,-0.4724317491054535,0.031122665852308273,0.09189457446336746,0.06931786984205246,1.6764012575149536,0.4160780608654022,0.0024501527659595013,-0.029406189918518066,-2.304955005645752,-0.10823383927345276,0.005700047593563795,0.7390345335006714,-1.2864739894866943,-0.3697007894515991,2.289151668548584,0.9880815148353577,-5.639655590057373,2.1153392791748047,-0.10718394815921783,1.6676360368728638,0.09062317758798599,0.4600561261177063,-1.8038418292999268,-1.119097113609314,0.1627453714609146,1741530354.8137777,1741530354688,1.1968515625,-1.5836864013671876,-2.646922724451529,-1.12667431640625,-2.975566162109375
1741530354.8022673,3.7120790481567383,0.0285592692647303,-0.0033805287679129783,-0.999586384543284,-0.189869225025177,0.14295443892478943,0.6493229269981384,4.70505428314209,3.5845179557800293,0.24531564116477966,0.00286102294921875,0.18101024627685547,0.5273899435997009,-1.2562226057052612,0.005531395319849253,-0.9344243407249451,-0.10433356463909149,1.219219446182251,0.009346150793135166,0.9485389590263367,-0.20885786414146423,-0.8295185565948486,0.14171816408634186,0.23708705604076385,1.058022379875183,-0.40414124727249146,-0.009755936451256275,-0.3393225073814392,-0.056267641484737396,0.03185320645570755,0.7303349375724792,-0.4900459349155426,0.030293893069028854,-0.1538398116827011,-0.30899810791015625,0.4560488760471344,0.24495333433151245,-0.004325689282268286,-0.024609889835119247,-0.810258150100708,-0.20271189510822296,-0.006699072662740946,0.7933183908462524,-2.1855692863464355,0.8109762072563171,2.489839792251587,1.1110643148422241,-6.313285827636719,2.2883787155151367,0.3595653772354126,3.1234524250030518,0.5045826435089111,1.463258147239685,-1.6272705793380737,-0.859723687171936,-0.1578110307455063,1741530354.8137777,1741530354688,1.1968515625,-1.5836864013671876,-2.646922724451529,-1.12667431640625,-2.975566162109375
1741530354.822223,3.7256760597229004,0.026603703715768406,0.0018083848394895802,-0.9996444231289824,-0.3234511613845825,-0.13898414373397827,0.6668296456336975,0.01717800833284855,4.004904747009277,5.24625301361084,0.00514984130859375,0.18406200408935547,0.5231937170028687,-1.2516448497772217,0.005531395319849253,-0.9348058104515076,-0.09899290651082993,1.2188379764556885,0.009346150793135166,0.9588387608528137,-0.2500572204589844,-0.7913710474967957,0.17643244564533234,0.27103838324546814,0.9157320261001587,-0.3633614182472229,0.003095162333920598,-0.28782328963279724,-0.03490501269698143,0.06084534898400307,0.691805899143219,-0.49831724166870117,0.03209596127271652,0.02929248847067356,0.04385988041758537,-0.26998648047447205,0.3377481698989868,-0.01698884181678295,-0.020605651661753654,0.439798504114151,0.02488924190402031,-0.0028568736743181944,0.6151773929595947,-2.07772159576416,1.8221776485443115,1.3524317741394043,1.761208415031433,-7.354147434234619,1.8522961139678955,0.6225582957267761,2.680957794189453,1.0861561298370361,1.3948198556900024,-1.7281421422958374,-0.1982254981994629,0.2089759111404419,1741530354.8137777,1741530354688,1.1968515625,-1.5836864013671876,-2.646922724451529,-1.12667431640625,-2.975566162109375
1741530354.8422308,3.735633611679077,0.025039514270251813,0.010636666209957311,-0.9996298735317226,-0.48352766036987305,-0.09719390422105789,0.5191981196403503,-2.1887900829315186,-13.150289535522461,18.817214965820312,-0.00324249267578125,0.18024730682373047,0.5022125840187073,-1.2470670938491821,0.005531395319849253,-0.9355688095092773,-0.07915617525577545,1.2188379764556885,0.009346150793135166,0.9657053351402283,-0.2779049277305603,-0.7547493577003479,0.20351719856262207,0.30498969554901123,0.7894636392593384,-0.3354795277118683,0.017459796741604805,-0.22106507420539856,-0.020027466118335724,0.0871671661734581,0.6815060377120972,-0.4810318052768707,0.052227381616830826,-0.2583216428756714,-0.07926851511001587,-1.1819179058074951,0.3041298985481262,-0.014938591048121452,-0.008731057867407799,1.5457440614700317,-0.031809352338314056,0.0013733605155721307,0.43439316749572754,-1.1562398672103882,1.7661060094833374,1.4623351097106934,1.3822883367538452,-5.3087944984436035,1.6135201454162598,0.9120913147926331,3.1260101795196533,0.4957497715950012,1.2941051721572876,-0.4399312436580658,0.8840992450714111,1.204385757446289,1741530354.8137777,1741530354688,1.1968515625,-1.5836864013671876,-2.646922724451529,-1.12667431640625,-2.975566162109375
1741530354.8622293,3.7439472675323486,0.013521969792624811,0.01652699453814824,-0.9997719813959898,-0.15569522976875305,-0.5400938391685486,0.4567631781101227,-12.913046836853027,2.786341428756714,11.066930770874023,-0.00438690185546875,0.19665050506591797,0.4640650153160095,-1.2455412149429321,0.005531395319849253,-0.9302281141281128,-0.04177157208323479,1.2211267948150635,0.009346150793135166,0.9634165167808533,-0.2805752754211426,-0.7047760486602783,0.18711376190185547,0.3244449496269226,0.8180742859840393,-0.30779802799224854,0.05220722034573555,-0.18902114033699036,-0.02880140393972397,0.1184481605887413,0.7055390477180481,-0.46530231833457947,0.0529562272131443,-0.06026910990476608,0.503023624420166,-2.1247751712799072,-0.027595655992627144,0.008168527856469154,0.2556861340999603,2.68091082572937,0.2127976417541504,-0.00861236173659563,-0.17330506443977356,0.23103386163711548,2.673311471939087,-0.9885171055793762,0.6841689944267273,1.4328668117523193,0.9775996208190918,1.73343825340271,1.3572361469268799,-0.17845547199249268,1.4460564851760864,1.6721165180206299,0.9427876472473145,-0.1450044810771942,1741530354.906654,1741530354788,1.1127362060546875,-1.658572509765625,-2.6046695036097667,-1.181933837890625,-2.998836181640625
