Freshhhhh-LC/Legged_odom/data/7/segments/booster_seg_9.9s.csv
time,yaw,projected_gravity_x,projected_gravity_y,projected_gravity_z,ang_vel_x,ang_vel_y,ang_vel_z,lin_acc_x,lin_acc_y,lin_acc_z,q_0,q_1,q_2,q_3,q_4,q_5,q_6,q_7,q_8,q_9,q_10,q_11,q_12,q_13,q_14,q_15,q_16,q_17,q_18,q_19,q_20,q_21,q_22,dq_0,dq_1,dq_2,dq_3,dq_4,dq_5,dq_6,dq_7,dq_8,dq_9,dq_10,dq_11,dq_12,dq_13,dq_14,dq_15,dq_16,dq_17,dq_18,dq_19,dq_20,dq_21,dq_22,mocap_time,mocap_timestamp,robot_x,robot_y,robot_yaw,ball_x,ball_y
1741530516.9229753,2.9801199436187744,0.0286664820459681,0.0035397444526900543,-0.9995827644654133,-0.18579579889774323,0.01135343499481678,0.20057381689548492,-3.947953462600708,1.266335368156433,7.726743221282959,-0.09212589263916016,0.4522390365600586,0.3385595381259918,-1.2501189708709717,0.005149920005351305,-0.9149690866470337,0.013542382046580315,1.221508264541626,0.009346150793135166,0.9676127433776855,0.06847485899925232,-0.725375771522522,0.01125352829694748,0.039101243019104004,0.8543145060539246,-0.2798464596271515,0.029922736808657646,-0.4182879328727722,0.00476844422519207,-0.04444190114736557,0.995078980922699,-0.4467048943042755,-0.016375139355659485,0.12092486023902893,0.11428467184305191,-3.6751160621643066,0.06587239354848862,-0.08677706867456436,0.02656947448849678,4.248230934143066,0.193435400724411,0.01744510419666767,-0.4018722176551819,0.4560786485671997,2.5927481651306152,-1.1617270708084106,-1.0790880918502808,1.1177926063537598,0.16325321793556213,-0.2998087406158447,-0.8547008037567139,-0.7564185261726379,-0.43376481533050537,5.66864538192749,1.8795526027679443,-0.8709611892700195,1741530516.9078636,1741530516828,-1.406127685546875,0.7592979736328125,-2.536639028487388,-3.92376953125,-1.178424560546875
1741530516.9250674,2.969215989112854,0.021125838503348187,0.0038319592881234455,-0.9997694809482557,0.08359431475400925,-0.50649493932724,-0.6361376047134399,-12.227386474609375,-5.067722320556641,14.224183082580566,-0.06466007232666016,0.476654052734375,0.26684215664863586,-1.2489745616912842,0.005912871100008488,-0.9115357995033264,0.07305257022380829,1.2379117012023926,0.01201647985726595,0.9596017599105835,0.07572289556264877,-0.6952391862869263,-0.0009536888683214784,0.02079041674733162,0.8604180812835693,-0.28705060482025146,0.035050638020038605,-0.4839017391204834,-0.001716639962978661,-0.05703059583902359,1.1469062566757202,-0.4032523036003113,-0.021548433229327202,0.7789377570152283,0.8368332982063293,-3.402172088623047,0.11287666857242584,0.0679813027381897,0.2699228823184967,4.020158290863037,1.0753960609436035,0.22264179587364197,-0.5474966168403625,0.41715171933174133,1.3994293212890625,-0.36537179350852966,-1.0035735368728638,0.2502981722354889,-0.3988988399505615,0.4201703369617462,-3.649076461791992,-0.21118180453777313,-0.5298284888267517,7.729496002197266,2.1318955421447754,-0.06370493769645691,1741530516.9078636,1741530516828,-1.406127685546875,0.7592979736328125,-2.536639028487388,-3.92376953125,-1.178424560546875
1741530516.9328468,3.832007884979248,0.03854126464809436,-0.04698081195874481,-0.998151979523671,0.3216673731803894,-0.4931114912033081,0.5199655890464783,-28.216333389282227,-15.140118598937988,20.59695053100586,-0.042534828186035156,0.14858436584472656,-0.06771191209554672,-1.2253230810165405,0.005912871100008488,-0.9725719094276428,0.4507133662700653,1.2539336681365967,0.009346150793135166,0.919165313243866,-0.17757686972618103,-0.4495689272880554,0.010109102353453636,0.28400853276252747,0.838674008846283,-0.5392476320266724,0.036100272089242935,-0.8707179427146912,0.09136339277029037,0.11959258466959,0.8024337887763977,-0.37698695063591003,0.026314882561564445,-0.0032733259722590446,0.8023671507835388,1.890937328338623,-0.6660993099212646,0.002658418146893382,0.08494998514652252,1.0907739400863647,-0.6648479700088501,0.007852756418287754,-1.129259705543518,0.2787214517593384,1.66935396194458,-0.21985313296318054,0.14430604875087738,0.4881424009799957,-1.224634051322937,-1.07365882396698,1.7741570472717285,-0.2706074118614197,-0.5389835834503174,0.3011681139469147,2.8937082290649414,1.8345575332641602,1741530516.9078636,1741530516828,-1.406127685546875,0.7592979736328125,-2.536639028487388,-3.92376953125,-1.178424560546875
1741530516.9528897,3.831432342529297,0.0437618875338284,-0.0476041025289877,-0.9979071833702201,0.08375879377126694,0.20836780965328217,0.0074088359251618385,-3.4566731452941895,-4.569128513336182,-2.875408411026001,-0.07228946685791016,0.13446998596191406,-0.009727626107633114,-1.2363858222961426,0.00476844422519207,-0.9721904397010803,0.4362172782421112,1.2459226846694946,0.009727626107633114,0.9092469811439514,-0.18863965570926666,-0.4079881012439728,0.000572213320992887,0.2924010157585144,0.8436331748962402,-0.5438306927680969,0.008728560991585255,-0.8352407217025757,0.07610437273979187,0.13866636157035828,0.8390554785728455,-0.3322265148162842,0.05800088495016098,-0.880617618560791,-0.2966090440750122,3.3114113807678223,-0.5873340368270874,-0.00779796252027154,0.014478497207164764,-1.4139821529388428,-0.4658879041671753,0.011775506660342216,-0.4276323914527893,-0.3487764596939087,1.957279920578003,-0.5473308563232422,0.5541310906410217,0.46358248591423035,0.11412090063095093,-0.9888280034065247,1.320974588394165,-1.0101592540740967,1.5205280780792236,0.7830196022987366,1.8859665393829346,1.0973005294799805,1741530516.9078636,1741530516828,-1.406127685546875,0.7592979736328125,-2.536639028487388,-3.92376953125,-1.178424560546875
1741530516.9729164,3.8310680389404297,0.03799884652897555,-0.05078477364812508,-0.9979864700625837,0.21805152297019958,-0.27777108550071716,-0.06643527746200562,-12.545452117919922,5.347806453704834,11.617215156555176,-0.056649208068847656,0.14400672912597656,0.06466010212898254,-1.2409635782241821,0.005531395319849253,-0.970283031463623,0.3927290737628937,1.2440153360366821,0.010872052982449532,0.9088655114173889,-0.18711376190185547,-0.3889143168926239,-0.0024795911740511656,0.3084229826927185,0.8848325610160828,-0.515933096408844,0.022511938586831093,-0.7917525172233582,0.06809338182210922,0.16308079659938812,0.8146410584449768,-0.3088192343711853,0.048008400946855545,0.3890153169631958,0.09087149053812027,3.6888935565948486,-0.3467352092266083,-0.07647673040628433,0.1131320372223854,-2.9227001667022705,-0.14632417261600494,0.0620410218834877,-0.05370120704174042,0.06727548688650131,0.5704612731933594,0.210158109664917,0.5984633564949036,2.593597412109375,1.6171679496765137,0.6754798889160156,2.8261210918426514,-0.15893206000328064,0.852181613445282,-0.7271025776863098,1.2443662881851196,-0.6628897190093994,1741530517.0099626,1741530516928,-1.4838897705078125,0.7136590576171875,-2.517290878296831,-4.02859912109375,-1.2733751220703124
1741530516.9930289,3.8401010036468506,0.029084272292772446,-0.05615465318500216,-0.9979983767676539,0.17409507930278778,-0.4927980303764343,0.5237785577774048,-1.5117582082748413,-0.26907768845558167,10.526585578918457,-0.07152652740478516,0.16231822967529297,0.1340886503458023,-1.2569855451583862,0.005531395319849253,-0.9657053351402283,0.35076677799224854,1.239819049835205,0.008201723918318748,0.9081025123596191,-0.1832990050315857,-0.41561761498451233,0.013542382046580315,0.31528952717781067,0.995078980922699,-0.4738876223564148,0.029200535267591476,-0.7532234787940979,0.07763027399778366,0.1844434291124344,0.8180742859840393,-0.2849840819835663,0.02256372757256031,-0.35681089758872986,0.5796235799789429,3.4944636821746826,-1.0522546768188477,-0.02975280024111271,0.24329665303230286,-2.805093288421631,-0.319122850894928,-0.11003509163856506,-0.03876236826181412,0.2042204886674881,-1.8489069938659668,0.7847752571105957,0.3437800705432892,5.918150424957275,2.1211607456207275,0.22635482251644135,1.5065357685089111,0.3309166431427002,1.4503878355026245,0.023116501048207283,1.005094051361084,-1.0089777708053589,1741530517.0099626,1741530516928,-1.4838897705078125,0.7136590576171875,-2.517290878296831,-4.02859912109375,-1.2733751220703124
1741530517.012951,3.8617565631866455,0.022330810092673313,-0.06086773850065844,-0.9978960132851621,0.2759022116661072,-0.14100517332553864,1.1396886110305786,0.6900416612625122,-3.8715176582336426,11.030911445617676,-0.07648563385009766,0.14820289611816406,0.1962691694498062,-1.2623261213302612,0.005912871100008488,-0.9584572911262512,0.2973601818084717,1.2333340644836426,0.008964675478637218,0.9103913903236389,-0.182917520403862,-0.4877164959907532,0.02536812424659729,0.308041512966156,1.1388952732086182,-0.43606287240982056,0.016321629285812378,-0.7135500311851501,0.07953765243291855,0.20580606162548065,0.8245593905448914,-0.2751826345920563,0.02478114888072014,-0.11959083378314972,-0.3416622281074524,2.733309030532837,-0.34158873558044434,0.014155990444123745,0.37526604533195496,-3.8358495235443115,-0.46624743938446045,0.025298230350017548,0.22160537540912628,0.07276791334152222,-3.9430952072143555,0.3930836021900177,-0.5307758450508118,7.2378621101379395,1.7106096744537354,-0.9472631812095642,2.1213583946228027,0.22681330144405365,0.7707422375679016,0.35743406414985657,0.3531707525253296,0.09142699837684631,1741530517.0099626,1741530516928,-1.4838897705078125,0.7136590576171875,-2.517290878296831,-4.02859912109375,-1.2733751220703124
1741530517.03296,3.889554977416992,0.018205882923782477,-0.06447600836016107,-0.9977531709660992,0.10683494061231613,-0.17774538695812225,1.404173493385315,-4.789022922515869,2.6768507957458496,11.069255828857422,-0.07381534576416016,0.14591407775878906,0.25387197732925415,-1.2676668167114258,0.005531395319849253,-0.951972246170044,0.23517967760562897,1.226467490196228,0.009346150793135166,0.9115357995033264,-0.17986571788787842,-0.571259617805481,0.02536812424659729,0.2931639552116394,1.270504355430603,-0.42599087953567505,-0.0022656230721622705,-0.6868467330932617,0.06923781335353851,0.2141985148191452,0.8279926776885986,-0.28108954429626465,0.022349528968334198,0.06796430796384811,-0.10905469208955765,2.8506720066070557,-0.24514494836330414,-0.02221745438873768,0.38394656777381897,-4.236070156097412,-0.43064698576927185,0.040189169347286224,0.07400421053171158,0.24474352598190308,-4.257340431213379,-0.018086472526192665,-0.6450081467628479,6.083683490753174,0.1790119856595993,-0.5443838834762573,1.1832613945007324,-0.7104424834251404,0.44417765736579895,0.08564109355211258,-0.3753661811351776,-0.16213008761405945,1741530517.0099626,1741530516928,-1.4838897705078125,0.7136590576171875,-2.517290878296831,-4.02859912109375,-1.2733751220703124
1741530517.0530307,3.918898105621338,0.014629995047968063,-0.0645679576461484,-0.9978060643683729,-0.0008188486099243164,-0.027558187022805214,1.4324941635131836,-0.6265221238136292,7.985540866851807,12.457263946533203,-0.07763004302978516,0.14057350158691406,0.3133821487426758,-1.2669038772583008,0.005531395319849253,-0.9439612627029419,0.1676585078239441,1.2218897342681885,0.008964675478637218,0.9142061471939087,-0.1661325991153717,-0.6422140598297119,0.02040894143283367,0.2927824854850769,1.339932918548584,-0.4434247314929962,0.014853301458060741,-0.649462103843689,0.05207141116261482,0.21190966665744781,0.8295185565948486,-0.30029594898223877,0.0286492258310318,-0.10226646810770035,-0.14008976519107819,2.8705084323883057,0.0300747063010931,-0.011640188284218311,0.34555569291114807,-4.530233860015869,-0.3190533220767975,-0.03272324800491333,0.2028353065252304,0.6817904114723206,-3.373762845993042,-0.1530233770608902,-0.09455505758523941,2.9787964820861816,-0.9755034446716309,0.6986178755760193,2.0896530151367188,-0.8631713390350342,-0.09632229804992676,0.031339131295681,-1.057443380355835,0.3899722993373871,1741530517.0099626,1741530516928,-1.4838897705078125,0.7136590576171875,-2.517290878296831,-4.02859912109375,-1.2733751220703124
1741530517.0729976,3.928485155105591,0.012293327137794038,-0.06613745896871924,-0.9977347897257288,0.07025875151157379,-0.15373201668262482,0.39864635467529297,1.009382963180542,3.639390230178833,11.966537475585938,-0.07267093658447266,0.13561439514160156,0.36717021465301514,-1.2669038772583008,0.005912871100008488,-0.9382390975952148,0.09784847497940063,1.217693567276001,0.010109102353453636,0.9145876169204712,-0.1489662081003189,-0.6948577165603638,0.02079041674733162,0.28820478916168213,1.342221736907959,-0.4662744998931885,-0.0011487306328490376,-0.6086442470550537,0.03604944050312042,0.212672621011734,0.8218890428543091,-0.331816703081131,0.03764506056904793,0.08396489173173904,-0.13030172884464264,2.7433931827545166,0.03286357223987579,0.019890837371349335,0.30882662534713745,-4.528658866882324,-0.23444503545761108,0.09383619576692581,0.029326824471354485,1.0590664148330688,-2.552497148513794,0.01803397759795189,-0.18844905495643616,-0.3607023358345032,-1.0227940082550049,-0.9332367181777954,1.9327067136764526,-0.8778867721557617,0.08051041513681412,-0.4322066307067871,-1.582380771636963,0.4768441319465637,1741530517.1149826,1741530517008,-1.5273226318359376,0.669790771484375,-2.450984538999628,-4.08937353515625,-1.355397216796875
1741530517.0930984,3.9216792583465576,0.011253843940997417,-0.0663940557628928,-0.997730013759186,0.03418584167957306,-0.022967910394072533,-0.37082889676094055,-4.287685871124268,6.029732704162598,11.652152061462402,-0.07152652740478516,0.12912940979003906,0.4190509021282196,-1.2680482864379883,0.005912871100008488,-0.9321355223655701,0.03185320645570755,1.2173120975494385,0.009727626107633114,0.9149690866470337,-0.12340734153985977,-0.7322422862052917,0.02231631986796856,0.28477150201797485,1.2930114269256592,-0.4785989820957184,-0.009588858112692833,-0.5624856948852539,0.016594186425209045,0.21000228822231293,0.8093003630638123,-0.36443811655044556,0.043245986104011536,0.009058301337063313,-0.23028458654880524,2.6481120586395264,-0.050368428230285645,0.04900004342198372,0.28076431155204773,-4.410694122314453,0.014539050869643688,-0.06417303532361984,0.07048303633928299,1.235082983970642,-1.7849844694137573,0.14507873356342316,-0.20942102372646332,-2.7493484020233154,-0.45367568731307983,-0.01384617667645216,2.510404109954834,-0.9800708293914795,-0.1668844223022461,-0.6207619905471802,-1.6062037944793701,0.16321419179439545,1741530517.1149826,1741530517008,-1.5273226318359376,0.669790771484375,-2.450984538999628,-4.08937353515625,-1.355397216796875
1741530517.1147618,3.9160189628601074,0.012552552877508397,-0.06902077987248088,-0.997536247643188,0.14024265110492706,-0.0061072418466210365,-0.17668670415878296,0.3163178861141205,1.105859398841858,8.711294174194336,-0.07648563385009766,0.12226295471191406,0.47398337721824646,-1.2684297561645508,0.005531395319849253,-0.9229800701141357,-0.04329747334122658,1.220745325088501,0.008964675478637218,0.9252689480781555,-0.11120012402534485,-0.7597085237503052,0.03528648987412453,0.2809567451477051,1.2174792289733887,-0.4687252640724182,-0.004515055567026138,-0.5209048390388489,-0.000572213320992887,0.20237277448177338,0.7898451089859009,-0.39653679728507996,0.04221547767519951,-0.1530531793832779,-0.19999513030052185,2.5337283611297607,0.058113906532526016,-0.013179492205381393,0.4229374825954437,-4.911372661590576,0.20489084720611572,0.035478170961141586,0.706032931804657,0.3570998013019562,-1.3528120517730713,0.735383152961731,-0.14024630188941956,-4.056509971618652,0.7438907027244568,0.13177601993083954,1.900191068649292,-0.8555474877357483,-0.3995559811592102,-1.0236459970474243,-1.6828738451004028,-0.034390710294246674,1741530517.1149826,1741530517008,-1.5273226318359376,0.669790771484375,-2.450984538999628,-4.08937353515625,-1.355397216796875
1741530517.1330936,3.9161882400512695,0.01298521379180859,-0.07032276250576174,-0.9974397692574422,0.04580944404006004,0.060589712113142014,0.004841865040361881,3.827845573425293,1.3382869958877563,6.643664836883545,-0.07991886138916016,0.11425209045410156,0.4999237060546875,-1.2646150588989258,0.005531395319849253,-0.9214541912078857,-0.09403372555971146,1.2211267948150635,0.009346150793135166,0.9382390975952148,-0.11539635062217712,-0.7742046117782593,0.058175019919872284,0.2817196846008301,1.1270694732666016,-0.4346562623977661,-0.011358311399817467,-0.48962387442588806,-0.012397955171763897,0.1974135935306549,0.7715343236923218,-0.42550867795944214,0.04613490030169487,-0.11204473674297333,-0.2333838939666748,1.1430583000183105,0.23035164177417755,-0.0065423427149653435,0.023771237581968307,-3.085334300994873,0.021140271797776222,-0.059908024966716766,0.8567536473274231,-0.3258572816848755,-0.6015585660934448,1.194451928138733,0.028712226077914238,-4.571798801422119,1.8686977624893188,-0.2508452832698822,1.6242740154266357,-0.5461333394050598,-0.25079578161239624,-0.8824706077575684,-1.452824592590332,0.2536965012550354,1741530517.1149826,1741530517008,-1.5273226318359376,0.669790771484375,-2.450984538999628,-4.08937353515625,-1.355397216796875
1741530517.1531055,3.9202828407287598,0.013074195972071802,-0.07032288904084955,-0.9974385979480803,-0.030413124710321426,0.01065399032086134,0.25096145272254944,0.5317904353141785,-0.9715806841850281,6.7535271644592285,-0.09136295318603516,0.10738563537597656,0.5079346895217896,-1.2623261213302612,0.005531395319849253,-0.9225986003875732,-0.1203555315732956,1.220745325088501,0.009346150793135166,0.951209306716919,-0.12645913660526276,-0.7753490209579468,0.08564125746488571,0.28400853276252747,1.0297932624816895,-0.3888646066188812,-0.0050716158002614975,-0.4510948359966278,-0.016212711110711098,0.19512474536895752,0.7486457824707031,-0.45173919200897217,0.04409773275256157,-0.3142107129096985,-0.19590987265110016,0.20995739102363586,0.2081763595342636,-0.015819881111383438,-0.10020428895950317,-1.3915075063705444,-0.06183680519461632,0.034081120043992996,0.7965539693832397,-0.5195131301879883,0.16787177324295044,1.3421108722686768,0.18357741832733154,-4.99064826965332,2.278062343597412,0.39502161741256714,1.8386410474777222,-0.06987525522708893,-0.18902157247066498,-1.2333600521087646,-1.2897413969039917,-0.0009093770058825612,1741530517.1149826,1741530517008,-1.5273226318359376,0.669790771484375,-2.450984538999628,-4.08937353515625,-1.355397216796875
1741530517.173168,3.9281327724456787,0.016249049581900737,-0.06535750635917724,-0.997729605028434,-0.2809699773788452,0.2549980878829956,0.3911791145801544,8.397350311279297,1.2598243951797485,4.332273006439209,-0.09746742248535156,0.10090065002441406,0.4964904189109802,-1.2566040754318237,0.005531395319849253,-0.9260318875312805,-0.11959258466959,1.2203638553619385,0.008964675478637218,0.961509108543396,-0.1367589831352234,-0.7600900530815125,0.10204470902681351,0.29850462079048157,0.9199283123016357,-0.34758520126342773,0.00418712105602026,-0.4072251319885254,-0.014686808921396732,0.18940261006355286,0.7299534678459167,-0.47281551361083984,0.03906149044632912,-0.21122464537620544,-0.18060840666294098,-0.7231399416923523,0.3909035325050354,-0.0012218526098877192,-0.12615658342838287,0.15885166823863983,-0.002877556486055255,-0.00021881159045733511,0.7296615242958069,-0.5739752650260925,0.5669063925743103,0.5799446105957031,0.9693628549575806,-5.623098850250244,1.93695068359375,0.3481147289276123,2.381047487258911,0.027950922027230263,-0.29830700159072876,-0.8099072575569153,-1.0329171419143677,-0.3289829194545746,1741530517.2217011,1741530517128,-1.5913046875,0.5845003051757812,-2.4326274610910557,-4.1977373046875,-1.464240478515625
1741530517.1931267,3.938014030456543,0.015555667977030523,-0.05754805020290306,-0.9982215400960012,-0.4181763827800751,-0.02380145713686943,0.5407816171646118,0.43464723229408264,6.347750663757324,5.838649272918701,-0.10471534729003906,0.09823036193847656,0.4697871506214142,-1.2508819103240967,0.005531395319849253,-0.924887478351593,-0.09861142933368683,1.2196009159088135,0.009346150793135166,0.967994213104248,-0.13828489184379578,-0.7436865568161011,0.11959258466959,0.31528952717781067,0.8070115447044373,-0.3310695290565491,0.0074681853875517845,-0.3603036403656006,-0.016212711110711098,0.1825360506772995,0.7127870321273804,-0.4934159219264984,0.020656168460845947,-0.2237033098936081,-0.08400443941354752,-1.4349724054336548,0.38499319553375244,-0.014349273405969143,0.04766170307993889,1.7130664587020874,-0.04892723262310028,0.010613001883029938,0.3580555319786072,0.024881405755877495,1.035506248474121,0.9254204630851746,0.7396671772003174,-5.474641799926758,0.5501949787139893,0.24963301420211792,2.515240430831909,-0.1089262142777443,-0.2592785656452179,-0.753996729850769,-0.9480827450752258,-0.9967761039733887,1741530517.2217011,1741530517128,-1.5913046875,0.5845003051757812,-2.4326274610910557,-4.1977373046875,-1.464240478515625
1741530517.213144,3.946688652038574,0.013459124276925765,-0.04937578145452949,-0.9986895834940168,-0.458882600069046,-0.08926302194595337,0.4477669894695282,1.0671184062957764,0.8093634843826294,5.195399284362793,-0.10738563537597656,0.09288883209228516,0.42744335532188416,-1.2493560314178467,0.005531395319849253,-0.924887478351593,-0.05893797054886818,1.2196009159088135,0.009346150793135166,0.9691386222839355,-0.12989242374897003,-0.7177462577819824,0.12569619715213776,0.3229190409183502,0.7139315009117126,-0.3491804599761963,0.014496095478534698,-0.3068970739841461,-0.01125352829694748,0.1653696447610855,0.7089722752571106,-0.4991002082824707,0.015559372492134571,-0.11067306995391846,-0.1592685580253601,-2.2141106128692627,0.04173596575856209,-0.01259286142885685,-0.012848121114075184,2.6670069694519043,-0.00791200716048479,0.010880254209041595,0.015709856525063515,0.42413529753685,1.2452507019042969,0.12664151191711426,0.38946831226348877,-4.532461166381836,-1.1173796653747559,0.4621601402759552,2.5745511054992676,0.32490599155426025,-1.196834683418274,-0.01961718499660492,-0.003030164400115609,0.2916519045829773,1741530517.2217011,1741530517128,-1.5913046875,0.5845003051757812,-2.4326274610910557,-4.1977373046875,-1.464240478515625
1741530517.233167,3.9549241065979004,0.006152124450771648,-0.03866186459001306,-0.9992334119669767,-0.5089944005012512,-0.4140056371688843,0.38491925597190857,-14.112646102905273,1.346333384513855,16.599712371826172,-0.11501502990722656,0.10662269592285156,0.3751811981201172,-1.2478300333023071,0.005531395319849253,-0.9222171306610107,-0.005531395319849253,1.219982385635376,0.009346150793135166,0.9645609259605408,-0.11768520623445511,-0.6929503083229065,0.10852979123592377,0.3107118308544159,0.7295719981193542,-0.3537626564502716,0.038218606263399124,-0.26951247453689575,-0.019645990803837776,0.13866636157035828,0.7330052852630615,-0.4844071865081787,0.020673276856541634,-0.2359553724527359,0.4883109927177429,-2.6072418689727783,0.09621438384056091,0.004317272920161486,0.16182534396648407,3.731518507003784,0.03442574664950371,-0.00028521203785203397,-0.35995417833328247,0.8343859314918518,1.6058427095413208,-1.3999981880187988,-0.9027040600776672,1.980414628982544,-0.1249316856265068,1.3081482648849487,1.6306965351104736,-0.5011008381843567,-1.2422904968261719,1.4506516456604004,0.7867178916931152,-0.20219817757606506,1741530517.2217011,1741530517128,-1.5913046875,0.5845003051757812,-2.4326274610910557,-4.1977373046875,-1.464240478515625
1741530517.25322,3.9620234966278076,0.005530525210426105,-0.034822250921558454,-0.9993782187598711,-0.2372008115053177,-0.19291745126247406,0.24742241203784943,-4.029784679412842,-1.8639819622039795,10.627592086791992,-0.11577796936035156,0.10509681701660156,0.30193790793418884,-1.2520263195037842,0.005912871100008488,-0.924124538898468,0.054741740226745605,1.2211267948150635,0.008964675478637218,0.9603646993637085,-0.08258945494890213,-0.690280020236969,0.09212634712457657,0.2615014910697937,0.7665750980377197,-0.37151196599006653,0.0579543337225914,-0.26722362637519836,-0.016975661739706993,0.11272602528333664,0.813878059387207,-0.4601335823535919,0.009318928234279156,0.011941458098590374,0.141168475151062,-3.862619400024414,-0.3747826814651489,0.026650749146938324,-0.15168553590774536,4.087273120880127,0.0054773204028606415,0.01652904972434044,-0.29468008875846863,1.6669763326644897,-0.15762735903263092,-0.7041398286819458,-2.968997001647949,1.1761287450790405,-0.9896860122680664,0.9282333254814148,-0.44799721240997314,0.17304262518882751,-1.2044130563735962,4.867700576782227,1.3620986938476562,-0.6396369338035583,1741530517.2217011,1741530517128,-1.5913046875,0.5845003051757812,-2.4326274610910557,-4.1977373046875,-1.464240478515625
1741530517.2733154,3.9625236988067627,0.003553756715894009,-0.027004532043896422,-0.9996289942084986,-0.41840192675590515,0.03334956616163254,-0.01603412814438343,-1.3685996532440186,2.5519466400146484,6.660160541534424,-0.12417030334472656,0.09708595275878906,0.21801327168941498,-1.2558410167694092,0.005149920005351305,-0.9267948269844055,0.11348897218704224,1.2276118993759155,0.010872052982449532,0.9554055333137512,-0.050164032727479935,-0.6670100092887878,0.07267109304666519,0.21152819693088531,0.778019368648529,-0.37578916549682617,0.056803785264492035,-0.31910428404808044,-0.012779430486261845,0.10204470902681351,0.970283031463623,-0.4206928312778473,-0.0030945930629968643,-0.2447139322757721,-0.22342446446418762,-4.200811386108398,-0.15039224922657013,-0.031010929495096207,-0.10360734909772873,3.9154574871063232,0.6305989623069763,0.08253791928291321,-0.32457858324050903,1.5195876359939575,1.4578794240951538,-1.4429124593734741,-2.1045753955841064,0.7017933130264282,-0.010545178316533566,0.05684838071465492,-3.0155227184295654,0.2949836850166321,-0.33118322491645813,8.491535186767578,2.0965466499328613,-0.6809476017951965,1741530517.3175015,1741530517228,-1.6371597900390624,0.5018703002929688,-2.4351128860696103,-4.28557177734375,-1.554105224609375
1741530517.2932444,3.946598529815674,0.0016177886792178792,-0.024137823513536986,-0.9997073312904226,-0.08572831004858017,-0.23837660253047943,-0.8835634589195251,-2.2541143894195557,0.526841402053833,9.981863975524902,-0.12226295471191406,0.11005592346191406,0.14133669435977936,-1.2546966075897217,0.005531395319849253,-0.9237430095672607,0.1684214472770691,1.2421079874038696,0.010872052982449532,0.9493018984794617,-0.021553369238972664,-0.6490806341171265,0.05741206929087639,0.19054703414440155,0.7848859429359436,-0.374575674533844,0.05278797820210457,-0.41523614525794983,0.0078202486038208,0.09212634712457657,1.1583504676818848,-0.3805311322212219,-0.008381187915802002,0.009798000566661358,0.3865147531032562,-3.616969585418701,0.021945839747786522,0.0014751236885786057,0.19106921553611755,3.6725375652313232,0.8513466119766235,0.0026122366543859243,-0.4701668620109558,1.4741812944412231,0.7887089252471924,-0.35977205634117126,-0.9400607347488403,0.23254871368408203,0.015320600010454655,-0.1735752671957016,-5.128370761871338,1.0357273817062378,-0.5928364396095276,9.295730590820312,1.6437877416610718,-0.10995626449584961,1741530517.3175015,1741530517228,-1.6371597900390624,0.5018703002929688,-2.4351128860696103,-4.28557177734375,-1.554105224609375
1741530517.313249,3.9203553199768066,-0.0014562427041584743,-0.022458401338778026,-0.9997467177072865,-0.12476957589387894,-0.11497267335653305,-1.3254506587982178,-1.6460046768188477,-1.7902936935424805,12.067721366882324,-0.12531471252441406,0.10585975646972656,0.07495994865894318,-1.2520263195037842,0.005531395319849253,-0.925650417804718,0.21839475631713867,1.2474485635757446,0.009727626107633114,0.9458686113357544,0.010872052982449532,-0.6231403350830078,0.06160829961299896,0.1810101419687271,0.7959487438201904,-0.3736790120601654,0.04503794386982918,-0.5212863087654114,0.02994582988321781,0.06046387553215027,1.3307774066925049,-0.38428735733032227,-0.009317981079220772,-0.1170487254858017,-0.016731448471546173,-3.1413826942443848,0.28771671652793884,0.007749385666102171,-0.17233900725841522,3.3145930767059326,0.3349922001361847,-0.0875839963555336,-0.20589785277843475,1.6905202865600586,1.4420722723007202,0.28855422139167786,-0.32323381304740906,0.5451753735542297,0.0012416451936587691,-0.49865326285362244,-5.158787727355957,0.9120938777923584,-1.9474916458129883,8.404984474182129,-0.593297004699707,-0.13531532883644104,1741530517.3175015,1741530517228,-1.6371597900390624,0.5018703002929688,-2.4351128860696103,-4.28557177734375,-1.554105224609375
1741530517.333287,3.8871660232543945,-0.0028148174833729166,-0.01956515222705657,-0.9998046217240982,-0.12880487740039825,-0.23031242191791534,-1.679491639137268,0.3176848590373993,-3.718477725982666,13.881686210632324,-0.13942909240722656,0.10891151428222656,0.01888304017484188,-1.2440153360366821,0.005531395319849253,-0.927176296710968,0.26722362637519836,1.2508819103240967,0.010109102353453636,0.9443427324295044,0.04291599988937378,-0.5975814461708069,0.06618601083755493,0.1665140837430954,0.7982375621795654,-0.3792762756347656,0.033528346568346024,-0.6139848828315735,0.03528648987412453,0.010109102353453636,1.4353017807006836,-0.42659345269203186,-0.009903421625494957,-0.44150084257125854,0.13002504408359528,-2.671762704849243,0.5403624773025513,0.007821078412234783,-0.04625008627772331,3.2912065982818604,0.17962795495986938,0.08354580402374268,-0.11798149347305298,1.5339709520339966,1.078879475593567,0.16913257539272308,-0.8931300640106201,0.04618626460433006,-0.353638231754303,-0.46701934933662415,-4.419517517089844,0.09791677445173264,-2.638538360595703,4.476892471313477,-2.2408154010772705,0.028466669842600822,1741530517.3175015,1741530517228,-1.6371597900390624,0.5018703002929688,-2.4351128860696103,-4.28557177734375,-1.554105224609375
1741530517.3534083,3.85996675491333,-0.007210907432315337,-0.012219309176993322,-0.9998993405824608,-0.42523643374443054,-0.18388287723064423,-1.1935862302780151,2.6435444355010986,0.5480090975761414,10.423970222473145,-0.14286231994628906,0.10662269592285156,-0.020027466118335724,-1.235241413116455,0.005531395319849253,-0.9267948269844055,0.31452658772468567,1.2527892589569092,0.009727626107633114,0.9424353241920471,0.0722896158695221,-0.5647745728492737,0.06656748056411743,0.1497291475534439,0.7986190319061279,-0.3937363028526306,0.025546232238411903,-0.6776912808418274,0.02880140393972397,-0.04711223021149635,1.4513237476348877,-0.4758710265159607,0.0003410566132515669,-0.14115369319915771,-0.06938757747411728,-1.830220103263855,0.5642837882041931,0.015079166740179062,0.04228862375020981,3.071481466293335,0.1785295456647873,-0.08471047878265381,-0.12283488363027573,1.4105557203292847,1.958841323852539,0.00818378571420908,-0.9288354516029358,0.018251707777380943,-0.8142586946487427,-0.5003516674041748,-3.004459857940674,-0.24069799482822418,-2.7470996379852295,0.14326819777488708,-2.5154712200164795,0.6620258092880249,1741530517.3175015,1741530517228,-1.6371597900390624,0.5018703002929688,-2.4351128860696103,-4.28557177734375,-1.554105224609375
1741530517.3733315,3.8441715240478516,-0.010718150661397297,-0.001950124523749697,-0.9999406573695969,-0.516041100025177,-0.221786230802536,-0.7859602570533752,1.7702460289001465,-2.770139217376709,10.836885452270508,-0.15087318420410156,0.10547828674316406,-0.06046387553215027,-1.2314265966415405,0.005531395319849253,-0.9279392957687378,0.3576333224773407,1.2543151378631592,0.009346150793135166,0.9386205673217773,0.08487831056118011,-0.5239566564559937,0.06809338182210922,0.12989242374897003,0.7951858043670654,-0.4172605276107788,0.020112328231334686,-0.7166017889976501,0.026131074875593185,-0.0883115902543068,1.3918135166168213,-0.5187808275222778,0.007827915251255035,-0.2231614887714386,-0.06513450294733047,-2.2247698307037354,0.1961444765329361,0.0025289596524089575,-0.1004355177283287,2.8241493701934814,0.05007493123412132,0.03117135353386402,-0.29107552766799927,0.4715363085269928,1.6868726015090942,0.06070156395435333,-0.9084827303886414,-0.2383081167936325,-1.2570937871932983,-0.21132777631282806,-1.748563528060913,-0.1471560001373291,-1.9028942584991455,-3.3995683193206787,-2.000153064727783,0.11834676563739777,1741530517.3175015,1741530517228,-1.6371597900390624,0.5018703002929688,-2.4351128860696103,-4.28557177734375,-1.554105224609375
1741530517.3933496,3.837371587753296,-0.01710888898292546,0.007045356993784421,-0.9998288097782541,-0.44765183329582214,-0.2808506488800049,-0.29172012209892273,0.18986350297927856,-0.21431708335876465,8.075623512268066,-0.15468788146972656,0.10585975646972656,-0.09403372555971146,-1.230282187461853,0.005149920005351305,-0.9367132186889648,0.4091325104236603,1.2569855451583862,0.009727626107633114,0.9321355223655701,0.08297093212604523,-0.49229419231414795,0.06809338182210922,0.11768520623445511,0.7936598658561707,-0.445105642080307,0.021799342706799507,-0.7379644513130188,0.019645990803837776,-0.11615930497646332,1.2804226875305176,-0.5335215330123901,0.0044623129069805145,-0.10824988037347794,0.04168180376291275,-1.6092610359191895,0.044864971190690994,-0.028136951848864555,-0.5012316703796387,3.6174936294555664,0.22568514943122864,-0.008727788925170898,-0.5238339304924011,0.03425075486302376,2.0443570613861084,0.002105953171849251,-0.7175711393356323,0.03586821258068085,-1.4491807222366333,0.011606290005147457,-0.9845637083053589,-0.38026517629623413,-1.3918073177337646,-5.899364471435547,-0.3790070712566376,0.10225848853588104,1741530517.3175015,1741530517228,-1.6371597900390624,0.5018703002929688,-2.4351128860696103,-4.28557177734375,-1.554105224609375
1741530517.4133735,3.829035997390747,-0.015807078321739196,0.01529396652737184,-0.9997580861702444,-0.3979912996292114,0.017995312809944153,-0.37790951132774353,-3.9552385807037354,-1.2853151559829712,8.39091968536377,-0.15583229064941406,0.09746742248535156,-0.10700388997793198,-1.227993369102478,0.005531395319849253,-0.9489204287528992,0.4530022144317627,1.2546966075897217,0.009727626107633114,0.9252689480781555,0.08564125746488571,-0.45948728919029236,0.06771191209554672,0.1035706102848053,0.7879377603530884,-0.4762374758720398,0.015728140249848366,-0.7398717999458313,0.0032425422687083483,-0.14286258816719055,1.1446174383163452,-0.5108568668365479,0.018426276743412018,-0.03939860686659813,-0.19485454261302948,-0.4795955419540405,0.15325453877449036,-0.009284298866987228,-0.6092019081115723,2.494011878967285,-0.23381519317626953,0.016066931188106537,-0.3685726225376129,0.174712672829628,1.3897418975830078,-0.010986783541738987,-0.672513484954834,-0.34609100222587585,-1.5617256164550781,-0.3330742418766022,0.04568430036306381,-0.9906543493270874,-1.3797191381454468,-6.89810848236084,1.3983863592147827,0.6568199992179871,1741530517.3175015,1741530517228,-1.6371597900390624,0.5018703002929688,-2.4351128860696103,-4.28557177734375,-1.554105224609375
1741530517.4334652,3.8241732120513916,-0.006475491362489681,0.022289492080554394,-0.9997305869855164,-0.3371473252773285,0.5711745023727417,-0.285470575094223,5.5538249015808105,-3.116072177886963,5.671889305114746,-0.15506935119628906,0.07152652740478516,-0.1039520874619484,-1.2268489599227905,0.005531395319849253,-0.9618905782699585,0.47512778639793396,1.2531707286834717,0.009727626107633114,0.9210727214813232,0.09975585341453552,-0.43049514293670654,0.06008239835500717,0.09060044586658478,0.7906080484390259,-0.5031813979148865,0.013627829030156136,-0.7291905283927917,-0.024223696440458298,-0.17681391537189484,0.9981307983398438,-0.46829646825790405,0.02097063697874546,0.011870468966662884,-0.710044264793396,0.2664231061935425,0.07912015914916992,-0.0008886550785973668,-0.6435489058494568,1.3582912683486938,-0.03718540072441101,0.003099011490121484,-0.28253328800201416,0.838684618473053,1.534505844116211,-0.5142404437065125,-0.6426876783370972,0.1279573291540146,-1.3384592533111572,-0.02103406935930252,0.4065074324607849,-1.4554156064987183,-1.8320292234420776,-7.468776226043701,2.1387217044830322,0.15046674013137817,1741530517.3175015,1741530517228,-1.6371597900390624,0.5018703002929688,-2.4351128860696103,-4.28557177734375,-1.554105224609375
1741530517.4534209,3.8201904296875,0.0015596502423854694,0.024029415990766682,-0.9997100352893653,-0.03043408878147602,0.370660662651062,-0.17783790826797485,1.7504127025604248,-0.03185713663697243,8.116189956665039,-0.15278053283691406,0.07267093658447266,-0.07991912961006165,-1.2253230810165405,0.005531395319849253,-0.9668498039245605,0.4808499217033386,1.2524077892303467,0.009727626107633114,0.9172579646110535,0.11768520623445511,-0.3999771177768707,0.04329747334122658,0.07267109304666519,0.7875562906265259,-0.5263448357582092,0.009147540666162968,-0.7272831201553345,-0.05855649709701538,-0.21992065012454987,0.8703364729881287,-0.4243481159210205,0.01654449850320816,0.048014070838689804,-0.04831426218152046,1.3737446069717407,0.004811723716557026,-0.004606441594660282,-0.15912841260433197,0.2155773788690567,-0.07349096983671188,-0.0018654848681762815,-0.24030348658561707,0.854624330997467,1.6597973108291626,-0.947246253490448,-0.8228657841682434,-0.15194393694400787,-0.977832555770874,-0.3286186158657074,0.16652989387512207,-1.6753069162368774,-2.127394914627075,-6.026679515838623,2.1411755084991455,-0.4278923273086548,1741530517.3175015,1741530517228,-1.6371597900390624,0.5018703002929688,-2.4351128860696103,-4.28557177734375,-1.554105224609375
1741530517.4734287,3.816026449203491,0.006348135152809342,0.018932431650510628,-0.9998006122281985,0.3086671829223633,0.19768346846103668,-0.20233383774757385,4.195017337799072,-1.6172831058502197,9.01648998260498,-0.14362525939941406,0.07343387603759766,-0.03490501269698143,-1.227230429649353,0.005531395319849253,-0.9641794562339783,0.4705500900745392,1.2478300333023071,0.009727626107633114,0.9142061471939087,0.12760357558727264,-0.3553444743156433,0.01926451548933983,0.05741206929087639,0.7803082466125488,-0.5214521884918213,0.0026965716388076544,-0.7242313027381897,-0.08869306743144989,-0.2607385218143463,0.7883192300796509,-0.38162264227867126,-0.00659932428970933,0.2536777853965759,0.0013068044790998101,2.340819835662842,-0.14513176679611206,0.008958673104643822,0.131935715675354,-0.9174484610557556,-0.35920998454093933,0.009251921437680721,-0.15005406737327576,0.46463510394096375,2.4102988243103027,-1.3591641187667847,-0.6283103227615356,-0.3879290521144867,0.6262803673744202,-0.42044737935066223,0.07289187610149384,-1.5192623138427734,-1.8209561109542847,-3.7385339736938477,2.11063814163208,-0.990720808506012,1741530517.5227695,1741530517328,-1.689579833984375,0.44125186157226565,-2.527327315642648,-4.3695947265625,-1.6415919189453125
1741530517.493462,3.811291456222534,6.597448368427365e-05,0.0120851314487749,-0.9999269699559231,0.30755236744880676,-0.3914492130279541,-0.27005165815353394,5.355767250061035,-0.5432208776473999,10.951958656311035,-0.14019203186035156,0.09823036193847656,0.02727550081908703,-1.2291377782821655,0.005531395319849253,-0.9584572911262512,0.44499123096466064,1.2405821084976196,0.009727626107633114,0.9111543297767639,0.1348516047000885,-0.30003052949905396,-0.005912871100008488,0.04749370738863945,0.7799267768859863,-0.5025309324264526,0.02287992835044861,-0.7104982137680054,-0.10891126841306686,-0.2763790488243103,0.7852674126625061,-0.34766343235969543,-0.0202998798340559,0.11924677342176437,0.763924777507782,3.433732748031616,-0.07428095489740372,-0.01075683068484068,0.2399751842021942,-1.8754616975784302,-0.3837776184082031,0.010609504766762257,-0.18479648232460022,0.36300504207611084,2.5863492488861084,-1.0991390943527222,-0.5825192928314209,0.18624238669872284,0.8322370648384094,0.9143903851509094,1.1902124881744385,-0.9294075965881348,-0.4344192445278168,0.27771106362342834,1.4770264625549316,-0.47500959038734436,1741530517.5227695,1741530517328,-1.689579833984375,0.44125186157226565,-2.527327315642648,-4.3695947265625,-1.6415919189453125
1741530517.5135138,3.8058922290802,-0.008771430911095666,0.004380573519938958,-0.9999519351325884,0.443447083234787,-0.4161238968372345,-0.24714753031730652,-7.460931301116943,-2.1790904998779297,12.575504302978516,-0.13637733459472656,0.10395240783691406,0.1028076633810997,-1.2306636571884155,0.005531395319849253,-0.9554055333137512,0.39692530035972595,1.2447782754898071,0.009727626107633114,0.9119172692298889,0.14209964871406555,-0.2771419882774353,-0.02231631986796856,0.018501564860343933,0.8169298768043518,-0.48860102891921997,0.02967084012925625,-0.6555657386779785,-0.11310750246047974,-0.247768372297287,0.7932783961296082,-0.34331780672073364,-0.017016535624861717,0.11288304626941681,0.2421586811542511,3.8352200984954834,-0.16863909363746643,0.004609282128512859,0.21729379892349243,-3.3691723346710205,0.2979123294353485,-0.003961164969950914,0.07670003920793533,0.42673489451408386,0.8322701454162598,-0.7637975215911865,-1.608690619468689,2.43837833404541,0.7788331508636475,0.3128446638584137,2.7752513885498047,-0.015576091594994068,1.7445415258407593,0.11658913642168045,-0.0028612089809030294,0.11483193188905716,1741530517.5227695,1741530517328,-1.689579833984375,0.44125186157226565,-2.527327315642648,-4.3695947265625,-1.6415919189453125
1741530517.5335119,3.804347276687622,-0.009789202470341951,-0.002368449012228083,-0.9999492796958609,0.2905452251434326,-0.08193373680114746,-0.05248052254319191,-7.313808441162109,-9.207066535949707,11.855284690856934,-0.12798500061035156,0.10585975646972656,0.1806286722421646,-1.2348599433898926,0.005531395319849253,-0.9500648379325867,0.33398184180259705,1.2466856241226196,0.009727626107633114,0.9126802682876587,0.14362554252147675,-0.30498969554901123,-0.03185320645570755,-0.03528648987412453,0.9359502792358398,-0.4591016173362732,0.03714090958237648,-0.6185625791549683,-0.08907453715801239,-0.21686884760856628,0.7932783961296082,-0.3458764851093292,-0.018701184540987015,0.24088111519813538,0.064108707010746,3.726445198059082,-0.3021462559700012,-0.00782895740121603,0.2520779073238373,-4.371371269226074,0.027671493589878082,0.02964579127728939,0.03187021240592003,0.05651494860649109,-1.9876468181610107,-0.4723181128501892,-2.9741575717926025,6.741878032684326,1.6095702648162842,0.4882522225379944,1.7219266891479492,1.416724443435669,1.548409342765808,0.14668405055999756,-0.10246502608060837,-0.17060089111328125,1741530517.5227695,1741530517328,-1.689579833984375,0.44125186157226565,-2.527327315642648,-4.3695947265625,-1.6415919189453125
1741530517.553567,3.814565896987915,-0.007070467103139498,0.0033447298041491026,-0.9999694101708715,-0.34407830238342285,0.14083734154701233,0.5593465566635132,-7.232255935668945,-2.556354522705078,9.055407524108887,-0.13218116760253906,0.10662269592285156,0.2450980395078659,-1.236767292022705,0.005531395319849253,-0.9481574892997742,0.2599755823612213,1.2539336681365967,0.010109102353453636,0.9134432077407837,0.1501106321811676,-0.3927290737628937,-0.050164032727479935,-0.0864042118191719,1.109140157699585,-0.4150930345058441,0.040697723627090454,-0.5823224186897278,-0.0551232174038887,-0.1848248988389969,0.7978560924530029,-0.3520119786262512,-0.023619307205080986,-0.16020864248275757,-5.0506200750533026e-06,3.1135125160217285,-0.01917843148112297,-0.026603076606988907,0.01145085133612156,-4.977680206298828,0.5743895769119263,0.030076446011662483,0.09998838603496552,0.3920585513114929,-4.826645851135254,-1.0707422494888306,-2.406381368637085,9.037793159484863,2.1759393215179443,0.05920383706688881,1.7931981086730957,1.6475602388381958,1.4387003183364868,0.18760256469249725,-0.3316883444786072,-0.1336258053779602,1741530517.5227695,1741530517328,-1.689579833984375,0.44125186157226565,-2.527327315642648,-4.3695947265625,-1.6415919189453125
1741530517.5735888,3.8331587314605713,-0.003378082859690874,0.0160564321466902,-0.9998653807102794,-0.6662272214889526,0.1277724653482437,0.9574678540229797,-3.44402813911438,2.0521037578582764,11.33482551574707,-0.11768531799316406,0.10776710510253906,0.30117493867874146,-1.2348599433898926,0.005531395319849253,-0.9485389590263367,0.1806286722421646,1.2588928937911987,0.009727626107633114,0.9153505563735962,0.1672770231962204,-0.5159456729888916,-0.07343403995037079,-0.12188144028186798,1.3010224103927612,-0.3876025378704071,0.013583092950284481,-0.5483710765838623,-0.03147173300385475,-0.1680399775505066,0.7948042750358582,-0.3618420958518982,-0.017428705468773842,0.3924623429775238,0.018327852711081505,2.6702163219451904,0.0870889276266098,-0.007086863741278648,0.025737931951880455,-5.205313682556152,0.19215106964111328,-0.00971471518278122,0.11166228353977203,0.9518333673477173,-6.280439853668213,-1.1285016536712646,-1.6523479223251343,9.389297485351562,1.0354138612747192,-1.5683495998382568,1.7159569263458252,1.0156224966049194,0.9431524276733398,-0.17074750363826752,-0.47043293714523315,0.3365143835544586,1741530517.623261,1741530517528,-1.8392005615234375,0.28884124755859375,-2.515299742732644,-4.53880810546875,-1.806940673828125
1741530517.5936425,3.8556039333343506,-0.0011167587952266285,0.030746388865104803,-0.9995265941542272,-0.7160438299179077,0.04327603802084923,1.153357982635498,1.8849244117736816,3.8620619773864746,10.616752624511719,-0.11081886291503906,0.12035560607910156,0.35152971744537354,-1.2356228828430176,0.005531395319849253,-0.9481574892997742,0.10585946589708328,1.2554595470428467,0.009727626107633114,0.916876494884491,0.19245441257953644,-0.6395437717437744,-0.09479667246341705,-0.12378881871700287,1.4456015825271606,-0.4055316746234894,0.0012151511618867517,-0.5071717500686646,-0.024223696440458298,-0.15964750945568085,0.7917525172233582,-0.36972835659980774,-0.010878096334636211,0.20581232011318207,0.3573690950870514,2.4209437370300293,-0.08063846081495285,-0.0020177389960736036,0.02966657467186451,-4.898688316345215,-0.21945509314537048,-0.0023306666407734156,0.06614753603935242,1.296521782875061,-6.064432621002197,-0.9999459981918335,0.31719088554382324,6.644931316375732,-1.2084904909133911,-0.21418651938438416,2.124540328979492,0.20007912814617157,0.408924400806427,-0.20053382217884064,-0.3477146029472351,0.3103267252445221,1741530517.623261,1741530517528,-1.8392005615234375,0.28884124755859375,-2.515299742732644,-4.53880810546875,-1.806940673828125
1741530517.6136215,3.8746578693389893,-0.0020556628661681777,0.03948052026591026,-0.9992182257994064,-0.34012922644615173,-0.09616686403751373,0.8379698395729065,2.1544270515441895,3.2939438819885254,9.78397274017334,-0.09975624084472656,0.13103675842285156,0.3923476040363312,-1.2436338663101196,0.005912871100008488,-0.9473945498466492,0.04100862145423889,1.2497375011444092,0.009727626107633114,0.9164950251579285,0.1997024416923523,-0.7394903302192688,-0.09937438368797302,-0.09632257372140884,1.5047303438186646,-0.44971075654029846,0.00699520343914628,-0.4648279547691345,-0.023079270496964455,-0.15659570693969727,0.7883192300796509,-0.3778252899646759,-0.004721318371593952,0.3286483585834503,0.32689085602760315,1.960980772972107,-0.6594941020011902,0.022113442420959473,0.075262650847435,-4.169254302978516,-0.46076756715774536,0.017609592527151108,-0.03463929146528244,0.2741522490978241,-4.793950080871582,-0.11273673176765442,1.4761955738067627,2.242025136947632,-2.2610015869140625,0.17989963293075562,2.0956499576568604,0.1608482152223587,0.25838011503219604,-0.13388057053089142,-0.43385687470436096,0.40111660957336426,1741530517.623261,1741530517528,-1.8392005615234375,0.28884124755859375,-2.515299742732644,-4.53880810546875,-1.806940673828125
1741530517.6355374,3.883131980895996,-0.0029630377837898737,0.03869528864769666,-0.9992466637640395,0.07402391731739044,-0.04231658950448036,0.34412726759910583,0.828545093536377,2.9621388912200928,9.50731086730957,-0.08831119537353516,0.12760353088378906,0.42591744661331177,-1.2577484846115112,0.005531395319849253,-0.9462500810623169,-0.00858320016413927,1.2405821084976196,0.009727626107633114,0.9172579646110535,0.1997024416923523,-0.811589241027832,-0.09136339277029037,-0.05970092490315437,1.4753566980361938,-0.4910280704498291,-0.006828885525465012,-0.4209582805633545,-0.011635004542768002,-0.13179980218410492,0.7768749594688416,-0.3950139582157135,0.003913948778063059,0.2980367839336395,-0.10053306072950363,1.589420199394226,-0.9075838327407837,-0.0169508159160614,0.043472155928611755,-3.136256217956543,-0.6394133567810059,0.018328335136175156,0.05856376141309738,0.11943799257278442,-3.439683437347412,0.40459975600242615,2.1319234371185303,-2.0262837409973145,-1.8763231039047241,-0.8922532200813293,2.1463053226470947,0.6091051697731018,1.4329503774642944,-0.6524444818496704,-1.030550241470337,0.3329901099205017,1741530517.623261,1741530517528,-1.8392005615234375,0.28884124755859375,-2.515299742732644,-4.53880810546875,-1.806940673828125
1741530517.6536667,3.885774850845337,-0.0026264290863147162,0.037031565999623935,-0.9993106448897011,0.07897539436817169,0.0393800251185894,0.23582816123962402,0.24789127707481384,-0.44807058572769165,8.14913558959961,-0.08754825592041016,0.12951087951660156,0.4549095928668976,-1.2657594680786133,0.005912871100008488,-0.9439612627029419,-0.06313420087099075,1.2356228828430176,0.009346150793135166,0.9237430095672607,0.19283588230609894,-0.8573662638664246,-0.08106355369091034,-0.03032730519771576,1.3765544891357422,-0.5034955739974976,-0.01442386768758297,-0.3873884081840515,0.001716639962978661,-0.09632257372140884,0.761997401714325,-0.4270273745059967,0.00516491150483489,-0.011590718291699886,0.06856611371040344,1.5748043060302734,-0.4639159142971039,-0.008390809409320354,0.17416784167289734,-3.967635154724121,-0.27136027812957764,0.01650640368461609,0.5231043100357056,-0.5480299592018127,-2.0959014892578125,0.494430810213089,1.337981104850769,-5.394950866699219,-0.2602002024650574,-0.22748638689517975,1.4614834785461426,0.6065226793289185,1.6776810884475708,-0.7813533544540405,-1.7451086044311523,0.10316460579633713,1741530517.623261,1741530517528,-1.8392005615234375,0.28884124755859375,-2.515299742732644,-4.53880810546875,-1.806940673828125
1741530517.6736743,3.8932225704193115,0.004650854502564246,0.03405420965312677,-0.9994091656360256,0.1822541207075119,0.4655829668045044,0.2788001298904419,0.5242688059806824,2.916616439819336,5.535900592803955,-0.08106327056884766,0.11081886291503906,0.4686427116394043,-1.2665224075317383,0.005531395319849253,-0.9390020370483398,-0.10090028494596481,1.230282187461853,0.009727626107633114,0.9378576278686523,0.17147326469421387,-0.8787289261817932,-0.06580453366041183,-0.01583123579621315,1.2323567867279053,-0.47747164964675903,-0.011341046541929245,-0.3603036403656006,0.005531395319849253,-0.07534141838550568,0.7558938264846802,-0.47094660997390747,0.004746044985949993,0.17126832902431488,-0.5432835221290588,0.46830451488494873,-0.05348129943013191,0.0035714858677238226,0.23003429174423218,-2.204479932785034,-0.3396534323692322,-0.029699120670557022,0.9986648559570312,-1.0991277694702148,-0.7909842729568481,0.8403364419937134,0.5583412051200867,-7.678065299987793,1.601863145828247,-0.05958257243037224,1.3478643894195557,0.1502852439880371,1.0145870447158813,-0.09665535390377045,-2.216571569442749,-0.03630907088518143,1741530517.623261,1741530517528,-1.8392005615234375,0.28884124755859375,-2.515299742732644,-4.53880810546875,-1.806940673828125
1741530517.6936815,3.894106388092041,0.02115876643306514,0.030059777734136116,-0.9993241297825272,0.168979674577713,0.8767358660697937,0.05038423463702202,0.9024873375892639,3.960718870162964,-0.7984277606010437,-0.07724857330322266,0.09670448303222656,0.464446485042572,-1.2665224075317383,0.005531395319849253,-0.9328984618186951,-0.12684062123298645,1.226467490196228,0.009346150793135166,0.9569314122200012,0.13942931592464447,-0.8733882904052734,-0.04100862145423889,-0.011635004542768002,1.0603113174438477,-0.4327651858329773,-0.009544961154460907,-0.34962233901023865,0.01201647985726595,-0.05283436179161072,0.763523280620575,-0.5167601108551025,0.007004688028246164,0.1027594730257988,-0.4851081967353821,-0.2923692464828491,0.02901143953204155,-0.009172264486551285,0.24899475276470184,-1.5120569467544556,-0.2321336269378662,0.008234500885009766,1.2549409866333008,-1.7120189666748047,0.1769859939813614,1.3434414863586426,0.3076666295528412,-9.05886173248291,2.212968349456787,0.11059246212244034,0.4996064603328705,0.5249235033988953,1.1927478313446045,0.5681681632995605,-2.2633442878723145,0.1299903690814972,1741530517.7345293,1741530517628,-1.90247998046875,0.1960920867919922,-2.4517189250187146,-4.635728515625,-1.8816771240234376
1741530517.7137315,3.888699769973755,0.03838313141278041,0.027531409447971052,-0.9988837553573275,0.10091204941272736,0.9168035387992859,-0.31153571605682373,-2.1267011165618896,-5.368631839752197,7.248903274536133,-0.07572269439697266,0.09479713439941406,0.4522392749786377,-1.2642335891723633,0.005531395319849253,-0.9306095838546753,-0.12951095402240753,1.224560022354126,0.009346150793135166,0.9718089699745178,0.1031891331076622,-0.8527885675430298,-0.004386968910694122,0.002861066721379757,0.8726252913475037,-0.38751712441444397,0.0029731723479926586,-0.343900203704834,0.03757534176111221,-0.03147173300385475,0.7917525172233582,-0.548632800579071,0.0032071496825665236,0.030095938593149185,-0.09478631615638733,-0.7211570739746094,0.14221623539924622,-0.0040257778018713,0.07904486358165741,-0.08144588023424149,-0.121275894343853,-0.0035637780092656612,0.9388654828071594,-1.7960859537124634,1.2650598287582397,1.7416200637817383,0.9757992625236511,-9.013306617736816,2.3951120376586914,0.7313196063041687,0.45599767565727234,1.438615083694458,0.894761860370636,1.6343469619750977,-1.30230712890625,-0.21417315304279327,1741530517.7345293,1741530517628,-1.90247998046875,0.1960920867919922,-2.4517189250187146,-4.635728515625,-1.8816771240234376
1741530517.7337449,3.879870891571045,0.04604298573082829,0.028695784837919378,-0.998527213148208,0.06159065291285515,0.2611914873123169,-0.32171493768692017,-18.103973388671875,13.701622009277344,10.82447338104248,-0.08106327056884766,0.11081886291503906,0.4327840209007263,-1.2562226057052612,0.005912871100008488,-0.9218356609344482,-0.11310750246047974,1.2218897342681885,0.009346150793135166,0.9775310754776001,0.07801175117492676,-0.8146410584449768,0.00858320016413927,0.06809338182210922,0.8852140307426453,-0.30902349948883057,0.021559907123446465,-0.33093002438545227,0.037193864583969116,-0.02193484455347061,0.839436948299408,-0.5463613271713257,-0.0010603797854855657,-0.2042839676141739,0.6853147149085999,-1.048641562461853,0.6094319224357605,0.05585397034883499,0.548145055770874,1.5071015357971191,-0.1922730654478073,-0.027586625888943672,0.21291585266590118,-0.7060908079147339,2.380093574523926,0.4109686017036438,3.016098976135254,1.8446844816207886,3.517768621444702,1.3178060054779053,0.606230616569519,-0.19525249302387238,0.29673078656196594,2.2865984439849854,0.29920583963394165,-0.5762430429458618,1741530517.7345293,1741530517628,-1.90247998046875,0.1960920867919922,-2.4517189250187146,-4.635728515625,-1.8816771240234376
1741530517.7537758,3.873552083969116,0.05677450690310209,0.019577359142268564,-0.998195062287389,0.41944921016693115,0.27744626998901367,-0.3838554322719574,-1.3642603158950806,-9.127033233642578,12.028504371643066,-0.06809329986572266,0.12188148498535156,0.3854810297489166,-1.2501189708709717,0.005531395319849253,-0.9180209040641785,-0.06427863240242004,1.2188379764556885,0.008201723918318748,0.9740977883338928,0.07686731964349747,-0.7967116832733154,0.027656977996230125,0.04711223021149635,0.8875028491020203,-0.26007673144340515,0.05564478412270546,-0.34504464268684387,0.03681239113211632,-0.034142062067985535,0.9203097820281982,-0.5199666619300842,-0.014819717034697533,0.3432439863681793,0.6887535452842712,-2.7389121055603027,0.22758960723876953,0.04221829026937485,0.13890939950942993,3.3984644412994385,-0.18346714973449707,0.0022138936910778284,-0.2994706928730011,-0.29727551341056824,1.0263978242874146,1.3051782846450806,-1.982754111289978,-0.5274249911308289,2.2083163261413574,1.5629512071609497,-0.9177079200744629,-0.0919460877776146,-0.4940604269504547,4.857766628265381,1.419207215309143,-0.6678197383880615,1741530517.7345293,1741530517628,-1.90247998046875,0.1960920867919922,-2.4517189250187146,-4.635728515625,-1.8816771240234376
1741530517.7737765,3.87129545211792,0.059515764377468576,0.019724766942819515,-0.998032468088898,-0.12091272324323654,0.1831156462430954,-0.13890117406845093,6.6936798095703125,1.4597649574279785,15.311509132385254,-0.08754825592041016,0.13027381896972656,0.31452658772468567,-1.2478300333023071,0.005149920005351305,-0.916113555431366,-0.00667582219466567,1.220745325088501,0.00858320016413927,0.9683756828308105,0.07381551712751389,-0.7547493577003479,0.012779430486261845,0.03337911143898964,0.8981841802597046,-0.2367505133152008,0.027831092476844788,-0.4022659659385681,0.02231631986796856,-0.03833829239010811,1.0770962238311768,-0.4819088578224182,-0.02524721436202526,-0.5640433430671692,0.2852157950401306,-3.6269757747650146,0.22437962889671326,-0.048457372933626175,0.10988909006118774,3.9582927227020264,0.1719314455986023,0.005978609435260296,-0.4043372869491577,0.19396157562732697,1.4079543352127075,-1.21686851978302,-0.06272881478071213,1.131081223487854,0.7512506246566772,-1.7900164127349854,-3.601020574569702,-0.8285496234893799,-0.1312246322631836,8.14867115020752,1.9607576131820679,-0.38988834619522095,1741530517.7345293,1741530517628,-1.90247998046875,0.1960920867919922,-2.4517189250187146,-4.635728515625,-1.8816771240234376
1741530517.7938063,3.858060359954834,0.059175772561161466,0.019489938674247895,-0.998057298070739,0.1727125644683838,0.1683337241411209,-0.6786438822746277,-1.5231878757476807,-1.8645988702774048,10.692044258117676,-0.07305240631103516,0.13179969787597656,0.23746852576732635,-1.2421079874038696,0.005149920005351305,-0.9122987985610962,0.049782559275627136,1.2447782754898071,0.011635004542768002,0.960746169090271,0.09136339277029037,-0.7345311641693115,0.014686808921396732,0.02079041674733162,0.9279392957687378,-0.2685316801071167,0.01731807552278042,-0.4972533881664276,0.024605173617601395,-0.05664911866188049,1.259822964668274,-0.43868061900138855,-0.021822694689035416,0.38781994581222534,-0.19660703837871552,-3.8977999687194824,0.39555177092552185,-0.02217121794819832,0.14761100709438324,3.9196155071258545,1.6539194583892822,0.25856754183769226,-0.4791201949119568,0.7029805779457092,1.3951587677001953,0.0955098420381546,-0.7862372398376465,1.1713664531707764,-1.7917437553405762,-0.27142101526260376,-4.9994072914123535,0.5362772345542908,-1.1314270496368408,9.05013656616211,2.075666904449463,0.42570212483406067,1741530517.8301582,1741530517728,-1.9773079833984375,0.10768482971191407,-2.478931924053875,-4.708337890625,-1.9569349365234376
1741530517.81389,3.8447747230529785,0.05950956160686834,0.014728305942233266,-0.9981190756024205,0.22775547206401825,-0.00296657532453537,-0.6406260132789612,5.711764335632324,-3.0182130336761475,11.863335609436035,-0.08907413482666016,0.14515113830566406,0.15812161564826965,-1.2333340644836426,0.005531395319849253,-0.9122987985610962,0.11577782779932022,1.2600373029708862,0.01125352829694748,0.953498125076294,0.10509651154279709,-0.698291003704071,0.01430533267557621,0.01926451548933983,0.9245060086250305,-0.3232601583003998,0.01695764809846878,-0.6033035516738892,0.03795681521296501,-0.08335240930318832,1.4185168743133545,-0.41580575704574585,0.002998187206685543,-0.3911173641681671,0.323432594537735,-4.044720649719238,0.5827627778053284,0.0008052845951169729,-0.05173661559820175,4.464607238769531,0.9091593623161316,-0.0822705551981926,-0.5223716497421265,0.8613683581352234,1.9177340269088745,0.02774651348590851,0.12883126735687256,-0.2512204647064209,-2.77113938331604,0.006445514038205147,-5.332085609436035,0.38315582275390625,-1.236063003540039,7.20855712890625,0.8051665425300598,0.8727609515190125,1741530517.8301582,1741530517728,-1.9773079833984375,0.10768482971191407,-2.478931924053875,-4.708337890625,-1.9569349365234376
1741530517.8339741,3.8247082233428955,0.056083614509522435,0.013767369454103564,-0.998331151332994,0.10071418434381485,-0.09295884519815445,-1.023747205734253,4.425800323486328,0.07367740571498871,9.029977798461914,-0.09250736236572266,0.14362525939941406,0.08182650804519653,-1.226467490196228,0.005531395319849253,-0.9157320261001587,0.1848248988389969,1.2737704515457153,0.010872052982449532,0.9458686113357544,0.12760357558727264,-0.6467918157577515,0.01926451548933983,0.02079041674733162,0.9088655114173889,-0.3762567341327667,0.004540474619716406,-0.6887540817260742,0.034142062067985535,-0.10662241280078888,1.4955748319625854,-0.4267567992210388,-0.00488462345674634,-0.09066717326641083,-0.08860739320516586,-3.7114975452423096,0.4727780520915985,-0.010927491821348667,-0.21116062998771667,4.6418585777282715,0.9168270230293274,0.05442529916763306,-0.4797975718975067,1.0808262825012207,2.798933982849121,0.17449951171875,-0.04796869680285454,-0.9326659440994263,-2.5633463859558105,-0.5204083919525146,-3.8547117710113525,-0.15797670185565948,-1.3833272457122803,3.145864248275757,-0.7140683531761169,-0.5444859266281128,1741530517.8301582,1741530517728,-1.9773079833984375,0.10768482971191407,-2.478931924053875,-4.708337890625,-1.9569349365234376
1741530517.8539276,3.8043320178985596,0.052406704323173174,0.014059230225171237,-0.9985268526121164,0.019683171063661575,-0.24770092964172363,-1.041195273399353,2.54416561126709,-1.0267939567565918,10.079397201538086,-0.08831119537353516,0.14515113830566406,0.01926451548933983,-1.2211267948150635,0.005531395319849253,-0.9199283123016357,0.25577935576438904,1.2798740863800049,0.010490577667951584,0.9416723847389221,0.1359960287809372,-0.5895704627037048,0.019645990803837776,0.016594186425209045,0.8829251527786255,-0.4217686355113983,0.004735620226711035,-0.7570382356643677,0.02994582988321781,-0.13065537810325623,1.4902342557907104,-0.45186713337898254,-0.005744383204728365,0.10283669084310532,-0.020392777398228645,-3.072652816772461,0.321119487285614,-0.007454974576830864,-0.1801479011774063,4.736461639404297,0.2885299026966095,-0.02760029397904873,-0.26253944635391235,0.3487251102924347,2.712249994277954,0.02672104723751545,-0.1005699411034584,-1.3992069959640503,-2.2700932025909424,0.4241649806499481,-3.3971385955810547,-0.33189770579338074,-1.0180739164352417,-0.7954018712043762,-1.232666015625,0.3152375817298889,1741530517.8301582,1741530517728,-1.9773079833984375,0.10768482971191407,-2.478931924053875,-4.708337890625,-1.9569349365234376
1741530517.8739448,3.7873787879943848,0.04716523427544462,0.01599015372900542,-0.9987591079231595,-0.029906868934631348,-0.14739170670509338,-0.7026987075805664,-1.6823651790618896,-0.5977813005447388,7.0975751876831055,-0.10090065002441406,0.13790321350097656,-0.024986648932099342,-1.221508264541626,0.005531395319849253,-0.9260318875312805,0.32101166248321533,1.2794926166534424,0.010109102353453636,0.9367132186889648,0.13828489184379578,-0.5281528830528259,0.022697795182466507,0.016975661739706993,0.8577477931976318,-0.45720264315605164,0.007546557113528252,-0.8134965896606445,0.013542382046580315,-0.13790340721607208,1.4326313734054565,-0.4671831429004669,0.010005463846027851,-0.36378422379493713,-0.1828642040491104,-2.0958433151245117,-0.0742029994726181,0.0019924496300518513,-0.36125463247299194,4.289261341094971,-0.0007650769548490644,-0.019732806831598282,-0.2527207136154175,0.03571997210383415,3.2972354888916016,0.14579249918460846,0.03161276876926422,-1.223188877105713,-1.6765636205673218,-0.21786051988601685,-2.7601466178894043,-0.8962380886077881,-0.24677583575248718,-3.195416212081909,-0.584379255771637,0.6295028328895569,1741530517.8301582,1741530517728,-1.9773079833984375,0.10768482971191407,-2.478931924053875,-4.708337890625,-1.9569349365234376
1741530517.8943012,3.7766788005828857,0.047576137646510155,0.013987104901357331,-0.9987696791668832,0.15374578535556793,0.0026856679469347,-0.5279715657234192,2.9749934673309326,-4.148365497589111,7.526923656463623,-0.10051918029785156,0.12302589416503906,-0.07343403995037079,-1.224560022354126,0.005912871100008488,-0.9355688095092773,0.3770885765552521,1.2749148607254028,0.010109102353453636,0.9367132186889648,0.12836651504039764,-0.47512778639793396,0.026512550190091133,0.02689402550458908,0.8241779208183289,-0.48474016785621643,-0.002301448257640004,-0.8638513684272766,-0.009727626107633114,-0.13866636157035828,1.348706841468811,-0.4595538079738617,0.008868290111422539,-0.02334478497505188,-0.39184364676475525,-2.4939067363739014,-0.22949644923210144,0.01754849962890148,-0.5642815828323364,3.6308956146240234,-0.441089928150177,0.001549153937958181,0.01618240401148796,-0.516475260257721,2.387528896331787,0.25254538655281067,0.689976155757904,-1.7758196592330933,-1.380617380142212,-0.2420198917388916,-2.4572179317474365,-1.1908024549484253,-0.05126093327999115,-4.284930229187012,0.6279284954071045,-0.08541230857372284,1741530517.9403975,1741530517828,-2.0512163085937503,0.05266864013671875,-2.5579515718079104,-4.77141064453125,-2.0281995849609373
1741530517.9140065,3.7738966941833496,0.04857569402104639,0.010842739719173952,-0.9987606504792607,0.12496098130941391,0.14120037853717804,-0.1538618803024292,6.968364238739014,-0.0673694759607315,3.8373665809631348,-0.10051918029785156,0.09823036193847656,-0.11272602528333664,-1.229519248008728,0.005531395319849253,-0.9523537158966064,0.44117647409439087,1.2684297561645508,0.009727626107633114,0.9328984618186951,0.1199740618467331,-0.4224841594696045,0.029182879254221916,0.04634927958250046,0.7982375621795654,-0.5063716173171997,0.006973944138735533,-0.8978027105331421,-0.043678950518369675,-0.14744029939174652,1.2514305114746094,-0.4250759780406952,0.007913787849247456,0.00591886043548584,-0.7824378609657288,-1.7806545495986938,-0.2846367061138153,-0.008234103210270405,-0.8021238446235657,4.443531036376953,-0.32345688343048096,0.0009517691796645522,-0.3928866386413574,-0.1264936476945877,3.0432140827178955,0.1286202371120453,0.9314598441123962,-1.0977915525436401,-0.9787912368774414,0.2605679929256439,-1.5694414377212524,-1.762085199356079,-0.615011990070343,-5.025538921356201,1.8699994087219238,0.06275924295186996,1741530517.9403975,1741530517828,-2.0512163085937503,0.05266864013671875,-2.5579515718079104,-4.77141064453125,-2.0281995849609373
1741530517.9340763,3.7697067260742188,0.05303825608694904,0.009302734548399647,-0.9985491487759514,0.09846249967813492,0.14246892929077148,-0.1762179136276245,2.8812360763549805,0.6942088603973389,10.350770950317383,-0.09784889221191406,0.08602237701416016,-0.12798504531383514,-1.228756308555603,0.005531395319849253,-0.9649423956871033,0.48962387442588806,1.2638521194458008,0.010109102353453636,0.925650417804718,0.12302586436271667,-0.3702220320701599,0.02841992862522602,0.048638131469488144,0.7673380374908447,-0.5212499499320984,-0.004650115501135588,-0.9058136940002441,-0.08907453715801239,-0.16918440163135529,1.1354619264602661,-0.37800538539886475,0.0033580963499844074,0.06970521807670593,-0.438032865524292,-0.5706595778465271,0.06738316267728806,-0.0086666289716959,-0.5517638921737671,2.8632020950317383,-0.4080597460269928,0.006804920732975006,-0.4410594403743744,0.24631552398204803,2.4389543533325195,-0.04996763914823532,0.05664783716201782,-1.691855788230896,-0.7918025255203247,-0.45953017473220825,-0.16083575785160065,-2.3206162452697754,-1.2512202262878418,-5.859467506408691,2.3236966133117676,-0.16644519567489624,1741530517.9403975,1741530517828,-2.0512163085937503,0.05266864013671875,-2.5579515718079104,-4.77141064453125,-2.0281995849609373
1741530517.9540107,3.765562057495117,0.052327907216131786,0.007786075659120179,-0.9985996030202546,0.07036980986595154,-0.01866883412003517,-0.23817509412765503,0.8652266263961792,-0.8345810174942017,7.6781086921691895,-0.09594154357910156,0.07419681549072266,-0.12073700875043869,-1.227993369102478,0.005531395319849253,-0.9706645011901855,0.5155642032623291,1.2596558332443237,0.010109102353453636,0.917639434337616,0.14515145123004913,-0.30384528636932373,0.020027466118335724,0.039101243019104004,0.7433050870895386,-0.5287517309188843,0.0033121821470558643,-0.8958953022956848,-0.12874799966812134,-0.21190966665744781,1.0027084350585938,-0.3312886655330658,0.0001836026058299467,0.056140825152397156,-0.35436490178108215,0.5302392840385437,0.060743119567632675,-0.018975427374243736,-0.22396361827850342,1.5447500944137573,-0.2120482325553894,0.018806854262948036,-0.5554817914962769,1.2168688774108887,3.4618499279022217,-0.48735925555229187,-0.5549457669258118,-1.269616961479187,-0.16091205179691315,0.3266642093658447,0.878898561000824,-1.874222993850708,-2.227252960205078,-6.64973258972168,2.2148635387420654,-0.14782220125198364,1741530517.9403975,1741530517828,-2.0512163085937503,0.05266864013671875,-2.5579515718079104,-4.77141064453125,-2.0281995849609373
1741530517.9740279,3.7560362815856934,0.045888110471736694,0.0047043321211388284,-0.9989355087174686,0.2106572538614273,-0.4141286313533783,-0.4880480468273163,3.4074692726135254,-1.5106650590896606,8.368265151977539,-0.09021854400634766,0.08220767974853516,-0.0875486359000206,-1.2253230810165405,0.005531395319849253,-0.9706645011901855,0.5170900821685791,1.2543151378631592,0.009727626107633114,0.9111543297767639,0.1680399775505066,-0.23823148012161255,0.004386968910694122,0.019645990803837776,0.7192721366882324,-0.525936484336853,0.005117959342896938,-0.8604180812835693,-0.16231784224510193,-0.25654229521751404,0.8688105344772339,-0.303876668214798,-0.0052330223843455315,0.15929538011550903,0.23898033797740936,1.8757094144821167,0.1492563933134079,-0.005184756126254797,0.004776709713041782,-0.07909421622753143,-0.4064979553222656,-0.02933964692056179,-0.415204793214798,1.217774748802185,3.2773869037628174,-0.9720632433891296,-0.916577160358429,-0.9776793122291565,0.09310978651046753,0.2911611497402191,1.8388538360595703,-1.6332237720489502,-2.136898994445801,-6.731118679046631,1.0722943544387817,-0.29478803277015686,1741530517.9403975,1741530517828,-2.0512163085937503,0.05266864013671875,-2.5579515718079104,-4.77141064453125,-2.0281995849609373
1741530517.9940915,3.7415177822113037,0.033257743040535484,-0.0008064685254686502,-0.9994464828775812,0.347540944814682,-0.5797635316848755,-0.7382179498672485,-3.6938071250915527,-1.1867597103118896,8.233036994934082,-0.08525943756103516,0.07877445220947266,-0.03299763426184654,-1.2241785526275635,0.005531395319849253,-0.9699015617370605,0.4983977973461151,1.2478300333023071,0.009727626107633114,0.9092469811439514,0.18711376190185547,-0.1817730963230133,-0.021171892061829567,0.009727626107633114,0.725375771522522,-0.5224649906158447,0.006241272669285536,-0.813115119934082,-0.17872129380702972,-0.290112167596817,0.7452124953269958,-0.30505600571632385,-0.015855874866247177,0.12855380773544312,-0.05483590438961983,2.787513256072998,0.038753729313611984,0.00033674732549116015,0.04418313503265381,-1.5262987613677979,-0.4102664291858673,-0.00033820205135270953,-0.06654269993305206,0.8660616278648376,2.761610507965088,-1.1014974117279053,-0.4089566469192505,0.6889877319335938,0.22831465303897858,0.10869035124778748,2.3142576217651367,-0.6512786149978638,-1.4941449165344238,-5.810232162475586,-0.0356479287147522,-0.6273140907287598,1741530517.9403975,1741530517828,-2.0512163085937503,0.05266864013671875,-2.5579515718079104,-4.77141064453125,-2.0281995849609373
1741530518.0140638,3.7262585163116455,0.01997235046489141,-0.011135340987995845,-0.9997385205132333,0.44895896315574646,-0.7444625496864319,-0.8235035538673401,-21.406940460205078,-13.308298110961914,16.872650146484375,-0.07648563385009766,0.07915592193603516,0.031090257689356804,-1.229519248008728,0.005531395319849253,-0.9664682745933533,0.46215763688087463,1.2394375801086426,0.009727626107633114,0.9054322242736816,0.19169145822525024,-0.15774014592170715,-0.012397955171763897,-0.016594186425209045,0.7890821695327759,-0.507468044757843,0.022655418142676353,-0.7688639760017395,-0.15430685877799988,-0.28286412358283997,0.767719566822052,-0.2897936999797821,-0.041418783366680145,0.2515392005443573,0.10596051067113876,3.085494041442871,-0.4714578688144684,-0.027663884684443474,0.17475003004074097,-2.535336494445801,-0.5521665215492249,0.014709939248859882,-0.3331385850906372,-0.08389829099178314,0.7336879372596741,0.26543521881103516,-1.291763424873352,3.513476610183716,0.9854421615600586,0.8337065577507019,2.7031571865081787,1.6066703796386719,0.8557508587837219,2.260585069656372,0.6363844871520996,-1.309770941734314,1741530518.047248,1741530517928,-2.13854833984375,-0.010484782218933106,-2.584710619672538,-4.84097314453125,-2.0995539550781253
1741530518.0340872,3.716519355773926,0.019894431014096783,-0.006698729802344206,-0.9997796450386758,-0.20574811100959778,-0.07650081068277359,-0.42256471514701843,-13.846758842468262,2.7606372833251953,19.143829345703125,-0.08068180084228516,0.06733036041259766,0.09708552807569504,-1.231045126914978,0.005912871100008488,-0.9603646993637085,0.39539939165115356,1.2440153360366821,0.010490577667951584,0.9061951637268066,0.1817730963230133,-0.19550621509552002,-0.025749599561095238,-0.0558861680328846,0.9065766334533691,-0.46823108196258545,0.03033449314534664,-0.7509346008300781,-0.12493324279785156,-0.2317463904619217,0.7913710474967957,-0.30021700263023376,-0.04847569763660431,-0.12228914350271225,-0.24810001254081726,3.0887930393218994,-0.026386693120002747,0.030876705422997475,0.3404613733291626,-4.8087592124938965,0.502080500125885,0.06090135872364044,0.14207348227500916,-0.4712071418762207,-2.4334466457366943,-0.7845693230628967,-2.6716229915618896,6.426211833953857,2.048535108566284,0.23845292627811432,0.6030693650245667,1.6520860195159912,2.5530152320861816,0.5041056275367737,-0.6567407846450806,-0.1813540905714035,1741530518.047248,1741530517928,-2.13854833984375,-0.010484782218933106,-2.584710619672538,-4.84097314453125,-2.0995539550781253
1741530518.0541115,3.714334011077881,0.020247556499222826,0.0018150574218231044,-0.9997933496590015,-0.48821285367012024,0.08959255367517471,-0.03286200761795044,-0.28194543719291687,-5.134248733520508,6.917331218719482,-0.06466007232666016,0.055504798889160156,0.15735866129398346,-1.232571005821228,0.005531395319849253,-0.9569314122200012,0.3099488914012909,1.2512633800506592,0.010490577667951584,0.9084840416908264,0.17299915850162506,-0.2740901708602905,-0.05741206929087639,-0.12417028844356537,1.0816738605499268,-0.4210106432437897,0.03870149329304695,-0.7101167440414429,-0.08220797777175903,-0.20466163754463196,0.7932783961296082,-0.3056037425994873,-0.043541934341192245,0.42642906308174133,-0.44496551156044006,2.8899686336517334,-0.1874653398990631,0.035345666110515594,0.1198573186993599,-5.605955600738525,0.41599157452583313,-0.0467471219599247,0.07376039773225784,-0.4418347477912903,-4.414896011352539,-1.6371442079544067,-3.4464914798736572,8.950582504272461,2.3519535064697266,0.2994171679019928,2.1078696250915527,1.9302105903625488,1.237095594406128,0.2141302525997162,-0.1345137506723404,0.18987953662872314,1741530518.047248,1741530517928,-2.13854833984375,-0.010484782218933106,-2.584710619672538,-4.84097314453125,-2.0995539550781253
1741530518.0742335,3.7266945838928223,0.014868101808041,0.019622042918983652,-0.999696911558854,-0.855882465839386,-0.3631649315357208,0.6859556436538696,-5.4755473136901855,1.432496428489685,11.496160507202148,-0.07000064849853516,0.07648563385009766,0.20923933386802673,-1.23600435256958,0.005531395319849253,-0.9554055333137512,0.2290760725736618,1.2581299543380737,0.010490577667951584,0.9088655114173889,0.16994735598564148,-0.3912031650543213,-0.10090028494596481,-0.17681391537189484,1.270504355430603,-0.3791413903236389,0.028734205290675163,-0.6773098111152649,-0.06504157930612564,-0.19474326074123383,0.7887006998062134,-0.3084946870803833,-0.036899350583553314,-0.17966404557228088,0.6539174914360046,2.487147331237793,-0.250435471534729,-0.027062470093369484,0.08304575085639954,-5.360368251800537,0.46448665857315063,0.023515252396464348,0.052051037549972534,-0.1460966169834137,-6.03316593170166,-2.136068105697632,-2.487952947616577,9.360360145568848,1.8851351737976074,-0.9137152433395386,1.670235514640808,0.6396411061286926,0.3181714713573456,-0.2745763659477234,-0.15581344068050385,0.5703738331794739,1741530518.047248,1741530517928,-2.13854833984375,-0.010484782218933106,-2.584710619672538,-4.84097314453125,-2.0995539550781253
1741530518.0944383,3.745435953140259,0.010820772732146001,0.03530944165717673,-0.9993178444355618,-0.7844384908676147,-0.19956986606121063,0.9745935797691345,-1.5576602220535278,0.9670881628990173,9.523332595825195,-0.053978919982910156,0.08258914947509766,0.2595941126346588,-1.2386746406555176,0.005531395319849253,-0.9489204287528992,0.1504921019077301,1.2569855451583862,0.009727626107633114,0.9115357995033264,0.1657511293888092,-0.5212863087654114,-0.14133669435977936,-0.18673227727413177,1.4215686321258545,-0.3761649429798126,0.002628014190122485,-0.6296253800392151,-0.06351567804813385,-0.1993209719657898,0.7833600640296936,-0.3123479187488556,-0.019288893789052963,0.4011615216732025,0.30407243967056274,2.5867807865142822,-0.10307081788778305,0.00010015183943323791,0.3340040445327759,-5.202749729156494,-0.11645155400037766,-0.03696688637137413,0.21584123373031616,-0.16142237186431885,-6.523592948913574,-1.834436058998108,-0.12160474061965942,6.936100482940674,-0.3154696822166443,-0.7830045223236084,2.2802844047546387,0.102840356528759,-0.2479431927204132,-0.21969659626483917,-0.16520200669765472,0.8306828737258911,1741530518.047248,1741530517928,-2.13854833984375,-0.010484782218933106,-2.584710619672538,-4.84097314453125,-2.0995539550781253
1741530518.1144578,3.7693536281585693,0.006604480040011008,0.04517111900616313,-0.9989574319514982,-0.4224517047405243,-0.28371989727020264,1.1898759603500366,0.4993843138217926,7.865889549255371,8.85023021697998,-0.042153358459472656,0.08106327056884766,0.3107118308544159,-1.2432523965835571,0.005531395319849253,-0.9416723847389221,0.07991912961006165,1.2535521984100342,0.009727626107633114,0.9172579646110535,0.16041046380996704,-0.6509880423545837,-0.152399480342865,-0.17338064312934875,1.5039674043655396,-0.4163587689399719,0.008025316521525383,-0.5926222801208496,-0.05664911866188049,-0.1997024416923523,0.7806897163391113,-0.31668147444725037,-0.013562300242483616,0.33591893315315247,0.004589249845594168,2.5363597869873047,-0.4123513698577881,0.004452829249203205,0.3204890787601471,-4.529381275177002,-0.28752920031547546,0.0030622940976172686,0.3743269145488739,-0.2874867618083954,-6.521505355834961,-0.5343119502067566,0.6661475896835327,3.5686111450195312,-2.1956145763397217,0.1777891218662262,1.8045973777770996,0.5414444804191589,0.018973346799612045,-0.15385262668132782,-0.29688623547554016,0.32661664485931396,1741530518.1518881,1741530518028,-2.21832958984375,-0.07428897094726562,-2.6047558421123544,-4.89915283203125,-2.15960302734375
1741530518.134555,3.7856175899505615,0.003761805103485401,0.04905597269418068,-0.9987889468578389,-0.2231328785419464,-0.14118875563144684,0.7865557670593262,-0.4953713119029999,2.5247154235839844,7.090950965881348,-0.034905433654785156,0.08068180084228516,0.3580147922039032,-1.2497375011444092,0.005531395319849253,-0.9370946884155273,0.021553369238972664,1.2447782754898071,0.009727626107633114,0.9214541912078857,0.15392538905143738,-0.7703898549079895,-0.1527809500694275,-0.14362554252147675,1.5119783878326416,-0.46586576104164124,-0.0012048963690176606,-0.5556191205978394,-0.042153049260377884,-0.1958876997232437,0.778019368648529,-0.33593788743019104,-0.0011720530455932021,0.1988469362258911,0.020434675738215446,2.248347043991089,-0.32133015990257263,-0.002719577867537737,0.2140422761440277,-3.693251609802246,-0.6397689580917358,0.005804404616355896,0.24807731807231903,-0.2442416101694107,-5.76456880569458,0.08692796528339386,1.2635345458984375,-0.20598633587360382,-2.446868658065796,-0.5993983149528503,1.7428576946258545,0.6572094559669495,0.23323148488998413,-0.03434881195425987,-1.0976482629776,0.5642600655555725,1741530518.1518881,1741530518028,-2.21832958984375,-0.07428897094726562,-2.6047558421123544,-4.89915283203125,-2.15960302734375
1741530518.1579316,3.7897775173187256,0.0034733461226721762,0.05272817089357431,-0.9986028619330761,-0.17195002734661102,-0.03088955581188202,0.18382073938846588,3.8137917518615723,-2.0443317890167236,9.71444034576416,-0.02307891845703125,0.07076358795166016,0.39616236090660095,-1.2489745616912842,0.005531395319849253,-0.9355688095092773,-0.02994582988321781,1.2386746406555176,0.009727626107633114,0.9267948269844055,0.15659570693969727,-0.8665217161178589,-0.14248111844062805,-0.12798504531383514,1.4543755054473877,-0.49489670991897583,-0.010652012191712856,-0.5407415628433228,-0.03337911143898964,-0.19436179101467133,0.7852674126625061,-0.3699799180030823,0.00042111141374334693,0.3371210992336273,-0.28203269839286804,1.8588746786117554,0.06170906499028206,0.008433200418949127,0.052429020404815674,-3.5914578437805176,-0.2874666452407837,-0.003178092883899808,0.4600568115711212,0.05310722067952156,-4.545156478881836,0.5763956904411316,0.6176655292510986,-3.4726250171661377,-1.0710766315460205,-0.36903801560401917,0.412687212228775,0.34544721245765686,0.03940298780798912,0.4371481239795685,-1.7946950197219849,0.020883770659565926,1741530518.1518881,1741530518028,-2.21832958984375,-0.07428897094726562,-2.6047558421123544,-4.89915283203125,-2.15960302734375
1741530518.1746037,3.795668601989746,0.011337332614427225,0.0552718122141282,-0.998406976970692,-0.13013672828674316,0.5276495218276978,0.30103591084480286,-3.2760136127471924,-1.0832287073135376,10.453644752502441,-0.01811981201171875,0.051690101623535156,0.43011367321014404,-1.2524077892303467,0.005531395319849253,-0.9351872801780701,-0.0879301130771637,1.23753023147583,0.009727626107633114,0.9393835067749023,0.14705882966518402,-0.927176296710968,-0.12645913660526276,-0.12417028844356537,1.346799373626709,-0.47925129532814026,-0.01539616845548153,-0.5273899435997009,-0.034142062067985535,-0.19436179101467133,0.8081559538841248,-0.4086802899837494,0.00284633319824934,0.16427253186702728,-0.6047179102897644,1.701298475265503,-0.31743937730789185,-0.05683400481939316,0.02882319688796997,-3.4834702014923096,-0.13509076833724976,-9.82068813755177e-05,0.9059715270996094,-0.45288676023483276,-2.6074397563934326,0.8467876315116882,0.06087886542081833,-5.74476432800293,1.114494800567627,-0.09353508055210114,0.5907759070396423,-0.09860201179981232,0.0202571302652359,1.197266697883606,-1.9413169622421265,0.237392395734787,1741530518.1518881,1741530518028,-2.21832958984375,-0.07428897094726562,-2.6047558421123544,-4.89915283203125,-2.15960302734375
1741530518.1945322,3.798569679260254,0.02315404829599533,0.055084502926052895,-0.9982131974607912,0.06054870784282684,0.5121702551841736,0.13866393268108368,-2.7199745178222656,2.474353551864624,9.617305755615234,-0.00782012939453125,0.054741859436035156,0.46101319789886475,-1.2535521984100342,0.005531395319849253,-0.9340428709983826,-0.12340734153985977,1.2321895360946655,0.009346150793135166,0.9561684727668762,0.12417028844356537,-0.961509108543396,-0.09822995215654373,-0.12798504531383514,1.1835278272628784,-0.4369494616985321,-0.013133088126778603,-0.5186160206794739,-0.03528648987412453,-0.19016556441783905,0.8333333134651184,-0.4496830403804779,0.008538615889847279,0.2863290011882782,0.068287193775177,1.3999093770980835,-0.01919170655310154,0.005514271557331085,0.05071578547358513,-2.2591702938079834,-0.4103527069091797,-0.012408525682985783,1.071205496788025,-1.2706966400146484,-1.3547065258026123,1.575941801071167,-0.23873881995677948,-8.333809852600098,2.127796173095703,0.2825314402580261,0.3717782199382782,0.002211151411756873,0.28011927008628845,1.2524783611297607,-2.030834674835205,0.27217647433280945,1741530518.1518881,1741530518028,-2.21832958984375,-0.07428897094726562,-2.6047558421123544,-4.89915283203125,-2.15960302734375
1741530518.2146537,3.8013916015625,0.035998012027616974,0.05282889374013805,-0.9979545335917126,0.08362609893083572,0.6487908959388733,0.1438649445772171,0.016970541328191757,-0.43520957231521606,6.59351921081543,-0.00019073486328125,0.050545692443847656,0.4705500900745392,-1.2543151378631592,0.005531395319849253,-0.9351872801780701,-0.1371404528617859,1.226467490196228,0.009346150793135166,0.969520092010498,0.08869306743144989,-0.9420538544654846,-0.053215838968753815,-0.1192111074924469,0.9714275002479553,-0.3960612714290619,0.001067962497472763,-0.506027340888977,-0.016975661739706993,-0.17719538509845734,0.8611810207366943,-0.4906221628189087,0.013399537652730942,0.22755685448646545,-0.10966190695762634,0.290664404630661,-0.03647823631763458,0.006359654478728771,-0.0396055243909359,-0.6530168652534485,-0.3541627526283264,-0.001126423361711204,0.8616959452629089,-1.7805482149124146,1.431936264038086,2.2691872119903564,0.737748920917511,-10.915114402770996,1.8943371772766113,0.7606962323188782,0.74566650390625,1.1906472444534302,0.6527531743049622,1.376155972480774,-2.101377487182617,0.24036584794521332,1741530518.1518881,1741530518028,-2.21832958984375,-0.07428897094726562,-2.6047558421123544,-4.89915283203125,-2.15960302734375
1741530518.2346025,3.8025128841400146,0.037740649461768486,0.05471982015546036,-0.9977882464031924,-0.16873790323734283,-0.27376312017440796,-0.03281163424253464,-48.505889892578125,-5.850524425506592,27.70738983154297,0.00286102294921875,0.08182621002197266,0.4674982726573944,-1.2524077892303467,0.005531395319849253,-0.9317540526390076,-0.12874799966812134,1.2226526737213135,0.009727626107633114,0.9737163186073303,0.04596780240535736,-0.9088655114173889,-0.01926451548933983,-0.06923781335353851,0.8558403849601746,-0.319646954536438,-0.01819496974349022,-0.47779813408851624,0.0009536888683214784,-0.15964750945568085,0.884069561958313,-0.5308239459991455,0.004312631208449602,0.14938302338123322,0.7945372462272644,-0.12428010255098343,0.21084477007389069,0.0021345464047044516,0.3049832582473755,0.7509027719497681,-0.23856957256793976,0.032417938113212585,0.17181064188480377,-2.1138947010040283,1.5219005346298218,1.4623968601226807,3.062187433242798,-2.1561777591705322,4.626562595367432,-1.2481837272644043,1.6519745588302612,0.12873871624469757,1.0295482873916626,1.0971167087554932,-1.9388588666915894,-0.785534679889679,1741530518.1518881,1741530518028,-2.21832958984375,-0.07428897094726562,-2.6047558421123544,-4.89915283203125,-2.15960302734375
1741530518.2548015,3.81555438041687,0.04760776301217119,0.04645052129583018,-0.9977854729210696,0.3354452848434448,0.465702623128891,0.6372262239456177,10.99375057220459,11.432256698608398,-9.473678588867188,0.01049041748046875,0.07419681549072266,0.44384679198265076,-1.2466856241226196,0.005149920005351305,-0.9222171306610107,-0.09327077120542526,1.2211267948150635,0.0078202486038208,0.9744792580604553,0.05092698708176613,-0.8581292629241943,-0.010109102353453636,-0.042153049260377884,0.8997100591659546,-0.2416689395904541,-0.01687140390276909,-0.42935073375701904,0.00858320016413927,-0.15621423721313477,0.884069561958313,-0.543110728263855,-0.002829749835655093,0.31953370571136475,-0.140860915184021,-1.52851402759552,0.34190279245376587,-0.06412984430789948,0.3291018605232239,2.7906124591827393,-0.12609775364398956,-0.11429555714130402,0.1178823933005333,0.6466770172119141,1.8442198038101196,0.7804079651832581,0.43822628259658813,0.9106727838516235,3.2143213748931885,0.7052235007286072,2.4763989448547363,0.6840710043907166,-0.15683729946613312,0.12630391120910645,-0.08371447026729584,0.14820066094398499,1741530518.1518881,1741530518028,-2.21832958984375,-0.07428897094726562,-2.6047558421123544,-4.89915283203125,-2.15960302734375
1741530518.2773597,3.821735143661499,0.04635792411856516,0.03906796026535803,-0.9981606270295987,0.1915598064661026,-0.03195766732096672,0.1307889074087143,-28.49696159362793,-8.229877471923828,23.135879516601562,0.00743865966796875,0.08335208892822266,0.3843366205692291,-1.2474485635757446,0.00476844422519207,-0.926413357257843,-0.037193864583969116,1.2196009159088135,0.008964675478637218,0.9714275002479553,0.06771191209554672,-0.80510413646698,0.006294346414506435,-0.07534141838550568,0.8630884289741516,-0.21217627823352814,0.0007451683050021529,-0.3931105434894562,0.010872052982449532,-0.16880293190479279,0.9058136940002441,-0.5168522596359253,-0.005883112549781799,-0.03240884095430374,0.017925702035427094,-3.208853006362915,-0.08676312118768692,-0.11699579656124115,-0.2328568696975708,3.5374488830566406,-0.052829623222351074,0.0768132284283638,-0.2559528350830078,0.8549981117248535,3.0449376106262207,0.633320689201355,-1.5366913080215454,-1.4779871702194214,1.3386900424957275,0.8518198132514954,1.6562390327453613,-0.39344286918640137,-0.47289153933525085,1.8265013694763184,1.4375064373016357,-0.4241742491722107,1741530518.1518881,1741530518028,-2.21832958984375,-0.07428897094726562,-2.6047558421123544,-4.89915283203125,-2.15960302734375
1741530518.294824,3.8212125301361084,0.03968550530231247,0.039621313781286124,-0.9984263679226151,0.006961623672395945,-0.5058738589286804,-0.19261734187602997,-8.74632740020752,2.596893072128296,11.51559829711914,0.00896453857421875,0.11921119689941406,0.31948578357696533,-1.2451597452163696,0.005912871100008488,-0.9222171306610107,0.008964675478637218,1.233715534210205,0.010872052982449532,0.9649423956871033,0.0879301130771637,-0.7742046117782593,-0.022697795182466507,-0.08602273464202881,0.8802548050880432,-0.20816148817539215,0.018521586433053017,-0.41561761498451233,-0.006294346414506435,-0.1813916265964508,1.0137712955474854,-0.48010581731796265,-0.020643718540668488,0.11866962909698486,1.0426045656204224,-2.861668825149536,0.15414299070835114,0.0681537464261055,0.3793719410896301,3.2051308155059814,1.148162603378296,0.16980992257595062,-0.5270676016807556,1.2727006673812866,0.8789593577384949,-0.9972619414329529,-0.9908546209335327,1.0070172548294067,-0.22921597957611084,0.8217024803161621,-1.9617737531661987,-0.8758460879325867,-0.7768929600715637,5.922868728637695,1.8892056941986084,-0.5181086659431458,1741530518.1518881,1741530518028,-2.21832958984375,-0.07428897094726562,-2.6047558421123544,-4.89915283203125,-2.15960302734375
1741530518.3148985,3.804870843887329,0.040486249329878335,0.03895195780083086,-0.9984205569792127,0.019032848998904228,0.28880810737609863,-0.8964822888374329,2.9183783531188965,-12.062777519226074,11.921102523803711,0.01926422119140625,0.10509681701660156,0.2576867341995239,-1.2413450479507446,0.00476844422519207,-0.9214541912078857,0.06046387553215027,1.2562226057052612,0.01125352829694748,0.9580758213996887,0.1184481605887413,-0.7459754347801208,-0.03337911143898964,-0.10471503436565399,0.9046692848205566,-0.24942335486412048,0.012681294232606888,-0.49000534415245056,-0.005531395319849253,-0.19321736693382263,1.1732280254364014,-0.4344617426395416,-0.027278773486614227,0.22527819871902466,-0.3507709503173828,-3.419597625732422,0.29207199811935425,-0.02913602814078331,-0.0797424241900444,3.2899680137634277,1.401026725769043,-0.0038998143281787634,-0.39153650403022766,1.441664218902588,1.5392242670059204,-0.666973888874054,-0.6291860938072205,0.9592809677124023,-2.2615792751312256,-0.5788241028785706,-3.68542742729187,0.11663750559091568,-0.5574327707290649,8.296053886413574,2.2485029697418213,-0.2283971756696701,1741530518.1518881,1741530518028,-2.21832958984375,-0.07428897094726562,-2.6047558421123544,-4.89915283203125,-2.15960302734375
1741530518.3349113,3.7864341735839844,0.040823980364329986,0.040316913041966516,-0.9983526176406707,0.007240087725222111,0.02446342445909977,-0.9957836270332336,-3.1973791122436523,-2.407907724380493,13.414068222045898,0.00972747802734375,0.11577796936035156,0.18863965570926666,-1.233715534210205,0.005912871100008488,-0.924124538898468,0.11234454810619354,1.2707185745239258,0.010872052982449532,0.954261064529419,0.14171816408634186,-0.7204165458679199,-0.034142062067985535,-0.11158160120248795,0.9054322242736816,-0.3074597120285034,0.0011768373660743237,-0.5926222801208496,0.0009536888683214784,-0.18863965570926666,1.3281071186065674,-0.40048274397850037,-0.006970127113163471,-0.26157209277153015,0.19966192543506622,-3.5156891345977783,0.5060229301452637,0.00010036803723778576,-0.1021438017487526,3.592836618423462,0.8947131037712097,-0.016522308811545372,-0.27487391233444214,1.3612900972366333,1.27568519115448,0.18130722641944885,-0.2780431807041168,0.05722249671816826,-2.969623327255249,-0.1756581813097,-5.000181674957275,0.32734447717666626,0.3895742893218994,7.277050495147705,1.4364930391311646,1.1656630039215088,1741530518.1518881,1741530518028,-2.21832958984375,-0.07428897094726562,-2.6047558421123544,-4.89915283203125,-2.15960302734375
1741530518.354961,3.7656452655792236,0.04210437059369184,0.03753489412376022,-0.9984079094738918,0.17300181090831757,0.14753496646881104,-1.027376651763916,4.285624980926514,0.4983721375465393,8.917203903198242,0.01392364501953125,0.12226295471191406,0.11539635062217712,-1.227993369102478,0.005149920005351305,-0.9267948269844055,0.17376211285591125,1.2802555561065674,0.010872052982449532,0.9481574892997742,0.1646067053079605,-0.6788357496261597,-0.02384222112596035,-0.11005569249391556,0.9019989371299744,-0.35640662908554077,0.003275802591815591,-0.6784542798995972,0.01125352829694748,-0.19207294285297394,1.4150835275650024,-0.3992299437522888,-0.0014417878119274974,0.11014266312122345,0.30565765500068665,-3.657777786254883,0.3841478228569031,-0.018538810312747955,-0.1298733651638031,4.1435089111328125,0.5541123747825623,0.0036753900349140167,-0.3918519616127014,0.8799340724945068,2.277846097946167,0.451974481344223,0.03329921513795853,-0.33850976824760437,-2.3512256145477295,0.11315523833036423,-4.133760929107666,0.49869590997695923,-0.21356269717216492,3.7131338119506836,-0.15268483757972717,-0.09170406311750412,1741530518.1518881,1741530518028,-2.21832958984375,-0.07428897094726562,-2.6047558421123544,-4.89915283203125,-2.15960302734375
1741530518.3749402,3.74908447265625,0.03964211376580112,0.03605849940904863,-0.9985631113938402,0.09240803867578506,-0.15168452262878418,-0.7955281734466553,2.5164809226989746,-1.5834406614303589,9.923057556152344,0.00858306884765625,0.12493324279785156,0.04711223021149635,-1.2226526737213135,0.005531395319849253,-0.9267948269844055,0.24090181291103363,1.2813999652862549,0.010872052982449532,0.9435797929763794,0.16269932687282562,-0.6250476837158203,-0.01430533267557621,-0.10891126841306686,0.882543683052063,-0.39640727639198303,0.00013510296412277967,-0.7478827834129333,0.01430533267557621,-0.19169145822525024,1.4280537366867065,-0.41747111082077026,-0.010665965266525745,-0.15719348192214966,0.13682354986667633,-3.47859787940979,0.3265446126461029,0.017633628100156784,0.01771610789000988,4.532151222229004,0.022750193253159523,-0.003039620816707611,-0.3311935067176819,-0.10057715326547623,2.7262821197509766,0.4500560760498047,0.1382891684770584,-1.0497832298278809,-1.9640530347824097,-0.13051505386829376,-3.4581730365753174,0.01799228973686695,0.11921963095664978,0.13800543546676636,-0.9529238343238831,-0.2974282503128052,1741530518.1518881,1741530518028,-2.21832958984375,-0.07428897094726562,-2.6047558421123544,-4.89915283203125,-2.15960302734375
1741530518.3951056,3.7388358116149902,0.03653571291053031,0.03253536078626138,-0.998802579081886,0.229499951004982,-0.08966671675443649,-0.49696987867355347,2.0780959129333496,-3.7204599380493164,5.68379020690918,0.00019073486328125,0.12264442443847656,-0.009727626107633114,-1.2234156131744385,0.005149920005351305,-0.9267948269844055,0.3076600432395935,1.2802555561065674,0.010490577667951584,0.9401465058326721,0.1508735716342926,-0.5621042251586914,-0.0032425422687083483,-0.1028076633810997,0.8569847941398621,-0.4296605885028839,-0.000801000336650759,-0.8047226667404175,0.004005493130534887,-0.18520638346672058,1.3883802890777588,-0.43190842866897583,0.007109250873327255,-0.2422581911087036,-0.09637856483459473,-2.664740562438965,-0.17545171082019806,-0.03055102564394474,-0.021800655871629715,4.494733810424805,-0.13404670357704163,-0.008805809542536736,-0.24433694779872894,-0.9213169813156128,3.3050355911254883,0.5323302745819092,0.31866270303726196,-1.3014034032821655,-1.631470799446106,-0.04784330725669861,-2.820624351501465,-0.6736986637115479,0.23192740976810455,-2.2450344562530518,-0.6068722605705261,0.9987082481384277,1741530518.1518881,1741530518028,-2.21832958984375,-0.07428897094726562,-2.6047558421123544,-4.89915283203125,-2.15960302734375
1741530518.4151125,3.7379257678985596,0.03531480756309972,0.026539507546541434,-0.9990237829531229,0.29552266001701355,-0.050079841166734695,-0.05638886243104935,2.627918243408203,-2.3962275981903076,6.1806535720825195,0.00019073486328125,0.11730384826660156,-0.06656748056411743,-1.231045126914978,0.005531395319849253,-0.9283207654953003,0.36793315410614014,1.2756778001785278,0.009727626107633114,0.9367132186889648,0.12340734153985977,-0.4972533881664276,0.010109102353453636,-0.07763027399778366,0.8237964510917664,-0.455322265625,-0.0015824944712221622,-0.8554589152336121,-0.01735713705420494,-0.17986571788787842,1.3235293626785278,-0.4288618862628937,0.007975977845489979,-0.022193534299731255,-0.1360369622707367,-2.7277398109436035,-0.4737637937068939,-0.02171543426811695,-0.10491935908794403,3.9635682106018066,-0.35422253608703613,-0.0490829162299633,-0.2718386948108673,-1.3781249523162842,3.1618311405181885,0.7387664914131165,1.5401551723480225,-1.6959525346755981,-1.2261605262756348,0.040114179253578186,-2.5336809158325195,-1.1711583137512207,0.29463568329811096,-3.4756529331207275,0.33675432205200195,-0.1805182546377182,1741530518.1518881,1741530518028,-2.21832958984375,-0.07428897094726562,-2.6047558421123544,-4.89915283203125,-2.15960302734375
1741530518.4350848,3.739121198654175,0.034515475423094265,0.019158084891611422,-0.9992205210761054,0.3746333420276642,-0.035430993884801865,0.0331120640039444,1.7889201641082764,-0.1814732849597931,6.627501487731934,0.00133514404296875,0.10585975646972656,-0.10852979123592377,-1.23295259475708,0.005531395319849253,-0.9370946884155273,0.42973220348358154,1.2711000442504883,0.010109102353453636,0.9328984618186951,0.09594109654426575,-0.440032035112381,0.02536812424659729,-0.04329747334122658,0.7932783961296082,-0.4782158434391022,0.0015973597764968872,-0.8955138325691223,-0.04558632895350456,-0.17795833945274353,1.2464714050292969,-0.4010201096534729,0.005684749223291874,0.027367141097784042,-0.32799088954925537,-1.967044472694397,-0.12434598058462143,0.004258780740201473,-0.47808802127838135,4.271902084350586,-0.2829822599887848,-0.009334338828921318,-0.2979699969291687,-1.2369104623794556,2.745506763458252,0.6783538460731506,1.6916600465774536,-1.5113261938095093,-1.1707416772842407,0.12385308742523193,-1.7682607173919678,-1.3799113035202026,0.07441679388284683,-3.8223772048950195,1.5923824310302734,0.19750085473060608,1741530518.1518881,1741530518028,-2.21832958984375,-0.07428897094726562,-2.6047558421123544,-4.89915283203125,-2.15960302734375
