Freshhhhh-LC/Legged_odom/data/7/segments/booster_seg_9.85s.csv
time,yaw,projected_gravity_x,projected_gravity_y,projected_gravity_z,ang_vel_x,ang_vel_y,ang_vel_z,lin_acc_x,lin_acc_y,lin_acc_z,q_0,q_1,q_2,q_3,q_4,q_5,q_6,q_7,q_8,q_9,q_10,q_11,q_12,q_13,q_14,q_15,q_16,q_17,q_18,q_19,q_20,q_21,q_22,dq_0,dq_1,dq_2,dq_3,dq_4,dq_5,dq_6,dq_7,dq_8,dq_9,dq_10,dq_11,dq_12,dq_13,dq_14,dq_15,dq_16,dq_17,dq_18,dq_19,dq_20,dq_21,dq_22,mocap_time,mocap_timestamp,robot_x,robot_y,robot_yaw,ball_x,ball_y
1741530620.8949137,-0.7897961139678955,-0.014854264814141092,-0.04651307061174372,-0.9988072311908331,0.00332845957018435,-0.2663015127182007,1.769577145576477,-0.6811529397964478,-0.1698082685470581,8.635631561279297,0.5571451187133789,0.12989234924316406,0.16117341816425323,-1.380964994430542,0.005531395319849253,-0.5323491096496582,0.19016556441783905,1.317258596420288,0.008964675478637218,0.536926805973053,-0.16308079659938812,-0.7597085237503052,0.01926451548933983,0.18749523162841797,1.0027084350585938,-0.349008709192276,-0.005800039507448673,-0.648699164390564,-0.04406042397022247,0.01201647985726595,0.7047760486602783,-0.17850373685359955,-0.0076425024308264256,-0.3327631652355194,-0.4730381965637207,-0.4736505150794983,0.20316959917545319,-0.01322068553417921,-0.05743270367383957,0.33596479892730713,-0.2937794625759125,-0.012052563950419426,-0.04581709951162338,0.2915477752685547,-1.23141610622406,0.3209756910800934,0.7400434613227844,3.3366215229034424,1.0138471126556396,0.14376592636108398,0.4350009858608246,-0.5374889969825745,-0.7370643615722656,-0.8200792670249939,1.1240202188491821,-0.17845681309700012,1741530620.846129,1741530620668,-3.0599465332031253,-1.738554931640625,-0.14720142752186552,2.68684619140625,-2.771351806640625
1741530620.897056,-0.7741472721099854,-0.037613919451658845,-0.029642352682519114,-0.9988526037363716,-0.08350399881601334,-0.3863411247730255,-0.09150542318820953,0.7732670307159424,1.7421619892120361,8.040406227111816,0.5281524658203125,0.09937477111816406,0.19169145822525024,-1.375624418258667,0.005531395319849253,-0.5189974904060364,0.1668955534696579,1.3317546844482422,0.008964675478637218,0.5216678380966187,-0.08106355369091034,-0.7158388495445251,0.012779430486261845,0.14744029939174652,1.030174732208252,-0.3118295967578888,0.0059864576905965805,-0.6166552305221558,-0.09746700525283813,-0.03681239113211632,0.7040131092071533,-0.2132585495710373,0.007068786770105362,-0.3172004818916321,-0.08234796673059464,0.6049408316612244,-0.1790154129266739,-0.00644714804366231,0.427118182182312,-0.7272036075592041,0.23534958064556122,-0.0037201486993581057,0.052146025002002716,-0.23447676002979279,1.9710646867752075,-0.07741886377334595,-0.7309727668762207,-1.5533881187438965,-0.4667102098464966,0.15399882197380066,-0.031857509166002274,-0.6880154013633728,-0.40663260221481323,0.6016994714736938,-1.1774460077285767,0.5022832751274109,1741530620.846129,1741530620668,-3.0599465332031253,-1.738554931640625,-0.14720142752186552,2.68684619140625,-2.771351806640625
1741530620.9101918,-0.13700652122497559,0.011091967830717453,0.030275113061839488,-0.99948005771938,-0.9510380029678345,-0.17774273455142975,0.3406332731246948,-4.246402263641357,3.1384103298187256,9.07415771484375,-0.14476966857910156,0.08525943756103516,0.3923476040363312,-1.2497375011444092,0.005912871100008488,-0.9466315507888794,0.05245288833975792,1.2527892589569092,0.010109102353453636,0.918402373790741,-0.00019073777366429567,-0.8272297382354736,-0.0394827201962471,-0.040627144277095795,1.3616769313812256,-0.524570643901825,-0.008097211830317974,-0.4961089491844177,-0.01583123579621315,-0.14400701224803925,0.838674008846283,-0.5198282599449158,-0.04121040925383568,0.1517324298620224,0.420421302318573,2.2777950763702393,-0.056853532791137695,0.0268856231123209,-0.02083013392984867,-3.6125826835632324,-0.14606043696403503,0.0014541788259521127,0.3414320647716522,1.0691653490066528,-2.7472164630889893,0.9520289897918701,-1.8701122999191284,-1.4547324180603027,-0.15013597905635834,-0.5162363648414612,1.6238672733306885,0.14060385525226593,-1.3081761598587036,-0.272481769323349,-1.1312495470046997,0.17389823496341705,1741530620.846129,1741530620668,-3.0599465332031253,-1.738554931640625,-0.14720142752186552,2.68684619140625,-2.771351806640625
1741530620.9302495,-0.14382195472717285,0.012243630849059835,0.04521394580219387,-0.9989022938248907,-0.6935176253318787,0.08021903038024902,-0.3975532650947571,-0.17274512350559235,1.0471800565719604,8.792134284973145,-0.14362525939941406,0.07495975494384766,0.44193941354751587,-1.2573670148849487,0.005531395319849253,-0.9435797929763794,0.005912871100008488,1.2524077892303467,0.009727626107633114,0.9233615398406982,0.025749599561095238,-0.8550774455070496,-0.016594186425209045,-0.07610437273979187,1.2769893407821655,-0.5133796334266663,-0.004712680820375681,-0.46215763688087463,-0.01506828423589468,-0.1653696447610855,0.837911069393158,-0.5437697768211365,-0.03356795012950897,0.054776303470134735,-0.18438179790973663,2.822877883911133,-0.5607650279998779,-0.029192419722676277,0.24939194321632385,-3.0136027336120605,0.009577536024153233,-0.0015571689000353217,0.31839510798454285,1.1860326528549194,-1.0456491708755493,1.1189312934875488,-1.6947431564331055,-4.737494468688965,0.6085030436515808,0.3324325680732727,1.4621232748031616,0.027993902564048767,-1.1274420022964478,-0.029818877577781677,-1.2269145250320435,0.38333433866500854,1741530620.846129,1741530620668,-3.0599465332031253,-1.738554931640625,-0.14720142752186552,2.68684619140625,-2.771351806640625
1741530620.9502428,-0.1481870412826538,0.018084186552680064,0.05087665371240938,-0.9985412001033085,-0.23233859241008759,0.3637468218803406,-0.12565138936042786,1.483790397644043,-1.7141859531402588,7.085475921630859,-0.12684059143066406,0.057030677795410156,0.4839017391204834,-1.2611817121505737,0.005531395319849253,-0.9344243407249451,-0.04100862145423889,1.2512633800506592,0.009346150793135166,0.9336614012718201,0.02841992862522602,-0.8428702354431152,0.010490577667951584,-0.09365224838256836,1.1190584897994995,-0.5013970732688904,0.002333924639970064,-0.44728007912635803,-0.01583123579621315,-0.18673227727413177,0.8508812189102173,-0.5679828524589539,-0.03571683168411255,0.45161858201026917,-0.5002859234809875,1.6618931293487549,-0.14900821447372437,0.008625885471701622,0.4377591013908386,-3.1687235832214355,-0.15988239645957947,-0.0398796983063221,0.755291759967804,-0.2182309776544571,0.6827235817909241,1.4086337089538574,-0.6945167779922485,-8.56393051147461,0.4938190281391144,0.24272695183753967,0.8436537384986877,0.044389400631189346,-0.9246687293052673,0.9249943494796753,-1.2003463506698608,-0.063992440700531,1741530621.0508456,1741530620848,-2.926159423828125,-1.7231575927734375,-0.1683924093274446,2.9070949707031253,-2.7358828125
1741530620.9702601,-0.14250445365905762,0.027463022608853027,0.05395801057263487,-0.9981654750011288,-0.17588478326797485,0.4303776025772095,0.311972975730896,-15.649450302124023,-5.276760101318359,6.205041885375977,-0.12073707580566406,0.043297767639160156,0.4892423748970032,-1.2619446516036987,0.005912871100008488,-0.9298466444015503,-0.0707637146115303,1.2428709268569946,0.009346150793135166,0.9508277773857117,0.0024795911740511656,-0.8024337887763977,0.03681239113211632,-0.08411535620689392,0.9035248160362244,-0.4915737509727478,-0.017622247338294983,-0.4396505653858185,-0.0009536888683214784,-0.19130998849868774,0.8730067610740662,-0.597827136516571,-0.03441324457526207,0.21372291445732117,-0.4080764949321747,0.10114787518978119,-0.04223010316491127,-0.0015639126067981124,0.22848357260227203,-1.6741912364959717,-0.6172853708267212,-0.005069429986178875,1.0648926496505737,-1.3832918405532837,2.1833958625793457,1.2126739025115967,0.6871991753578186,-10.264161109924316,1.1147547960281372,-1.9970797300338745,0.4223652482032776,0.882881224155426,0.016128133982419968,1.0819827318191528,-1.4793875217437744,0.3497178852558136,1741530621.0508456,1741530620848,-2.926159423828125,-1.7231575927734375,-0.1683924093274446,2.9070949707031253,-2.7358828125
1741530620.9902713,-0.1259145736694336,0.034650492264262915,0.049030282140005974,-0.9981960603103559,0.5629919171333313,0.3864799737930298,0.9469947814941406,-7.25622034072876,-16.022174835205078,20.752721786499023,-0.11654090881347656,0.041771888732910156,0.4797055125236511,-1.2588928937911987,0.00667582219466567,-0.9145876169204712,-0.07495994865894318,1.2348599433898926,0.008201723918318748,0.9603646993637085,-0.032616160809993744,-0.7486457824707031,0.05207141116261482,-0.04482337832450867,0.9267948269844055,-0.4003486633300781,-0.12002111226320267,-0.4076066315174103,-0.000572213320992887,-0.164988175034523,0.88979172706604,-0.6195184588432312,-0.01478038914501667,0.12047551572322845,0.13915511965751648,-0.7126848101615906,0.1919746845960617,0.1004718616604805,0.8204329013824463,-0.07387540489435196,-0.4882405400276184,-0.03231192007660866,0.5250115990638733,-1.2596523761749268,2.6980435848236084,0.3594646751880646,1.436941146850586,1.3099602460861206,4.136042594909668,-3.376490831375122,1.6402699947357178,0.2257779985666275,1.2558581829071045,0.3416350781917572,-1.166350245475769,1.210322380065918,1741530621.0508456,1741530620848,-2.926159423828125,-1.7231575927734375,-0.1683924093274446,2.9070949707031253,-2.7358828125
1741530621.0103207,-0.10380971431732178,0.03909837506047371,0.037174068304996755,-0.9985436423678666,0.5785923004150391,-0.024596279487013817,1.0555243492126465,3.2226786613464355,-5.831660747528076,3.0241518020629883,-0.10929298400878906,0.048638343811035156,0.4373617172241211,-1.2573670148849487,0.005912871100008488,-0.9115357995033264,-0.05054550990462303,1.227993369102478,0.008964675478637218,0.9657053351402283,-0.02880140393972397,-0.7272831201553345,0.050164032727479935,-0.06275273114442825,0.8878843188285828,-0.3552488088607788,-0.09311991184949875,-0.3847180902957916,0.02079041674733162,-0.14400701224803925,0.8859769701957703,-0.6265419721603394,-0.0009672733140178025,0.18722593784332275,0.45747241377830505,-2.3432652950286865,0.10657355934381485,0.010283753275871277,0.027842555195093155,1.8982595205307007,-0.4295816421508789,0.05841074883937836,0.1895301342010498,0.057445917278528214,1.490185260772705,0.016507688909769058,-1.0630383491516113,-2.253650665283203,2.2309470176696777,1.6553691625595093,1.200491189956665,0.8700766563415527,0.9138585329055786,-0.06635109335184097,-0.06250525265932083,0.3152099549770355,1741530621.0508456,1741530620848,-2.926159423828125,-1.7231575927734375,-0.1683924093274446,2.9070949707031253,-2.7358828125
1741530621.0303304,-0.09266495704650879,0.045665244163080175,0.03014189733126247,-0.998501953679009,0.2790529131889343,0.3599070906639099,0.6545214653015137,5.032560348510742,-2.5150516033172607,1.7474124431610107,-0.10853004455566406,0.032616615295410156,0.37937742471694946,-1.2592743635177612,0.005531395319849253,-0.9145876169204712,-0.02841992862522602,1.2234156131744385,0.009346150793135166,0.9645609259605408,-0.00858320016413927,-0.6723506450653076,0.02536812424659729,-0.07763027399778366,0.8688105344772339,-0.3168368935585022,-0.04461517557501793,-0.36449989676475525,0.024605173617601395,-0.13790340721607208,0.9332799315452576,-0.5964073538780212,-0.009494324214756489,0.04088970646262169,-0.28547048568725586,-2.770613670349121,0.058388713747262955,-0.015438993461430073,0.01929684728384018,1.5386162996292114,-0.25507938861846924,0.00576221477240324,-0.007636236492544413,1.1988126039505005,2.0959601402282715,-1.891862154006958,-0.5255324840545654,-0.7118403911590576,1.7134383916854858,2.0263919830322266,0.4382812976837158,0.19337518513202667,0.18798384070396423,2.732008695602417,1.7296240329742432,-0.11181141436100006,1741530621.0508456,1741530620848,-2.926159423828125,-1.7231575927734375,-0.1683924093274446,2.9070949707031253,-2.7358828125
1741530621.050365,-0.09871053695678711,0.042111434923542676,0.027336162260051013,-0.9987388854358142,0.1920965015888214,-0.13150861859321594,-0.42426565289497375,-16.120067596435547,-0.811610758304596,13.586524963378906,-0.08831119537353516,0.043297767639160156,0.3370336592197418,-1.2520263195037842,0.005149920005351305,-0.9122987985610962,-0.0032425422687083483,1.2299007177352905,0.010872052982449532,0.9626535177230835,0.03681239113211632,-0.6635767221450806,-0.0009536888683214784,-0.11158160120248795,0.8749141693115234,-0.31022095680236816,-0.034721191972494125,-0.41180285811424255,0.02841992862522602,-0.1516365259885788,1.027885913848877,-0.5539799332618713,-0.006440440192818642,0.5653658509254456,0.10349905490875244,-2.22595477104187,0.5352697968482971,0.0019515885505825281,0.0740177258849144,1.5683032274246216,0.679946780204773,0.15311595797538757,-0.1453600376844406,2.351769208908081,0.8878659009933472,-1.1469508409500122,-1.8059396743774414,0.5848232507705688,0.030209386721253395,0.3457036018371582,-2.297992467880249,0.28578656911849976,-0.7351425290107727,5.242617607116699,2.1055545806884766,0.12842336297035217,1741530621.0508456,1741530620848,-2.926159423828125,-1.7231575927734375,-0.1683924093274446,2.9070949707031253,-2.7358828125
1741530621.0704033,-0.12010622024536133,0.050830425525165604,0.023264586566316425,-0.9984362908332354,0.25939491391181946,0.2733694911003113,-1.134196162223816,2.833439350128174,-3.8938474655151367,11.177111625671387,-0.09021854400634766,0.038338661193847656,0.2805752754211426,-1.2409635782241821,0.006294346414506435,-0.9126802682876587,0.024223696440458298,1.2474485635757446,0.010872052982449532,0.9626535177230835,0.08525978773832321,-0.649462103843689,-0.02384222112596035,-0.135233074426651,0.8821622133255005,-0.3355429470539093,-0.028364522382616997,-0.49038681387901306,0.03795681521296501,-0.17681391537189484,1.184290885925293,-0.5107201933860779,-0.0032293186523020267,-0.0026417740155011415,0.01974801905453205,-2.8675625324249268,0.7274454236030579,0.08867614716291428,0.027313364669680595,2.0593130588531494,1.071789026260376,-0.00959552638232708,-0.030716754496097565,2.4062986373901367,0.26184698939323425,-1.0525909662246704,-0.9534614682197571,0.12203153222799301,-1.5083338022232056,0.2981731593608856,-4.402469635009766,0.2919424772262573,-1.1147643327713013,7.999327659606934,2.1516857147216797,0.18275998532772064,1741530621.0509212,1741530620968,-2.8178090820312502,-1.7167774658203125,-0.12126145942855283,3.0466037597656253,-2.711550537109375
1741530621.0903888,-0.14760315418243408,0.05220072105639729,0.019560691350438017,-0.998445023060902,0.30291634798049927,0.2710971534252167,-1.3140391111373901,-8.130667686462402,-12.399712562561035,18.027647018432617,-0.08983707427978516,0.02994537353515625,0.2153429538011551,-1.2306636571884155,0.00476844422519207,-0.9138246774673462,0.06694895774126053,1.2600373029708862,0.010490577667951584,0.9611276388168335,0.13065537810325623,-0.6376363635063171,-0.03147173300385475,-0.14248111844062805,0.8836880922317505,-0.3731757700443268,-0.045586418360471725,-0.5899519324302673,0.032616160809993744,-0.19169145822525024,1.3166629076004028,-0.47862792015075684,0.002090440597385168,0.013975966721773148,-0.29721906781196594,-3.415583610534668,0.6801891326904297,-0.04697762429714203,-0.1017165407538414,2.9557971954345703,0.8060036301612854,-0.027817536145448685,-0.08497360348701477,2.249976873397827,0.9471848607063293,-0.18725591897964478,-0.41742777824401855,0.09079588204622269,-1.8929905891418457,-1.1909329891204834,-4.714612007141113,-0.143388569355011,-0.9682948589324951,6.397628307342529,1.338196039199829,0.1486579030752182,1741530621.0509212,1741530620968,-2.8178090820312502,-1.7167774658203125,-0.12126145942855283,3.0466037597656253,-2.711550537109375
1741530621.110439,-0.1711496114730835,0.06375039857217132,0.011283052637227607,-0.9979020890874389,0.5124571323394775,0.5238070487976074,-1.1729272603988647,4.8056135177612305,-3.6272783279418945,10.901603698730469,-0.08831119537353516,0.02346038818359375,0.13942931592464447,-1.2234156131744385,0.005531395319849253,-0.9142061471939087,0.12607766687870026,1.2649965286254883,0.009727626107633114,0.960746169090271,0.16079194843769073,-0.6063553690910339,-0.038719769567251205,-0.15506981313228607,0.8745326995849609,-0.40577903389930725,-0.06227058544754982,-0.6731135845184326,0.029182879254221916,-0.20351719856262207,1.3925764560699463,-0.47702622413635254,-0.006236884277313948,0.01718776486814022,-0.22705911099910736,-3.7902233600616455,0.4289020299911499,0.003986777272075415,-0.009110401384532452,4.123976707458496,0.21129032969474792,-0.026276730000972748,-0.05667760223150253,1.337715744972229,1.2825555801391602,-0.27731433510780334,-0.506324291229248,-0.6126275658607483,-1.487239956855774,-0.4963566064834595,-3.8827474117279053,-0.28797319531440735,-0.5047608017921448,3.244109869003296,-0.07797487080097198,-0.42450425028800964,1741530621.1530654,1741530621068,-2.73912060546875,-1.7532191162109376,-0.21122341845309908,3.15620361328125,-2.693778564453125
1741530621.1304972,-0.189589262008667,0.0650022431861534,0.004388760302763824,-0.9978754667611451,0.39667943120002747,0.14940817654132843,-0.8136906027793884,-3.5920400619506836,-2.0267016887664795,8.572033882141113,-0.08831119537353516,0.02193450927734375,0.06694895774126053,-1.2234156131744385,0.005531395319849253,-0.9145876169204712,0.1970321238040924,1.2661409378051758,0.010109102353453636,0.9584572911262512,0.17071031033992767,-0.5678263306617737,-0.038719769567251205,-0.1512550562620163,0.8535515666007996,-0.42777910828590393,-0.05203316733241081,-0.7475013136863708,0.014686808921396732,-0.20313572883605957,1.4093613624572754,-0.48885399103164673,-0.005872364621609449,-0.015257240273058414,-0.09492987394332886,-3.5300209522247314,-0.018534144386649132,-0.009939245879650116,-0.034645114094018936,4.817412376403809,0.12126687169075012,0.0008710979018360376,-0.13693952560424805,0.35122397541999817,2.4322688579559326,0.06735625118017197,0.11030185967683792,-1.0403509140014648,-1.044253945350647,0.4619409739971161,-3.433845281600952,-0.8317029476165771,0.1038534864783287,0.5525650382041931,-0.6269526481628418,0.28348276019096375,1741530621.1530654,1741530621068,-2.73912060546875,-1.7532191162109376,-0.21122341845309908,3.15620361328125,-2.693778564453125
1741530621.1504452,-0.19407033920288086,0.07397702602361039,-0.008471912232020984,-0.9972239599627735,0.7215797901153564,0.37563806772232056,-0.13544055819511414,6.461231231689453,-2.969510555267334,7.286233901977539,-0.09327030181884766,0.01811981201171875,0.0032425422687083483,-1.226467490196228,0.005912871100008488,-0.9153505563735962,0.2744716703891754,1.2634705305099487,0.009346150793135166,0.9565499424934387,0.1527809500694275,-0.5132753252983093,-0.040627144277095795,-0.14744029939174652,0.8230335116386414,-0.44634491205215454,-0.03628361597657204,-0.8161669373512268,-0.012397955171763897,-0.1840619444847107,1.4005874395370483,-0.5021454095840454,0.0063522276468575,-0.12255974113941193,-0.1334969848394394,-3.207904577255249,-0.28393563628196716,0.03956325352191925,-0.030073674395680428,5.181153774261475,-0.2814840078353882,-0.04939817264676094,-0.1486051380634308,-1.150978684425354,2.344287633895874,-0.07865749299526215,0.33500784635543823,-1.7269138097763062,-0.9403815269470215,0.8036644458770752,-3.666325330734253,-1.4720053672790527,1.0598047971725464,-0.5650683045387268,-0.5900290012359619,0.37103477120399475,1741530621.1530654,1741530621068,-2.73912060546875,-1.7532191162109376,-0.21122341845309908,3.15620361328125,-2.693778564453125
1741530621.1704392,-0.19200682640075684,0.0740099490470766,-0.026427398375242685,-0.9969072775625452,0.9003580212593079,0.09016638994216919,0.21635408699512482,0.3221324682235718,1.189284324645996,8.110282897949219,-0.08220767974853516,0.034142494201660156,-0.0555046908557415,-1.23447847366333,0.005149920005351305,-0.9195467829704285,0.34733349084854126,1.2554595470428467,0.008964675478637218,0.951209306716919,0.12531471252441406,-0.4640650153160095,-0.039101243019104004,-0.1203555315732956,0.7909895181655884,-0.4668617844581604,-0.029585976153612137,-0.889028787612915,-0.04787518084049225,-0.16041046380996704,1.3731212615966797,-0.5021454095840454,0.006352232303470373,0.33816954493522644,0.5224204063415527,-2.8978490829467773,-0.5235263705253601,-0.0474298931658268,-0.25916096568107605,4.668512344360352,-0.5291950106620789,-0.011765671893954277,-0.3749694228172302,-1.3221145868301392,2.7196507453918457,0.16750025749206543,1.329386830329895,-1.4642014503479004,-1.0948001146316528,0.25852882862091064,-3.4219913482666016,-1.8862773180007935,1.1777464151382446,-1.452446460723877,0.163970485329628,0.025251196697354317,1741530621.1530654,1741530621068,-2.73912060546875,-1.7532191162109376,-0.21122341845309908,3.15620361328125,-2.693778564453125
1741530621.1904583,-0.19051694869995117,0.08018653059508173,-0.045289520538698363,-0.9957504605273848,0.9480233788490295,0.26313135027885437,0.1464739739894867,3.885467767715454,-1.071540117263794,8.243904113769531,-0.047493934631347656,0.037194252014160156,-0.1035706102848053,-1.23753023147583,0.005149920005351305,-0.9336614012718201,0.4087510406970978,1.2516448497772217,0.010109102353453636,0.9435797929763794,0.10967422276735306,-0.4007400572299957,-0.03681239113211632,-0.09632257372140884,0.7589455842971802,-0.4930219352245331,-0.0261490847915411,-0.9428167939186096,-0.09288929402828217,-0.13942931592464447,1.3242924213409424,-0.48230114579200745,0.009098289534449577,0.9532546997070312,0.21762946248054504,-2.1312313079833984,-0.10001849383115768,-0.05823281779885292,-0.807655930519104,3.9653031826019287,-0.17660780251026154,0.11106780916452408,-0.5714175701141357,-0.6467743515968323,2.8125975131988525,0.06939645856618881,1.1691232919692993,-1.7538237571716309,-1.3308871984481812,0.08993497490882874,-2.307931900024414,-2.4136478900909424,1.0706478357315063,-2.865955114364624,1.115634799003601,0.06817103922367096,1741530621.1530654,1741530621068,-2.73912060546875,-1.7532191162109376,-0.21122341845309908,3.15620361328125,-2.693778564453125
1741530621.2104847,-0.20015645027160645,0.07652796568558837,-0.06274288538598981,-0.9950913529930134,0.885210394859314,-0.29074206948280334,-0.5784619450569153,-5.2750067710876465,-4.595361232757568,9.315698623657227,-0.049401283264160156,0.047112464904785156,-0.12111848592758179,-1.235241413116455,0.005149920005351305,-0.9489204287528992,0.4671168029308319,1.2516448497772217,0.010109102353453636,0.9279392957687378,0.12264438718557358,-0.3603036403656006,-0.03681239113211632,-0.08373387902975082,0.7249943017959595,-0.5211284160614014,-0.0333581380546093,-0.9538795948028564,-0.14248111844062805,-0.12684062123298645,1.2262531518936157,-0.4516019821166992,0.006744461599737406,0.0193276759237051,0.4020525813102722,-0.5749658942222595,0.14665721356868744,-0.01688639633357525,-0.7578294277191162,3.558717966079712,-0.06171242520213127,-0.03397834673523903,-1.001497507095337,1.0437772274017334,2.474722385406494,-0.04731743037700653,0.5456290245056152,-1.4972811937332153,-1.3805736303329468,-0.24300037324428558,-0.2271358072757721,-2.384085178375244,0.33993011713027954,-5.470396995544434,1.545172929763794,-0.32749173045158386,1741530621.2554595,1741530621168,-2.6539624023437502,-1.8081534423828125,-0.22545378561269647,3.261776123046875,-2.674486572265625
1741530621.230517,-0.21606695652008057,0.07481389657887791,-0.07480628504317133,-0.9943877013502956,0.6480748653411865,-0.1839180290699005,-0.7757558822631836,6.771052837371826,-1.4824299812316895,1.2042924165725708,-0.045205116271972656,0.052071571350097656,-0.11120012402534485,-1.233715534210205,0.005531395319849253,-0.9618905782699585,0.4957274794578552,1.2501189708709717,0.010109102353453636,0.9164950251579285,0.15697719156742096,-0.2965972423553467,-0.040245670825242996,-0.08564125746488571,0.7055390477180481,-0.5447693467140198,-0.01481971051543951,-0.916876494884491,-0.182154580950737,-0.12645913660526276,1.0538262128829956,-0.4334922730922699,-0.0037491596303880215,0.1291324347257614,0.2584693431854248,0.6497263312339783,0.08504775166511536,0.041251424700021744,-0.6233055591583252,1.7701747417449951,-0.09016994386911392,0.06336473673582077,-0.7798590064048767,1.6048837900161743,2.844181537628174,-0.3299342691898346,-0.18223658204078674,-1.1234296560287476,-1.2216161489486694,1.232467770576477,2.2315073013305664,-1.8444291353225708,0.09262605756521225,-9.196249961853027,0.6618900299072266,-0.5392109751701355,1741530621.2554595,1741530621168,-2.6539624023437502,-1.8081534423828125,-0.22545378561269647,3.261776123046875,-2.674486572265625
1741530621.2505765,-0.23496711254119873,0.06233022034405695,-0.08232788330327527,-0.9946542430727693,0.3509015142917633,-0.6449942588806152,-0.7000673413276672,-46.69013595581055,-15.8469820022583,23.149559020996094,-0.040627479553222656,0.056649208068847656,-0.08487831056118011,-1.232571005821228,0.005531395319849253,-0.967231273651123,0.5079346895217896,1.2482116222381592,0.009346150793135166,0.9069581031799316,0.18635080754756927,-0.23975738883018494,-0.056267641484737396,-0.08602273464202881,0.7021057605743408,-0.5577404499053955,-0.015209668315947056,-0.8615625500679016,-0.20733195543289185,-0.1512550562620163,0.9359502792358398,-0.3941470682621002,-0.006184329744428396,0.12414467334747314,0.12596602737903595,1.316753625869751,0.09046908468008041,0.00653349794447422,-0.1998879760503769,0.6356348991394043,-0.1522640883922577,-0.08067713677883148,-0.6395038962364197,1.3926397562026978,3.192418336868286,-0.1610652655363083,-0.012026965618133545,0.2639267146587372,-0.3851853609085083,-0.5039000511169434,2.6626031398773193,-0.9311646819114685,-2.08837890625,-2.1272103786468506,3.073636293411255,0.14752773940563202,1741530621.2554595,1741530621168,-2.6539624023437502,-1.8081534423828125,-0.22545378561269647,3.261776123046875,-2.674486572265625
1741530621.2705479,-0.25694775581359863,0.060561485732274455,-0.07733076572526498,-0.9951644382303076,-0.1401417851448059,-0.08794237673282623,-0.9962498545646667,2.783273935317993,-5.047138214111328,-2.905123472213745,-0.042916297912597656,0.039101600646972656,-0.05092698708176613,-1.229519248008728,0.004386968910694122,-0.9668498039245605,0.4865720570087433,1.2463041543960571,0.01125352829694748,0.8974212408065796,0.17681391537189484,-0.20618753135204315,-0.05970092490315437,-0.09174486994743347,0.7352941036224365,-0.5370979905128479,-0.017083613201975822,-0.7959487438201904,-0.17071031033992767,-0.1493476778268814,0.9740977883338928,-0.32563215494155884,-0.053139667958021164,-0.13109074532985687,-0.6315576434135437,2.00345778465271,0.21778567135334015,-0.02639171853661537,0.03009677119553089,-1.8812596797943115,-0.07039893418550491,0.13078531622886658,-0.30178940296173096,-0.5412713289260864,1.1044670343399048,-0.386732816696167,0.15332253277301788,2.0631582736968994,1.360687494277954,-0.06309757381677628,2.313103675842285,1.5046731233596802,0.8639715909957886,0.3861132860183716,2.9645442962646484,-2.0597591400146484,1741530621.2554595,1741530621168,-2.6539624023437502,-1.8081534423828125,-0.22545378561269647,3.261776123046875,-2.674486572265625
1741530621.2905736,-0.2635442018508911,0.05062919146399147,-0.07508386257156313,-0.9958911077788761,-0.012198757380247116,-0.29038429260253906,-0.44439297914505005,-11.637141227722168,8.363219261169434,18.418880462646484,-0.02498626708984375,0.048638343811035156,-0.007438773289322853,-1.2276118993759155,0.005149920005351305,-0.9611276388168335,0.4388876259326935,1.2485930919647217,0.010490577667951584,0.9019989371299744,0.1501106321811676,-0.22297245264053345,-0.08106355369091034,-0.08068207651376724,0.8241779208183289,-0.4954138398170471,-0.012219383381307125,-0.7654306888580322,-0.14209964871406555,-0.11539635062217712,0.9287022352218628,-0.2982681095600128,-0.06518645584583282,0.5153827667236328,0.1536492258310318,2.0499520301818848,0.05934726819396019,-0.11942209303379059,0.33017849922180176,-3.0549724102020264,0.11305747926235199,-0.0611671544611454,0.2549111545085907,-1.4308968782424927,-1.275776743888855,-0.8166479468345642,0.5545044541358948,4.916379451751709,2.072758436203003,0.22274364531040192,2.259171962738037,2.057695150375366,1.5338013172149658,-1.507296085357666,1.2554329633712769,-0.3157525658607483,1741530621.2554595,1741530621168,-2.6539624023437502,-1.8081534423828125,-0.22545378561269647,3.261776123046875,-2.674486572265625
1741530621.3105981,-0.2582285404205322,0.05339018038111252,-0.07662517199045298,-0.9956294851280298,-0.06918448954820633,-0.02458825334906578,0.3901982605457306,-1.5634586811065674,-0.31913551688194275,11.389922142028809,-0.00019073486328125,0.055504798889160156,0.02994582988321781,-1.2474485635757446,0.006294346414506435,-0.9569314122200012,0.39387351274490356,1.2432523965835571,0.008201723918318748,0.9016174674034119,0.10471503436565399,-0.28515297174453735,-0.09365224838256836,-0.07000076025724411,0.9859235286712646,-0.45044419169425964,-0.005853959359228611,-0.7322422862052917,-0.09288929402828217,-0.09517814964056015,0.9397650361061096,-0.2980758845806122,-0.06297682970762253,0.6985583305358887,0.21022707223892212,1.914949655532837,-1.4690710306167603,0.004513303749263287,0.1513136476278305,-3.174194097518921,-0.43068718910217285,-0.15386466681957245,-0.12400593608617783,-2.5164291858673096,-3.3896350860595703,-0.754213809967041,0.6636517643928528,8.388043403625488,2.2652945518493652,0.30903783440589905,0.6352401375770569,1.8701739311218262,1.2257357835769653,0.10591122508049011,-0.35920795798301697,0.0959235355257988,1741530621.3580313,1741530621248,-2.59094189453125,-1.84138720703125,-0.28965313515200786,3.3415322265625003,-2.65886181640625
1741530621.3306003,-0.2376013994216919,0.04852553632745226,-0.07457244382153476,-0.9960342478783634,-0.13387276232242584,0.05609965696930885,1.0188825130462646,-3.532700300216675,3.9159438610076904,12.5328369140625,0.01087188720703125,0.08144474029541016,0.07419699430465698,-1.2562226057052612,0.005149920005351305,-0.955024003982544,0.33245593309402466,1.2394375801086426,0.008964675478637218,0.9035248160362244,0.05397878959774971,-0.3934920132160187,-0.1203555315732956,-0.051689937710762024,1.1614023447036743,-0.4100324213504791,0.00027860794216394424,-0.7188906669616699,-0.07877469807863235,-0.07724879682064056,0.9420538544654846,-0.32933345437049866,-0.0695246011018753,0.4231887757778168,0.6400896310806274,2.209960460662842,-0.40538471937179565,0.004299890249967575,0.07454802095890045,-4.328115940093994,-0.15162505209445953,0.006983956787735224,0.18366077542304993,-2.3076171875,-5.421097278594971,-1.4036500453948975,1.0485954284667969,8.679320335388184,1.8142204284667969,0.33034199476242065,1.2389013767242432,0.8850656747817993,0.5136820673942566,0.4378001391887665,-1.6115127801895142,-0.36173325777053833,1741530621.3580313,1741530621248,-2.59094189453125,-1.84138720703125,-0.28965313515200786,3.3415322265625003,-2.65886181640625
1741530621.3507087,-0.21960604190826416,0.05431934787223189,-0.0715942936790237,-0.9959536462904974,-0.27218472957611084,0.17738597095012665,0.89713454246521,3.0267906188964844,1.9715558290481567,10.858717918395996,0.042153358459472656,0.10013771057128906,0.12874799966812134,-1.2638521194458008,0.005912871100008488,-0.9538795948028564,0.25425344705581665,1.23753023147583,0.009346150793135166,0.9046692848205566,0.024986648932099342,-0.509079098701477,-0.14476996660232544,-0.04100862145423889,1.3109407424926758,-0.4046735465526581,0.007991532795131207,-0.6857023239135742,-0.05359731614589691,-0.07572289556264877,0.9355688095092773,-0.36125078797340393,-0.06320815533399582,0.9127857089042664,0.6194837689399719,2.7535789012908936,-0.5559178590774536,-0.0017556441016495228,0.07018920034170151,-5.260537147521973,-0.15074309706687927,0.05631281062960625,0.02663806639611721,-1.3687398433685303,-5.894503116607666,-1.056772232055664,0.49263593554496765,6.887495994567871,-0.00860023032873869,0.25273165106773376,1.318179726600647,0.929768979549408,0.1372341513633728,-0.6142868399620056,-1.5725475549697876,0.4212026596069336,1741530621.3580313,1741530621248,-2.59094189453125,-1.84138720703125,-0.28965313515200786,3.3415322265625003,-2.65886181640625
1741530621.3706377,-0.20374953746795654,0.05082571540374448,-0.0653634841681486,-0.9965662855982524,-0.32317376136779785,0.007798454724252224,0.6873472332954407,-1.3163174390792847,2.391087532043457,8.839838981628418,0.037957191467285156,0.12684059143066406,0.19512474536895752,-1.2649965286254883,0.005531395319849253,-0.9500648379325867,0.17261768877506256,1.2340970039367676,0.009346150793135166,0.9069581031799316,-0.000572213320992887,-0.6132219433784485,-0.15468832850456238,-0.02384222112596035,1.3895246982574463,-0.4280107021331787,0.0060596042312681675,-0.6483176946640015,-0.043678950518369675,-0.07839322835206985,0.9237430095672607,-0.3889616131782532,-0.06738528609275818,-0.0950237363576889,0.6737606525421143,3.4961817264556885,-0.01926293782889843,-0.006189111620187759,0.174869567155838,-5.435800552368164,-0.1974988579750061,-0.053378574550151825,0.2441796064376831,-1.1783093214035034,-4.965229034423828,-0.32265880703926086,0.9962194561958313,3.3213279247283936,-1.2985310554504395,-0.12187054008245468,2.2787961959838867,0.341505765914917,-0.06682410091161728,-0.3505702018737793,-1.3431823253631592,-0.2473502904176712,1741530621.3580313,1741530621248,-2.59094189453125,-1.84138720703125,-0.28965313515200786,3.3415322265625003,-2.65886181640625
1741530621.3906898,-0.19618725776672363,0.05288707277440092,-0.06141182535606177,-0.9967103617600208,-0.21271690726280212,0.04736458510160446,0.3578197658061981,4.7863359451293945,0.2819274067878723,6.5150370597839355,0.052453041076660156,0.14209938049316406,0.26989394426345825,-1.2649965286254883,0.005531395319849253,-0.9439612627029419,0.09594109654426575,1.23295259475708,0.00858320016413927,0.9111543297767639,-0.0032425422687083483,-0.698291003704071,-0.14553292095661163,-0.00667582219466567,1.402876377105713,-0.45910340547561646,-0.0026449786964803934,-0.6010147333145142,-0.03337911143898964,-0.07839322835206985,0.9061951637268066,-0.4140985906124115,-0.05147291719913483,0.37871530652046204,0.5382310152053833,3.8198957443237305,0.00031136677716858685,0.0025299948174506426,0.27662351727485657,-5.019001483917236,-0.10858052223920822,0.012696352787315845,0.2666838467121124,0.08877688646316528,-4.478969573974609,0.6420357823371887,0.9313901662826538,0.20734065771102905,-1.4625672101974487,-0.3504759669303894,2.1867411136627197,0.5104809403419495,-0.007438426837325096,-1.0750552415847778,-1.2332794666290283,0.9024645090103149,1741530621.3580313,1741530621248,-2.59094189453125,-1.84138720703125,-0.28965313515200786,3.3415322265625003,-2.65886181640625
1741530621.410892,-0.18959331512451172,0.04948127221613143,-0.058304143674305205,-0.9970718281700066,-0.17999082803726196,-0.03325517848134041,0.2615780830383301,1.266804575920105,-0.5376731753349304,6.984465599060059,0.055886268615722656,0.14858436584472656,0.34580758213996887,-1.2649965286254883,0.005531395319849253,-0.9390020370483398,0.029564354568719864,1.232571005821228,0.008964675478637218,0.917639434337616,-0.0020981156267225742,-0.7791637778282166,-0.1203555315732956,0.002861066721379757,1.3693064451217651,-0.4749225080013275,-0.006338297389447689,-0.5556191205978394,-0.020027466118335724,-0.08335240930318832,0.882543683052063,-0.4414128363132477,-0.04893200471997261,0.09807176142930984,0.23623724281787872,3.785688877105713,0.000743481214158237,-0.02417309582233429,0.22048205137252808,-4.370568752288818,-0.008747052401304245,0.02433822862803936,0.4575265347957611,0.050346359610557556,-3.8433849811553955,1.3300879001617432,0.6051947474479675,-1.9120543003082275,-0.5626159906387329,-0.11147093772888184,2.442185878753662,0.6378498673439026,-0.32832086086273193,-1.0866680145263672,-1.4009287357330322,0.0534437857568264,1741530621.3580313,1741530621248,-2.59094189453125,-1.84138720703125,-0.28965313515200786,3.3415322265625003,-2.65886181640625
1741530621.430736,-0.18696045875549316,0.05234844635466782,-0.0554080838348095,-0.9970905597838179,-0.12927377223968506,0.12590362131595612,0.05601838603615761,3.4124019145965576,2.700937032699585,8.424888610839844,0.055123329162597656,0.15239906311035156,0.4076066315174103,-1.2627075910568237,0.005531395319849253,-0.9344243407249451,-0.024223696440458298,1.2348599433898926,0.008964675478637218,0.925650417804718,0.0032425422687083483,-0.8512626886367798,-0.08564125746488571,0.020027466118335724,1.3120851516723633,-0.461544394493103,-0.00599185423925519,-0.5098420977592468,-0.013160906732082367,-0.0879301130771637,0.8615625500679016,-0.4678390622138977,-0.04719962552189827,-0.005808882415294647,0.1317412555217743,2.8052806854248047,0.14696981012821198,0.0016010199906304479,0.20013271272182465,-3.4635066986083984,0.14175954461097717,0.003973012790083885,0.5236017107963562,0.2826574146747589,-3.645224094390869,1.8085193634033203,0.8810260891914368,-2.93679141998291,0.8557153940200806,0.014753577299416065,2.0432608127593994,0.2544882595539093,-0.24490946531295776,-1.0920535326004028,-1.3206020593643188,0.12838436663150787,1741530621.4682498,1741530621348,-2.49787353515625,-1.8613387451171874,-0.1621238472560338,3.4369345703125003,-2.644813232421875
1741530621.450696,-0.18378639221191406,0.0530427015424476,-0.055101203565461575,-0.9970708747018521,-0.032269783318042755,0.07769834250211716,0.2187415510416031,-0.4514019191265106,-1.353497862815857,8.909687042236328,0.054360389709472656,0.15392494201660156,0.4533836841583252,-1.2634705305099487,0.005912871100008488,-0.9328984618186951,-0.07839322835206985,1.2321895360946655,0.008964675478637218,0.9363317489624023,0.0024795911740511656,-0.9069581031799316,-0.04558632895350456,0.045204851776361465,1.2380788326263428,-0.4222688674926758,-0.008238126523792744,-0.4869535267353058,-0.00858320016413927,-0.09746700525283813,0.8428702354431152,-0.4929041266441345,-0.04516357183456421,-0.02375933527946472,0.04496412351727486,2.2433059215545654,-0.04203221574425697,0.0037756904494017363,0.05688866227865219,-3.4837706089019775,-0.22134071588516235,0.010745286010205746,0.676643967628479,-0.15907688438892365,-2.606685161590576,1.9716300964355469,1.4312092065811157,-3.8592894077301025,2.0694966316223145,0.04166020452976227,1.3140887022018433,0.2946282625198364,-0.3935461640357971,-0.9040570855140686,-1.2713226079940796,0.24595382809638977,1741530621.4682498,1741530621348,-2.49787353515625,-1.8613387451171874,-0.1621238472560338,3.4369345703125003,-2.644813232421875
1741530621.4708807,-0.17647171020507812,0.06070943485101323,-0.05565598668137782,-0.9966026167267439,0.05627841502428055,0.3909984827041626,0.3901706635951996,8.172747611999512,1.6401190757751465,10.097671508789062,0.053597450256347656,0.12531471252441406,0.49343863129615784,-1.2627075910568237,0.005531395319849253,-0.9279392957687378,-0.10891126841306686,1.2283748388290405,0.00858320016413927,0.951972246170044,-0.010872052982449532,-0.9435797929763794,-0.0036240178160369396,0.08182650804519653,1.1442358493804932,-0.37484678626060486,-0.000368682318367064,-0.44079500436782837,-0.0009536888683214784,-0.09365224838256836,0.8245593905448914,-0.5179119110107422,-0.03913577273488045,-0.02327084168791771,-0.8249976634979248,1.875855565071106,0.1264370083808899,-0.008112120442092419,0.2666192054748535,-1.798018217086792,-0.2478383183479309,-0.0507517047226429,0.9858503937721252,-0.8216733336448669,-1.73887038230896,2.187069892883301,1.844424843788147,-4.805344104766846,2.3824896812438965,0.3325059711933136,2.24307918548584,0.4853042960166931,0.2583054304122925,-1.1344053745269775,-1.3033578395843506,0.3261573016643524,1741530621.4682498,1741530621348,-2.49787353515625,-1.8613387451171874,-0.1621238472560338,3.4369345703125003,-2.644813232421875
1741530621.4909341,-0.16708898544311523,0.06102089781517591,-0.0600204321590747,-0.996330265400619,0.19126659631729126,0.03326109051704407,0.5032399296760559,0.36114516854286194,0.41051220893859863,11.192286491394043,0.054360389709472656,0.12378883361816406,0.5106050372123718,-1.2611817121505737,0.005531395319849253,-0.9206912517547607,-0.11692225188016891,1.2260860204696655,0.008964675478637218,0.962272047996521,-0.03604944050312042,-0.9546425342559814,0.0398641936480999,0.12264438718557358,1.028648853302002,-0.32469642162323,0.005469789728522301,-0.3904402256011963,0.009346150793135166,-0.07953765243291855,0.7959487438201904,-0.5385018587112427,-0.03939471393823624,0.027252089232206345,-0.07296739518642426,0.6660516262054443,0.014928290620446205,-0.0048250057734549046,0.33526021242141724,-0.2872737646102905,-0.14751283824443817,0.015853755176067352,0.6363757848739624,-1.3034402132034302,-0.19248278439044952,1.9787896871566772,2.1572630405426025,-5.896583080291748,2.505537271499634,0.1818609982728958,2.8534109592437744,0.504862368106842,0.8773924112319946,-1.3546831607818604,-0.830474853515625,-0.002853645943105221,1741530621.4682498,1741530621348,-2.49787353515625,-1.8613387451171874,-0.1621238472560338,3.4369345703125003,-2.644813232421875
1741530621.5109098,-0.1570340394973755,0.05922869418027907,-0.06377348585261068,-0.9962052520880954,0.15261313319206238,-0.14563480019569397,0.4786045253276825,5.044078826904297,-0.17832987010478973,10.628630638122559,0.052071571350097656,0.11806678771972656,0.5079346895217896,-1.2611817121505737,0.005531395319849253,-0.916876494884491,-0.1039520874619484,1.2253230810165405,0.008964675478637218,0.967231273651123,-0.061226826161146164,-0.9252689480781555,0.06008239835500717,0.1810101419687271,0.9061951637268066,-0.2847900092601776,0.0013926801038905978,-0.3213931620121002,0.025749599561095238,-0.06046387553215027,0.7589455842971802,-0.5386385321617126,-0.04517130181193352,-0.062211401760578156,-0.12542575597763062,-0.22027501463890076,-0.006184144411236048,-0.00844276137650013,0.1902713030576706,1.0857713222503662,-0.08106216788291931,0.0050773415714502335,0.22182141244411469,-1.233423113822937,1.5176624059677124,0.9758278131484985,2.89225435256958,-6.200829029083252,1.7970818281173706,-0.050769880414009094,3.4029295444488525,0.9911503195762634,0.8901752233505249,-2.0012764930725098,0.11307790130376816,-0.5610883831977844,1741530621.4682498,1741530621348,-2.49787353515625,-1.8613387451171874,-0.1621238472560338,3.4369345703125003,-2.644813232421875
1741530621.530992,-0.14951598644256592,0.04713474691719171,-0.06737834911947231,-0.9966135026694083,0.15137803554534912,-0.5574844479560852,0.34010791778564453,-3.8915367126464844,-1.2920831441879272,10.328518867492676,0.044823646545410156,0.11043739318847656,0.49038681387901306,-1.2619446516036987,0.005531395319849253,-0.9126802682876587,-0.0715266615152359,1.223797082901001,0.008964675478637218,0.9645609259605408,-0.0715266615152359,-0.8772030472755432,0.0864042118191719,0.22640573978424072,0.7913710474967957,-0.2744348645210266,0.006899580825120211,-0.2450980395078659,0.04406042397022247,-0.05741206929087639,0.7227054238319397,-0.5245450735092163,-0.08236496150493622,-0.21672707796096802,-0.2285718023777008,-1.0594916343688965,-0.07694132626056671,0.009645789861679077,0.1786862015724182,2.3094375133514404,-0.11939005553722382,-0.0017007854767143726,-0.20061422884464264,-0.40709736943244934,2.644913911819458,1.31627357006073,1.9767056703567505,-5.615875244140625,0.21529433131217957,0.3592115342617035,3.6364166736602783,0.910025954246521,0.06849334388971329,-1.5073797702789307,0.6607897281646729,-1.5860974788665771,1741530621.4682498,1741530621348,-2.49787353515625,-1.8613387451171874,-0.1621238472560338,3.4369345703125003,-2.644813232421875
1741530621.550946,-0.14586126804351807,0.034812816927298366,-0.06340883939624493,-0.9973802619181952,-0.27319788932800293,-0.6910003423690796,0.17353741824626923,-4.242853164672852,-1.4698152542114258,3.0595264434814453,0.041008949279785156,0.10128211975097656,0.45757991075515747,-1.2619446516036987,0.005531395319849253,-0.9122987985610962,-0.02880140393972397,1.2196009159088135,0.008964675478637218,0.960746169090271,-0.07305257022380829,-0.812352180480957,0.09937438368797302,0.2283131182193756,0.6834134459495544,-0.30506080389022827,0.011037817224860191,-0.18978407979011536,0.058175019919872284,-0.06809338182210922,0.7318608164787292,-0.5127087831497192,-0.09952033311128616,-0.1431507021188736,-0.2052539736032486,-1.66146719455719,0.024809371680021286,-0.018490614369511604,-0.03558579832315445,2.964082717895508,-0.2843191921710968,0.002461416646838188,-0.3054516613483429,-0.03319842740893364,3.1821329593658447,0.416206955909729,-0.34649544954299927,-5.332132816314697,-1.9004826545715332,0.07848572731018066,2.2737841606140137,0.7503975629806519,-0.49956536293029785,0.8605310916900635,0.654109001159668,-0.6656104326248169,1741530621.4682498,1741530621348,-2.49787353515625,-1.8613387451171874,-0.1621238472560338,3.4369345703125003,-2.644813232421875
1741530621.570984,-0.15019595623016357,0.023019083482771947,-0.04838292724142244,-0.998563575415789,-0.8294180631637573,-0.49410760402679443,-0.2647536098957062,2.9620206356048584,-14.877718925476074,27.21851348876953,0.050927162170410156,0.09899330139160156,0.41256579756736755,-1.2604187726974487,0.005149920005351305,-0.9145876169204712,0.02040894143283367,1.217693567276001,0.008964675478637218,0.9576943516731262,-0.07343403995037079,-0.7578011751174927,0.09555962681770325,0.17605096101760864,0.6116960644721985,-0.33881106972694397,-0.006285736337304115,-0.18863965570926666,0.07686731964349747,-0.07495994865894318,0.8176928162574768,-0.48673880100250244,-0.10954105108976364,0.28291335701942444,-0.012383649125695229,-2.3506648540496826,0.13643495738506317,-0.03391502797603607,-0.10096963495016098,3.207646369934082,-0.07193169742822647,-0.009525737725198269,-0.1444157212972641,0.019395630806684494,2.250364303588867,-0.06171068176627159,-2.6949594020843506,-2.6463589668273926,-0.8493109345436096,-1.4241708517074585,-0.25649482011795044,0.7400069236755371,-0.2695097029209137,5.119995594024658,1.4082067012786865,-0.5697329640388489,1741530621.666376,1741530621568,-2.29273388671875,-1.9075860595703125,-0.12037403647535024,3.63525927734375,-2.6049443359375
1741530621.5909922,-0.14872729778289795,0.01999926776044437,-0.03672479556107868,-0.9991252767696567,-0.3117986023426056,0.00909857265651226,0.20630040764808655,6.292940616607666,4.32689905166626,3.483354091644287,0.06389713287353516,0.09746742248535156,0.34885939955711365,-1.2508819103240967,0.00667582219466567,-0.9081025123596191,0.06923781335353851,1.2291377782821655,0.00858320016413927,0.9580758213996887,-0.06504157930612564,-0.7562752962112427,0.06656748056411743,0.11425192654132843,0.6734950542449951,-0.3041419982910156,-0.0586894191801548,-0.25349050760269165,0.086785688996315,-0.05741206929087639,0.9802014231681824,-0.4449857771396637,-0.11940522491931915,0.33162596821784973,-0.03387978672981262,-3.383019208908081,0.6758204698562622,0.10679509490728378,0.394514262676239,3.3479676246643066,0.9611791372299194,-0.009731922298669815,0.060326699167490005,0.33596232533454895,-0.04447168856859207,-1.6436686515808105,-3.8302853107452393,3.064910411834717,1.7844854593276978,-2.9849352836608887,-3.679232358932495,1.3274346590042114,1.153625249862671,8.216733932495117,2.220106840133667,-0.5043221116065979,1741530621.666376,1741530621568,-2.29273388671875,-1.9075860595703125,-0.12037403647535024,3.63525927734375,-2.6049443359375
1741530621.611168,-0.15251779556274414,0.015851757580161902,-0.040037225857752094,-0.9990724409807504,0.1429654210805893,-0.24142718315124512,-0.11853363364934921,-15.162554740905762,-4.867440700531006,7.199357509613037,0.06809329986572266,0.12455177307128906,0.25501641631126404,-1.2478300333023071,0.005149920005351305,-0.9100099205970764,0.12874799966812134,1.236767292022705,0.010490577667951584,0.9569314122200012,-0.09861142933368683,-0.7364385724067688,0.06923781335353851,0.05741206929087639,0.6898985505104065,-0.27540773153305054,-0.10042931139469147,-0.37937742471694946,0.12302586436271667,-0.008964675478637218,1.180094599723816,-0.39789891242980957,-0.12011640518903732,0.15131273865699768,0.7130653262138367,-4.819357872009277,-0.15501689910888672,-0.01846758835017681,-0.17211873829364777,3.941016674041748,0.35381072759628296,0.11890433728694916,-0.10158319771289825,-1.7163188457489014,1.4105157852172852,0.4074227511882782,-2.4160430431365967,0.3186858892440796,1.484208583831787,-1.3137621879577637,-6.368244171142578,1.6362158060073853,2.732280731201172,10.215502738952637,2.236614465713501,0.23066823184490204,1741530621.666376,1741530621568,-2.29273388671875,-1.9075860595703125,-0.12037403647535024,3.63525927734375,-2.6049443359375
1741530621.6310775,-0.16430842876434326,0.016043624742453542,-0.04624992904848194,-0.9988010543487295,0.371442586183548,-0.10814789682626724,-0.8144047260284424,3.749643564224243,9.56427001953125,8.112554550170898,0.06961917877197266,0.14362525939941406,0.1493476778268814,-1.2520263195037842,0.00476844422519207,-0.9164950251579285,0.17910276353359222,1.239819049835205,0.009727626107633114,0.9573128819465637,-0.1367589831352234,-0.7009612917900085,0.06656748056411743,0.057793546468019485,0.6921873688697815,-0.24544277787208557,-0.0629805475473404,-0.5193789601325989,0.15506981313228607,0.04482337832450867,1.3654917478561401,-0.3787178099155426,-0.05684260278940201,0.06597552448511124,0.5243865251541138,-5.31707763671875,-0.16057971119880676,-0.11253634840250015,-0.3139193058013916,3.154966115951538,0.19634811580181122,0.024653589352965355,-0.013415425084531307,-1.906374454498291,1.417777419090271,0.10383204370737076,-0.028989331796765327,0.27014219760894775,1.588743805885315,1.8267030715942383,-7.123783588409424,1.4488885402679443,2.473470687866211,8.863199234008789,0.8404779434204102,3.4243414402008057,1741530621.666376,1741530621568,-2.29273388671875,-1.9075860595703125,-0.12037403647535024,3.63525927734375,-2.6049443359375
1741530621.651104,-0.18026936054229736,0.013202057387592414,-0.05837281682007935,-0.9982075535364497,0.6318736672401428,-0.1266089379787445,-0.7889921069145203,-3.4123942852020264,2.871220350265503,9.55408000946045,0.07076358795166016,0.12722206115722656,0.0555046908557415,-1.2527892589569092,0.006294346414506435,-0.9195467829704285,0.22678720951080322,1.2424894571304321,0.010109102353453636,0.9573128819465637,-0.17490653693675995,-0.6738765835762024,0.06694895774126053,0.05130846053361893,0.6986724734306335,-0.22241346538066864,-0.05243068188428879,-0.6536583304405212,0.17223620414733887,0.06046387553215027,1.4803158044815063,-0.3944651186466217,-0.03002471849322319,0.0153591213747859,-0.45890381932258606,-4.460300922393799,-0.11642072349786758,0.04632459580898285,-0.12706707417964935,3.278862476348877,0.1492118239402771,-0.021345680579543114,-0.017408082261681557,-1.8775478601455688,1.6144392490386963,-0.12143577635288239,-0.39094749093055725,0.266245037317276,0.9554013609886169,0.1072639748454094,-6.420465469360352,0.7600373029708862,0.3966931700706482,4.906195163726807,-1.2196236848831177,0.6237074136734009,1741530621.666376,1741530621568,-2.29273388671875,-1.9075860595703125,-0.12037403647535024,3.63525927734375,-2.6049443359375
1741530621.671135,-0.19922244548797607,0.010817151961899984,-0.07265629349589005,-0.9972983767353039,0.7215760946273804,-0.2414223998785019,-0.9474748373031616,1.1215996742248535,-2.893648147583008,11.89975357055664,0.055504798889160156,0.13714027404785156,-0.01506828423589468,-1.2535521984100342,0.005531395319849253,-0.9225986003875732,0.2801937758922577,1.2432523965835571,0.008964675478637218,0.9554055333137512,-0.1958876997232437,-0.6383993029594421,0.05970092490315437,0.04444190114736557,0.7017242908477783,-0.2168210744857788,-0.06554045528173447,-0.7612344622612,0.16231784224510193,0.061226826161146164,1.5085450410842896,-0.43976420164108276,-0.03018268384039402,-0.4400656223297119,0.31290486454963684,-3.561138391494751,0.02421698532998562,-0.010818042792379856,-0.20019696652889252,3.5991108417510986,-0.01588464342057705,-0.03835520148277283,-0.18695712089538574,-0.8375599384307861,1.559834361076355,-0.44005557894706726,-0.3643583357334137,0.19231288135051727,0.18457436561584473,-0.5158703923225403,-5.2449140548706055,-0.8418391346931458,0.1471051126718521,0.7845362424850464,-2.3468611240386963,0.15136675536632538,1741530621.666376,1741530621568,-2.29273388671875,-1.9075860595703125,-0.12037403647535024,3.63525927734375,-2.6049443359375
1741530621.6911213,-0.22091877460479736,0.005108778027921022,-0.08404557199062955,-0.9964488156527808,0.560757577419281,-0.36253976821899414,-1.0720336437225342,-6.564799785614014,-0.053832609206438065,9.9556303024292,0.056649208068847656,0.13256263732910156,-0.06656748056411743,-1.2485930919647217,0.005531395319849253,-0.9302281141281128,0.33093002438545227,1.2432523965835571,0.009346150793135166,0.9481574892997742,-0.1997024416923523,-0.6280995011329651,0.04406042397022247,0.03604944050312042,0.7131685614585876,-0.22601528465747833,-0.07129337638616562,-0.8352407217025757,0.12684062123298645,0.07953765243291855,1.4662013053894043,-0.48525068163871765,-0.007482314482331276,0.02474335953593254,-0.04154430329799652,-2.548340320587158,0.3608841300010681,0.016198934987187386,-0.3773750960826874,3.311354398727417,0.03945213556289673,0.04444405436515808,-0.5472384691238403,-0.014207103289663792,0.2916460931301117,-0.812394917011261,-0.45551109313964844,0.6740570068359375,-0.6086022257804871,-0.25076690316200256,-3.396130323410034,-1.8754931688308716,1.0785377025604248,-2.6321353912353516,-2.1455626487731934,1.7288274765014648,1741530621.666376,1741530621568,-2.29273388671875,-1.9075860595703125,-0.12037403647535024,3.63525927734375,-2.6049443359375
1741530621.711111,-0.24006354808807373,0.00952596152118044,-0.09461971854537408,-0.9954679125514247,0.541500449180603,0.27216410636901855,-0.8807241916656494,6.780341625213623,-3.9200000762939453,6.285702705383301,0.048638343811035156,0.10166358947753906,-0.11577782779932022,-1.2428709268569946,0.005531395319849253,-0.9447242021560669,0.3717479109764099,1.2455412149429321,0.009727626107633114,0.9435797929763794,-0.19245441257953644,-0.621614396572113,0.03032730519771576,0.012779430486261845,0.7482643127441406,-0.2507350444793701,-0.07291452586650848,-0.8794918656349182,0.09632257372140884,0.1192111074924469,1.3757915496826172,-0.5004600286483765,0.019772790372371674,-0.24250207841396332,-0.9591137170791626,-2.3117640018463135,0.38434740900993347,-0.005327713210135698,-0.8557158708572388,2.619037628173828,0.14707350730895996,-0.006970052141696215,-0.245380699634552,0.31047120690345764,0.03773805499076843,-0.5656671524047852,-1.1740164756774902,1.7937679290771484,-1.3367433547973633,-0.019584866240620613,-2.108566999435425,-1.4067648649215698,2.056647300720215,-4.881209373474121,-0.5016788244247437,0.8599383234977722,1741530621.666376,1741530621568,-2.29273388671875,-1.9075860595703125,-0.12037403647535024,3.63525927734375,-2.6049443359375
1741530621.731897,-0.24622845649719238,0.019415209133836556,-0.09821190901530817,-0.9949761155836145,0.12254364043474197,0.5759634375572205,-0.17707955837249756,0.6471505761146545,-2.9381184577941895,6.681053638458252,0.037194252014160156,0.07076358795166016,-0.15659570693969727,-1.23600435256958,0.005531395319849253,-0.9634165167808533,0.4007400572299957,1.2466856241226196,0.009346150793135166,0.9397650361061096,-0.18940261006355286,-0.6330586671829224,0.023079270496964455,0.010109102353453636,0.7993820309638977,-0.28455302119255066,-0.07963836938142776,-0.8970397710800171,0.06733043491840363,0.17452506721019745,1.2178606986999512,-0.4886273741722107,0.002286660484969616,-0.3506918251514435,-1.1547608375549316,-1.9367364645004272,0.4685640335083008,-0.0038783110212534666,-0.9387026429176331,1.8157562017440796,0.14599190652370453,-0.005199410952627659,-0.26736414432525635,0.17121483385562897,-0.5279876589775085,-0.4549141824245453,-0.035328540951013565,2.8722150325775146,-1.7508565187454224,-0.296718567609787,-0.45730724930763245,-1.5618517398834229,2.702028274536133,-8.528348922729492,0.7529354095458984,-0.8365636467933655,1741530621.7755947,1741530621648,-2.2593002929687502,-1.957045654296875,-0.2800808545281758,3.7034316406250003,-2.592805419921875
1741530621.7511606,-0.23967242240905762,0.033291516436322374,-0.09966894000780983,-0.9944635625959805,0.07799220085144043,0.6774022579193115,0.3605736494064331,16.171661376953125,36.3589973449707,17.745649337768555,0.03070831298828125,0.057412147521972656,-0.17948424816131592,-1.2291377782821655,0.005531395319849253,-0.9763866662979126,0.4373617172241211,1.2527892589569092,0.010490577667951584,0.9313725233078003,-0.17566949129104614,-0.6570916175842285,0.0036240178160369396,0.005149920005351305,0.8741512298583984,-0.326799213886261,-0.05905582755804062,-0.8688105344772339,0.019645990803837776,0.19169145822525024,1.0030899047851562,-0.4424609839916229,0.03457673266530037,-0.18161074817180634,-0.5329924821853638,-0.8905567526817322,0.4284464418888092,-0.0021678681951016188,-0.5873395800590515,2.695629358291626,0.4065726399421692,0.058099836111068726,-0.6896281838417053,0.8307037949562073,-1.1820895671844482,-1.3321670293807983,-0.12584759294986725,3.6974992752075195,-2.099074125289917,1.3320213556289673,1.2590500116348267,-2.6185851097106934,0.25348684191703796,-10.061565399169922,3.3535873889923096,3.0162367820739746,1741530621.7755947,1741530621648,-2.2593002929687502,-1.957045654296875,-0.2800808545281758,3.7034316406250003,-2.592805419921875
1741530621.7711718,-0.2329871654510498,0.03984383519843223,-0.0914952522321367,-0.9950080841961324,-0.4846864938735962,0.7545843124389648,0.11996457725763321,7.091019630432129,-16.850830078125,7.501083850860596,0.02651214599609375,0.050164222717285156,-0.17605096101760864,-1.2283748388290405,0.004005493130534887,-0.9813458323478699,0.4682612419128418,1.2558410167694092,0.010872052982449532,0.9100099205970764,-0.16308079659938812,-0.6635767221450806,-0.010109102353453636,0.005912871100008488,0.925650417804718,-0.37000882625579834,-0.025916166603565216,-0.8283741474151611,-0.020027466118335724,0.10547798871994019,1.029411792755127,-0.3362894356250763,0.06562168896198273,-0.10480775684118271,0.00927493255585432,0.3698325455188751,-0.08605731278657913,-0.12032552063465118,-0.2514474391937256,1.5700483322143555,0.2294207066297531,0.10697859525680542,-1.3874760866165161,0.09673967212438583,-0.21035516262054443,-0.7133551239967346,-0.19469736516475677,2.141531229019165,-2.186716318130493,1.898685336112976,2.409292459487915,-1.4115548133850098,-3.6026108264923096,0.8802680969238281,4.579039573669434,0.2065507471561432,1741530621.7755947,1741530621648,-2.2593002929687502,-1.957045654296875,-0.2800808545281758,3.7034316406250003,-2.592805419921875
1741530621.7912018,-0.22102558612823486,0.04681834635493951,-0.08149942646774436,-0.995573144439934,-0.4922768771648407,0.22791500389575958,0.589206874370575,1.9601422548294067,4.3847761154174805,24.334659576416016,0.03070831298828125,0.06771183013916016,-0.13942931592464447,-1.2291377782821655,0.007438773289322853,-0.9752422571182251,0.4549095928668976,1.2558410167694092,0.010109102353453636,0.9054322242736816,-0.15583276748657227,-0.6685358881950378,-0.011635004542768002,0.02040894143283367,0.9344243407249451,-0.40876448154449463,0.002594423945993185,-0.7993820309638977,-0.05397878959774971,0.09250781685113907,0.9840161800384521,-0.29150786995887756,0.03384861350059509,-0.004087951499968767,0.6832522749900818,1.8790487051010132,-0.07503563165664673,0.12987284362316132,0.4423668086528778,-1.173405647277832,0.017684178426861763,-0.09119588136672974,-0.16399797797203064,0.30569183826446533,-0.09348245710134506,0.15455447137355804,0.8735095858573914,0.08313432335853577,-1.8011023998260498,1.2538092136383057,2.0756030082702637,-1.582710862159729,-0.723196804523468,-2.0588290691375732,1.9504616260528564,-1.6247210502624512,1741530621.7755947,1741530621648,-2.2593002929687502,-1.957045654296875,-0.2800808545281758,3.7034316406250003,-2.592805419921875
1741530621.8112392,-0.20816004276275635,0.054140146099124466,-0.0727990716791672,-0.9958760664575773,-0.48610085248947144,0.33948206901550293,0.7588638663291931,6.641881465911865,7.940498352050781,5.22991943359375,0.059319496154785156,0.07648563385009766,-0.08411535620689392,-1.2432523965835571,0.006294346414506435,-0.9634165167808533,0.4224841594696045,1.2516448497772217,0.009727626107633114,0.9023804068565369,-0.17910276353359222,-0.6464102864265442,-0.00858320016413927,0.05130846053361893,0.9294651746749878,-0.4199817478656769,-0.006499053910374641,-0.7448310256004333,-0.0398641936480999,0.07648584991693497,0.9832532405853271,-0.3059888780117035,-0.010692472569644451,0.787895679473877,0.3529628813266754,3.0624470710754395,-1.2553354501724243,0.12012219429016113,0.5314205884933472,-2.036344051361084,-0.3406412601470947,0.03767602518200874,-0.41987788677215576,-1.3344652652740479,0.892972469329834,0.1512719988822937,1.7453354597091675,-0.35323894023895264,-0.30376142263412476,-0.6552931666374207,2.095745086669922,0.48904451727867126,-0.3747672736644745,-0.4090152084827423,-1.2200334072113037,-1.6513108015060425,1741530621.7755947,1741530621648,-2.2593002929687502,-1.957045654296875,-0.2800808545281758,3.7034316406250003,-2.592805419921875
1741530621.8312352,-0.19434881210327148,0.04901162171697068,-0.06499680845373138,-0.9966811304662598,-0.3248153328895569,-0.15261009335517883,0.6520016193389893,-9.740959167480469,6.142143249511719,12.127198219299316,0.061989784240722656,0.09823036193847656,-0.010109102353453636,-1.2558410167694092,0.005149920005351305,-0.955024003982544,0.3927290737628937,1.2478300333023071,0.009727626107633114,0.9012359976768494,-0.20389868319034576,-0.6410696506500244,-0.006294346414506435,0.09861142933368683,0.9237430095672607,-0.4091953635215759,-0.011183707043528557,-0.697528064250946,-0.03604944050312042,0.09632257372140884,0.9523537158966064,-0.35877227783203125,-0.00026849794085137546,0.09362337738275528,0.4505000412464142,3.8424675464630127,-0.6238959431648254,-0.030276576057076454,0.3383583724498749,-2.2562344074249268,-0.2631552517414093,-0.03616955876350403,0.07279518246650696,-1.1391901969909668,0.2378355711698532,0.07804718613624573,2.4014627933502197,-0.013958705589175224,0.6789710521697998,0.15711116790771484,2.9923131465911865,0.22441552579402924,0.8268057107925415,-1.4029691219329834,-2.70218563079834,0.6370987892150879,1741530621.7755947,1741530621648,-2.2593002929687502,-1.957045654296875,-0.2800808545281758,3.7034316406250003,-2.592805419921875
1741530621.8513467,-0.18024945259094238,0.05253221504135255,-0.06457727501161148,-0.9965290472108295,-0.10731709748506546,0.005662228912115097,0.7238584756851196,-4.480088233947754,4.272911071777344,4.935931205749512,0.07152652740478516,0.10166358947753906,0.07267109304666519,-1.2672853469848633,0.006294346414506435,-0.9470130205154419,0.3427557647228241,1.2402005195617676,0.009346150793135166,0.9012359976768494,-0.21839475631713867,-0.655947208404541,-0.0009536888683214784,0.14324407279491425,0.9721904397010803,-0.38239943981170654,0.0023816688917577267,-0.6364919543266296,-0.02841992862522602,0.1024261862039566,0.926413357257843,-0.40658441185951233,0.008507355116307735,0.26078078150749207,0.025474129244685173,4.240408420562744,-0.8967450857162476,0.03658422827720642,0.4453192949295044,-3.3460071086883545,-0.5167587995529175,0.03849301114678383,-0.1422441601753235,-0.6104188561439514,-1.250915288925171,0.38852348923683167,2.2211785316467285,2.727736234664917,1.349656343460083,0.5695688724517822,2.5429346561431885,0.2524498403072357,0.2951498329639435,-1.4599355459213257,-2.2922892570495605,0.1478065550327301,1741530621.7755947,1741530621648,-2.2593002929687502,-1.957045654296875,-0.2800808545281758,3.7034316406250003,-2.592805419921875
1741530621.8713734,-0.16302871704101562,0.04774195167219291,-0.06092878978001253,-0.9969996933933696,-0.23173485696315765,-0.03767315298318863,0.8118859529495239,-4.888444423675537,5.080449104309082,8.75941276550293,0.06389713287353516,0.09937477111816406,0.16308079659938812,-1.2745333909988403,0.005531395319849253,-0.9374761581420898,0.28820478916168213,1.2333340644836426,0.009727626107633114,0.8993285894393921,-0.23289081454277039,-0.7112611532211304,0.004005493130534887,0.18711376190185547,1.050011396408081,-0.3577303886413574,-0.0012365232687443495,-0.5865186452865601,-0.026131074875593185,0.10204470902681351,0.9004730582237244,-0.4348999857902527,0.007259149104356766,-0.24466489255428314,-0.12062977254390717,4.433428764343262,-0.3194849491119385,-0.001682562637142837,0.48242852091789246,-3.7273476123809814,-0.46431219577789307,-0.06285744905471802,-0.09854329377412796,-0.6647470593452454,-2.8459994792938232,0.24429593980312347,2.405365228652954,4.202360153198242,1.1540342569351196,-0.3084102272987366,2.895514488220215,0.0199608001857996,-0.07369630038738251,-1.1799824237823486,-1.1699118614196777,0.06952808052301407,1741530621.7755947,1741530621648,-2.2593002929687502,-1.957045654296875,-0.2800808545281758,3.7034316406250003,-2.592805419921875
1741530621.8913083,-0.14892256259918213,0.05020446433158859,-0.05426184573496649,-0.9972638386398119,-0.41444382071495056,0.030550969764590263,0.6842368245124817,5.368409156799316,0.882457971572876,6.255032062530518,0.07152652740478516,0.08564090728759766,0.25120165944099426,-1.2741519212722778,0.005531395319849253,-0.9210727214813232,0.22220951318740845,1.2241785526275635,0.008964675478637218,0.8962767720222473,-0.23632410168647766,-0.7726787328720093,0.016975661739706993,0.21648737788200378,1.1552987098693848,-0.34757861495018005,4.382411498227157e-05,-0.5312047004699707,-0.02689402550458908,0.09479667246341705,0.8733882904052734,-0.44030657410621643,0.010699343867599964,0.17313024401664734,-0.32218679785728455,4.426255226135254,-0.0024734248872846365,0.006499580107629299,0.9180923104286194,-4.433360576629639,-0.6206521391868591,0.014773894101381302,-0.26750150322914124,-0.11949379742145538,-3.1596765518188477,0.8527676463127136,1.2394723892211914,5.175932884216309,0.4023360311985016,0.32047805190086365,2.3713936805725098,-0.039151277393102646,-0.45323386788368225,-1.4984769821166992,-0.22313827276229858,0.06082935258746147,1741530621.7755947,1741530621648,-2.2593002929687502,-1.957045654296875,-0.2800808545281758,3.7034316406250003,-2.592805419921875
1741530621.9113896,-0.13606977462768555,0.045250538134685915,-0.04210424246017051,-0.9980879828779508,-0.6607000827789307,-0.09879529476165771,0.583769679069519,-3.769246816635132,2.622061252593994,8.650020599365234,0.07000064849853516,0.07076358795166016,0.33093002438545227,-1.2741519212722778,0.005149920005351305,-0.8981841802597046,0.15468832850456238,1.2180750370025635,0.009346150793135166,0.8886472582817078,-0.2466239482164383,-0.8363851308822632,0.04100862145423889,0.2286945879459381,1.2403677701950073,-0.3467252850532532,0.002258188556879759,-0.47741663455963135,-0.026131074875593185,0.07801175117492676,0.8470664620399475,-0.44251248240470886,0.007357935421168804,-0.016528669744729996,-0.448856920003891,3.8135602474212646,0.0016517327167093754,-0.02087651938199997,1.1751313209533691,-4.382096290588379,-0.3056669235229492,0.010479617863893509,-0.5667470097541809,-0.5362890362739563,-2.9997880458831787,1.1820074319839478,0.5312629342079163,3.9433698654174805,0.013436154462397099,-0.0007720928988419473,2.982927083969116,0.013628323562443256,-0.7763174772262573,-1.2240866422653198,-0.11708084493875504,-0.14996199309825897,1741530621.7755947,1741530621648,-2.2593002929687502,-1.957045654296875,-0.2800808545281758,3.7034316406250003,-2.592805419921875
1741530621.9314322,-0.12931227684020996,0.04625803714923624,-0.02871931895163012,-0.9985165971169705,-0.7019934058189392,-0.02107819728553295,0.17465850710868835,0.9702869057655334,0.6230356693267822,9.945924758911133,0.07114505767822266,0.060463905334472656,0.3923476040363312,-1.2741519212722778,0.005912871100008488,-0.8703364729881287,0.09174486994743347,1.2211267948150635,0.00858320016413927,0.8756771087646484,-0.25158312916755676,-0.8848325610160828,0.07572289556264877,0.22373540699481964,1.2834744453430176,-0.3477030098438263,-0.0013217631494626403,-0.4198138415813446,-0.016212711110711098,0.07686731964349747,0.8184558153152466,-0.4472586214542389,0.005222058854997158,0.055495813488960266,-0.32124942541122437,3.179645538330078,-0.019222339615225792,0.04833429306745529,1.3672312498092651,-4.182908058166504,0.23498398065567017,0.00015371738118119538,-0.9715007543563843,-0.2675299346446991,-2.368347406387329,1.7437593936920166,-0.306056946516037,1.6890336275100708,-0.01694195531308651,-0.1350630670785904,2.705082654953003,0.6553192734718323,-0.07490050792694092,-1.5667282342910767,-0.30026158690452576,-0.14482983946800232,1741530622.0754235,1741530621968,-1.9441876220703125,-2.013639404296875,-0.121496299982502,3.9411982421875003,-2.5527922363281252
1741530621.9514313,-0.12136685848236084,0.043316348480800015,-0.015740917313589155,-0.9989373941726362,-0.6731739044189453,-0.11447367072105408,0.42940542101860046,-1.055492639541626,1.484907865524292,9.582978248596191,0.07076358795166016,0.054360389709472656,0.4556725323200226,-1.2775851488113403,0.005531395319849253,-0.8352407217025757,0.04177157208323479,1.2241785526275635,0.009727626107633114,0.8600366115570068,-0.264934778213501,-0.918402373790741,0.1192111074924469,0.2134355753660202,1.271267294883728,-0.34302371740341187,-0.002695835195481777,-0.3686961233615875,-0.008201723918318748,0.07038223743438721,0.7852674126625061,-0.455146849155426,0.004732727538794279,-0.004583061207085848,-0.16502995789051056,3.2692043781280518,-0.23116165399551392,-0.012943504378199577,1.614127278327942,-3.2061848640441895,0.17515593767166138,0.01795276626944542,-0.9920531511306763,-0.7042626738548279,-1.4540735483169556,2.2241783142089844,-0.501313328742981,-1.038205862045288,0.30025333166122437,-0.10646793246269226,2.684152364730835,0.26011964678764343,-0.458322674036026,-1.6165759563446045,-0.41224873065948486,0.0713687539100647,1741530622.0754235,1741530621968,-1.9441876220703125,-2.013639404296875,-0.121496299982502,3.9411982421875003,-2.5527922363281252
1741530621.9714549,-0.11245059967041016,0.04364686744319549,-0.003705097830674306,-0.9990401509511323,-0.6111167669296265,0.022653095424175262,0.450199156999588,2.5976548194885254,-1.3786910772323608,9.412997245788574,0.06694889068603516,0.050164222717285156,0.49343863129615784,-1.2764407396316528,0.005531395319849253,-0.811589241027832,-0.00667582219466567,1.227230429649353,0.008964675478637218,0.8527885675430298,-0.2771419882774353,-0.9298466444015503,0.16155488789081573,0.20771344006061554,1.2117570638656616,-0.3300034999847412,-0.0030106878839433193,-0.3057526648044586,-0.007057297509163618,0.057793546468019485,0.7478827834129333,-0.463758647441864,0.00622745044529438,-0.1079278364777565,-0.11393199115991592,1.6441023349761963,0.04036235064268112,-0.004190666135400534,1.0297043323516846,-3.3921518325805664,0.2211775928735733,-0.003934026695787907,-0.3768775463104248,-0.691792368888855,-0.4054691195487976,2.085150718688965,-0.22332404553890228,-3.3198635578155518,0.6844179034233093,0.0859379842877388,3.018676519393921,0.037739645689725876,-0.6411131024360657,-1.9594320058822632,-0.4655971825122833,-0.04600895568728447,1741530622.0754235,1741530621968,-1.9441876220703125,-2.013639404296875,-0.121496299982502,3.9411982421875003,-2.5527922363281252
1741530621.9936702,-0.09474062919616699,0.042080858791563244,0.006356814417711692,-0.9990939856859431,-0.5105203986167908,-0.13443118333816528,0.8671241402626038,-6.2733893394470215,5.45206880569458,11.272997856140137,0.061989784240722656,0.047875404357910156,0.5094605684280396,-1.2756778001785278,0.005531395319849253,-0.8031967878341675,-0.04406042397022247,1.2306636571884155,0.009727626107633114,0.8546959757804871,-0.2904936373233795,-0.9142061471939087,0.1974135935306549,0.2161058932542801,1.1182955503463745,-0.31306323409080505,-8.349833660759032e-05,-0.2588311731815338,-0.0078202486038208,0.04406042397022247,0.7001983523368835,-0.4746853709220886,0.0069044725969433784,-0.1574278473854065,-0.03562523052096367,0.6444863080978394,0.07005084306001663,-0.014201609417796135,0.30119413137435913,-2.107935905456543,0.2161346822977066,0.025013979524374008,0.19013386964797974,-0.6598640084266663,1.1000311374664307,1.6984080076217651,0.6828224658966064,-4.95287561416626,0.8135057091712952,0.2368892878293991,2.655010461807251,-0.03901052847504616,-0.7007710337638855,-2.2799923419952393,-0.47407853603363037,0.20975039899349213,1741530622.0754235,1741530621968,-1.9441876220703125,-2.013639404296875,-0.121496299982502,3.9411982421875003,-2.5527922363281252
1741530622.0114322,-0.07599103450775146,0.04648677323311576,0.009717739665093315,-0.9988716361225672,-0.1793295294046402,0.17658236622810364,0.953670084476471,5.34898042678833,-2.174741506576538,5.588476657867432,0.059319496154785156,0.036812782287597656,0.5037384629249573,-1.2756778001785278,0.005531395319849253,-0.8085374236106873,-0.05893797054886818,1.2333340644836426,0.00858320016413927,0.8653773069381714,-0.30231937766075134,-0.8787289261817932,0.21000228822231293,0.25501641631126404,0.995841920375824,-0.30480238795280457,0.0048814741894602776,-0.19207294285297394,-0.00858320016413927,0.03681239113211632,0.6666285395622253,-0.47706085443496704,0.011394106782972813,-0.09273447841405869,-0.3081021308898926,-0.452940434217453,-0.04085433483123779,0.007559574209153652,-0.34886226058006287,-0.8046531677246094,0.10392247140407562,0.002572364639490843,0.7774224877357483,-0.5163861513137817,1.7577370405197144,0.3377841114997864,2.187150001525879,-6.424005031585693,0.23364834487438202,0.2818196713924408,3.1232571601867676,0.021864235401153564,-0.30815422534942627,-1.693912386894226,-0.05893866345286369,0.22246727347373962,1741530622.0754235,1741530621968,-1.9441876220703125,-2.013639404296875,-0.121496299982502,3.9411982421875003,-2.5527922363281252
1741530622.031522,-0.05585777759552002,0.042702181093093115,0.011603394233134022,-0.9990204627394591,-0.11174868792295456,-0.21019892394542694,1.0756072998046875,-6.563997268676758,11.086095809936523,5.912153244018555,0.051308631896972656,0.036431312561035156,0.4858091175556183,-1.2749148607254028,0.005531395319849253,-0.8260852694511414,-0.0558861680328846,1.2321895360946655,0.009727626107633114,0.882543683052063,-0.3061341345310211,-0.8329518437385559,0.2130540907382965,0.291638046503067,0.8436331748962402,-0.3245812654495239,0.011730381287634373,-0.14553292095661163,-0.006294346414506435,0.03376058489084244,0.6441214680671692,-0.47593244910240173,0.013140471652150154,-0.26280879974365234,-0.02148701250553131,-1.0168743133544922,0.12009602040052414,0.0002955611562356353,-0.9382515549659729,0.42350006103515625,-0.07658791542053223,0.030939770862460136,1.189030647277832,-0.03917337954044342,2.4339311122894287,0.0039175208657979965,1.5915875434875488,-7.504562854766846,-1.2126175165176392,0.39840802550315857,2.485948324203491,0.20556968450546265,-0.08638934046030045,-0.7422871589660645,0.057122696191072464,0.05404272302985191,1741530622.0754235,1741530621968,-1.9441876220703125,-2.013639404296875,-0.121496299982502,3.9411982421875003,-2.5527922363281252
1741530622.0514777,-0.0382920503616333,0.04307377929779162,0.011535630599503681,-0.9990052946624841,-0.1346442848443985,-0.0027988285291939974,0.8446289896965027,14.18239688873291,-22.52357292175293,30.369821548461914,0.048256874084472656,0.02727508544921875,0.4514763057231903,-1.2745333909988403,0.005531395319849253,-0.8566033244132996,-0.040627144277095795,1.231045126914978,0.009727626107633114,0.9050507545471191,-0.2958342730998993,-0.7860303521156311,0.1977950781583786,0.3072785437107086,0.7265201807022095,-0.3520119786262512,0.023619305342435837,-0.1028076633810997,0.0078202486038208,0.02994582988321781,0.6704432964324951,-0.47015470266342163,0.011213816702365875,-0.12668943405151367,-0.24771958589553833,-1.7643518447875977,0.07777440547943115,-0.028115514665842056,-1.4468803405761719,1.0896879434585571,-0.07458999752998352,0.003262139856815338,1.5321319103240967,0.5760173797607422,1.8567522764205933,-0.909140408039093,0.5562924742698669,-4.53675651550293,-0.6229335069656372,0.9642903804779053,1.7013061046600342,0.4349047839641571,-0.10097040981054306,1.7005964517593384,0.34952327609062195,-0.19534572958946228,1741530622.0754235,1741530621968,-1.9441876220703125,-2.013639404296875,-0.121496299982502,3.9411982421875003,-2.5527922363281252
1741530622.0715063,-0.021297693252563477,0.040748155621828416,0.01048719774661278,-0.9991144111145843,0.25977054238319397,0.11525523662567139,0.9812976717948914,-0.4407404661178589,10.166255950927734,9.153217315673828,0.037575721740722656,0.02918243408203125,0.4091325104236603,-1.2695741653442383,0.005912871100008488,-0.8821622133255005,-0.016975661739706993,1.2356228828430176,0.009727626107633114,0.925650417804718,-0.2626459002494812,-0.76276034116745,0.14858472347259521,0.30117493867874146,0.777256429195404,-0.33204972743988037,0.08861042559146881,-0.10547798871994019,-0.0036240178160369396,0.05054550990462303,0.7387273907661438,-0.45379453897476196,-0.003935898654162884,-0.3577995002269745,-0.1142510175704956,-2.336972236633301,0.21656294167041779,0.03735744208097458,-1.3049798011779785,1.743259310722351,0.36521443724632263,-0.01721038855612278,1.3519573211669922,2.044782876968384,0.9846219420433044,-2.2734129428863525,-0.6966012120246887,2.422142267227173,0.9113775491714478,3.8231027126312256,-0.4047495722770691,0.11088632047176361,0.9768903851509094,3.772341251373291,1.0581315755844116,-0.6804419159889221,1741530622.0754235,1741530621968,-1.9441876220703125,-2.013639404296875,-0.121496299982502,3.9411982421875003,-2.5527922363281252
1741530622.0915692,-0.011469721794128418,0.041199728294471244,0.0015342352493007607,-0.9991497527951761,0.415015310049057,-0.08453062921762466,0.502284586429596,-10.319823265075684,-4.760330677032471,9.755805015563965,0.033379554748535156,0.034142494201660156,0.3385595381259918,-1.2764407396316528,0.005531395319849253,-0.9111543297767639,0.01583123579621315,1.2348599433898926,0.009727626107633114,0.9447242021560669,-0.22297245264053345,-0.7536049485206604,0.14057374000549316,0.24929426610469818,0.7841230034828186,-0.3195286989212036,0.10409379005432129,-0.14362554252147675,0.02841992862522602,0.09212634712457657,0.8562218546867371,-0.4123687744140625,-0.011965489946305752,-0.22759206593036652,0.22322092950344086,-3.7436630725860596,-0.33532261848449707,-0.016308732330799103,-1.396877408027649,2.0598950386047363,-0.08980266749858856,0.021635476499795914,1.1511085033416748,2.054844617843628,0.740295946598053,-0.6084992289543152,-2.4597318172454834,-0.3139629662036896,0.5421322584152222,-0.8334141969680786,-2.1301674842834473,1.7070049047470093,2.4690515995025635,6.196228504180908,2.14168119430542,-0.4442994296550751,1741530622.0754235,1741530621968,-1.9441876220703125,-2.013639404296875,-0.121496299982502,3.9411982421875003,-2.5527922363281252
1741530622.1141229,-0.011214971542358398,0.04161516995615243,0.0020617937670209426,-0.999131586246768,-0.058697231113910675,-0.015513195656239986,-0.04487939551472664,8.999109268188477,3.0914032459259033,12.853580474853516,0.01430511474609375,0.032235145568847656,0.25577935576438904,-1.2688112258911133,0.005149920005351305,-0.9344243407249451,0.04444190114736557,1.2356228828430176,0.009727626107633114,0.9576943516731262,-0.19398032128810883,-0.7219424843788147,0.08449683338403702,0.22678720951080322,0.760471522808075,-0.30223390460014343,0.04482818394899368,-0.22030213475227356,0.054741740226745605,0.1672770231962204,1.0236896276474,-0.36236700415611267,-0.02123902551829815,-0.5183449387550354,0.05249670892953873,-4.010133743286133,0.6233554482460022,-0.03215764835476875,-1.0244790315628052,1.8209327459335327,0.2664339244365692,-0.012165948748588562,0.8831338882446289,1.3632557392120361,1.6084952354431152,-2.771780014038086,-0.8577250838279724,-0.871205747127533,0.9880030155181885,-2.0555107593536377,-4.146763324737549,1.2509981393814087,3.6876611709594727,8.691162109375,2.4850947856903076,-0.258180171251297,1741530622.0754235,1741530621968,-1.9441876220703125,-2.013639404296875,-0.121496299982502,3.9411982421875003,-2.5527922363281252
1741530622.131589,-0.015429258346557617,0.037758860592192356,-0.007908023667683272,-0.999255588730156,0.5708988308906555,-0.23417788743972778,-0.21900984644889832,-1.3442219495773315,-0.2784592807292938,12.013769149780273,0.00934600830078125,0.040627479553222656,0.1832990050315857,-1.2634705305099487,0.005912871100008488,-0.9409094452857971,0.08220797777175903,1.2451597452163696,0.010109102353453636,0.9637979865074158,-0.17338064312934875,-0.699816882610321,0.06466010212898254,0.20199130475521088,0.7646677494049072,-0.29187965393066406,0.06157296150922775,-0.3236820101737976,0.1039520874619484,0.20389868319034576,1.19153892993927,-0.30931010842323303,-0.024674545973539352,-0.2277023196220398,0.1735890656709671,-3.675330877304077,0.1468779593706131,0.02093561924993992,-0.26221129298210144,2.6926703453063965,0.4615383744239807,0.004793260712176561,0.34341853857040405,0.9425387382507324,1.0503942966461182,-0.7902336120605469,-1.0863168239593506,0.33009061217308044,0.4228093922138214,0.7673352956771851,-5.374717712402344,2.596074342727661,1.3589606285095215,7.9111433029174805,2.6764259338378906,-0.29722854495048523,1741530622.177217,1741530622068,-1.8509996337890626,-2.0226147460937502,-0.07460529588023238,4.00502685546875,-2.54023828125
1741530622.1515765,-0.021672964096069336,0.03121378947227255,-0.018796721773458345,-0.9993359708313074,0.5488417744636536,-0.3441232442855835,-0.28264203667640686,-1.9389952421188354,-3.0869343280792236,10.411110877990723,-0.01277923583984375,0.046730995178222656,0.11158160120248795,-1.2623261213302612,0.005149920005351305,-0.9390020370483398,0.12645913660526276,1.2466856241226196,0.009727626107633114,0.9634165167808533,-0.164988175034523,-0.6685358881950378,0.05664911866188049,0.2004653960466385,0.7673380374908447,-0.2923891842365265,0.053429801017045975,-0.44422826170921326,0.1363775134086609,0.21114671230316162,1.3269627094268799,-0.2885279059410095,-0.010299516841769218,-0.7204444408416748,0.10370837152004242,-3.5232601165771484,0.17877191305160522,-0.03844502568244934,0.09310954809188843,3.00770902633667,0.1097625344991684,-0.012285040691494942,-0.028011398389935493,0.3485177755355835,1.7022157907485962,-0.2498328536748886,-0.15126807987689972,-0.0494115836918354,-0.10627948492765427,-0.4772796332836151,-6.158411979675293,1.3470935821533203,0.24616993963718414,6.410821437835693,0.49115023016929626,0.680011510848999,1741530622.177217,1741530622068,-1.8509996337890626,-2.0226147460937502,-0.07460529588023238,4.00502685546875,-2.54023828125
1741530622.1716611,-0.027843236923217773,0.024071320264858635,-0.025610205030434426,-0.9993821536024173,0.29574570059776306,-0.3352992534637451,-0.2921379804611206,1.028710126876831,-0.5230998396873474,11.013479232788086,-0.01697540283203125,0.045968055725097656,0.045204851776361465,-1.2539336681365967,0.005149920005351305,-0.9363317489624023,0.17948424816131592,1.2501189708709717,0.010490577667951584,0.959983229637146,-0.16193637251853943,-0.6357290148735046,0.053215838968753815,0.200083926320076,0.7681010365486145,-0.30009210109710693,0.040608566254377365,-0.5682078003883362,0.1489662081003189,0.20275425910949707,1.407454013824463,-0.32156357169151306,-0.012302383780479431,-0.1550271064043045,0.037827011197805405,-3.12174129486084,0.5471431612968445,-0.011527295224368572,0.11665999889373779,3.635742664337158,0.2361306995153427,0.07637317478656769,-0.2595658600330353,0.16945809125900269,1.6226561069488525,-0.23931430280208588,-0.036181822419166565,0.11153630912303925,-0.45398077368736267,-0.5449917316436768,-6.129212379455566,0.6421445608139038,-0.7444302439689636,3.5026919841766357,-1.9452887773513794,-0.030436966568231583,1741530622.177217,1741530622068,-1.8509996337890626,-2.0226147460937502,-0.07460529588023238,4.00502685546875,-2.54023828125
1741530622.191638,-0.035156965255737305,0.01847360989114171,-0.025649514971474927,-0.9995002892042193,0.008056321181356907,-0.25863203406333923,-0.4249846339225769,-1.4945682287216187,-3.9929275512695312,9.383224487304688,-0.02765655517578125,0.035668373107910156,-0.020027466118335724,-1.2447782754898071,0.005531395319849253,-0.9390020370483398,0.23708705604076385,1.2558410167694092,0.010490577667951584,0.9554055333137512,-0.15926603972911835,-0.6086442470550537,0.048256658017635345,0.19321736693382263,0.7761120200157166,-0.31914272904396057,0.03921349719166756,-0.6841763854026794,0.15392538905143738,0.17261768877506256,1.4265278577804565,-0.3769990801811218,-0.007957514375448227,-0.34433937072753906,-0.22983334958553314,-3.348886013031006,0.5991901159286499,0.0024709762074053288,-0.15036743879318237,3.842698812484741,0.3246656358242035,0.00213156477548182,-0.3204711675643921,0.1853092610836029,1.2442238330841064,-0.22689945995807648,-0.3870178759098053,0.488442599773407,-1.0796165466308594,-0.023977005854249,-5.657716751098633,0.11596302688121796,-1.4173134565353394,0.46905335783958435,-2.746356248855591,0.1432601511478424,1741530622.177217,1741530622068,-1.8509996337890626,-2.0226147460937502,-0.07460529588023238,4.00502685546875,-2.54023828125
1741530622.2119424,-0.03915584087371826,0.016837535093189283,-0.025626782941386213,-0.9995297721469135,0.007192929740995169,-0.05471678078174591,-0.19780290126800537,2.183565616607666,-1.0224627256393433,5.991442680358887,-0.044060707092285156,0.02079010009765625,-0.07305257022380829,-1.2386746406555176,0.005531395319849253,-0.9428167939186096,0.2939268946647644,1.2573670148849487,0.010109102353453636,0.951209306716919,-0.15697719156742096,-0.5983443856239319,0.048256658017635345,0.19130998849868774,0.7940413355827332,-0.3489583134651184,0.038902267813682556,-0.7883192300796509,0.14705882966518402,0.1516365259885788,1.3952468633651733,-0.4312199056148529,0.0051644896157085896,-0.4851726293563843,-0.4821399748325348,-2.574770212173462,0.3997780382633209,-0.014932935126125813,-0.26155492663383484,3.845022201538086,0.034878890961408615,-0.017995044589042664,-0.2958950400352478,-0.021026503294706345,0.25283750891685486,0.02596975490450859,-0.03600122779607773,0.8890305757522583,-1.4905927181243896,-0.05779106914997101,-5.085944652557373,-0.3780965507030487,-0.9567559957504272,-1.847909927368164,-2.5809056758880615,0.5567206144332886,1741530622.177217,1741530622068,-1.8509996337890626,-2.0226147460937502,-0.07460529588023238,4.00502685546875,-2.54023828125
1741530622.2317102,-0.03840363025665283,0.019713728413926716,-0.026769692884732858,-0.9994472234464805,0.051370300352573395,0.27031177282333374,0.06950841099023819,0.42007216811180115,0.14257100224494934,8.3776273727417,-0.051308631896972656,-0.00133514404296875,-0.11463340371847153,-1.2348599433898926,0.005531395319849253,-0.9504463076591492,0.34657052159309387,1.2554595470428467,0.009727626107633114,0.9473945498466492,-0.15964750945568085,-0.5941481590270996,0.05436026677489281,0.19169145822525024,0.8203631639480591,-0.38278311491012573,0.03309672698378563,-0.8653773069381714,0.13981078565120697,0.14171816408634186,1.3315403461456299,-0.4535282552242279,0.014821034856140614,-0.23588423430919647,-0.7834077477455139,-1.9817909002304077,0.1799076348543167,-0.010515953414142132,-0.4617302715778351,3.4558770656585693,-0.09257979691028595,0.0028999655041843653,-0.19834718108177185,-0.11758337169885635,0.37386855483055115,0.35564154386520386,0.01878552883863449,1.5024635791778564,-1.6701279878616333,-0.23257754743099213,-3.4576315879821777,-0.4469115436077118,-0.44331902265548706,-3.546050548553467,-0.7966898083686829,0.4217868149280548,1741530622.177217,1741530622068,-1.8509996337890626,-2.0226147460937502,-0.07460529588023238,4.00502685546875,-2.54023828125
1741530622.251684,-0.03379106521606445,0.02907024878161921,-0.026275792638157235,-0.9992319567332759,-0.06117110326886177,0.4177943766117096,0.28931307792663574,1.0898075103759766,-0.3886066675186157,8.543027877807617,-0.059319496154785156,-0.00438690185546875,-0.1371404528617859,-1.233715534210205,0.005531395319849253,-0.9584572911262512,0.3892957866191864,1.2546966075897217,0.009727626107633114,0.9458686113357544,-0.15621423721313477,-0.5895704627037048,0.06504157930612564,0.19169145822525024,0.8546959757804871,-0.4156918525695801,0.026355909183621407,-0.9245060086250305,0.12722209095954895,0.13904783129692078,1.2144273519515991,-0.4399024546146393,0.010747137479484081,-0.2424994260072708,-0.17534756660461426,-0.9474805593490601,0.04731934890151024,-0.009377899579703808,-0.34304511547088623,2.6642537117004395,-0.04194165766239166,0.01272021047770977,-0.098542720079422,0.2790011167526245,0.18273112177848816,0.4898082911968231,-0.0351092629134655,1.8079513311386108,-1.633800983428955,-0.2841072678565979,-2.723386764526367,-0.8036485314369202,-0.05023936927318573,-6.315183639526367,0.8313720226287842,-0.22726117074489594,1741530622.2876046,1741530622168,-1.77628515625,-2.0523540039062502,-0.11149138032431674,4.064728759765625,-2.5297668457031253
1741530622.271769,-0.025393962860107422,0.03686693613510187,-0.025216051447763295,-0.9990019918745878,-0.05382310226559639,0.4396074116230011,0.4339016377925873,6.212918281555176,1.7903836965560913,6.544107913970947,-0.06694889068603516,-0.00324249267578125,-0.14057374000549316,-1.233715534210205,0.005531395319849253,-0.9653238654136658,0.4240100681781769,1.2585114240646362,0.010490577667951584,0.9382390975952148,-0.14286258816719055,-0.5842298269271851,0.06580453366041183,0.1844434291124344,0.8936064839363098,-0.45169252157211304,0.02025032602250576,-0.9317540526390076,0.09861142933368683,0.13942931592464447,1.0481040477752686,-0.4127190113067627,0.0013790337834507227,-0.23200902342796326,0.010302442125976086,-0.019067656248807907,-0.005349214654415846,-0.008185986429452896,-0.3168022930622101,2.511488437652588,0.3381306529045105,0.0510912723839283,-0.6197872757911682,0.774620771408081,0.3724029064178467,-0.16304555535316467,-0.2992112934589386,1.9184147119522095,-1.8586190938949585,-0.3101615011692047,0.018955785781145096,-1.538398027420044,-0.07694099098443985,-8.652763366699219,1.2795239686965942,-0.29320281744003296,1741530622.2876046,1741530622168,-1.77628515625,-2.0523540039062502,-0.11149138032431674,4.064728759765625,-2.5297668457031253
1741530622.2917242,-0.021970033645629883,0.039701634263910546,-0.025406588009155028,-0.9988885250729972,0.017537808045744896,0.11048616468906403,0.167166605591774,-6.090490818023682,6.842201232910156,12.890667915344238,-0.07076358795166016,0.00362396240234375,-0.11730372905731201,-1.233715534210205,0.005531395319849253,-0.9657053351402283,0.45757991075515747,1.2588928937911987,0.009727626107633114,0.9267948269844055,-0.11730372905731201,-0.5735484957695007,0.03833829239010811,0.18749523162841797,0.9267948269844055,-0.4909583628177643,0.01597263291478157,-0.9061951637268066,0.05664911866188049,0.12836651504039764,0.8497368097305298,-0.388027161359787,0.009500192478299141,-0.1333313137292862,0.19197289645671844,1.3671191930770874,-0.0057374765165150166,-0.003501152154058218,0.07650671154260635,1.8371840715408325,-0.11759980767965317,-0.031934913247823715,-0.6812079548835754,1.270139455795288,0.8349310159683228,-1.6242680549621582,-0.08841008692979813,1.6276837587356567,-1.9564365148544312,-0.03331252560019493,1.282147765159607,-2.268324375152588,-0.4790814220905304,-9.50832462310791,1.6792104244232178,1.1646742820739746,1741530622.2876046,1741530622168,-1.77628515625,-2.0523540039062502,-0.11149138032431674,4.064728759765625,-2.5297668457031253
1741530622.3117344,-0.02740764617919922,0.037650583846390744,-0.02884137517820366,-0.9988746711243888,0.1462966799736023,-0.033712394535541534,-0.45186519622802734,-5.107540607452393,-11.64702320098877,12.121734619140625,-0.07038211822509766,0.02193450927734375,-0.07495994865894318,-1.2356228828430176,0.004386968910694122,-0.959220290184021,0.465209424495697,1.2505004405975342,0.010109102353453636,0.9111543297767639,-0.09899290651082993,-0.5399786233901978,0.04482337832450867,0.17414358258247375,0.9477760195732117,-0.5287525057792664,0.016369743272662163,-0.8611810207366943,0.04253452271223068,0.0875486359000206,0.8760585784912109,-0.30209094285964966,0.06267092376947403,-0.010258796624839306,0.6388601660728455,2.3204972743988037,-0.21794159710407257,-0.08005882054567337,0.3098546266555786,0.17842593789100647,-0.5931655168533325,0.0008994605159386992,-1.0938066244125366,0.488292932510376,1.6843620538711548,0.2063160091638565,-0.40100187063217163,0.4452812373638153,-1.9188636541366577,-0.31848400831222534,2.7517013549804688,-0.10090285539627075,-1.7118183374404907,2.264019727706909,4.205051898956299,2.1319141387939453,1741530622.2876046,1741530622168,-1.77628515625,-2.0523540039062502,-0.11149138032431674,4.064728759765625,-2.5297668457031253
1741530622.33701,-0.0390704870223999,0.039910260126964005,-0.024263809397915385,-0.9989086237940383,-0.21759751439094543,-0.04201377183198929,-0.6019530296325684,-5.497004985809326,5.805240631103516,2.6491682529449463,-0.08106327056884766,0.02727508544921875,-0.005149920005351305,-1.2417265176773071,0.007057297509163618,-0.9576943516731262,0.4365987777709961,1.2424894571304321,0.010109102353453636,0.9073395729064941,-0.11425192654132843,-0.4991607666015625,0.03185320645570755,0.19169145822525024,0.9344243407249451,-0.5492330193519592,-0.003690822282806039,-0.8356221914291382,0.030708782374858856,0.11463340371847153,0.8661402463912964,-0.2531103789806366,0.06506910175085068,-0.3428094983100891,0.4209927022457123,3.696373224258423,-0.43371519446372986,0.13416960835456848,0.056986402720212936,-2.2719805240631104,-0.46445295214653015,0.044566888362169266,-0.2004489004611969,-0.6619606614112854,1.927456021308899,-0.3863983154296875,0.9476504325866699,-0.770167350769043,-0.7210825085639954,-0.9709293246269226,1.409592866897583,-1.0339161157608032,1.836945652961731,-1.348644733428955,2.1289103031158447,-0.3705289959907532,1741530622.2876046,1741530622168,-1.77628515625,-2.0523540039062502,-0.11149138032431674,4.064728759765625,-2.5297668457031253
1741530622.3518898,-0.04537391662597656,0.03765567642965002,-0.027383413472514013,-0.9989155112917302,0.16893184185028076,-0.17671525478363037,-0.40713077783584595,-14.359204292297363,2.2962639331817627,10.568167686462402,-0.07495975494384766,0.02765655517578125,0.06466010212898254,-1.2554595470428467,0.005149920005351305,-0.9523537158966064,0.3999771177768707,1.23905611038208,0.009727626107633114,0.9077210426330566,-0.12569619715213776,-0.4720759987831116,0.028038453310728073,0.21076524257659912,0.9668498039245605,-0.5336978435516357,-0.0050060139037668705,-0.7806897163391113,0.03643091395497322,0.13790340721607208,0.846684992313385,-0.2200450450181961,0.03571871668100357,0.20594003796577454,0.19499541819095612,3.5393948554992676,-0.9914831519126892,-0.0482955202460289,0.27883854508399963,-2.2270164489746094,-0.24915090203285217,-0.024173837155103683,-0.08221778273582458,-0.6976821422576904,0.9521694779396057,-0.1552390605211258,0.9874195456504822,2.0891335010528564,1.0606753826141357,0.044961173087358475,2.6143038272857666,0.761333167552948,0.5706629753112793,-0.378624826669693,1.7179856300354004,-1.3568782806396484,1741530622.3901129,1741530622248,-1.6995006103515626,-2.0653876953125,-0.0459551101925827,4.11250830078125,-2.5176643066406252
1741530622.3718991,-0.03367352485656738,0.0280896316097868,-0.03248048810697112,-0.9990775698054478,0.1946462243795395,-0.478328138589859,0.7412418723106384,-6.406946659088135,2.7004995346069336,8.00243091583252,-0.08907413482666016,0.044823646545410156,0.12798504531383514,-1.2718631029129028,0.005912871100008488,-0.9473945498466492,0.36411839723587036,1.233715534210205,0.009346150793135166,0.9077210426330566,-0.15430685877799988,-0.4972533881664276,0.03528648987412453,0.23479819297790527,1.047722578048706,-0.4912809133529663,-0.002447468461468816,-0.7551308274269104,0.04940108209848404,0.164988175034523,0.8600366115570068,-0.207818865776062,0.02496468462049961,-0.40743064880371094,0.7551883459091187,2.8502197265625,-0.9729377031326294,-0.062124550342559814,0.23087084293365479,-2.5406124591827393,-0.3997303545475006,0.0015711390879005194,0.06684896349906921,-1.4564132690429688,-1.518446445465088,0.319600373506546,1.2583762407302856,4.520884037017822,2.120624542236328,0.1507275402545929,1.4184492826461792,0.4223511815071106,1.6080869436264038,0.6687747240066528,0.32463788986206055,-0.2931993901729584,1741530622.3901129,1741530622248,-1.6995006103515626,-2.0653876953125,-0.0459551101925827,4.11250830078125,-2.5176643066406252
1741530622.3919709,-0.007158637046813965,0.023685304023080132,-0.03900626879301033,-0.9989582160271677,0.2496316134929657,-0.1739005446434021,1.340350866317749,-3.1108646392822266,6.049778938293457,11.30052661895752,-0.09060001373291016,0.033379554748535156,0.1806286722421646,-1.2791110277175903,0.005531395319849253,-0.9489204287528992,0.31795987486839294,1.227230429649353,0.009346150793135166,0.9092469811439514,-0.182917520403862,-0.5590524077415466,0.031090257689356804,0.25425344705581665,1.1728465557098389,-0.4482877850532532,0.0026597268879413605,-0.7291905283927917,0.058175019919872284,0.1844434291124344,0.8730067610740662,-0.21927733719348907,0.028186947107315063,-0.061612874269485474,-0.22076790034770966,2.8249897956848145,-0.40816769003868103,-0.0035490021109580994,-0.07967973500490189,-3.172799587249756,-0.41481584310531616,0.01152295432984829,-0.0032459422945976257,-1.393774390220642,-3.254652261734009,-0.09021369367837906,0.9040594100952148,6.344510555267334,2.096379518508911,0.1422099471092224,0.9764118194580078,0.31330177187919617,0.7782191634178162,0.5671378374099731,-0.7406870722770691,0.10579752922058105,1741530622.3901129,1741530622248,-1.6995006103515626,-2.0653876953125,-0.0459551101925827,4.11250830078125,-2.5176643066406252
1741530622.4119604,0.022591829299926758,0.019301964770422925,-0.04144931412598024,-0.9989541473533643,0.03293595835566521,-0.08477507531642914,1.485278606414795,-2.736176013946533,2.1180055141448975,12.788512229919434,-0.09250736236572266,0.02918243408203125,0.23899443447589874,-1.2806370258331299,0.005531395319849253,-0.9496833682060242,0.2584496736526489,1.222271203994751,0.009727626107633114,0.9092469811439514,-0.20237277448177338,-0.6395437717437744,0.03032730519771576,0.272945761680603,1.2853819131851196,-0.4248247444629669,0.002116486895829439,-0.7146944403648376,0.05283436179161072,0.18673227727413177,0.8863584399223328,-0.25121963024139404,0.030809752643108368,-0.06804870069026947,-0.16941073536872864,2.850407361984253,-0.051622867584228516,-0.01921181194484234,-0.047010958194732666,-4.220707893371582,-0.3091641068458557,-0.002562721958383918,0.01241037342697382,-0.7631486058235168,-3.8758926391601562,-0.1439858227968216,0.9267125129699707,5.166833400726318,0.9697799682617188,0.01013883575797081,1.0510189533233643,-0.35411226749420166,0.04885590076446533,0.7008243203163147,-1.7302182912826538,0.19061337411403656,1741530622.3901129,1741530622248,-1.6995006103515626,-2.0653876953125,-0.0459551101925827,4.11250830078125,-2.5176643066406252
