Freshhhhh-LC/Legged_odom/data/7/segments/booster_seg_9.84s.csv
time,yaw,projected_gravity_x,projected_gravity_y,projected_gravity_z,ang_vel_x,ang_vel_y,ang_vel_z,lin_acc_x,lin_acc_y,lin_acc_z,q_0,q_1,q_2,q_3,q_4,q_5,q_6,q_7,q_8,q_9,q_10,q_11,q_12,q_13,q_14,q_15,q_16,q_17,q_18,q_19,q_20,q_21,q_22,dq_0,dq_1,dq_2,dq_3,dq_4,dq_5,dq_6,dq_7,dq_8,dq_9,dq_10,dq_11,dq_12,dq_13,dq_14,dq_15,dq_16,dq_17,dq_18,dq_19,dq_20,dq_21,dq_22,mocap_time,mocap_timestamp,robot_x,robot_y,robot_yaw,ball_x,ball_y
1741530609.3739502,3.002521276473999,0.04724185622150204,-0.08019832684811237,-0.9956587946638699,-0.15897777676582336,0.45837995409965515,0.5278124213218689,3.4055843353271484,-1.2711771726608276,6.885879039764404,0.01239776611328125,-0.00400543212890625,0.46253910660743713,-1.2638521194458008,0.005531395319849253,-0.9283207654953003,-0.09060044586658478,1.2314265966415405,0.009346150793135166,0.9363317489624023,-0.009727626107633114,-0.8554589152336121,-0.06923781335353851,0.09517814964056015,1.104943871498108,-0.4238167107105255,-0.005547777749598026,-0.543411910533905,-0.12111848592758179,-0.12226291000843048,0.8588922023773193,-0.4620131850242615,0.004880542401224375,0.23134160041809082,-0.31010282039642334,1.4424285888671875,-0.15004096925258636,-0.008782482706010342,0.9199975728988647,-2.228480815887451,-0.15739025175571442,-0.05959788337349892,0.5169877409934998,-1.1929290294647217,-1.5720031261444092,1.5371761322021484,0.7828885316848755,-4.980473518371582,2.2250750064849854,0.3321501314640045,1.6390011310577393,-0.0008518791291862726,0.21711935102939606,-0.18394294381141663,-1.5222032070159912,0.3351801335811615,1741530609.375132,1741530609148,2.1722097167968752,1.25369970703125,2.9351106216895717,-5.16477001953125,2.1616279296875
1741530609.3760014,3.044223666191101,0.04058696910568866,-0.0711809330676501,-0.9966373325871516,-0.40036559104919434,-0.33221492171287537,0.7417371273040771,6.284860610961914,2.2220075130462646,4.511809825897217,0.01049041748046875,0.02346038818359375,0.47550925612449646,-1.2615631818771362,0.005531395319849253,-0.8630884289741516,-0.08449683338403702,1.227993369102478,0.008964675478637218,0.924887478351593,-0.0883115902543068,-0.8169298768043518,0.010109102353453636,0.17452506721019745,0.8020523190498352,-0.30434560775756836,0.003088428173214197,-0.41294726729393005,-0.06694895774126053,-0.09250781685113907,0.8169298768043518,-0.5180807709693909,0.005688587669283152,-0.040440380573272705,0.5773670673370361,-0.5212952494621277,-0.0023280640598386526,-0.0069954171776771545,1.1811048984527588,1.4869089126586914,-0.1442829817533493,0.0011952773202210665,-0.8109763264656067,-1.117281198501587,1.8117284774780273,0.9687830805778503,2.342242479324341,-5.928326606750488,1.9029067754745483,-0.11071445792913437,3.1526782512664795,1.4181115627288818,0.46659934520721436,-1.1243865489959717,-0.17288175225257874,0.08290921151638031,1741530609.375132,1741530609148,2.1722097167968752,1.25369970703125,2.9351106216895717,-5.16477001953125,2.1616279296875
1741530609.382678,3.0826045274734497,0.003832789067004185,0.006078352565295249,-0.9999741813457284,0.4127010703086853,0.5343735814094543,-0.02918836660683155,0.05741136521100998,-1.4814982414245605,2.7868876457214355,-0.045586585998535156,-0.01277923583984375,0.4533836841583252,-1.2581299543380737,0.005531395319849253,-0.9210727214813232,-0.12531471252441406,1.2241785526275635,0.009727626107633114,0.9580758213996887,0.08411535620689392,-0.8543145060539246,-0.048638131469488144,-0.005531395319849253,0.9634165167808533,-0.39602959156036377,-0.0033142752945423126,-0.4533836841583252,-0.03223468363285065,-0.09708552807569504,0.8093003630638123,-0.4719335436820984,0.03489430993795395,0.045803703367710114,-0.39525091648101807,0.0023795217275619507,-0.021683787927031517,-0.01751558482646942,0.18362697958946228,-1.0001336336135864,-0.09273368120193481,-0.002146543702110648,1.1721957921981812,-1.1203174591064453,1.1159801483154297,1.0385208129882812,0.5166773200035095,-9.715662956237793,2.085841655731201,0.5538639426231384,0.645840048789978,0.5423754453659058,0.9393839836120605,1.4199671745300293,-1.8197803497314453,0.01983676105737686,1741530609.375132,1741530609148,2.1722097167968752,1.25369970703125,2.9351106216895717,-5.16477001953125,2.1616279296875
1741530609.4027314,3.0760498046875,0.012197732181082322,0.005099414276410738,-0.9999126018326183,-0.029361780732870102,0.31933629512786865,-0.36785754561424255,1.8030762672424316,-31.738157272338867,37.625030517578125,-0.043297767639160156,-0.00820159912109375,0.4495689272880554,-1.2581299543380737,0.005531395319849253,-0.9218356609344482,-0.12111848592758179,1.2211267948150635,0.009727626107633114,0.969520092010498,0.06046387553215027,-0.8257037997245789,-0.024605173617601395,0.020027466118335724,0.7909895181655884,-0.35557693243026733,0.01061608549207449,-0.4377431869506836,-0.013542382046580315,-0.08144503086805344,0.8356221914291382,-0.5059524774551392,0.02072613127529621,0.058153823018074036,0.09019940346479416,-0.19045867025852203,0.04269642382860184,0.0026853701565414667,-0.05365749076008797,0.44002005457878113,-0.26571792364120483,-0.0033299976494163275,0.7146970629692078,-1.1777880191802979,1.0805431604385376,1.5320152044296265,1.4604593515396118,-7.6795878410339355,2.4629082679748535,0.48695701360702515,0.9505957961082458,0.9230815768241882,0.6629868745803833,1.372375726699829,-1.6437911987304688,-1.0224452018737793,1741530609.375132,1741530609148,2.1722097167968752,1.25369970703125,2.9351106216895717,-5.16477001953125,2.1616279296875
1741530609.4227397,3.0737377405166626,0.01377401063261636,0.004151276589565764,-0.9998965164124584,0.21019534766674042,0.30620115995407104,-0.04604576155543327,-6.016674995422363,0.5666791200637817,10.150741577148438,-0.050927162170410156,-0.00171661376953125,0.4350728690624237,-1.2520263195037842,0.005912871100008488,-0.917639434337616,-0.09098191559314728,1.217693567276001,0.008964675478637218,0.9710460305213928,0.05283436179161072,-0.7806897163391113,-0.01430533267557621,0.06580453366041183,0.8348592519760132,-0.2936244606971741,0.036297596991062164,-0.4064621925354004,-0.01735713705420494,-0.07763027399778366,0.8630884289741516,-0.5227476954460144,0.0038585111033171415,-0.24973145127296448,0.15747039020061493,-1.0712589025497437,0.47566089034080505,0.035876087844371796,0.16968350112438202,2.3523638248443604,-0.13208194077014923,-0.09491418302059174,0.05806351080536842,0.004801105707883835,2.493834972381592,0.0266428105533123,1.8661985397338867,2.433880567550659,2.7903664112091064,1.530121922492981,1.641358733177185,0.2955089509487152,-0.060332123190164566,1.2016505002975464,-0.5093846321105957,-0.586355447769165,1741530609.375132,1741530609148,2.1722097167968752,1.25369970703125,2.9351106216895717,-5.16477001953125,2.1616279296875
1741530609.4427683,3.07302188873291,0.018499095834041877,0.001119201951263915,-0.9998282506712416,0.12868699431419373,0.09413977712392807,0.03230324387550354,-1.0500588417053223,-3.1585798263549805,7.632700443267822,-0.049019813537597656,0.00972747802734375,0.3839551508426666,-1.2493560314178467,0.005912871100008488,-0.919165313243866,-0.037193864583969116,1.2188379764556885,0.00858320016413927,0.969520092010498,0.06656748056411743,-0.7585641145706177,0.0009536888683214784,0.038719769567251205,0.8302815556526184,-0.2593703269958496,0.06387846171855927,-0.3889143168926239,-0.006294346414506435,-0.08373387902975082,0.8955138325691223,-0.5015084743499756,0.003145854454487562,-0.000818668573629111,0.3717462122440338,-2.9133057594299316,0.037963107228279114,0.017180444672703743,-0.08147179335355759,3.6922833919525146,0.08404971659183502,0.03526138514280319,-0.16424798965454102,0.4637944996356964,1.176565170288086,1.0440088510513306,-2.070751667022705,-1.0592381954193115,1.4091119766235352,1.2317920923233032,0.532302975654602,0.442080557346344,-0.3076896369457245,2.105523109436035,1.248906135559082,-0.25065842270851135,1741530609.477511,1741530609348,1.967114501953125,1.232148681640625,3.0278881472516876,-5.2537724609375,2.1654958496093752
1741530609.462781,3.0743303298950195,0.021017810449688458,0.005460051824590661,-0.9997641919362654,-0.21372713148593903,0.16155605018138885,0.10901642590761185,5.277390003204346,2.117607831954956,12.205322265625,-0.060082435607910156,0.01430511474609375,0.31376364827156067,-1.2474485635757446,0.005531395319849253,-0.9203097820281982,0.02231631986796856,1.2260860204696655,0.009346150793135166,0.9645609259605408,0.06885633617639542,-0.7143129706382751,-0.011635004542768002,0.01888304017484188,0.8291370868682861,-0.23908841609954834,0.04553021490573883,-0.4072251319885254,-0.013542382046580315,-0.08030059933662415,0.9946975111961365,-0.466185986995697,-0.013614736497402191,-0.3919587731361389,0.1811603158712387,-3.614809989929199,0.17228852212429047,-0.006310270633548498,-0.013378234580159187,3.9398510456085205,0.6469640135765076,0.03872916102409363,-0.3291791081428528,0.2276259809732437,2.270508050918579,-1.2239283323287964,-0.5340469479560852,0.6873505711555481,1.072508454322815,-1.020589828491211,-1.5337607860565186,-0.528205394744873,0.22229769825935364,5.479793071746826,1.7844312191009521,-0.8087966442108154,1741530609.477511,1741530609348,1.967114501953125,1.232148681640625,3.0278881472516876,-5.2537724609375,2.1654958496093752
1741530609.4828281,3.0625511407852173,0.019643676721753964,0.008361778728043669,-0.9997720773363069,-0.08214104175567627,-0.054020363837480545,-0.5744184255599976,-8.023530960083008,-2.982017993927002,14.667911529541016,-0.053597450256347656,0.02498626708984375,0.24891279637813568,-1.2451597452163696,0.005531395319849253,-0.919165313243866,0.08068207651376724,1.2489745616912842,0.01125352829694748,0.9576943516731262,0.07534141838550568,-0.697528064250946,-0.016212711110711098,-0.0009536888683214784,0.8520256280899048,-0.24800069630146027,0.04292115941643715,-0.47817960381507874,-0.018120087683200836,-0.08258945494890213,1.1442358493804932,-0.4241279363632202,-0.017608556896448135,0.13391488790512085,0.3883369266986847,-3.1059603691101074,0.15476585924625397,-0.0019259914988651872,0.03880586475133896,3.9226279258728027,1.397923469543457,0.1577083170413971,-0.4297296702861786,0.3035687804222107,1.0694178342819214,-0.09572306275367737,-0.8998004198074341,1.0614019632339478,-0.7366781234741211,-0.05441338196396828,-4.04899263381958,0.06729183346033096,-0.3080810010433197,7.629725456237793,2.033703327178955,0.006959658581763506,1741530609.477511,1741530609348,1.967114501953125,1.232148681640625,3.0278881472516876,-5.2537724609375,2.1654958496093752
1741530609.5028336,3.0479049682617188,0.02324590040142688,0.01167731984975624,-0.999661576892727,-0.1481521725654602,0.12131006270647049,-0.7090674638748169,-0.20115090906620026,-1.8656823635101318,12.295764923095703,-0.062371253967285156,0.02765655517578125,0.17681391537189484,-1.23905611038208,0.005912871100008488,-0.9199283123016357,0.14171816408634186,1.2619446516036987,0.009727626107633114,0.9508277773857117,0.08182650804519653,-0.6765468716621399,-0.014686808921396732,-0.0036240178160369396,0.8722438216209412,-0.28815510869026184,0.03432636708021164,-0.5701152086257935,-0.01125352829694748,-0.09288929402828217,1.2964446544647217,-0.3990783095359802,0.0015055281110107899,-0.2372153252363205,0.07362176477909088,-3.722867250442505,0.4269941747188568,0.048047471791505814,0.0004193733329884708,4.077638149261475,0.817947268486023,-0.15374132990837097,-0.47214168310165405,0.41790735721588135,0.9181174635887146,0.17461057007312775,-0.08585425466299057,0.9649227261543274,-2.1377148628234863,-0.31574445962905884,-4.63624382019043,0.2565501928329468,-0.5388485193252563,7.579889297485352,0.956516683101654,0.8892778158187866,1741530609.477511,1741530609348,1.967114501953125,1.232148681640625,3.0278881472516876,-5.2537724609375,2.1654958496093752
1741530609.5228546,3.031581997871399,0.02468567081695984,0.013995567371639928,-0.9995972897873736,-0.07674382627010345,0.08328922092914581,-0.8102689981460571,-0.4726979434490204,-4.25540018081665,11.277158737182617,-0.06847476959228516,0.02002716064453125,0.10204470902681351,-1.2340970039367676,0.005149920005351305,-0.9218356609344482,0.20580606162548065,1.2726260423660278,0.010490577667951584,0.9454871416091919,0.08945601433515549,-0.6452658772468567,-0.001716639962978661,-0.00476844422519207,0.8783474564552307,-0.34111377596855164,0.03228715434670448,-0.655947208404541,-0.007438773289322853,-0.10509651154279709,1.402876377105713,-0.4075016677379608,-0.009341489523649216,-0.1736629456281662,-0.22041337192058563,-3.7222330570220947,0.22158478200435638,-0.046442676335573196,-0.1231229230761528,4.274743556976318,0.645467221736908,0.09705043584108353,-0.32681870460510254,0.31847941875457764,1.6601996421813965,0.6683609485626221,-0.035970330238342285,0.19070236384868622,-2.685868740081787,-0.008306012488901615,-3.977457284927368,0.25694701075553894,-0.5970229506492615,4.8584885597229,-0.6086154580116272,-0.8137890696525574,1741530609.477511,1741530609348,1.967114501953125,1.232148681640625,3.0278881472516876,-5.2537724609375,2.1654958496093752
1741530609.5428703,3.0189684629440308,0.024434861233779432,0.016711144623993323,-0.9995617415656933,-0.14698562026023865,-0.05919939652085304,-0.6368952393531799,-0.7578198313713074,0.5254226922988892,9.605209350585938,-0.06847476959228516,0.02651214599609375,0.034142062067985535,-1.23447847366333,0.005531395319849253,-0.9275577664375305,0.27065691351890564,1.2768222093582153,0.010109102353453636,0.9412909150123596,0.09250781685113907,-0.6040665507316589,0.010109102353453636,-0.00476844422519207,0.8764400482177734,-0.3873942494392395,0.02993832714855671,-0.727664589881897,0.00476844422519207,-0.12340734153985977,1.4383535385131836,-0.43190237879753113,-0.008103410713374615,0.005812216550111771,0.1337939351797104,-3.3747153282165527,-0.008515949361026287,0.0003142131899949163,-0.2728651463985443,4.35022497177124,0.25882861018180847,-0.0438130684196949,-0.2764115631580353,0.06388340145349503,2.084604263305664,0.6189184188842773,-0.00632005650550127,-0.15516848862171173,-2.254851818084717,-0.14095439016819,-3.4241819381713867,0.5944358706474304,-0.8225008249282837,1.20223867893219,-1.269424557685852,0.4913124442100525,1741530609.5798924,1741530609448,1.86420849609375,1.2270316162109376,2.9967794629890627,-5.2887290039062504,2.16880029296875
1741530609.5628803,3.00980806350708,0.02178371485421699,0.022571299081053636,-0.9995078820224199,-0.2963917553424835,-0.10129113495349884,-0.41913583874702454,1.468368411064148,1.191085934638977,7.954714775085449,-0.07267093658447266,0.02727508544921875,-0.018501564860343933,-1.2348599433898926,0.005531395319849253,-0.9309910535812378,0.33169299364089966,1.2783480882644653,0.010109102353453636,0.9351872801780701,0.08869306743144989,-0.5540932416915894,0.026131074875593185,-0.00476844422519207,0.8661402463912964,-0.42595207691192627,0.01837841235101223,-0.7806897163391113,0.008201723918318748,-0.1363775134086609,1.41165030002594,-0.45216503739356995,0.010826608166098595,-0.12768752872943878,0.031487446278333664,-2.575282335281372,-0.04169142618775368,-0.008273857645690441,-0.15596690773963928,4.1559157371521,0.1043090671300888,0.007394058629870415,-0.36708635091781616,-0.20229558646678925,2.6041572093963623,0.8260147571563721,0.02563996985554695,-0.6071891784667969,-1.9090442657470703,-0.6571208238601685,-2.5715317726135254,0.03803347051143646,-0.7093309164047241,-1.7366894483566284,-0.9086893200874329,0.7116416096687317,1741530609.5798924,1741530609448,1.86420849609375,1.2270316162109376,2.9967794629890627,-5.2887290039062504,2.16880029296875
1741530609.582973,2.9998769760131836,0.01844888190379493,0.02764498720349858,-0.9994475441157571,-0.22929184138774872,-0.16861268877983093,-0.5278943777084351,0.5878201127052307,-2.5495245456695557,7.88270378112793,-0.07457828521728516,0.02269744873046875,-0.06923781335353851,-1.2363858222961426,0.005531395319849253,-0.9355688095092773,0.3839551508426666,1.2768222093582153,0.010109102353453636,0.9325169920921326,0.086785688996315,-0.5014495849609375,0.03643091395497322,-0.001716639962978661,0.8478294014930725,-0.4619619846343994,0.00981548149138689,-0.8199816942214966,-0.000572213320992887,-0.152399480342865,1.340695858001709,-0.4535798132419586,0.003894123947247863,-0.063356913626194,-0.13205985724925995,-2.475963592529297,-0.09888418018817902,0.002260441891849041,-0.28235292434692383,3.3868751525878906,-0.15571346879005432,0.008139080367982388,-0.16244466602802277,-0.05486685037612915,2.5682685375213623,0.49185308814048767,0.20212611556053162,-0.9818078279495239,-1.80660879611969,-0.1793719232082367,-1.8136318922042847,-0.4823446273803711,-0.8307446241378784,-3.879985809326172,0.14423799514770508,-0.3127862811088562,1741530609.5798924,1741530609448,1.86420849609375,1.2270316162109376,2.9967794629890627,-5.2887290039062504,2.16880029296875
1741530609.6029856,2.9918150901794434,0.014764328475066254,0.032705339013703406,-0.9993559803216665,-0.25914430618286133,-0.17268873751163483,-0.4298518896102905,1.9962414503097534,0.27463555335998535,7.425189018249512,-0.07572269439697266,0.02155303955078125,-0.10166323184967041,-1.2363858222961426,0.005531395319849253,-0.9481574892997742,0.4358358085155487,1.2730075120925903,0.010109102353453636,0.9275577664375305,0.0883115902543068,-0.4533836841583252,0.04329747334122658,0.0032425422687083483,0.8234149813652039,-0.49327075481414795,0.008187244646251202,-0.8390554785728455,-0.02231631986796856,-0.17223620414733887,1.2430380582809448,-0.4291437864303589,0.009964896366000175,-0.02486850507557392,-0.031658682972192764,-1.444465160369873,0.009065224789083004,-0.0040908921509981155,-0.6341890692710876,3.631112575531006,-0.2389352172613144,0.00501300347968936,-0.3989289402961731,0.1658514142036438,2.32934832572937,0.26720893383026123,0.22109586000442505,-1.3112527132034302,-1.5781608819961548,-0.24296589195728302,-0.7401007413864136,-1.1421260833740234,-1.009257435798645,-5.025830268859863,1.4397059679031372,0.2747546136379242,1741530609.5798924,1741530609448,1.86420849609375,1.2270316162109376,2.9967794629890627,-5.2887290039062504,2.16880029296875
1741530609.6229537,2.984618663787842,0.01143599798161483,0.036339377679789335,-0.9992740703030426,-0.14888611435890198,-0.10171229392290115,-0.33226820826530457,0.8821481466293335,-0.45873427391052246,4.788862228393555,-0.07572269439697266,0.01888275146484375,-0.11463340371847153,-1.2363858222961426,0.005531395319849253,-0.9588387608528137,0.47665369510650635,1.2653779983520508,0.010109102353453636,0.9218356609344482,0.09822995215654373,-0.4003585875034332,0.045204851776361465,0.001716639962978661,0.7986190319061279,-0.5188705921173096,0.009017695672810078,-0.840199887752533,-0.05130846053361893,-0.1974135935306549,1.1301213502883911,-0.38492992520332336,0.012217306531965733,-0.011181867681443691,-0.04139712452888489,-0.5123415589332581,-0.01795019395649433,-0.0056230067275464535,-0.5056053996086121,2.5047831535339355,-0.5074412822723389,0.008617246523499489,-0.3244580626487732,0.5058788657188416,2.7816736698150635,0.07241295278072357,-0.14568910002708435,-1.149740219116211,-1.2387794256210327,0.11845290660858154,0.14808236062526703,-1.5340373516082764,-1.3764723539352417,-5.8112921714782715,2.2574172019958496,0.043223049491643906,1741530609.5798924,1741530609448,1.86420849609375,1.2270316162109376,2.9967794629890627,-5.2887290039062504,2.16880029296875
1741530609.6430073,2.980046033859253,0.013037549689802893,0.03548026293396286,-0.9992853312443962,0.06524442136287689,0.09845691174268723,-0.2096528708934784,2.9849133491516113,-4.753088474273682,5.718442916870117,-0.07534122467041016,0.00247955322265625,-0.11005569249391556,-1.2363858222961426,0.005531395319849253,-0.9668498039245605,0.4991607666015625,1.2585114240646362,0.009727626107633114,0.918402373790741,0.11387044936418533,-0.34924086928367615,0.040245670825242996,-0.005912871100008488,0.7742046117782593,-0.5363072156906128,0.0005550792557187378,-0.8215075731277466,-0.08297093212604523,-0.2298390120267868,1.0023269653320312,-0.3354480266571045,0.004773614462465048,-0.0036427415907382965,-0.45542290806770325,0.3838360607624054,-0.007545884698629379,-0.0024355624336749315,-0.3311983048915863,1.3385076522827148,-0.5179898142814636,-0.006073434371501207,-0.27022284269332886,0.809837818145752,2.6236050128936768,-0.30253130197525024,-0.30882352590560913,-1.2099894285202026,-0.7487951517105103,-0.6260051727294922,0.9024542570114136,-1.5253478288650513,-1.837680459022522,-6.400607585906982,2.4510953426361084,-0.3692026734352112,1741530609.5798924,1741530609448,1.86420849609375,1.2270316162109376,2.9967794629890627,-5.2887290039062504,2.16880029296875
1741530609.6630247,2.977828860282898,0.012942862663110533,0.033512649097895524,-0.9993544839827984,0.13154931366443634,-0.002762619173154235,-0.10555441677570343,2.00651478767395,-0.07147584110498428,7.254316329956055,-0.07305240631103516,0.00019073486328125,-0.08564125746488571,-1.23600435256958,0.005531395319849253,-0.967231273651123,0.5025940537452698,1.2531707286834717,0.009727626107633114,0.9145876169204712,0.12951095402240753,-0.2924010157585144,0.02994582988321781,-0.01888304017484188,0.7505531311035156,-0.5346246957778931,0.0002817607601173222,-0.8024337887763977,-0.10852979123592377,-0.27218279242515564,0.8722438216209412,-0.29708611965179443,-0.0046106502413749695,0.05516593158245087,-0.11643684655427933,1.259937047958374,0.052901122719049454,-0.0035179564729332924,0.003437983337789774,0.05725642666220665,-0.339295357465744,0.010831089690327644,-0.26305559277534485,0.695770800113678,2.8625283241271973,-0.5290547013282776,-0.6785855889320374,-1.1190052032470703,0.2970573902130127,0.30561989545822144,1.1470372676849365,-1.1514030694961548,-2.0323591232299805,-6.366039276123047,1.6963658332824707,-0.35829150676727295,1741530609.5798924,1741530609448,1.86420849609375,1.2270316162109376,2.9967794629890627,-5.2887290039062504,2.16880029296875
1741530609.683027,2.97593092918396,0.010346319330170009,0.028129140061849467,-0.9995507516658166,0.27095988392829895,-0.1644246131181717,-0.10818148404359818,2.907862901687622,-1.3195079565048218,8.040956497192383,-0.06809329986572266,0.00209808349609375,-0.04444190114736557,-1.23600435256958,0.005531395319849253,-0.9641794562339783,0.4873350262641907,1.2485930919647217,0.009727626107633114,0.9126802682876587,0.13981078565120697,-0.24242770671844482,0.004386968910694122,-0.032616160809993744,0.7463569045066833,-0.5247988700866699,0.016232088208198547,-0.7711527943611145,-0.12874799966812134,-0.29850462079048157,0.7597085237503052,-0.29074418544769287,-0.009647567756474018,0.11981003731489182,0.0568542554974556,2.28794002532959,0.02344362996518612,-0.011642112396657467,0.16136489808559418,-1.245633840560913,-0.31097927689552307,0.0014904950512573123,-0.1162663996219635,0.4789699614048004,2.2852909564971924,-1.6051174402236938,-0.5018292665481567,0.10091588646173477,0.41247886419296265,0.6754270792007446,1.5563253164291382,-0.8364276885986328,-1.2941663265228271,-5.452261924743652,-0.03868693485856056,-0.1453806757926941,1741530609.5798924,1741530609448,1.86420849609375,1.2270316162109376,2.9967794629890627,-5.2887290039062504,2.16880029296875
1741530609.703042,2.97122323513031,0.00612002702251293,0.017356318548712876,-0.9998306373959939,0.6133580207824707,-0.16196377575397491,-0.2580357789993286,10.095785140991211,10.380263328552246,31.614831924438477,-0.06504154205322266,0.00438690185546875,0.015449759550392628,-1.2363858222961426,0.005531395319849253,-0.9588387608528137,0.4530022144317627,1.2436338663101196,0.009727626107633114,0.9142061471939087,0.14515145123004913,-0.2130540907382965,-0.014686808921396732,-0.03795681521296501,0.7852674126625061,-0.5154916048049927,0.02746381238102913,-0.7467383742332458,-0.1325627565383911,-0.30460822582244873,0.6898985505104065,-0.30447280406951904,-0.015356538817286491,0.09696975350379944,0.07209139317274094,3.0459654331207275,-0.06876429915428162,-0.010671207681298256,0.2629760205745697,-2.435349941253662,-0.35029974579811096,-0.009498042985796928,0.06736274808645248,0.2502315938472748,1.3537068367004395,-0.6441684365272522,-0.4853619933128357,2.4377849102020264,0.49117812514305115,0.7860100269317627,0.9199376702308655,-0.05835667625069618,0.033391039818525314,-2.5070507526397705,-0.3614158630371094,-0.45098617672920227,1741530609.5798924,1741530609448,1.86420849609375,1.2270316162109376,2.9967794629890627,-5.2887290039062504,2.16880029296875
1741530609.7234323,2.9655847549438477,0.004471352791288581,0.008215704531381597,-0.9999562536447626,0.30819886922836304,0.1144413873553276,-0.3104456067085266,-2.3644912242889404,-7.1629414558410645,2.2953529357910156,-0.060463905334472656,0.00782012939453125,0.08258945494890213,-1.2424894571304321,0.005149920005351305,-0.9580758213996887,0.39921414852142334,1.2379117012023926,0.009727626107633114,0.9119172692298889,0.14324407279491425,-0.22755016386508942,-0.01201647985726595,-0.056267641484737396,0.8779659867286682,-0.49299928545951843,0.04027790576219559,-0.7173647880554199,-0.10738536715507507,-0.26874953508377075,0.7471198439598083,-0.30365386605262756,-0.03145609796047211,0.16234685480594635,0.15553681552410126,3.449519157409668,-0.40092194080352783,-0.0495864637196064,0.008803862147033215,-3.844653844833374,-0.3740547299385071,0.009868009015917778,-0.12377254664897919,-0.21746636927127838,-1.0862051248550415,-0.36163806915283203,-0.8830516338348389,4.989258766174316,1.3569591045379639,0.45517516136169434,1.3964890241622925,0.9946519732475281,2.2695024013519287,2.7835214138031006,-0.23068499565124512,-0.7566221356391907,1741530609.5798924,1741530609448,1.86420849609375,1.2270316162109376,2.9967794629890627,-5.2887290039062504,2.16880029296875
1741530609.7430856,2.9659769535064697,0.006940750556031382,0.009719473570791668,-0.9999286763640822,-0.019410692155361176,0.02661530300974846,0.02031181938946247,-2.6074984073638916,0.12446456402540207,14.93673324584961,-0.060845375061035156,0.01239776611328125,0.1501106321811676,-1.2405821084976196,0.005149920005351305,-0.9584572911262512,0.3213931620121002,1.2459226846694946,0.01125352829694748,0.9142061471939087,0.13904783129692078,-0.2912565767765045,-0.034142062067985535,-0.09517814964056015,1.0187304019927979,-0.4488162696361542,0.04671059548854828,-0.7108796834945679,-0.09250781685113907,-0.22487983107566833,0.7646677494049072,-0.31539902091026306,-0.03293535113334656,0.03378945216536522,0.17543767392635345,3.336822032928467,0.17660488188266754,-0.09502937644720078,-0.011955775320529938,-5.230526924133301,0.5739704370498657,0.09789755940437317,0.1947992593050003,-0.02979660965502262,-3.3065826892852783,-1.1854331493377686,-2.3083343505859375,7.603919982910156,2.2265663146972656,0.2970784604549408,0.715670645236969,1.1148641109466553,1.7568143606185913,0.5981433391571045,-0.48860737681388855,0.04635923355817795,1741530609.5798924,1741530609448,1.86420849609375,1.2270316162109376,2.9967794629890627,-5.2887290039062504,2.16880029296875
1741530609.76309,2.9736876487731934,0.011181589962963739,0.02022658173785631,-0.9997328930454883,-0.690392255783081,0.14612706005573273,0.42418327927589417,-7.683732986450195,2.8656721115112305,14.48680591583252,-0.049782752990722656,0.01621246337890625,0.2145799994468689,-1.239819049835205,0.005531395319849253,-0.9584572911262512,0.23632410168647766,1.2512633800506592,0.009727626107633114,0.9138246774673462,0.14744029939174652,-0.3927290737628937,-0.06771191209554672,-0.1504921019077301,1.1926833391189575,-0.4037255644798279,0.04666879400610924,-0.6776912808418274,-0.06961929053068161,-0.2130540907382965,0.7669565677642822,-0.31575703620910645,-0.0320948101580143,0.31111475825309753,0.018715444952249527,3.40556263923645,0.04009165242314339,0.03651464730501175,-0.02914038673043251,-5.694015026092529,0.3638957440853119,-0.0709853544831276,-0.07925691455602646,0.5002509951591492,-5.3496599197387695,-1.796968698501587,-2.625969886779785,8.863072395324707,2.1184771060943604,-0.3230873942375183,1.5924979448318481,0.6103156208992004,0.7193127870559692,0.09153146296739578,-0.028012065216898918,0.016866693273186684,1741530609.5798924,1741530609448,1.86420849609375,1.2270316162109376,2.9967794629890627,-5.2887290039062504,2.16880029296875
1741530609.7831137,2.989840507507324,0.010858846687214202,0.03793238012545874,-0.99922130681178,-0.8242956399917603,-0.09490242600440979,0.850184440612793,-0.924934446811676,-0.5020830035209656,10.968091011047363,-0.054741859436035156,0.03070831298828125,0.272945761680603,-1.23905611038208,0.005531395319849253,-0.9565499424934387,0.15392538905143738,1.2585114240646362,0.010109102353453636,0.9149690866470337,0.15850308537483215,-0.5148012638092041,-0.10776684433221817,-0.17643244564533234,1.356717824935913,-0.38236305117607117,0.010039889253675938,-0.6406881809234619,-0.06961929053068161,-0.21839475631713867,0.7669565677642822,-0.3193362057209015,-0.01874588616192341,-0.12143460661172867,0.286950945854187,2.9957916736602783,0.010726794600486755,0.0031681933905929327,0.1125728189945221,-5.4388813972473145,0.4275139272212982,-0.005580766126513481,0.06982176750898361,0.5546101331710815,-6.155057430267334,-2.0417017936706543,-0.8817762136459351,7.645484447479248,0.6894632577896118,-1.8312427997589111,1.9932575225830078,0.0720909908413887,-0.5472427010536194,0.017332999035716057,-0.2107924371957779,0.842979907989502,1741530609.5798924,1741530609448,1.86420849609375,1.2270316162109376,2.9967794629890627,-5.2887290039062504,2.16880029296875
1741530609.8031619,3.012498140335083,0.006804834687077168,0.05208864495375266,-0.9986192804526475,-0.7077392339706421,-0.31151077151298523,1.1799942255020142,-0.5413044691085815,2.4210667610168457,10.091229438781738,-0.038720130920410156,0.036049842834472656,0.325970858335495,-1.2402005195617676,0.005531395319849253,-0.951209306716919,0.07991912961006165,1.2554595470428467,0.009346150793135166,0.916113555431366,0.16155488789081573,-0.6399252414703369,-0.12645913660526276,-0.1665140837430954,1.4703974723815918,-0.40771573781967163,0.0054243383929133415,-0.5994887948036194,-0.06885633617639542,-0.22411687672138214,0.7654306888580322,-0.32532909512519836,-0.00687816645950079,0.41317376494407654,0.10064098984003067,2.548095703125,-0.05468970537185669,0.011394629254937172,0.31547218561172485,-4.761870384216309,-0.2578447461128235,-0.04357928782701492,0.04167625680565834,0.1462920904159546,-6.249545574188232,-0.47068434953689575,0.5225823521614075,5.060877323150635,-1.583072304725647,0.2197958379983902,1.995284914970398,0.05488200485706329,-0.05006660521030426,-0.08642254024744034,-0.3178301453590393,0.5424026250839233,1741530609.5798924,1741530609448,1.86420849609375,1.2270316162109376,2.9967794629890627,-5.2887290039062504,2.16880029296875
1741530609.823155,3.0377150774002075,0.0015140435461851102,0.0581702269173468,-0.9983055305729427,-0.24802808463573456,-0.3205829858779907,1.2094480991363525,2.0430097579956055,-1.804028034210205,5.258506774902344,-0.039101600646972656,0.031472206115722656,0.3721294105052948,-1.2436338663101196,0.005531395319849253,-0.9428167939186096,0.02040894143283367,1.2489745616912842,0.009346150793135166,0.917639434337616,0.16155488789081573,-0.7497901916503906,-0.12912946939468384,-0.1359960287809372,1.5127413272857666,-0.45531386137008667,0.002063741208985448,-0.5594338774681091,-0.05245288833975792,-0.21992065012454987,0.76276034116745,-0.3363107144832611,0.002878171857446432,0.011831900104880333,-0.1307893693447113,2.2414438724517822,-0.2591342031955719,-0.0062970444560050964,0.35208526253700256,-3.7674412727355957,-0.5301015377044678,-0.0019378712167963386,0.10207955539226532,-0.03961298614740372,-5.352444171905518,-0.2021312713623047,1.8867111206054688,1.4571377038955688,-2.3876519203186035,-0.3148190677165985,2.031501293182373,0.9798892736434937,0.2525098919868469,-0.16298270225524902,-0.7030295133590698,0.4984928369522095,1741530609.5798924,1741530609448,1.86420849609375,1.2270316162109376,2.9967794629890627,-5.2887290039062504,2.16880029296875
1741530609.8432558,3.0532596111297607,-0.0028702416628507196,0.06134341314873959,-0.9981125925345596,-0.12015358358621597,-0.24212022125720978,0.7042282819747925,0.9007866382598877,4.832293510437012,9.748992919921875,-0.031853675842285156,0.02689361572265625,0.4053177833557129,-1.2432523965835571,0.005531395319849253,-0.9370946884155273,-0.021171892061829567,1.2394375801086426,0.009727626107633114,0.917639434337616,0.15812161564826965,-0.8360036611557007,-0.12340734153985977,-0.10662241280078888,1.4787899255752563,-0.4961002767086029,-0.007756573148071766,-0.5312047004699707,-0.035667963325977325,-0.20428015291690826,0.7639048099517822,-0.35955554246902466,0.010378148406744003,0.19476504623889923,-0.11916037648916245,1.5156934261322021,0.04422532767057419,-0.0023292277473956347,0.2801881730556488,-2.607177495956421,-0.5884917974472046,0.02330905757844448,0.009658386930823326,-0.030434899032115936,-4.228806495666504,0.2993272542953491,1.3985533714294434,-2.287903070449829,-1.8332358598709106,-0.4356223940849304,1.1189231872558594,0.9453123807907104,0.7045742273330688,0.13300779461860657,-1.2318636178970337,0.20327019691467285,1741530609.887488,1741530609648,1.6650023193359376,1.2553621826171875,2.9323204086859613,-5.35035791015625,2.173662109375
1741530609.8632812,3.06303608417511,-0.003913035409130871,0.06071445840587644,-0.9981475054792092,0.0330643355846405,0.04046117886900902,0.5661041140556335,-5.207306385040283,-4.285994052886963,8.966814994812012,-0.02880096435546875,0.00972747802734375,0.43087664246559143,-1.2451597452163696,0.005912871100008488,-0.9321355223655701,-0.07267109304666519,1.2356228828430176,0.009727626107633114,0.9252689480781555,0.1516365259885788,-0.8882657885551453,-0.10967422276735306,-0.09822995215654373,1.3799878358840942,-0.5013898015022278,-0.011958722956478596,-0.5216678380966187,-0.024986648932099342,-0.1966506391763687,0.7784008383750916,-0.3907853066921234,0.012601109221577644,0.06921061128377914,-0.4196256399154663,1.3192187547683716,-0.23701563477516174,-0.0070832762867212296,0.2164010852575302,-3.5148098468780518,-0.28133025765419006,0.01133457850664854,0.617409884929657,-0.5460148453712463,-2.298322916030884,0.6097234487533569,0.40171903371810913,-5.465106010437012,0.09976891428232193,-0.22664621472358704,0.7863840460777283,0.4051987826824188,0.48011675477027893,0.9716511964797974,-1.5725159645080566,0.24096433818340302,1741530609.887488,1741530609648,1.6650023193359376,1.2553621826171875,2.9323204086859613,-5.35035791015625,2.173662109375
1741530609.8832324,3.0735585689544678,0.00637413529039544,0.059912534934662795,-0.9981832790409798,0.1076955795288086,0.38814955949783325,0.403713583946228,-3.4482719898223877,3.325223922729492,9.761515617370605,-0.02460479736328125,-0.00896453857421875,0.45643550157546997,-1.2482116222381592,0.005531395319849253,-0.926413357257843,-0.10471503436565399,1.228756308555603,0.008964675478637218,0.9420538544654846,0.1367589831352234,-0.9126802682876587,-0.09555962681770325,-0.10051880776882172,1.2235828638076782,-0.4702225625514984,-0.016506686806678772,-0.5151827335357666,-0.029564354568719864,-0.19092851877212524,0.80510413646698,-0.4270259439945221,0.018276328220963478,0.11058035492897034,-0.4297826886177063,1.205623984336853,-0.09033255279064178,0.01599062792956829,0.2889655530452728,-1.9071664810180664,-0.41131114959716797,-0.056007444858551025,1.0966681241989136,-0.8019639253616333,-1.0133484601974487,0.7997493147850037,-0.20015211403369904,-8.665386199951172,1.692525029182434,0.017462613061070442,0.14629779756069183,-0.284803181886673,0.25185832381248474,1.295579195022583,-1.853317379951477,0.35916605591773987,1741530609.887488,1741530609648,1.6650023193359376,1.2553621826171875,2.9323204086859613,-5.35035791015625,2.173662109375
1741530609.903236,3.0747835636138916,0.020567866604796193,0.05220813424113673,-0.9984243955264648,0.3800796866416931,0.7731319069862366,0.06410962343215942,0.6311072707176208,0.37256595492362976,4.848875522613525,-0.02307891845703125,-0.02079010009765625,0.4659723937511444,-1.2501189708709717,0.005531395319849253,-0.9218356609344482,-0.12684062123298645,1.223797082901001,0.010109102353453636,0.9603646993637085,0.11348897218704224,-0.8993285894393921,-0.06847485899925232,-0.10814831405878067,1.0187304019927979,-0.42909306287765503,-0.003905119141563773,-0.5102235674858093,-0.028038453310728073,-0.18520638346672058,0.8421072959899902,-0.46259185671806335,0.024247435852885246,0.033736731857061386,-0.3700004816055298,0.30984118580818176,-0.1894982010126114,0.011841712519526482,0.15310247242450714,-1.2497071027755737,-0.2930716872215271,0.04222463071346283,1.1695406436920166,-1.164041519165039,1.0107907056808472,1.4756338596343994,-0.3281998932361603,-10.459128379821777,1.9418643712997437,0.8325024843215942,0.3034507632255554,0.3133004605770111,0.3912118971347809,1.9614254236221313,-1.8822768926620483,0.17466723918914795,1741530609.887488,1741530609648,1.6650023193359376,1.2553621826171875,2.9323204086859613,-5.35035791015625,2.173662109375
1741530609.9232597,3.0701366662979126,0.03053797166184253,0.050246631280278335,-0.9982698574692939,-0.02169807441532612,0.2935909926891327,-0.32625433802604675,-24.508413314819336,-6.301843166351318,26.00615119934082,-0.02079010009765625,-0.01277923583984375,0.4655908942222595,-1.2516448497772217,0.005149920005351305,-0.9214541912078857,-0.12569619715213776,1.218456506729126,0.009346150793135166,0.9714275002479553,0.08449683338403702,-0.8733882904052734,-0.03757534176111221,-0.0722896158695221,0.8916990756988525,-0.3556186854839325,-0.0009875178802758455,-0.5037384629249573,-0.013923857361078262,-0.17185473442077637,0.8813992738723755,-0.5026367902755737,0.023899739608168602,0.08243196457624435,0.1010209396481514,0.04629005119204521,0.011460436508059502,-0.04103637486696243,0.09818026423454285,0.22800149023532867,-0.4174765944480896,-0.014891008846461773,0.5440784096717834,-1.6446202993392944,1.1063077449798584,1.1661546230316162,3.2394492626190186,-3.1650288105010986,4.40222692489624,-0.03706638887524605,0.39178600907325745,0.5539525747299194,0.6540899276733398,1.9207855463027954,-1.9348145723342896,-0.16399578750133514,1741530609.887488,1741530609648,1.6650023193359376,1.2553621826171875,2.9323204086859613,-5.35035791015625,2.173662109375
1741530609.9432857,3.072964072227478,0.04172300532656711,0.03960960610273415,-0.9983437634056244,0.5106508731842041,0.7797232866287231,0.16456085443496704,10.991918563842773,5.983596324920654,-4.683696269989014,-0.02460479736328125,-0.01239776611328125,0.4495689272880554,-1.2482116222381592,0.005531395319849253,-0.916113555431366,-0.09975585341453552,1.219219446182251,0.008201723918318748,0.9756237268447876,0.08564125746488571,-0.8245593905448914,-0.04406042397022247,-0.026512550190091133,0.9302281141281128,-0.2835390567779541,0.022227086126804352,-0.4720759987831116,-0.004386968910694122,-0.1646067053079605,0.8901731967926025,-0.5340750813484192,0.002091716742143035,-0.02539234422147274,-0.3057691156864166,-1.1883046627044678,0.1293693482875824,-0.040311798453330994,0.12061396986246109,2.143023729324341,0.0752020925283432,-0.09368794411420822,0.3612635135650635,0.5204097628593445,2.078378438949585,-0.2654053568840027,1.3513625860214233,0.8928531408309937,3.1345269680023193,1.4705144166946411,1.759340763092041,0.9007366299629211,0.1739516258239746,0.37716346979141235,-1.3410769701004028,-1.3914568424224854,1741530609.9897716,1741530609848,1.4645899658203125,1.249554443359375,3.0282599302695665,-5.4023525390625,2.175384033203125
1741530609.9633088,3.0756222009658813,0.045907093151543045,0.030197257408012327,-0.9984891909497117,0.3707903027534485,0.1004023477435112,0.061900749802589417,-20.48843002319336,-18.604385375976562,26.16966438293457,-0.02346038818359375,0.00858306884765625,0.39425498247146606,-1.2493560314178467,0.005531395319849253,-0.9195467829704285,-0.045204851776361465,1.2196009159088135,0.00858320016413927,0.9721904397010803,0.10013733059167862,-0.7925154566764832,-0.024223696440458298,-0.05970092490315437,0.8939879536628723,-0.2556052803993225,0.03721731901168823,-0.44155794382095337,-0.001716639962978661,-0.16117341816425323,0.9031433463096619,-0.5277336239814758,-0.003713823389261961,0.05695432797074318,0.47949454188346863,-2.9065661430358887,-0.02130451425909996,-0.024710074067115784,-0.17511451244354248,3.704585075378418,-0.01943225972354412,0.02273712493479252,-0.2976917028427124,0.5984890460968018,2.131204843521118,1.145677924156189,-1.9438602924346924,-1.594260334968567,1.2515150308609009,0.27401304244995117,1.4661401510238647,-0.2983188331127167,0.2981814444065094,1.3524073362350464,0.6174125671386719,-0.10770415514707565,1741530609.9897716,1741530609848,1.4645899658203125,1.249554443359375,3.0282599302695665,-5.4023525390625,2.175384033203125
1741530609.9833276,3.0788395404815674,0.04854446082474349,0.02944323935503012,-0.998386964548074,0.04599425569176674,0.05139884725213051,0.10685701668262482,-5.907830715179443,0.923675537109375,6.751072406768799,-0.034523963928222656,0.02727508544921875,0.32673379778862,-1.2455412149429321,0.005531395319849253,-0.9164950251579285,0.008201723918318748,1.2260860204696655,0.008964675478637218,0.9676127433776855,0.10852979123592377,-0.7558938264846802,-0.053215838968753815,-0.06885633617639542,0.9096284508705139,-0.25364238023757935,0.024189362302422523,-0.44689860939979553,-0.01888304017484188,-0.15926603972911835,0.9889753460884094,-0.49683234095573425,-0.014219521544873714,-0.3190848231315613,0.40011921525001526,-3.374587059020996,0.26657241582870483,-0.006355642341077328,0.19062256813049316,3.610250949859619,0.6840991973876953,0.01031071599572897,-0.3881185054779053,0.4651913642883301,1.140394687652588,-1.1534818410873413,-0.42170122265815735,0.8129797577857971,-0.32960817217826843,-0.3351695239543915,-1.2383551597595215,-1.023432970046997,-0.0641276016831398,4.639003276824951,1.6780555248260498,-0.35822632908821106,1741530609.9897716,1741530609848,1.4645899658203125,1.249554443359375,3.0282599302695665,-5.4023525390625,2.175384033203125
1741530610.0033374,3.0714404582977295,0.049722850129663994,0.027044547533132,-0.9983968302352082,0.08887123316526413,0.27642568945884705,-0.44771063327789307,4.362395763397217,1.536922812461853,12.374722480773926,-0.02841949462890625,0.02079010009765625,0.2595941126346588,-1.2421079874038696,0.005149920005351305,-0.9149690866470337,0.06618601083755493,1.2493560314178467,0.01201647985726595,0.959220290184021,0.12226291000843048,-0.7219424843788147,-0.058175019919872284,-0.08335240930318832,0.9210727214813232,-0.2949367165565491,0.022169187664985657,-0.5121309161186218,-0.03032730519771576,-0.16155488789081573,1.1301213502883911,-0.4532347619533539,-0.01841411180794239,0.13922850787639618,-0.392780601978302,-3.4709787368774414,0.24304567277431488,-0.0310172401368618,0.0019097629701718688,3.81793475151062,1.5038018226623535,0.16453611850738525,-0.5587046146392822,0.5266343355178833,2.002659559249878,-0.3680511713027954,-0.40426284074783325,0.4583778977394104,-2.1207947731018066,-0.2289973944425583,-3.3595004081726074,-0.42802321910858154,-0.13039101660251617,7.555255889892578,2.2090604305267334,-0.18993256986141205,1741530609.9897716,1741530609848,1.4645899658203125,1.249554443359375,3.0282599302695665,-5.4023525390625,2.175384033203125
1741530610.0233953,3.0603972673416138,0.05152178908670377,0.025547049109937197,-0.9983450573479491,0.1271788626909256,0.00500463368371129,-0.5878719091415405,-5.971072196960449,0.7516117691993713,13.95751667022705,-0.037957191467285156,0.034142494201660156,0.18673227727413177,-1.235241413116455,0.005912871100008488,-0.9126802682876587,0.12455176562070847,1.2669038772583008,0.011635004542768002,0.953498125076294,0.13065537810325623,-0.6960021257400513,-0.05436026677489281,-0.08297093212604523,0.9180209040641785,-0.34296563267707825,0.012856697663664818,-0.6101701259613037,-0.03299763426184654,-0.15506981313228607,1.2903410196304321,-0.41631215810775757,-0.007023054175078869,-0.24944105744361877,0.3797498643398285,-3.6404147148132324,0.4631507396697998,0.012771764770150185,0.09545594453811646,4.0307817459106445,1.0488494634628296,-0.023350851610302925,-0.3915693759918213,0.5553568005561829,1.304724931716919,0.4686777591705322,0.09321841597557068,-0.1422218233346939,-2.414288282394409,-0.31305554509162903,-5.139209270477295,-0.20565666258335114,0.42623767256736755,7.582124710083008,1.5908679962158203,0.7099980711936951,1741530609.9897716,1741530609848,1.4645899658203125,1.249554443359375,3.0282599302695665,-5.4023525390625,2.175384033203125
1741530610.0433898,3.0436387062072754,0.05674149824871952,0.021838636126153603,-0.998150026974222,0.21642683446407318,0.3526710867881775,-0.8094310164451599,0.38366520404815674,0.6255143880844116,10.11520004272461,-0.042534828186035156,0.02193450927734375,0.11081864684820175,-1.231045126914978,0.00476844422519207,-0.9145876169204712,0.18711376190185547,1.2775851488113403,0.011635004542768002,0.9470130205154419,0.14248111844062805,-0.6548027992248535,-0.03757534176111221,-0.07648584991693497,0.9100099205970764,-0.3898005783557892,0.019665056839585304,-0.6994354128837585,-0.027656977996230125,-0.1501106321811676,1.4009689092636108,-0.40888845920562744,-0.0011282629566267133,-0.16116654872894287,-0.29038286209106445,-3.7406229972839355,0.22337228059768677,-0.015756117179989815,-0.112252376973629,4.086610317230225,0.7319215536117554,0.008291037753224373,-0.38715115189552307,0.4206889867782593,2.260882616043091,0.7448872327804565,0.2647853195667267,-0.5628925561904907,-2.331512451171875,0.2720945179462433,-4.140803337097168,0.31887295842170715,0.057075053453445435,5.0081281661987305,0.13278497755527496,0.09674662351608276,1741530610.0926404,1741530609948,1.3571317138671875,1.2526405029296874,3.009185518127793,-5.41842431640625,2.179222900390625
1741530610.0634804,3.0253714323043823,0.057112485911649594,0.01954525493442742,-0.9981764107423797,0.14873629808425903,-0.04823889955878258,-0.9033588767051697,3.805859327316284,-1.7081466913223267,8.798089981079102,-0.045205116271972656,0.02765655517578125,0.043678950518369675,-1.227230429649353,0.005912871100008488,-0.916876494884491,0.24929426610469818,1.2817814350128174,0.011635004542768002,0.9412909150123596,0.14057374000549316,-0.6017776727676392,-0.02689402550458908,-0.07457847148180008,0.8878843188285828,-0.4285985231399536,0.014726794324815273,-0.7738231420516968,-0.024986648932099342,-0.1501106321811676,1.437972068786621,-0.4224057197570801,-0.009834281168878078,-0.0775422751903534,0.1459626704454422,-3.132080316543579,0.22629281878471375,0.034420277923345566,-0.1295597106218338,4.117494106292725,0.17951346933841705,-0.01034933514893055,-0.3712623119354248,-0.11840810626745224,2.68245005607605,0.5600584149360657,0.09085409343242645,-1.1888247728347778,-1.8595638275146484,-0.25834065675735474,-3.648585319519043,0.06013525649905205,0.02056151069700718,1.335117220878601,-0.687124490737915,-0.3244553208351135,1741530610.0926404,1741530609948,1.3571317138671875,1.2526405029296874,3.009185518127793,-5.41842431640625,2.179222900390625
1741530610.0834322,3.0074554681777954,0.05236608373163427,0.019118342392260592,-0.9984449320111669,0.07836642116308212,-0.2080715149641037,-0.8117725253105164,-0.2284504771232605,-0.7451791167259216,7.499735355377197,-0.052834510803222656,0.02956390380859375,-0.00858320016413927,-1.225704550743103,0.005531395319849253,-0.919165313243866,0.3091859221458435,1.2817814350128174,0.01125352829694748,0.9363317489624023,0.13141833245754242,-0.535400927066803,-0.013923857361078262,-0.06923781335353851,0.8585107326507568,-0.45593133568763733,0.0063202716410160065,-0.8314259648323059,-0.03032730519771576,-0.1508735716342926,1.4166094064712524,-0.436111181974411,0.003546263324096799,-0.23758064210414886,0.07826143503189087,-2.429877758026123,0.07772506773471832,0.009735633619129658,-0.1167508214712143,3.9314727783203125,0.018656272441148758,-0.010117624886333942,-0.3036245107650757,-0.488587349653244,3.4983971118927,0.6709334254264832,0.2771915793418884,-1.5089099407196045,-1.2407026290893555,-0.38261541724205017,-2.7687137126922607,-0.3257296085357666,-0.04551832377910614,-1.403440237045288,-0.5674502849578857,0.7379593849182129,1741530610.0926404,1741530609948,1.3571317138671875,1.2526405029296874,3.009185518127793,-5.41842431640625,2.179222900390625
1741530610.1034634,3.001111149787903,0.047069730888301575,0.015978152220994805,-0.9987638054543755,0.1869279444217682,-0.2998981773853302,-0.2690280079841614,2.2261362075805664,-2.7155942916870117,8.063819885253906,-0.060082435607910156,0.02841949462890625,-0.05207141116261482,-1.227230429649353,0.005149920005351305,-0.9245060086250305,0.36411839723587036,1.2787295579910278,0.010109102353453636,0.9359502792358398,0.10776684433221817,-0.4674982726573944,0.0020981156267225742,-0.05092698708176613,0.8207446336746216,-0.4713543653488159,0.0027407275047153234,-0.8794918656349182,-0.04177157208323479,-0.15430685877799988,1.360532522201538,-0.43637633323669434,0.01268765889108181,-0.23238475620746613,-0.017302852123975754,-2.2998905181884766,-0.13464286923408508,-0.05853594094514847,-0.3784923553466797,3.5331928730010986,-0.24722419679164886,-0.06649340689182281,-0.02304842509329319,-1.3010313510894775,3.353755474090576,0.8116011619567871,1.0327831506729126,-1.9178075790405273,-0.6919168829917908,-0.17954985797405243,-2.3957059383392334,-0.6198087334632874,-0.18663887679576874,-2.954357624053955,0.15589188039302826,0.32211005687713623,1741530610.0926404,1741530609948,1.3571317138671875,1.2526405029296874,3.009185518127793,-5.41842431640625,2.179222900390625
1741530610.1234777,2.999090075492859,0.041591497622966864,0.012322087594826052,-0.9990587137314724,0.191530242562294,-0.21351638436317444,-0.10767573118209839,1.8805679082870483,0.6637404561042786,7.7473344802856445,-0.061989784240722656,0.02346038818359375,-0.09212634712457657,-1.227993369102478,0.005149920005351305,-0.9382390975952148,0.4243915379047394,1.2764407396316528,0.010109102353453636,0.9340428709983826,0.08258945494890213,-0.4018844962120056,0.013923857361078262,-0.026131074875593185,0.7825970649719238,-0.4813833236694336,0.0036690151318907738,-0.9134432077407837,-0.06046387553215027,-0.15850308537483215,1.2827115058898926,-0.4160391390323639,0.005957749206572771,-0.06678340584039688,-0.13892263174057007,-1.8032548427581787,0.03129534423351288,-0.02551550231873989,-0.7670691609382629,4.174761772155762,-0.0765237957239151,-0.004796118475496769,-0.19284789264202118,-1.141461968421936,3.293287754058838,0.452997624874115,1.190409779548645,-1.8829853534698486,-0.5240060687065125,0.18884187936782837,-1.5097298622131348,-1.0674011707305908,-0.23835217952728271,-4.208157539367676,1.207005500793457,-0.16378013789653778,1741530610.0926404,1741530609948,1.3571317138671875,1.2526405029296874,3.009185518127793,-5.41842431640625,2.179222900390625
1741530610.143518,2.997434973716736,0.03576612801890486,0.006797042842975877,-0.999337072411069,0.28018587827682495,-0.28116461634635925,-0.10643146187067032,-2.902998447418213,-3.692507743835449,7.6328229904174805,-0.062371253967285156,0.02193450927734375,-0.11043716967105865,-1.227230429649353,0.005531395319849253,-0.953498125076294,0.47398337721824646,1.2691926956176758,0.010109102353453636,0.927176296710968,0.07610437273979187,-0.3416113555431366,0.01583123579621315,-0.02231631986796856,0.7421606779098511,-0.4961259067058563,0.003720642998814583,-0.919165313243866,-0.0875486359000206,-0.17452506721019745,1.1854352951049805,-0.37684276700019836,0.00681248540058732,-0.008144881576299667,-0.0452394001185894,-0.7314626574516296,0.010127519257366657,-0.0025279810652136803,-0.7242088317871094,2.9988367557525635,-0.5654100179672241,0.013043000362813473,-0.4073583781719208,-0.08290579169988632,3.0159056186676025,0.0357099324464798,0.08342590928077698,-2.004013776779175,-0.7619330883026123,-0.17605096101760864,0.09714032709598541,-1.4190746545791626,-0.9490388035774231,-5.154916763305664,2.005039691925049,0.07951758801937103,1741530610.0926404,1741530609948,1.3571317138671875,1.2526405029296874,3.009185518127793,-5.41842431640625,2.179222900390625
1741530610.16354,2.9927338361740112,0.03523538540513037,0.0028143800798849745,-0.9993750781764161,0.1909300535917282,-0.05396527796983719,-0.25006648898124695,2.825087308883667,0.5098205208778381,6.928256511688232,-0.06389713287353516,0.00858306884765625,-0.10929274559020996,-1.2253230810165405,0.005531395319849253,-0.9660868048667908,0.4983977973461151,1.2638521194458008,0.010109102353453636,0.9214541912078857,0.09632257372140884,-0.2763790488243103,0.014686808921396732,-0.03299763426184654,0.7059205174446106,-0.5132790207862854,0.0008465164573863149,-0.9042877554893494,-0.11615930497646332,-0.20237277448177338,1.051155924797058,-0.33707940578460693,0.0028059312608093023,-0.05528855696320534,-0.3732437193393707,0.1977628469467163,0.15213994681835175,0.011189785785973072,-0.5733789205551147,1.4241411685943604,-0.3098260462284088,0.036951787769794464,-0.39312753081321716,1.1712720394134521,3.108036756515503,-0.05262035131454468,-0.6263591647148132,-1.8047168254852295,-0.819197416305542,-0.09749320894479752,0.7446975708007812,-1.3959356546401978,-1.5336105823516846,-7.029700756072998,1.7959445714950562,-0.389771968126297,1741530610.195002,1741530610048,1.2677288818359376,1.277016845703125,2.9456853481629954,-5.435330078125,2.1814462890625
1741530610.1837802,2.9864708185195923,0.031333726103059234,0.00113912414196457,-0.9995083291322228,0.06998765468597412,-0.15683311223983765,-0.292032927274704,2.259498119354248,-0.9095849394798279,6.453197002410889,-0.06466007232666016,0.00553131103515625,-0.0871671661734581,-1.223034143447876,0.005531395319849253,-0.9710460305213928,0.5018310546875,1.2592743635177612,0.009727626107633114,0.916876494884491,0.12417028844356537,-0.2157244235277176,0.005912871100008488,-0.04711223021149635,0.6769283413887024,-0.5170873999595642,-0.0013589283917099237,-0.8630884289741516,-0.13904783129692078,-0.2313649207353592,0.8909361362457275,-0.32023507356643677,-0.007702718488872051,-0.03811937943100929,-0.11985637247562408,1.1956193447113037,0.11433181166648865,0.004487200174480677,-0.222588911652565,0.046062394976615906,-0.33530670404434204,-0.008359680883586407,-0.2739957869052887,1.3749068975448608,3.1013777256011963,-0.7275252342224121,-0.6421422958374023,-1.161664366722107,0.05064381659030914,-0.10346891731023788,2.218170166015625,-1.010104775428772,-1.3814321756362915,-8.06393051147461,0.5371208786964417,-0.5217405557632446,1741530610.195002,1741530610048,1.2677288818359376,1.277016845703125,2.9456853481629954,-5.435330078125,2.1814462890625
1741530610.203867,2.9806599617004395,0.02589306455545773,-0.0017172132420217783,-0.9996632434908309,0.21067596971988678,-0.33730781078338623,-0.26872631907463074,0.11854548007249832,0.8260378837585449,3.3933470249176025,-0.06466007232666016,0.00591278076171875,-0.05283436179161072,-1.223034143447876,0.005531395319849253,-0.9733348488807678,0.4880979657173157,1.2550780773162842,0.010109102353453636,0.9138246774673462,0.14209964871406555,-0.17261768877506256,-0.01773861236870289,-0.043678950518369675,0.6826505064964294,-0.5095179677009583,0.008035648614168167,-0.8100633025169373,-0.14744029939174652,-0.2466239482164383,0.7391088604927063,-0.3424057364463806,-0.013250238262116909,-0.001754310098476708,0.0021420333068817854,1.8907158374786377,-0.041883938014507294,-0.003975516650825739,-0.055417414754629135,-1.0463193655014038,-0.22800026834011078,-0.001620050286874175,-0.16501788794994354,0.6941065788269043,1.9096243381500244,-0.9632703065872192,0.17918169498443604,0.6540848016738892,0.41223835945129395,0.5350815653800964,2.5286052227020264,-0.3391270041465759,-0.6956767439842224,-7.364347457885742,-1.4268908500671387,-0.25327983498573303,1741530610.195002,1741530610048,1.2677288818359376,1.277016845703125,2.9456853481629954,-5.435330078125,2.1814462890625
1741530610.2238138,2.9765888452529907,0.01979481402064714,-0.013447662595906976,-0.9997136218480744,0.6395570635795593,-0.3104619085788727,-0.13477270305156708,-26.781475067138672,-0.935580313205719,19.92013168334961,-0.058175086975097656,0.00896453857421875,-0.0020981156267225742,-1.223797082901001,0.005531395319849253,-0.9725719094276428,0.45948728919029236,1.2497375011444092,0.009727626107633114,0.9119172692298889,0.13904783129692078,-0.15697719156742096,-0.004005493130534887,-0.04139009863138199,0.7520790696144104,-0.5003138184547424,0.024135412648320198,-0.7822155952453613,-0.13179980218410492,-0.23899443447589874,0.7139315009117126,-0.33562108874320984,-0.016114937141537666,0.15511691570281982,0.02729056030511856,2.527949333190918,-0.04034799337387085,-0.010873494669795036,0.057484548538923264,-2.007204532623291,-0.4191214144229889,-0.022324660792946815,-0.21212659776210785,-0.26292121410369873,0.4108951985836029,0.9908481240272522,0.13161946833133698,4.108177185058594,0.47601255774497986,0.7720302939414978,1.311028003692627,1.2974857091903687,0.7101585268974304,1.1511917114257812,0.8359054327011108,-0.3103215992450714,1741530610.195002,1741530610048,1.2677288818359376,1.277016845703125,2.9456853481629954,-5.435330078125,2.1814462890625
1741530610.2438867,2.9690158367156982,0.02312244953250759,-0.017464258685078584,-0.9995800878349855,0.1500302106142044,0.1869952231645584,-0.300921767950058,1.7821751832962036,1.4121109247207642,5.1663737297058105,-0.06618595123291016,0.01087188720703125,0.056267641484737396,-1.226467490196228,0.006294346414506435,-0.9721904397010803,0.4056992530822754,1.2424894571304321,0.010109102353453636,0.9096284508705139,0.11158160120248795,-0.18558785319328308,-0.013923857361078262,-0.03452353551983833,0.8684290647506714,-0.468515545129776,0.033031392842531204,-0.7715343236923218,-0.10433356463909149,-0.19169145822525024,0.7856488823890686,-0.3413168787956238,-0.025917258113622665,-0.3158261775970459,-0.015271794982254505,3.14309024810791,-0.1718747764825821,0.07755251973867416,0.01760275661945343,-4.02371883392334,-0.44790390133857727,0.03324795886874199,-0.0448404923081398,-1.2079408168792725,-2.0357320308685303,-0.6296812891960144,0.13145360350608826,6.163982391357422,1.8458847999572754,0.29043373465538025,0.14509573578834534,0.7527749538421631,2.8393099308013916,2.60392427444458,-0.6133571863174438,-0.21770651638507843,1741530610.195002,1741530610048,1.2677288818359376,1.277016845703125,2.9456853481629954,-5.435330078125,2.1814462890625
1741530610.263858,2.972859740257263,0.021913854736854706,-0.020454581553517592,-0.9995505955498414,0.13663789629936218,-0.0343550406396389,0.22983133792877197,-6.366903305053711,3.101726770401001,14.561976432800293,-0.055504798889160156,0.01888275146484375,0.11348897218704224,-1.2340970039367676,0.005531395319849253,-0.9721904397010803,0.3255893886089325,1.2409635782241821,0.009727626107633114,0.9138246774673462,0.0883115902543068,-0.25616082549095154,-0.03681239113211632,-0.059319447726011276,1.0282673835754395,-0.42208918929100037,0.042397283017635345,-0.7520790696144104,-0.07991912961006165,-0.14782176911830902,0.7898451089859009,-0.3554489314556122,-0.01710135117173195,0.2707972824573517,0.24652598798274994,2.959155559539795,-0.6137593388557434,0.01613662950694561,-0.0008786904509179294,-5.395866394042969,0.011025141924619675,-0.016574062407016754,0.2734227180480957,-1.0777826309204102,-3.6946280002593994,-1.2206850051879883,-1.40384840965271,8.425769805908203,2.3188180923461914,0.4514876902103424,1.389252781867981,1.4228737354278564,1.680806040763855,0.36141034960746765,-0.41410142183303833,0.6492243409156799,1741530610.195002,1741530610048,1.2677288818359376,1.277016845703125,2.9456853481629954,-5.435330078125,2.1814462890625
1741530610.283882,2.986441731452942,0.017157588141586844,-0.01450938212143113,-0.9997475156256292,-0.387159138917923,-0.3675834834575653,0.7198655009269714,-1.9169586896896362,-0.91107577085495,12.497105598449707,-0.060082435607910156,0.043679237365722656,0.17032882571220398,-1.2436338663101196,0.005531395319849253,-0.9710460305213928,0.2500572204589844,1.2447782754898071,0.010109102353453636,0.9130617380142212,0.07343403995037079,-0.3561074137687683,-0.07038223743438721,-0.0871671661734581,1.2075608968734741,-0.3792506158351898,0.032569535076618195,-0.7234683632850647,-0.058175019919872284,-0.13065537810325623,0.7978560924530029,-0.3556252419948578,-0.01665806770324707,-0.13586512207984924,1.00387704372406,2.788970470428467,-0.4896557927131653,-0.017474353313446045,0.10066725313663483,-4.943413734436035,0.2866870164871216,0.03771289065480232,-0.021921128034591675,-0.6328702569007874,-5.281465530395508,-1.8509416580200195,-1.0386817455291748,8.985335350036621,1.9231679439544678,-0.9276178479194641,1.1451929807662964,0.5303838849067688,1.018601894378662,0.18828235566616058,-0.0938560888171196,0.0023210106883198023,1741530610.195002,1741530610048,1.2677288818359376,1.277016845703125,2.9456853481629954,-5.435330078125,2.1814462890625
1741530610.303949,3.0058258771896362,0.007502660081026388,-0.005975913445384506,-0.9999539982170189,-0.4088897109031677,-0.39039361476898193,0.9558461904525757,-1.412014365196228,0.6368474960327148,9.50269603729248,-0.051690101623535156,0.047875404357910156,0.2298390120267868,-1.2451597452163696,0.005531395319849253,-0.9668498039245605,0.17528800666332245,1.2466856241226196,0.009727626107633114,0.9153505563735962,0.06084534898400307,-0.4659723937511444,-0.1024261862039566,-0.08030059933662415,1.354047417640686,-0.3730776011943817,0.0032296765130013227,-0.6837949156761169,-0.05893797054886818,-0.12645913660526276,0.8001449704170227,-0.3535403907299042,-0.0126981595531106,0.22102569043636322,0.3255595564842224,3.077162027359009,-0.17150108516216278,0.010018317960202694,0.21878968179225922,-5.048776149749756,0.03767694905400276,-0.018604682758450508,0.1570214331150055,-0.6391335725784302,-5.568367004394531,-1.436762809753418,0.6610003113746643,6.951170921325684,-0.16821077466011047,-0.9845931529998779,2.2868313789367676,0.014429327100515366,-0.04283254221081734,0.15209315717220306,0.15490438044071198,0.25923892855644226,1741530610.195002,1741530610048,1.2677288818359376,1.277016845703125,2.9456853481629954,-5.435330078125,2.1814462890625
1741530610.32394,3.0299811363220215,-0.001933297102210278,-0.0010605224254185458,-0.9999975688242946,-0.20444248616695404,-0.5567144155502319,1.2076925039291382,3.0155084133148193,0.5985376834869385,7.263326168060303,-0.043297767639160156,0.041008949279785156,0.28820478916168213,-1.2516448497772217,0.005531395319849253,-0.9569314122200012,0.1039520874619484,1.2436338663101196,0.009727626107633114,0.9172579646110535,0.050164032727479935,-0.5746929049491882,-0.10509651154279709,-0.05207141116261482,1.4421683549880981,-0.4122813045978546,0.00997057743370533,-0.6406881809234619,-0.056267641484737396,-0.12531471252441406,0.7944228053092957,-0.3521403670310974,-0.006984734907746315,0.23441167175769806,-0.10091817378997803,2.976289749145508,-0.38318654894828796,-0.007735755760222673,0.5446891188621521,-4.67507266998291,-0.2517092227935791,0.006283925846219063,0.07801105827093124,-0.5067493915557861,-5.470694065093994,-0.09823141247034073,1.4372140169143677,3.850266933441162,-2.124868631362915,0.22098007798194885,1.9438685178756714,0.23817698657512665,0.20306481420993805,-0.329227089881897,0.049701038748025894,0.26254522800445557,1741530610.195002,1741530610048,1.2677288818359376,1.277016845703125,2.9456853481629954,-5.435330078125,2.1814462890625
1741530610.3440878,3.050873279571533,-0.012413303063502863,-0.0011327727871679374,-0.9999223103485922,0.014075277373194695,-0.430764377117157,0.9331356287002563,-2.048362970352173,-0.785011887550354,7.6796555519104,-0.040627479553222656,0.033761024475097656,0.344663143157959,-1.2550780773162842,0.005531395319849253,-0.9466315507888794,0.04139009863138199,1.2379117012023926,0.009727626107633114,0.9180209040641785,0.037193864583969116,-0.6704432964324951,-0.10128175467252731,-0.005149920005351305,1.4612420797348022,-0.46253684163093567,0.0009682018426246941,-0.5968185067176819,-0.04749370738863945,-0.1188296303153038,0.7902265787124634,-0.3567501902580261,-0.0023828058037906885,0.11285856366157532,-0.19565235078334808,2.6591010093688965,-0.22691687941551208,-0.011519919149577618,0.4812334477901459,-3.974595069885254,-0.41665858030319214,-0.0006791418418288231,0.041578229516744614,-0.6631159782409668,-4.668304443359375,0.13113059103488922,2.465060234069824,0.36392509937286377,-2.528737783432007,-0.5869449377059937,2.344968318939209,0.4269639253616333,0.3663691580295563,-0.12953096628189087,-0.3138607144355774,0.27118998765945435,1741530610.195002,1741530610048,1.2677288818359376,1.277016845703125,2.9456853481629954,-5.435330078125,2.1814462890625
1741530610.3641298,3.0596094131469727,-0.017620772841601663,-0.003385853504529587,-0.9998390092212398,0.1603051722049713,-0.27819758653640747,0.38350263237953186,1.4938757419586182,1.7315738201141357,7.910688400268555,-0.037575721740722656,0.02574920654296875,0.3927290737628937,-1.2539336681365967,0.005912871100008488,-0.9397650361061096,-0.009346150793135166,1.23295259475708,0.009727626107633114,0.9199283123016357,0.037193864583969116,-0.7486457824707031,-0.09136339277029037,0.029564354568719864,1.421187162399292,-0.5020790696144104,-0.007463409565389156,-0.5727855563163757,-0.04291599988937378,-0.11310750246047974,0.7902265787124634,-0.3735235333442688,0.003356492379680276,0.09636294841766357,-0.21847593784332275,2.3251190185546875,0.07428252696990967,0.018948156386613846,0.3785487413406372,-3.298837184906006,-0.29460105299949646,0.013791743665933609,0.17872335016727448,0.15735295414924622,-3.7787833213806152,0.5102612376213074,1.5481460094451904,-2.4557416439056396,-1.7225027084350586,-0.3759714365005493,0.7006756067276001,0.2260114848613739,0.09145534038543701,-0.0052953800186514854,-0.8679752945899963,0.3274368941783905,1741530610.3997989,1741530610148,1.1680477294921876,1.3084625244140626,2.923869910041697,-5.447095703125,2.1849873046875
1741530610.3841403,3.063601851463318,-0.01789884611183408,-0.006493364343978804,-0.9998187173319778,0.10576660186052322,0.19316183030605316,0.2774229943752289,1.7813876867294312,-1.6038357019424438,8.239775657653809,-0.038338661193847656,-0.00667572021484375,0.43240252137184143,-1.2554595470428467,0.005531395319849253,-0.9332799315452576,-0.07267109304666519,1.2321895360946655,0.009727626107633114,0.9313725233078003,0.037193864583969116,-0.80510413646698,-0.08106355369091034,0.04482337832450867,1.3315403461456299,-0.5018337368965149,-0.014648046344518661,-0.5525673031806946,-0.04406042397022247,-0.11310750246047974,0.80357825756073,-0.39530590176582336,0.009228688664734364,-0.02283582277595997,-0.9690285921096802,1.8876932859420776,-0.08084911108016968,0.0031594643369317055,0.24963855743408203,-4.1761298179626465,-0.02310202270746231,0.015083100646734238,0.9042820930480957,-0.11892818659543991,-2.559718370437622,0.5595178604125977,0.7733891606330872,-4.841054916381836,0.4202635884284973,-0.4553302526473999,1.2755615711212158,-0.1061192974448204,0.058098021894693375,0.8517457842826843,-1.1130729913711548,0.3480406403541565,1741530610.3997989,1741530610148,1.1680477294921876,1.3084625244140626,2.923869910041697,-5.447095703125,2.1849873046875
1741530610.4041748,3.0717241764068604,-0.011074877248647863,-0.008267602310495314,-0.999904492362127,0.16169612109661102,0.2491806596517563,0.3635711371898651,-2.0733916759490967,-0.6235622763633728,12.416105270385742,-0.037194252014160156,-0.00858306884765625,0.4701686203479767,-1.2527892589569092,0.005531395319849253,-0.9260318875312805,-0.10852979123592377,1.2314265966415405,0.008964675478637218,0.9462500810623169,0.02536812424659729,-0.841725766658783,-0.06427863240242004,0.04787518084049225,1.2014572620391846,-0.4648333787918091,-0.018205177038908005,-0.5384527444839478,-0.04940108209848404,-0.11387044936418533,0.8134965896606445,-0.4213332533836365,0.01385605987161398,0.04208190739154816,-0.153868168592453,1.7855464220046997,0.17934656143188477,-0.0028202179819345474,0.346858412027359,-2.0484812259674072,-0.1060882955789566,-0.0714256539940834,0.9534356594085693,-0.7350770235061646,-1.6418616771697998,0.9678786993026733,0.10373174399137497,-7.087900638580322,1.948533058166504,-0.18696653842926025,0.5370547771453857,-0.18215106427669525,-0.13206417858600616,0.5261141657829285,-1.255473256111145,0.3196030557155609,1741530610.3997989,1741530610148,1.1680477294921876,1.3084625244140626,2.923869910041697,-5.447095703125,2.1849873046875
1741530610.4242766,3.0757901668548584,-0.0005172883744619904,-0.013336758621580019,-0.999910927674164,0.2406606525182724,0.5941541194915771,0.21103109419345856,0.7919480204582214,-0.2657069265842438,7.320439338684082,-0.039101600646972656,-0.01468658447265625,0.4873350262641907,-1.2524077892303467,0.005531395319849253,-0.9210727214813232,-0.12760357558727264,1.2299007177352905,0.009346150793135166,0.9596017599105835,0.0009536888683214784,-0.8463035225868225,-0.03643091395497322,0.04940108209848404,1.0343708992004395,-0.41991665959358215,-0.011007812805473804,-0.5220493078231812,-0.05245288833975792,-0.11005569249391556,0.8337147831916809,-0.44355660676956177,0.016482219099998474,-0.06284128874540329,-0.18101707100868225,0.6685571074485779,0.0031332976650446653,-0.006221437361091375,0.1698783040046692,-1.101029396057129,-0.08575857430696487,0.0395694337785244,0.8620107173919678,-1.2547920942306519,0.054150406271219254,1.4989776611328125,0.14133615791797638,-8.228558540344238,2.2016079425811768,0.43501582741737366,0.8908453583717346,-0.0834052786231041,0.39491623640060425,1.0183178186416626,-1.1596952676773071,0.043328795582056046,1741530610.3997989,1741530610148,1.1680477294921876,1.3084625244140626,2.923869910041697,-5.447095703125,2.1849873046875
1741530610.4442432,3.0788040161132812,0.008813857533515485,-0.016464576462171907,-0.9998256016112511,0.13964316248893738,0.37489962577819824,0.13116005063056946,3.2733263969421387,-0.8304990530014038,10.418554306030273,-0.042153358459472656,-0.00934600830078125,0.48962387442588806,-1.2524077892303467,0.005531395319849253,-0.9206912517547607,-0.12378881871700287,1.2283748388290405,0.009346150793135166,0.9691386222839355,-0.02727550081908703,-0.8279926776885986,-0.00476844422519207,0.07343403995037079,0.8688105344772339,-0.37864387035369873,0.0014783000806346536,-0.5048828721046448,-0.03757534176111221,-0.09594109654426575,0.8470664620399475,-0.4705280661582947,0.023894980549812317,-0.0983307808637619,0.13662029802799225,0.0392291285097599,0.026219531893730164,-0.009781540371477604,0.008165479637682438,0.4666350483894348,-0.12259332090616226,0.0061783986166119576,0.5658954381942749,-1.4498462677001953,0.9082379341125488,1.39152193069458,1.5294675827026367,-8.13779067993164,1.9493335485458374,0.7055336236953735,0.8731721043586731,1.0485937595367432,0.6923178434371948,0.6351414322853088,-1.3750884532928467,0.3810122311115265,1741530610.3997989,1741530610148,1.1680477294921876,1.3084625244140626,2.923869910041697,-5.447095703125,2.1849873046875
1741530610.4642956,3.082621455192566,0.008735103271893176,-0.012987161874407991,-0.99987750829653,-0.22513985633850098,-0.09906938672065735,0.19211524724960327,-13.416769027709961,7.290035247802734,18.993595123291016,-0.046730995178222656,0.00705718994140625,0.47741663455963135,-1.2482116222381592,0.005531395319849253,-0.9206912517547607,-0.09708552807569504,1.227230429649353,0.009346150793135166,0.9699015617370605,-0.048638131469488144,-0.8073930144309998,0.02079041674733162,0.1359960287809372,0.8119707107543945,-0.32538408041000366,0.023477064445614815,-0.4705500900745392,-0.02079041674733162,-0.07877469807863235,0.8573662638664246,-0.4946869909763336,0.013953140005469322,-0.12193542718887329,0.5227334499359131,-0.7435963153839111,0.34193676710128784,0.016210241243243217,0.07394543290138245,1.9988417625427246,-0.05189792066812515,0.007724746596068144,-0.03660023957490921,-0.8758626580238342,1.2543233633041382,1.2304797172546387,3.2332887649536133,-1.0027049779891968,2.702739715576172,1.1577404737472534,1.9519561529159546,0.40762096643447876,0.9335964322090149,0.49018552899360657,-1.0891995429992676,-0.7364423871040344,1741530610.5020614,1741530610348,0.9849094238281251,1.3280177001953126,3.027296578965367,-5.46198388671875,2.190501953125
1741530610.4842918,3.090680480003357,0.00766369835305,-0.01426365487566197,-0.9998688993448798,0.05488990619778633,-0.014267584308981895,0.3644833564758301,1.3355647325515747,1.025726556777954,8.631152153015137,-0.047875404357910156,0.01354217529296875,0.439269095659256,-1.2474485635757446,0.005531395319849253,-0.9210727214813232,-0.045204851776361465,1.227230429649353,0.008964675478637218,0.9668498039245605,-0.04634927958250046,-0.7562752962112427,0.03681239113211632,0.15888457000255585,0.838674008846283,-0.303651362657547,0.03977125510573387,-0.4186694025993347,-0.009727626107633114,-0.0707637146115303,0.84897381067276,-0.5032315254211426,0.0017904413398355246,-0.021365314722061157,0.2649628818035126,-2.1587038040161133,-0.14644348621368408,-0.008144059218466282,-0.10088952630758286,3.6435201168060303,-0.007760565262287855,-0.013752186670899391,-0.1747652143239975,0.19988419115543365,2.5302071571350098,0.8252343535423279,0.5591509938240051,0.7425843477249146,0.6339262127876282,0.4817019999027252,2.701876401901245,0.5932134985923767,0.25184789299964905,-0.46366086602211,-0.00026595816598273814,0.06118175759911537,1741530610.5020614,1741530610348,0.9849094238281251,1.3280177001953126,3.027296578965367,-5.46198388671875,2.190501953125
1741530610.5043006,3.099535346031189,0.008156779108546147,-0.01569407757216321,-0.99984356920657,0.07870788127183914,0.0039056334644556046,0.4689306318759918,-1.294935941696167,-0.6793026924133301,13.898600578308105,-0.053215980529785156,0.01010894775390625,0.38090333342552185,-1.2497375011444092,0.005531395319849253,-0.9222171306610107,0.01735713705420494,1.2283748388290405,0.009346150793135166,0.961509108543396,-0.040627144277095795,-0.7131685614585876,0.046730753034353256,0.1367589831352234,0.8279926776885986,-0.30755800008773804,0.037216488271951675,-0.3717479109764099,-0.002861066721379757,-0.05970092490315437,0.8592736721038818,-0.4825577437877655,0.0047616814263165,-0.17843380570411682,-0.005650495644658804,-2.8463802337646484,-0.13790735602378845,-0.015498119406402111,-0.03494389355182648,4.085025310516357,0.1012725755572319,0.04934736713767052,-0.39576494693756104,0.33909857273101807,2.291867733001709,0.642058789730072,-1.2224295139312744,-0.36268192529678345,-0.08593297749757767,-0.020245729014277458,2.0081522464752197,0.10019891709089279,0.8172392845153809,1.1491553783416748,1.102766990661621,-0.3675050735473633,1741530610.5020614,1741530610348,0.9849094238281251,1.3280177001953126,3.027296578965367,-5.46198388671875,2.190501953125
1741530610.524312,3.1041985750198364,0.005356149283512321,-0.01788364983254831,-0.9998257281814265,0.10570861399173737,-0.15007838606834412,0.09360182285308838,4.688789367675781,-0.8932135701179504,6.65501070022583,-0.054360389709472656,0.01735687255859375,0.3107118308544159,-1.2512633800506592,0.005531395319849253,-0.9229800701141357,0.07724879682064056,1.2386746406555176,0.010109102353453636,0.9557870030403137,-0.03223468363285065,-0.6715877056121826,0.024605173617601395,0.11158160120248795,0.8318074345588684,-0.31027916073799133,0.04110395163297653,-0.38052186369895935,-0.0032425422687083483,-0.030708782374858856,0.9485389590263367,-0.4537205696105957,-0.006526111625134945,-0.06766831129789352,0.14909367263317108,-3.5936968326568604,-0.18082763254642487,0.00870800856500864,-0.07821757346391678,3.870468854904175,0.8758944272994995,0.038894809782505035,-0.39665690064430237,0.32326051592826843,1.9537842273712158,-1.4241138696670532,-1.3001744747161865,0.12658128142356873,-0.21902526915073395,0.12117540836334229,-1.264840841293335,0.05760326609015465,1.4713138341903687,5.116021156311035,1.595168113708496,-0.38318920135498047,1741530610.5020614,1741530610348,0.9849094238281251,1.3280177001953126,3.027296578965367,-5.46198388671875,2.190501953125
1741530610.5443332,3.095320224761963,0.0011024256332115632,-0.01986701553521732,-0.9998020235783915,0.09798303246498108,-0.11214540153741837,-0.5453669428825378,-4.370419502258301,1.1531480550765991,9.261977195739746,-0.054360389709472656,0.02689361572265625,0.23556114733219147,-1.2516448497772217,0.005531395319849253,-0.9260318875312805,0.1348516047000885,1.2539336681365967,0.010109102353453636,0.9489204287528992,-0.02193484455347061,-0.6315327882766724,0.0009536888683214784,0.0864042118191719,0.8299000263214111,-0.3195233643054962,0.03926574066281319,-0.4549095928668976,0.0020981156267225742,-0.004005493130534887,1.110666036605835,-0.4093073010444641,-0.014518650248646736,-0.00592400087043643,0.162795752286911,-3.7908806800842285,0.009438131004571915,-0.008954578079283237,-0.18638357520103455,3.8397631645202637,0.9339033961296082,-0.019042031839489937,-0.47593674063682556,0.5499833226203918,2.0779049396514893,-1.15506911277771,-1.210208535194397,-0.06279841810464859,-0.5033382773399353,-0.0037531815469264984,-4.315445423126221,0.3909192979335785,1.2296963930130005,8.319390296936035,2.213996410369873,-0.30554282665252686,1741530610.5020614,1741530610348,0.9849094238281251,1.3280177001953126,3.027296578965367,-5.46198388671875,2.190501953125
1741530610.5643616,3.070385217666626,0.0027960593235549142,-0.022915541951000082,-0.99973349448208,0.1812230944633484,-0.005703689996153116,-1.263634443283081,-7.480956554412842,-0.573051393032074,12.486772537231445,-0.058556556701660156,0.02574920654296875,0.16155488789081573,-1.2478300333023071,0.005531395319849253,-0.9252689480781555,0.1844434291124344,1.2615631818771362,0.010490577667951584,0.9458686113357544,-0.010490577667951584,-0.6055924296379089,-0.0009536888683214784,0.08297093212604523,0.8299000263214111,-0.33479106426239014,0.04051022231578827,-0.5666819214820862,0.016212711110711098,0.005531395319849253,1.2891966104507446,-0.37521374225616455,-0.0072705671191215515,-0.13630469143390656,0.00285540078766644,-3.5459649562835693,0.258699506521225,0.0010022117057815194,0.09377803653478622,3.2510831356048584,0.39427533745765686,0.020087899640202522,-0.19341905415058136,0.6064810156822205,1.0812772512435913,0.1312418282032013,-0.042315755039453506,-0.010098248720169067,-0.8520975708961487,0.1302943378686905,-5.661141872406006,0.6747158765792847,0.36206746101379395,8.823448181152344,1.387399435043335,0.5447902679443359,1741530610.6044097,1741530610448,0.8778720092773438,1.3275693359375,3.056611134475918,-5.46470751953125,2.193142822265625
1741530610.5861976,3.0419182777404785,0.007431922981473412,-0.025957162695495844,-0.999635429657031,0.1710786074399948,0.24472570419311523,-1.4343876838684082,-1.9443410634994507,-1.0454424619674683,10.644051551818848,-0.06580448150634766,0.02269744873046875,0.08945601433515549,-1.2424894571304321,0.005531395319849253,-0.9252689480781555,0.23403525352478027,1.2649965286254883,0.009727626107633114,0.9447242021560669,-0.0078202486038208,-0.569733738899231,0.008964675478637218,0.08869306743144989,0.8299000263214111,-0.36092472076416016,0.030867068096995354,-0.6738765835762024,0.02880140393972397,0.0013351644156500697,1.4200427532196045,-0.38013485074043274,-0.004034354351460934,-0.20629505813121796,-0.06369203329086304,-3.6303722858428955,0.3573170006275177,0.006508279591798782,-0.02352599799633026,3.311485528945923,0.21001292765140533,-0.026183728128671646,-0.0412859246134758,-0.11695703864097595,1.8889727592468262,0.4783438444137573,0.24569764733314514,-0.1112687885761261,-1.3831781148910522,-0.631966769695282,-5.119595527648926,0.5726577043533325,-0.32459557056427,5.95755672454834,-0.5287654995918274,-0.06602901965379715,1741530610.6044097,1741530610448,0.8778720092773438,1.3275693359375,3.056611134475918,-5.46470751953125,2.193142822265625
1741530610.6044605,3.021932005882263,0.012165460523265977,-0.028813690665947658,-0.9995107667256335,0.137144073843956,0.1427953690290451,-0.8049086928367615,0.5545675158500671,-3.088419198989868,12.586420059204102,-0.07419681549072266,0.02193450927734375,0.025749599561095238,-1.2363858222961426,0.006294346414506435,-0.9245060086250305,0.28553444147109985,1.2646150588989258,0.009727626107633114,0.9447242021560669,-0.009346150793135166,-0.5273899435997009,0.013160906732082367,0.08869306743144989,0.8203631639480591,-0.39727145433425903,0.019725577905774117,-0.7642862796783447,0.038719769567251205,-0.016212711110711098,1.4684901237487793,-0.4097996950149536,-0.007665251847356558,-0.26161670684814453,0.009161490947008133,-3.001354217529297,0.3799223005771637,0.041706886142492294,0.02922544628381729,3.451766014099121,-0.013147346675395966,-0.02760714292526245,0.02706693671643734,-0.08298765867948532,2.1244821548461914,0.2191242277622223,0.04184173792600632,-0.5231071710586548,-1.9436430931091309,-0.4758508801460266,-4.1645636558532715,0.39310261607170105,-0.7741232514381409,1.7590759992599487,-1.5050255060195923,-0.021951762959361076,1741530610.6044097,1741530610448,0.8778720092773438,1.3275693359375,3.056611134475918,-5.46470751953125,2.193142822265625
1741530610.6244183,3.014641761779785,0.013207167109030986,-0.02758809202305608,-0.9995321245040009,-0.10266429930925369,0.05926866829395294,-0.2602735161781311,1.6215448379516602,1.6887257099151611,8.178112030029297,-0.07915592193603516,0.01964569091796875,-0.034142062067985535,-1.2363858222961426,0.005149920005351305,-0.9283207654953003,0.3377965986728668,1.2649965286254883,0.009727626107633114,0.9424353241920471,-0.01888304017484188,-0.47550925612449646,0.021553369238972664,0.0883115902543068,0.80357825756073,-0.436740517616272,0.013361623510718346,-0.8276112079620361,0.039101243019104004,-0.03757534176111221,1.4398794174194336,-0.438705712556839,0.0037319608964025974,-0.15525372326374054,-0.03887283802032471,-3.3346967697143555,-0.01945163868367672,0.004824756644666195,-0.1839975118637085,3.4526941776275635,0.09073221683502197,0.007605600170791149,-0.1938403695821762,-0.5631042122840881,2.7214837074279785,0.3576362729072571,0.0007548086578026414,-0.8388387560844421,-1.8804230690002441,-0.464050829410553,-2.9787137508392334,0.02403704822063446,-1.0393069982528687,-1.924486517906189,-1.342645525932312,0.7135782837867737,1741530610.6044097,1741530610448,0.8778720092773438,1.3275693359375,3.056611134475918,-5.46470751953125,2.193142822265625
1741530610.6444411,3.0154926776885986,0.013773890503401416,-0.023032352315560334,-0.9996398304825654,-0.2377464473247528,0.012995508499443531,0.08690773695707321,1.9253482818603516,-0.6867799758911133,7.744338512420654,-0.08525943756103516,0.01964569091796875,-0.09594109654426575,-1.2363858222961426,0.00476844422519207,-0.9363317489624023,0.3931105434894562,1.2684297561645508,0.010490577667951584,0.9370946884155273,-0.032616160809993744,-0.4217212200164795,0.02994582988321781,0.0883115902543068,0.7822155952453613,-0.46877557039260864,0.003959862980991602,-0.8691920638084412,0.03337911143898964,-0.056267641484737396,1.359006643295288,-0.4474828541278839,0.008293422870337963,-0.2043326050043106,-0.00479859160259366,-2.7650465965270996,0.04804442450404167,-0.09691279381513596,-0.5315300822257996,3.8773374557495117,0.24784588813781738,0.03887041285634041,-0.4688081741333008,-0.6475493311882019,2.6061787605285645,0.4084131419658661,0.02765987254679203,-1.0978472232818604,-1.5458415746688843,-0.2642652988433838,-2.011089324951172,-0.4125917851924896,-0.9241508841514587,-4.305896759033203,-0.19557110965251923,0.024172671139240265,1741530610.6044097,1741530610448,0.8778720092773438,1.3275693359375,3.056611134475918,-5.46470751953125,2.193142822265625
1741530610.6644578,3.018018960952759,0.012405468449989573,-0.01613974543478584,-0.9997927850158934,-0.3529431223869324,-0.01948603428900242,0.09535688161849976,1.6045511960983276,-0.42100510001182556,6.424609661102295,-0.08678531646728516,0.02155303955078125,-0.135233074426651,-1.2356228828430176,0.005531395319849253,-0.9493018984794617,0.44499123096466064,1.2688112258911133,0.009727626107633114,0.9283207654953003,-0.03147173300385475,-0.3763256371021271,0.032616160809993744,0.0875486359000206,0.7589455842971802,-0.49535465240478516,0.0046945963986217976,-0.88979172706604,0.016594186425209045,-0.07267109304666519,1.2472343444824219,-0.42892083525657654,0.006958347745239735,-0.06514055281877518,0.031576965004205704,-1.8286203145980835,0.028989873826503754,0.012956771068274975,-0.6765182614326477,3.1199898719787598,-0.08554237335920334,-0.0208183154463768,-0.5442258715629578,0.20651882886886597,2.2162320613861084,0.08275821805000305,-0.1295175403356552,-1.1766902208328247,-1.2628320455551147,-0.08640804141759872,-0.8175968527793884,-0.991080105304718,-0.8325773477554321,-5.796000003814697,1.1159852743148804,0.08999312669038773,1741530610.7066844,1741530610548,0.7859926147460937,1.3460427246093751,2.9744308811648033,-5.4666689453125,2.194845703125
1741530610.684498,3.018731474876404,0.011818945902252406,-0.010974034065516195,-0.9998699330883435,-0.21620802581310272,-0.024960581213235855,-0.017559818923473358,-1.5032148361206055,0.7285463213920593,8.593017578125,-0.08716678619384766,0.02384185791015625,-0.14820325374603271,-1.2356228828430176,0.005531395319849253,-0.961509108543396,0.47589075565338135,1.2665224075317383,0.009727626107633114,0.9214541912078857,-0.012397955171763897,-0.33627068996429443,0.02880140393972397,0.07686731964349747,0.7345311641693115,-0.5157817602157593,0.0012369072064757347,-0.8882657885551453,-0.011635004542768002,-0.09288929402828217,1.118677020072937,-0.3894355893135071,0.00887260027229786,-0.008961156010627747,0.10052934288978577,-0.39169055223464966,-0.008721604943275452,-0.01023854035884142,-0.582382082939148,1.9454827308654785,-0.1671438217163086,-0.008254366926848888,-0.41942885518074036,1.1039215326309204,2.0302889347076416,-0.25695061683654785,-0.6662022471427917,-1.0977818965911865,-0.9560871720314026,-0.19356176257133484,0.27848246693611145,-1.3797152042388916,-1.078192949295044,-6.362884998321533,1.9812521934509277,0.02609746903181076,1741530610.7066844,1741530610548,0.7859926147460937,1.3460427246093751,2.9744308811648033,-5.4666689453125,2.194845703125
1741530610.7045028,3.013343930244446,0.0171957183122114,-0.01070175160314443,-0.999794868852782,0.054900169372558594,0.2917070984840393,-0.27442166209220886,3.5712339878082275,-3.2100343704223633,1.0263793468475342,-0.08792972564697266,0.01087188720703125,-0.1356145590543747,-1.235241413116455,0.005531395319849253,-0.9699015617370605,0.4842832088470459,1.2596558332443237,0.009727626107633114,0.9180209040641785,0.01583123579621315,-0.2927824854850769,0.013923857361078262,0.06198977679014206,0.7192721366882324,-0.524856686592102,0.00042052502976730466,-0.8646143078804016,-0.038719769567251205,-0.12264438718557358,0.9771496057510376,-0.35217607021331787,0.00041132792830467224,-0.039696164429187775,-0.32727980613708496,0.791104257106781,0.0034098320174962282,-0.01288537122309208,-0.37978363037109375,0.3548719584941864,-0.5210852026939392,0.0056091719307005405,-0.20411072671413422,1.403464674949646,2.2469594478607178,-0.852687418460846,-0.7615545988082886,-0.7349135279655457,-0.35115864872932434,0.005520430859178305,1.109864592552185,-1.312302589416504,-1.7381579875946045,-7.284674644470215,1.7743685245513916,-0.5117445588111877,1741530610.7066844,1741530610548,0.7859926147460937,1.3460427246093751,2.9744308811648033,-5.4666689453125,2.194845703125
1741530610.724549,3.0067179203033447,0.018068239328279615,-0.014550817606461784,-0.9997308700018018,0.2242581993341446,0.010693611577153206,-0.3182120621204376,0.8089534044265747,0.08493852615356445,4.017431259155273,-0.08716678619384766,0.00629425048828125,-0.09899290651082993,-1.235241413116455,0.005149920005351305,-0.9729533791542053,0.4797055125236511,1.2497375011444092,0.009727626107633114,0.9149690866470337,0.034142062067985535,-0.2481498420238495,-0.011635004542768002,0.05970092490315437,0.7112611532211304,-0.5182849764823914,0.00555571960285306,-0.840962827205658,-0.06733043491840363,-0.14591439068317413,0.8314259648323059,-0.3382314145565033,-0.009591000154614449,0.00705263577401638,-0.10416994243860245,2.000981569290161,0.0043890574015676975,-0.027110572904348373,-0.14409920573234558,-0.43156373500823975,-0.6438183188438416,-0.006323084235191345,-0.20379523932933807,0.8308936357498169,2.3222928047180176,-1.159490704536438,0.14772017300128937,-0.17460240423679352,0.4903300404548645,0.3231778144836426,1.4448904991149902,-1.4956306219100952,-1.0065730810165405,-7.164653778076172,0.4288980960845947,-0.40114644169807434,1741530610.7066844,1741530610548,0.7859926147460937,1.3460427246093751,2.9744308811648033,-5.4666689453125,2.194845703125
1741530610.744578,3.000474214553833,0.01563890411884077,-0.026417865283774,-0.9995286494502347,0.7034599781036377,-0.19764192402362823,-0.26681599020957947,-9.748296737670898,5.425999641418457,13.44133472442627,-0.08449649810791016,0.00667572021484375,-0.04558632895350456,-1.236767292022705,0.005531395319849253,-0.9733348488807678,0.45796138048171997,1.2421079874038696,0.009727626107633114,0.9145876169204712,0.031090257689356804,-0.212672621011734,-0.02536812424659729,0.06809338182210922,0.7352941036224365,-0.5037327408790588,0.021990813314914703,-0.810826301574707,-0.08106355369091034,-0.14744029939174652,0.7192721366882324,-0.347232848405838,-0.009209709241986275,0.056751009076833725,0.047964632511138916,2.7581679821014404,-0.17288018763065338,-0.0017885228153318167,0.0038715703412890434,-1.5242856740951538,-0.5088515877723694,-0.0013830703683197498,-0.0026408748235553503,-0.27023443579673767,1.5844334363937378,-0.5465243458747864,0.3958306610584259,1.6052120923995972,0.6893771886825562,0.6694756150245667,1.2222676277160645,-0.5625705122947693,0.07542148977518082,-4.928918361663818,-0.2885241210460663,0.014332103542983532,1741530610.7066844,1741530610548,0.7859926147460937,1.3460427246093751,2.9744308811648033,-5.4666689453125,2.194845703125
1741530610.7646174,2.994580864906311,0.009487392539745924,-0.04263005994740189,-0.9990458785119319,0.7179571986198425,-0.16767068207263947,-0.37705373764038086,-6.791213035583496,-18.140485763549805,6.905549049377441,-0.07953739166259766,0.01506805419921875,0.021171892061829567,-1.2489745616912842,0.005149920005351305,-0.9725719094276428,0.42591744661331177,1.233715534210205,0.009727626107633114,0.9107728600502014,0.013160906732082367,-0.20847637951374054,-0.02040894143283367,0.07457847148180008,0.8234149813652039,-0.4864545166492462,0.0330682210624218,-0.7841230034828186,-0.06046387553215027,-0.11577782779932022,0.7749675512313843,-0.33389556407928467,-0.021351296454668045,0.14185038208961487,0.36648714542388916,3.5072076320648193,-0.9462257027626038,-0.05444156378507614,0.020944567397236824,-2.4130544662475586,-0.5870856642723083,0.018288368359208107,-0.2885323464870453,-1.1127604246139526,-0.08632829785346985,0.0044146268628537655,0.2734234035015106,4.829836845397949,1.034848928451538,0.6007118225097656,1.6323562860488892,1.3415305614471436,2.0285611152648926,3.2467072010040283,0.4550079107284546,-0.6926661133766174,1741530610.7066844,1741530610548,0.7859926147460937,1.3460427246093751,2.9744308811648033,-5.4666689453125,2.194845703125
1741530610.7846143,2.9930704832077026,0.008744064115470426,-0.0489365808725378,-0.9987636118698209,0.337798148393631,-0.23181717097759247,-0.0304963868111372,-8.656302452087402,1.9956715106964111,8.13498306274414,-0.08564090728759766,0.02460479736328125,0.09479667246341705,-1.2520263195037842,0.005912871100008488,-0.970283031463623,0.36259251832962036,1.230282187461853,0.010109102353453636,0.9107728600502014,-0.012397955171763897,-0.2603570520877838,-0.032616160809993744,0.06809338182210922,0.9626535177230835,-0.44628363847732544,0.04107547178864479,-0.7848859429359436,-0.04329747334122658,-0.061226826161146164,0.8089188933372498,-0.343240886926651,-0.020213128998875618,-0.09280931204557419,0.4011148512363434,3.682366371154785,-0.03874100372195244,0.008021543733775616,0.14475548267364502,-4.496427059173584,-0.09259430319070816,0.04718371853232384,0.05238945782184601,-1.1565437316894531,-3.0842912197113037,-0.43587052822113037,-0.800722599029541,7.165184497833252,2.1038763523101807,0.3567349314689636,0.23194359242916107,0.8900591731071472,2.673922061920166,1.01554536819458,-0.5380529165267944,0.2441246658563614,1741530610.8159533,1741530610648,0.6840889892578125,1.3641070556640624,2.961516093485229,-5.46540625,2.196055419921875
1741530610.804609,2.999756097793579,0.010085993798497641,-0.05030205624889441,-0.9986831208477641,-0.07513535022735596,0.13701684772968292,0.38185742497444153,-0.38477012515068054,-3.5976455211639404,12.007413864135742,-0.07572269439697266,0.02002716064453125,0.1657511293888092,-1.2543151378631592,0.005912871100008488,-0.9668498039245605,0.2805752754211426,1.2321895360946655,0.008964675478637218,0.9122987985610962,-0.021553369238972664,-0.34847790002822876,-0.04596780240535736,0.038719769567251205,1.1377508640289307,-0.4029345214366913,0.03720453009009361,-0.7528420090675354,-0.02231631986796856,-0.03452353551983833,0.8211261034011841,-0.3425126075744629,-0.016006920486688614,0.26145118474960327,-0.12418332695960999,3.513840436935425,-0.27379369735717773,0.036272741854190826,0.2041643112897873,-5.558346271514893,0.18576815724372864,-0.09071936458349228,0.03631043806672096,-0.4598412811756134,-4.591914653778076,-0.8459169268608093,-1.4156798124313354,8.840058326721191,1.9716018438339233,-0.6399627327919006,1.6782526969909668,0.7393890023231506,1.1622586250305176,0.8756318092346191,0.07793905586004257,0.10416505485773087,1741530610.8159533,1741530610648,0.6840889892578125,1.3641070556640624,2.961516093485229,-5.46540625,2.196055419921875
1741530610.824646,3.0169243812561035,0.004589275645490026,-0.04484822483321388,-0.998983270770016,-0.19730918109416962,-0.3332541286945343,0.8809282183647156,2.825817584991455,2.6353113651275635,9.419295310974121,-0.08525943756103516,0.034523963928222656,0.2302204966545105,-1.2562226057052612,0.005912871100008488,-0.9584572911262512,0.20504310727119446,1.2405821084976196,0.010109102353453636,0.9134432077407837,-0.02689402550458908,-0.4503318965435028,-0.06809338182210922,0.02841992862522602,1.2911039590835571,-0.38877665996551514,0.0007083158125169575,-0.7219424843788147,-0.025749599561095238,-0.02994582988321781,0.8310444951057434,-0.3442966938018799,-0.012548412196338177,-0.25394025444984436,0.2988099753856659,3.156860113143921,-0.14940203726291656,-0.014055711217224598,0.48620525002479553,-4.873682498931885,0.4539526104927063,0.04103556275367737,0.07604097574949265,-0.17358887195587158,-4.988736629486084,-1.0082776546478271,-0.25281041860580444,7.346310138702393,0.2918655574321747,-1.514402985572815,1.6546231508255005,-0.24666695296764374,0.14268919825553894,0.3229099214076996,-0.12546715140342712,0.3192010223865509,1741530610.8159533,1741530610648,0.6840889892578125,1.3641070556640624,2.961516093485229,-5.46540625,2.196055419921875
1741530610.8446445,3.0342323780059814,-0.004194833608529533,-0.04125995026143997,-0.9991396398278973,-0.187261164188385,-0.43133315443992615,0.888049840927124,-1.7094581127166748,1.029890775680542,12.163009643554688,-0.06923770904541016,0.039864540100097656,0.2931639552116394,-1.2569855451583862,0.005531395319849253,-0.9477760195732117,0.1337071806192398,1.2409635782241821,0.009346150793135166,0.9153505563735962,-0.030708782374858856,-0.5460822582244873,-0.06542305648326874,0.04596780240535736,1.3902876377105713,-0.4196872115135193,0.006966619752347469,-0.6750209927558899,-0.038719769567251205,-0.031090257689356804,0.8291370868682861,-0.3470691740512848,-0.005511531140655279,0.41520577669143677,0.06759036332368851,3.242380380630493,-0.033736616373062134,-0.02350115217268467,0.5824618339538574,-4.740157604217529,-0.021355099976062775,-0.033371102064847946,0.12269856780767441,-0.27649202942848206,-4.614588737487793,0.3650585412979126,1.0486263036727905,4.461479663848877,-1.7774624824523926,0.4693770408630371,2.3729751110076904,-0.653027355670929,-0.01373380422592163,-0.12503878772258759,-0.10826557129621506,0.2920447885990143,1741530610.8159533,1741530610648,0.6840889892578125,1.3641070556640624,2.961516093485229,-5.46540625,2.196055419921875
1741530610.8646853,3.054752826690674,-0.01570124664700287,-0.03984812403136156,-0.9990823779173124,-0.01570902019739151,-0.5349170565605164,1.0082391500473022,0.6639167666435242,4.393474578857422,10.282931327819824,-0.07038211822509766,0.041771888732910156,0.3534370958805084,-1.2569855451583862,0.005531395319849253,-0.9367132186889648,0.06923781335353851,1.2402005195617676,0.009346150793135166,0.916876494884491,-0.03643091395497322,-0.6258106231689453,-0.05893797054886818,0.08144503086805344,1.421950101852417,-0.4667845666408539,0.004729919601231813,-0.6296253800392151,-0.04291599988937378,-0.030708782374858856,0.8207446336746216,-0.3542947769165039,-0.003513952950015664,0.008041701279580593,0.06766502559185028,2.9597294330596924,-0.00473905261605978,-0.002147251507267356,0.5323769450187683,-4.108033657073975,-0.04703225567936897,0.008891240693628788,0.09221308678388596,-0.15166009962558746,-3.8567955493927,0.46900075674057007,2.168797254562378,1.0871492624282837,-2.3909451961517334,-0.26632028818130493,2.2813053131103516,-0.3595147430896759,0.017148520797491074,-0.47300493717193604,-0.4804154336452484,0.15390418469905853,1741530610.8159533,1741530610648,0.6840889892578125,1.3641070556640624,2.961516093485229,-5.46540625,2.196055419921875
1741530610.8847895,3.067025661468506,-0.023216323992720347,-0.04220310702789342,-0.9988392763890782,0.14407920837402344,-0.31548017263412476,0.5423845052719116,2.025620698928833,2.7840170860290527,9.839411735534668,-0.06580448150634766,0.03032684326171875,0.4037918746471405,-1.2588928937911987,0.005149920005351305,-0.9302281141281128,0.016212711110711098,1.238293170928955,0.009727626107633114,0.917639434337616,-0.03643091395497322,-0.6906614899635315,-0.05130846053361893,0.11501488089561462,1.3914320468902588,-0.5066498517990112,-0.006809533108025789,-0.5907148718833923,-0.04749370738863945,-0.03147173300385475,0.8089188933372498,-0.3710303008556366,0.009761777706444263,0.1352534294128418,-0.3252396285533905,2.4381725788116455,-0.11321378499269485,-0.01780400238931179,0.2948264479637146,-3.3749465942382812,-0.14899232983589172,0.0343192033469677,0.04404537379741669,0.13410186767578125,-3.136688470840454,0.43473386764526367,1.5171152353286743,-1.9618098735809326,-1.773000955581665,-0.5910813212394714,1.694806456565857,-0.33557388186454773,-0.03396734595298767,-0.5976102352142334,-0.8355438113212585,0.6946806907653809,1741530610.9152622,1741530610748,0.5830484619140626,1.39433203125,2.960053244884304,-5.4661367187500005,2.195815185546875
