Freshhhhh-LC/Legged_odom/data/7/segments/booster_seg_9.32s.csv
time,yaw,projected_gravity_x,projected_gravity_y,projected_gravity_z,ang_vel_x,ang_vel_y,ang_vel_z,lin_acc_x,lin_acc_y,lin_acc_z,q_0,q_1,q_2,q_3,q_4,q_5,q_6,q_7,q_8,q_9,q_10,q_11,q_12,q_13,q_14,q_15,q_16,q_17,q_18,q_19,q_20,q_21,q_22,dq_0,dq_1,dq_2,dq_3,dq_4,dq_5,dq_6,dq_7,dq_8,dq_9,dq_10,dq_11,dq_12,dq_13,dq_14,dq_15,dq_16,dq_17,dq_18,dq_19,dq_20,dq_21,dq_22,mocap_time,mocap_timestamp,robot_x,robot_y,robot_yaw,ball_x,ball_y
1741530212.889726,-0.5257796049118042,0.04703015258074675,-0.04357027232649803,-0.9979427819858344,-0.5276193618774414,-0.753751277923584,0.3503010869026184,-3.8646459579467773,-3.1240646839141846,7.213015079498291,0.02994537353515625,0.057412147521972656,0.47512778639793396,-1.2520263195037842,0.005531395319849253,-0.9107728600502014,-0.03337911143898964,1.228756308555603,0.009346150793135166,0.9626535177230835,-0.03185320645570755,-0.8619440197944641,0.048256658017635345,0.19207294285297394,0.7093538045883179,-0.3297266960144043,0.011836058460175991,-0.2153429538011551,0.023079270496964455,-0.06237125024199486,0.7791637778282166,-0.5396676063537598,-0.03618672490119934,0.05290307477116585,0.1780833601951599,-1.4340230226516724,0.07578481733798981,-0.015846621245145798,-0.15498319268226624,2.5835766792297363,-0.0021235940512269735,0.017195411026477814,-0.1610972285270691,-0.5780539512634277,2.852527618408203,1.2472628355026245,0.7316004633903503,-4.74152135848999,-1.677966594696045,0.18632987141609192,1.9747295379638672,1.1048766374588013,0.22021348774433136,1.9329463243484497,0.4355714023113251,-0.7637633085250854,1741530212.875274,1741530212748,2.68015869140625,-2.72043505859375,1.3510799018262998,5.04455322265625,-0.803601318359375
1741530212.8917334,-0.5201958417892456,0.03154973451843344,-0.02604984450810503,-0.9991626593567835,-0.8834190368652344,-0.8374381065368652,0.2525123953819275,-26.242809295654297,22.288116455078125,17.82463264465332,0.02689361572265625,0.052071571350097656,0.4335469603538513,-1.2478300333023071,0.005912871100008488,-0.9115357995033264,0.01201647985726595,1.2291377782821655,0.008964675478637218,0.9588387608528137,-0.034142062067985535,-0.8218890428543091,0.04596780240535736,0.17299915850162506,0.7158388495445251,-0.31908562779426575,0.03653227910399437,-0.212672621011734,0.016594186425209045,-0.05245288833975792,0.8779659867286682,-0.5204320549964905,-0.05033837631344795,-0.09505462646484375,-0.18963205814361572,-2.187779664993286,0.3516554534435272,0.028151361271739006,0.10111536085605621,2.9699952602386475,0.07448112219572067,0.012148313224315643,-0.2805179953575134,0.105939581990242,1.8072913885116577,-0.49465084075927734,-1.0850238800048828,2.167937994003296,1.0492374897003174,1.4244933128356934,-0.3420821726322174,-0.5930889844894409,0.6657366752624512,5.48016881942749,1.0731194019317627,-0.6473310589790344,1741530212.875274,1741530212748,2.68015869140625,-2.72043505859375,1.3510799018262998,5.04455322265625,-0.803601318359375
1741530212.8988643,0.4535601735115051,0.017621497298065055,-0.03216617085214545,-0.9993271838020243,0.34569424390792847,-0.21069684624671936,0.8938065767288208,-2.477309226989746,1.554880142211914,10.750591278076172,0.3244447708129883,0.19245433807373047,0.21953918039798737,-1.3252695798873901,0.005531395319849253,-0.7196536064147949,0.22755016386508942,1.2867405414581299,0.008964675478637218,0.7040131092071533,-0.28324559330940247,-0.5754558444023132,0.06084534898400307,0.32978561520576477,0.9508277773857117,-0.40987515449523926,-0.0027064841706305742,-0.6403067111968994,0.06198977679014206,0.248531311750412,0.7158388495445251,-0.18518711626529694,0.03469216451048851,-0.7203765511512756,-0.3870030343532562,2.217740535736084,0.16935469210147858,-0.02182071842253208,-0.7472264170646667,-1.8400511741638184,-0.615016520023346,-0.06224348023533821,1.0698535442352295,0.253071129322052,-1.7501721382141113,0.9622224569320679,2.2662549018859863,3.966599702835083,-1.2621314525604248,-0.900861918926239,0.9352701306343079,-0.3092280328273773,0.922899067401886,0.1688724160194397,0.8377079367637634,-0.2637300193309784,1741530212.875274,1741530212748,2.68015869140625,-2.72043505859375,1.3510799018262998,5.04455322265625,-0.803601318359375
1741530212.9189084,0.47646212577819824,0.012883857122492133,-0.03816659731773187,-0.9991883291326181,0.2751331031322479,-0.18959249556064606,1.2351646423339844,-2.2571158409118652,-0.012252443470060825,12.515047073364258,0.3274965286254883,0.18253612518310547,0.2504386901855469,-1.3241251707077026,0.005531395319849253,-0.733386754989624,0.20160982012748718,1.2802555561065674,0.009346150793135166,0.7158388495445251,-0.28629741072654724,-0.6170367002487183,0.08525978773832321,0.361066609621048,1.050774335861206,-0.43299904465675354,-0.0019013774581253529,-0.6284809708595276,0.04711223021149635,0.23785001039505005,0.7166017889976501,-0.18181106448173523,0.03777003288269043,-0.0001846139202825725,-0.2647007405757904,1.4207124710083008,0.006855572108179331,-0.002760565374046564,-0.6433617472648621,-1.7460265159606934,-0.441290944814682,0.020217999815940857,0.749056875705719,-0.22342664003372192,-2.0693602561950684,1.2027225494384766,1.3062561750411987,4.9612579345703125,-1.086303949356079,0.3575771749019623,0.546251118183136,-0.7123956084251404,-0.7859591841697693,0.06471693515777588,0.01609344221651554,0.15042956173419952,1741530212.875274,1741530212748,2.68015869140625,-2.72043505859375,1.3510799018262998,5.04455322265625,-0.803601318359375
1741530212.938933,0.504280686378479,0.011164669819350126,-0.03639947126095883,-0.99927495147219,-0.1543361246585846,-0.02205016277730465,1.4024872779846191,-3.4390103816986084,4.672642230987549,13.312142372131348,0.3118562698364258,0.16536998748779297,0.27141985297203064,-1.3203104734420776,0.005531395319849253,-0.7444495558738708,0.17261768877506256,1.2745333909988403,0.009346150793135166,0.724612832069397,-0.28591591119766235,-0.6651026010513306,0.10852979123592377,0.3717479109764099,1.128213882446289,-0.44238948822021484,0.0013522484805434942,-0.6189440488815308,0.021171892061829567,0.22640573978424072,0.7185091972351074,-0.19392351806163788,0.048872336745262146,-0.414487361907959,-0.5093672871589661,0.9964212775230408,0.3109166622161865,-0.012168838642537594,-0.5454280376434326,-2.025940179824829,-0.3755512237548828,-0.00693556759506464,0.5247355103492737,0.12900052964687347,-2.32739520072937,1.0172113180160522,0.3815867602825165,3.630439281463623,-0.338691771030426,-0.016999199986457825,0.530163586139679,-1.2122739553451538,-0.45836520195007324,0.10159696638584137,-0.7036638259887695,0.6931787133216858,1741530212.9786167,1741530212848,2.7384013671875,-2.734133056640625,0.4322141795967183,5.0598271484375,-0.6552852172851563
1741530212.958972,0.5292521715164185,0.011816781659735947,-0.03397224035002181,-0.9993529159194997,-0.13575102388858795,0.07183875143527985,1.138872742652893,0.5735079050064087,2.4215502738952637,9.578864097595215,0.3068971633911133,0.15392494201660156,0.28934919834136963,-1.3168771266937256,0.005531395319849253,-0.7543678879737854,0.14095520973205566,1.2676668167114258,0.008964675478637218,0.7352941036224365,-0.28706035017967224,-0.699053943157196,0.12226291000843048,0.36602577567100525,1.1644541025161743,-0.4392828941345215,-0.004170019645243883,-0.5991073250770569,0.004005493130534887,0.2161058932542801,0.7150759100914001,-0.21532031893730164,0.06829459965229034,-0.14014190435409546,-0.33369046449661255,0.8499814867973328,0.16765770316123962,0.0009331252076663077,-0.5221737623214722,-2.1206891536712646,-0.5526636242866516,-0.016444817185401917,0.6565771698951721,-0.1502278596162796,-1.54375159740448,0.5738585591316223,-0.41999050974845886,1.3805311918258667,0.2093861997127533,-0.17635047435760498,0.971030056476593,-0.9230813980102539,-0.4267176687717438,-0.20513813197612762,-1.078960657119751,0.9141075611114502,1741530212.9786167,1741530212848,2.7384013671875,-2.734133056640625,0.4322141795967183,5.0598271484375,-0.6552852172851563
1741530212.978961,0.5451616644859314,0.009904290665581536,-0.03168353073111785,-0.9994488775854531,-0.12323140352964401,-0.07511646300554276,0.7129044532775879,0.9350762963294983,0.8912637829780579,8.846445083618164,0.3027009963989258,0.14667701721191406,0.3072785437107086,-1.3153512477874756,0.005531395319849253,-0.7646677494049072,0.10967422276735306,1.2611817121505737,0.009346150793135166,0.7482643127441406,-0.28439003229141235,-0.7124055624008179,0.1340886503458023,0.3583962619304657,1.1560616493225098,-0.42840027809143066,-0.001969418954104185,-0.5830853581428528,-0.016975661739706993,0.21114671230316162,0.7085908055305481,-0.2355431467294693,0.08122195303440094,-0.1259973645210266,-0.19946789741516113,0.9561410546302795,0.062189530581235886,-0.01637221872806549,-0.5516359806060791,-2.1645233631134033,-0.4034779369831085,0.00885242223739624,0.8778241276741028,0.136516734957695,-0.48013588786125183,0.6001495122909546,-0.331428587436676,-0.6442945003509521,0.5992398262023926,0.15707339346408844,0.7451839447021484,-0.9908763766288757,-0.26554739475250244,-0.3122430443763733,-0.9496760368347168,0.7260631322860718,1741530212.9786167,1741530212848,2.7384013671875,-2.734133056640625,0.4322141795967183,5.0598271484375,-0.6552852172851563
1741530212.9990108,0.5536876320838928,0.006000649493293308,-0.0300464542449498,-0.999530491177215,-0.06886733323335648,-0.20193691551685333,0.4075683355331421,0.3997373878955841,1.7266920804977417,8.11051082611084,0.2939271926879883,0.14209938049316406,0.3282597064971924,-1.312680959701538,0.005531395319849253,-0.7776378989219666,0.08068207651376724,1.2554595470428467,0.008964675478637218,0.7650492191314697,-0.28667888045310974,-0.7120240926742554,0.14820325374603271,0.3557259440422058,1.1167696714401245,-0.41363653540611267,-0.0027584864292293787,-0.5621042251586914,-0.03490501269698143,0.20466163754463196,0.7017242908477783,-0.25206458568573,0.08869089931249619,-0.2535886764526367,-0.11397899687290192,1.0319290161132812,0.21413949131965637,-0.005286628846079111,-0.6595879793167114,-1.8677332401275635,-0.34838271141052246,-0.013947847299277782,1.1551998853683472,-0.15148355066776276,0.09121512621641159,0.7734009027481079,-0.11392109096050262,-2.140441656112671,0.773571789264679,-0.09964131563901901,1.1685079336166382,-0.9809795022010803,-0.28724536299705505,-0.36985838413238525,-0.8341258764266968,0.3374737501144409,1741530212.9786167,1741530212848,2.7384013671875,-2.734133056640625,0.4322141795967183,5.0598271484375,-0.6552852172851563
1741530213.0189974,0.5615537166595459,0.002614879329066767,-0.030099849421819515,-0.9995434765285991,0.009309506975114346,-0.14668576419353485,0.40297913551330566,0.9084576964378357,1.9017670154571533,7.739243984222412,0.2859163284301758,0.14095497131347656,0.34885939955711365,-1.311155080795288,0.005531395319849253,-0.7932783961296082,0.05397878959774971,1.2539336681365967,0.009346150793135166,0.7887006998062134,-0.2950713336467743,-0.6967650651931763,0.1680399775505066,0.3542000353336334,1.0568779706954956,-0.397493451833725,-0.0016876053996384144,-0.54112309217453,-0.05092698708176613,0.20160982012748718,0.6956206560134888,-0.26636946201324463,0.09712658077478409,-0.2523539364337921,-0.03265310823917389,0.9953792691230774,0.09456506371498108,-0.009086803533136845,-0.7761434316635132,-1.7254587411880493,-0.0619935542345047,0.013954841531813145,1.6433117389678955,-0.5214232206344604,0.8977263569831848,0.9685032367706299,-0.05635334178805351,-3.1494510173797607,0.7885574102401733,0.05982089042663574,0.9081912040710449,-0.8016626238822937,-0.07480023056268692,-0.2665267586708069,-0.6942498683929443,0.5070313811302185,1741530212.9786167,1741530212848,2.7384013671875,-2.734133056640625,0.4322141795967183,5.0598271484375,-0.6552852172851563
1741530213.0390494,0.5732553601264954,-0.0004274942199876184,-0.029948547574936618,-0.9995513502301138,-0.015606202185153961,-0.14581888914108276,0.654985249042511,0.20440639555454254,2.273560047149658,7.131371021270752,0.2706565856933594,0.13752174377441406,0.3599221706390381,-1.3065773248672485,0.005531395319849253,-0.8119707107543945,0.030708782374858856,1.2539336681365967,0.009346150793135166,0.8173113465309143,-0.31643396615982056,-0.6708247661590576,0.18749523162841797,0.3599221706390381,0.9733348488807678,-0.3829176127910614,0.0010034554870799184,-0.535400927066803,-0.059319447726011276,0.20122835040092468,0.6914244294166565,-0.280629426240921,0.10792801529169083,-0.4575774073600769,-0.08450103551149368,0.4350401759147644,0.33541297912597656,0.0016282412689179182,-0.9751607775688171,-1.4488424062728882,-0.027242310345172882,0.018239013850688934,1.9926401376724243,-1.1904186010360718,1.3325740098953247,0.9878390431404114,0.39397090673446655,-4.282912254333496,0.697888195514679,0.14694222807884216,0.3690187335014343,-0.41798120737075806,0.0005986207979731262,-0.17385505139827728,-0.736209511756897,0.57819002866745,1741530212.9786167,1741530212848,2.7384013671875,-2.734133056640625,0.4322141795967183,5.0598271484375,-0.6552852172851563
1741530213.0590386,0.5918483138084412,-0.0015420757408763372,-0.028758796960476177,-0.9995851907665476,-0.09101780503988266,0.0009113676496781409,0.9819797873497009,2.2975263595581055,-1.0024980306625366,7.387683868408203,0.2607383728027344,0.13179969787597656,0.3580147922039032,-1.3008551597595215,0.005531395319849253,-0.8333333134651184,0.021553369238972664,1.2505004405975342,0.008964675478637218,0.8470664620399475,-0.34542611241340637,-0.6334401369094849,0.1962691694498062,0.37861448526382446,0.8691920638084412,-0.37734127044677734,0.0027609237004071474,-0.5197604298591614,-0.06504157930612564,0.20160982012748718,0.692568838596344,-0.29515618085861206,0.11247219890356064,-0.30604496598243713,-0.14708209037780762,-0.18183553218841553,0.39188244938850403,-0.0056855445727705956,-1.0907434225082397,-0.44047099351882935,-0.3314947187900543,-0.015075515024363995,1.9953681230545044,-1.4290956258773804,1.9041457176208496,0.2584052085876465,1.1074780225753784,-5.333364009857178,0.19562262296676636,0.10325627774000168,0.7157620787620544,-0.34871232509613037,0.013409600593149662,0.035819169133901596,-0.7148986458778381,0.23836340010166168,1741530212.9786167,1741530212848,2.7384013671875,-2.734133056640625,0.4322141795967183,5.0598271484375,-0.6552852172851563
1741530213.0790987,0.6163682341575623,-0.0009316581234180792,-0.022510844898410067,-0.999746164721376,-0.3183809518814087,0.08720981329679489,1.2579319477081299,4.035798072814941,-5.808785438537598,15.022788047790527,0.24547958374023438,0.11806678771972656,0.3442816734313965,-1.290173888206482,0.005531395319849253,-0.8573662638664246,0.02689402550458908,1.2432523965835571,0.008964675478637218,0.8737697601318359,-0.36755168437957764,-0.5945296287536621,0.20084688067436218,0.39654383063316345,0.7574197053909302,-0.38122978806495667,0.006553336046636105,-0.5086976289749146,-0.06427863240242004,0.200083926320076,0.6979095339775085,-0.3075063228607178,0.11566174030303955,-0.46598342061042786,-0.34564679861068726,-0.7446176409721375,0.7028890252113342,-4.892579454462975e-06,-1.2117173671722412,0.49086692929267883,-0.49559909105300903,0.008587375283241272,1.7078766822814941,-0.9802228212356567,1.863547921180725,0.4876057207584381,0.8444376587867737,-5.318272590637207,-0.03963629528880119,0.16712285578250885,0.4847910702228546,0.0077499584294855595,-0.09904032200574875,0.3541305959224701,-0.6109542846679688,0.20943167805671692,1741530212.9786167,1741530212848,2.7384013671875,-2.734133056640625,0.4322141795967183,5.0598271484375,-0.6552852172851563
1741530213.0990932,0.6471748352050781,-0.000874377966735763,-0.017826781330004763,-0.9998407079783176,-0.11930391192436218,0.11936497688293457,1.5966941118240356,5.447774887084961,-1.283381700515747,7.799450874328613,0.23441696166992188,0.11539649963378906,0.3244449496269226,-1.2821629047393799,0.005912871100008488,-0.8756771087646484,0.04482337832450867,1.2371487617492676,0.008964675478637218,0.8955138325691223,-0.38204777240753174,-0.5609598159790039,0.19245441257953644,0.41409170627593994,0.7459754347801208,-0.3707677125930786,0.022819261997938156,-0.4869535267353058,-0.07877469807863235,0.20923933386802673,0.7143129706382751,-0.3225131332874298,0.104557104408741,-0.36624035239219666,-0.04197133332490921,-1.100682258605957,0.34818899631500244,0.024421432986855507,-0.9174292087554932,1.3721444606781006,-0.37692996859550476,0.00026864121900871396,1.438103199005127,-0.6741083860397339,1.4973523616790771,-0.9642331600189209,0.6029245853424072,-0.29536792635917664,0.19719357788562775,0.9311456680297852,1.3702696561813354,-0.5437265634536743,0.7533347606658936,0.7295545339584351,-0.8663240671157837,-0.9984871745109558,1741530212.9786167,1741530212848,2.7384013671875,-2.734133056640625,0.4322141795967183,5.0598271484375,-0.6552852172851563
1741530213.12258,0.6802577972412109,-0.002703307862036097,-0.0174379428040029,-0.9998442930163514,-0.019447490572929382,-0.13491271436214447,1.617823600769043,2.294694185256958,-1.5861847400665283,11.549826622009277,0.23289108276367188,0.12493324279785156,0.28667888045310974,-1.2772036790847778,0.005531395319849253,-0.8955138325691223,0.07495994865894318,1.2306636571884155,0.008964675478637218,0.9142061471939087,-0.3770885765552521,-0.5518043637275696,0.16155488789081573,0.39616236090660095,0.7330052852630615,-0.381604939699173,0.03292021527886391,-0.45643550157546997,-0.05893797054886818,0.24929426610469818,0.7238498330116272,-0.3480067551136017,0.048269446939229965,-0.09703420102596283,0.31889161467552185,-2.0181641578674316,0.4632955491542816,0.0014494862407445908,-1.0075896978378296,2.08162784576416,-0.44723784923553467,0.007856043986976147,1.1736323833465576,0.2721923291683197,0.45130211114883423,-1.3792150020599365,-0.937613308429718,-0.6529730558395386,-0.5286023020744324,0.45752254128456116,1.4149839878082275,1.0683410167694092,2.35866117477417,0.4337781071662903,-1.2881431579589844,-2.8114027976989746,1741530212.9786167,1741530212848,2.7384013671875,-2.734133056640625,0.4322141795967183,5.0598271484375,-0.6552852172851563
1741530213.1391337,0.7073007225990295,-0.00472414133342376,-0.01599393606188508,-0.9998609285785249,-0.09174786508083344,-0.015223443508148193,1.3748779296875,-2.3644356727600098,11.509259223937988,4.0887556076049805,0.21496105194091797,0.13294410705566406,0.24090181291103363,-1.2711000442504883,0.005531395319849253,-0.9157320261001587,0.1039520874619484,1.23447847366333,0.010109102353453636,0.9298466444015503,-0.3706035017967224,-0.5132753252983093,0.12874799966812134,0.34657052159309387,0.7238498330116272,-0.39106178283691406,0.043556857854127884,-0.4507133662700653,-0.024986648932099342,0.31452658772468567,0.7742046117782593,-0.37977370619773865,-0.0006504333578050137,-0.5183802247047424,0.31115972995758057,-2.2316625118255615,0.44893455505371094,0.005670508369803429,-0.9899457693099976,1.884230613708496,0.48017069697380066,0.07091192156076431,1.0646891593933105,0.2644845247268677,1.9193124771118164,-2.0076403617858887,-2.270158529281616,-0.3943503201007843,-0.4310842454433441,0.37613916397094727,0.30173611640930176,1.8581089973449707,3.3201234340667725,2.9945905208587646,-1.5521841049194336,-2.3313236236572266,1741530212.9786167,1741530212848,2.7384013671875,-2.734133056640625,0.4322141795967183,5.0598271484375,-0.6552852172851563
1741530213.159166,0.7217685580253601,-0.007959932779216382,-0.01347287832650422,-0.9998775530132424,-0.14702177047729492,-0.2328357696533203,0.6247962713241577,-3.248847007751465,3.765040874481201,9.601595878601074,0.21076488494873047,0.14324378967285156,0.20084688067436218,-1.2634705305099487,0.005149920005351305,-0.9302281141281128,0.13065537810325623,1.2485930919647217,0.010490577667951584,0.9435797929763794,-0.3545815348625183,-0.5056458115577698,0.09098191559314728,0.3217746317386627,0.7055390477180481,-0.3952476680278778,0.04668420925736427,-0.4869535267353058,0.023460745811462402,0.35229265689849854,0.8909361362457275,-0.40660038590431213,-0.0028216184582561255,-0.16009648144245148,0.4525323510169983,-1.9290777444839478,0.578155517578125,-0.025326306000351906,-0.6515739560127258,1.710891842842102,0.8998896479606628,0.008815702050924301,0.8519150018692017,0.8467616438865662,0.41015005111694336,-1.8527427911758423,-1.2382175922393799,-0.8714930415153503,-0.16871803998947144,0.41068241000175476,-2.189305305480957,2.5039899349212646,1.6271933317184448,6.16964054107666,-1.2671364545822144,0.25726374983787537,1741530212.9786167,1741530212848,2.7384013671875,-2.734133056640625,0.4322141795967183,5.0598271484375,-0.6552852172851563
1741530213.1791842,0.7207489609718323,-0.007582781811139958,-0.015154529560807954,-0.999856410517928,0.11090504378080368,0.10317579656839371,-0.12696132063865662,7.966810703277588,-1.3047009706497192,6.062012672424316,0.20923900604248047,0.14171791076660156,0.16308079659938812,-1.2527892589569092,0.005531395319849253,-0.9386205673217773,0.15430685877799988,1.2569855451583862,0.010490577667951584,0.951972246170044,-0.33474478125572205,-0.4827573001384735,0.06313420087099075,0.30231937766075134,0.6994354128837585,-0.3954188823699951,0.045252297073602676,-0.5571450591087341,0.07343403995037079,0.3385595381259918,1.0626001358032227,-0.43166646361351013,0.011193954385817051,-0.06284110993146896,0.003587382845580578,-1.9865477085113525,0.6398226618766785,-0.00768565759062767,-0.39335885643959045,1.6567764282226562,0.4401072859764099,-0.015593329444527626,0.5548449754714966,1.0148173570632935,1.0409184694290161,-1.3731367588043213,-0.9380761981010437,-0.40491509437561035,-0.033243775367736816,-0.10676821321249008,-3.5367259979248047,2.4415693283081055,-1.029545545578003,8.712382316589355,-1.3002586364746094,0.4564637541770935,1741530212.9786167,1741530212848,2.7384013671875,-2.734133056640625,0.4322141795967183,5.0598271484375,-0.6552852172851563
1741530213.2005692,0.7118261456489563,-0.014041692482183597,-0.018326058890607524,-0.999733457696487,0.1706838309764862,-0.3565405309200287,-0.4903566241264343,3.791954517364502,1.7833549976348877,11.769939422607422,0.19703197479248047,0.15506935119628906,0.12302586436271667,-1.2455412149429321,0.005531395319849253,-0.9393835067749023,0.1832990050315857,1.2581299543380737,0.010490577667951584,0.9569314122200012,-0.3107118308544159,-0.4800869822502136,0.040245670825242996,0.28973066806793213,0.6906614899635315,-0.39788299798965454,0.05152840539813042,-0.6601434350013733,0.11768520623445511,0.29888609051704407,1.2338826656341553,-0.45806652307510376,-0.008717107586562634,-0.35769200325012207,0.4094063639640808,-1.949630856513977,0.41377976536750793,-0.028635824099183083,0.00243332888931036,2.0371615886688232,0.07984138280153275,0.0012684781104326248,0.31815671920776367,1.1764535903930664,0.18136292695999146,-1.143025517463684,-0.5463880896568298,-0.28175288438796997,-0.13209618628025055,0.32031840085983276,-5.176845550537109,2.068204641342163,-1.989453673362732,8.431117057800293,-1.2590776681900024,-1.0008023977279663,1741530212.9786167,1741530212848,2.7384013671875,-2.734133056640625,0.4322141795967183,5.0598271484375,-0.6552852172851563
1741530213.2192185,0.7023025751113892,-0.010695740599602679,-0.02550119766831411,-0.9996175718996277,0.33871567249298096,0.2278139889240265,-0.4702332317829132,12.004194259643555,-5.095258712768555,7.8404927253723145,0.18253612518310547,0.14705848693847656,0.08030059933662415,-1.2413450479507446,0.005531395319849253,-0.9374761581420898,0.2161058932542801,1.2573670148849487,0.010109102353453636,0.9596017599105835,-0.2920195460319519,-0.4659723937511444,0.029182879254221916,0.2748531401157379,0.6979095339775085,-0.4018365740776062,0.05222738906741142,-0.7543678879737854,0.1497291475534439,0.25463491678237915,1.3651102781295776,-0.4785694181919098,-0.0005778747145086527,-0.41431093215942383,-0.20973965525627136,-2.236980676651001,0.3278147876262665,-0.004944199230521917,0.04799385741353035,2.316450834274292,-0.09407614171504974,-0.012493339367210865,0.14676210284233093,0.8382958173751831,0.5968638062477112,-0.598760187625885,-0.6481691598892212,0.3267444968223572,-0.2378944605588913,-0.11836767941713333,-4.701361656188965,1.5944762229919434,-2.222557544708252,5.946608543395996,-1.0062907934188843,0.8178873062133789,1741530212.9786167,1741530212848,2.7384013671875,-2.734133056640625,0.4322141795967183,5.0598271484375,-0.6552852172851563
1741530213.2394621,0.6939011216163635,-0.01083138266842062,-0.02648924246590351,-0.9995904167123016,-0.013635218143463135,-0.014767470769584179,-0.37790539860725403,5.932843208312988,-3.2480337619781494,10.397665977478027,0.16842174530029297,0.14896583557128906,0.038719769567251205,-1.2340970039367676,0.005531395319849253,-0.9374761581420898,0.25577935576438904,1.2566040754318237,0.010109102353453636,0.9584572911262512,-0.28362706303596497,-0.4812313914299011,0.018501564860343933,0.272945761680603,0.6979095339775085,-0.4151703119277954,0.058145806193351746,-0.8302815556526184,0.17948424816131592,0.21915769577026367,1.413939118385315,-0.48910877108573914,0.011429700069129467,-0.4138309359550476,0.024690669029951096,-2.0349466800689697,0.44717153906822205,-0.0041822814382612705,-0.0276972446590662,2.706939220428467,0.0158785879611969,0.009937873110175133,-0.09157459437847137,0.5266621708869934,-0.8869577646255493,-0.46427780389785767,-0.0689181461930275,0.03256382420659065,-0.7177165150642395,0.5013147592544556,-3.3178205490112305,1.3548815250396729,-1.566652774810791,1.7162621021270752,-0.43643003702163696,0.27204760909080505,1741530212.9786167,1741530212848,2.7384013671875,-2.734133056640625,0.4322141795967183,5.0598271484375,-0.6552852172851563
1741530213.2592938,0.6992347240447998,-0.003274741317463173,-0.025122472093045353,-0.9996790172176457,-0.06211568042635918,0.4578200876712799,0.3208855986595154,1.9463205337524414,-4.370754718780518,9.09053897857666,0.14286231994628906,0.13408851623535156,0.005149920005351305,-1.2333340644836426,0.005531395319849253,-0.9382390975952148,0.29964902997016907,1.2566040754318237,0.009727626107633114,0.9573128819465637,-0.26989394426345825,-0.4705500900745392,0.012779430486261845,0.2622644305229187,0.7116426229476929,-0.4319731295108795,0.06751210987567902,-0.8714808821678162,0.19054703414440155,0.1974135935306549,1.3754100799560547,-0.48856544494628906,0.0033799258526414633,-0.7140953540802002,-0.5034260749816895,-1.6992220878601074,-0.004858762491494417,-0.022819800302386284,-0.0657166913151741,2.9571385383605957,-0.06133699044585228,-0.041770920157432556,-0.09999683499336243,0.5741179585456848,0.5160202980041504,-0.2515827715396881,-0.6011306643486023,0.6733708381652832,-0.8465872406959534,0.37014952301979065,-1.722030758857727,0.4469706416130066,-0.9746472239494324,-2.5049989223480225,0.14983192086219788,-0.23731014132499695,1741530212.9786167,1741530212848,2.7384013671875,-2.734133056640625,0.4322141795967183,5.0598271484375,-0.6552852172851563
1741530213.2792537,0.715122640132904,0.0019390462621025504,-0.019896641376988877,-0.999800161913124,-0.30164968967437744,0.20631517469882965,0.8016262650489807,-9.955984115600586,5.035025596618652,11.179182052612305,0.13218116760253906,0.13370704650878906,-0.02384222112596035,-1.236767292022705,0.005531395319849253,-0.9386205673217773,0.3427557647228241,1.2554595470428467,0.009727626107633114,0.9531166553497314,-0.2645532786846161,-0.4835202693939209,0.0078202486038208,0.2595941126346588,0.7188906669616699,-0.4500560164451599,0.07445072382688522,-0.8730067610740662,0.18635080754756927,0.18749523162841797,1.2708858251571655,-0.4762163460254669,0.005096788052469492,-0.36153528094291687,-0.07367895543575287,-1.6355667114257812,-0.2056197077035904,-0.04152297228574753,-0.05840804800391197,2.786406993865967,-0.029927799478173256,0.06653637439012527,-0.29459643363952637,0.2916609048843384,-0.6140515208244324,-0.2798163890838623,-0.03473418951034546,0.4262632429599762,-0.8414140939712524,0.41742098331451416,0.1698918491601944,-0.35874977707862854,-0.3218630850315094,-5.580814838409424,0.700339674949646,0.09590741246938705,1741530212.9786167,1741530212848,2.7384013671875,-2.734133056640625,0.4322141795967183,5.0598271484375,-0.6552852172851563
1741530213.2993174,0.7306134700775146,0.01509779511634482,-0.0161286431597375,-0.9997559319416168,-0.1426253318786621,0.6429845690727234,0.75987708568573,1.6881086826324463,-3.1047821044921875,3.011152744293213,0.11348915100097656,0.12417030334472656,-0.05397878959774971,-1.2371487617492676,0.005531395319849253,-0.9454871416091919,0.3767071068286896,1.2581299543380737,0.010109102353453636,0.9454871416091919,-0.25501641631126404,-0.47398337721824646,0.00476844422519207,0.2580682039260864,0.7352941036224365,-0.465216726064682,0.07838738709688187,-0.8604180812835693,0.1684214472770691,0.17872129380702972,1.1289769411087036,-0.460849404335022,0.003984680399298668,-0.5625360012054443,-0.2685079574584961,-1.3000096082687378,-0.058208055794239044,-0.01782340556383133,-0.42886433005332947,2.2243478298187256,0.149948850274086,0.005721820518374443,-0.471356600522995,0.4579641819000244,0.32112056016921997,-0.05495401471853256,-0.1110510528087616,0.6454674005508423,-0.7674624919891357,-0.024111418053507805,0.6994360685348511,-0.959828794002533,-0.5228870511054993,-7.321313858032227,0.7507904767990112,-0.14267292618751526,1741530212.9786167,1741530212848,2.7384013671875,-2.734133056640625,0.4322141795967183,5.0598271484375,-0.6552852172851563
1741530213.3193247,0.7376326322555542,0.020647077391699825,-0.01387538288736238,-0.999690538089118,-0.08664639294147491,0.21865111589431763,0.26418793201446533,-5.729720115661621,4.820577621459961,8.512185096740723,0.10967445373535156,0.12951087951660156,-0.05741206929087639,-1.23600435256958,0.005531395319849253,-0.9531166553497314,0.4076066315174103,1.2577484846115112,0.010109102353453636,0.9340428709983826,-0.2473868876695633,-0.4732204079627991,-0.004386968910694122,0.26798656582832336,0.7372015118598938,-0.4735589027404785,0.07658956199884415,-0.8424887657165527,0.1367589831352234,0.15659570693969727,0.9725719094276428,-0.4529816806316376,-0.003822117578238249,-0.1514410376548767,0.04350188374519348,0.05333975329995155,0.11673501133918762,-0.011046485975384712,-0.34084564447402954,2.157194137573242,-0.021519489586353302,-0.036654386669397354,-0.7835295796394348,0.47110772132873535,0.1357961744070053,-0.532385528087616,0.5327609181404114,0.1851426362991333,-0.31009766459465027,0.04086831584572792,0.9281389117240906,-1.5925191640853882,-1.1019822359085083,-7.570425033569336,0.32246872782707214,-0.33739322423934937,1741530212.9786167,1741530212848,2.7384013671875,-2.734133056640625,0.4322141795967183,5.0598271484375,-0.6552852172851563
1741530213.3393326,0.735740602016449,0.025849735310889143,-0.021067139938654847,-0.9994438287363437,0.4207528829574585,0.22082962095737457,-0.15418165922164917,0.8474474549293518,5.628295421600342,5.87565279006958,0.10395240783691406,0.13828468322753906,-0.03643091395497322,-1.23753023147583,0.005531395319849253,-0.954261064529419,0.4232471287250519,1.2531707286834717,0.009727626107633114,0.925650417804718,-0.24204623699188232,-0.4556725323200226,-0.02231631986796856,0.2798123061656952,0.7429236173629761,-0.47437623143196106,0.06929852068424225,-0.812352180480957,0.09899290651082993,0.13065537810325623,0.8440146446228027,-0.4565883278846741,-0.0032833516597747803,-0.1636166274547577,0.25187569856643677,1.2722922563552856,-0.11557921767234802,0.007384335156530142,0.0021953838877379894,0.8291387557983398,-0.3863343894481659,-0.004682630766183138,-0.5557226538658142,0.08788798004388809,0.7724848985671997,-0.8754496574401855,0.7531211376190186,0.18854233622550964,-0.03206706419587135,-0.5181213617324829,1.6271902322769165,-1.8775066137313843,-1.2908661365509033,-5.907850742340088,-0.2283552885055542,0.04034138098359108,1741530212.9786167,1741530212848,2.7384013671875,-2.734133056640625,0.4322141795967183,5.0598271484375,-0.6552852172851563
1741530213.3593657,0.7285691499710083,0.02021941396818859,-0.03660000095024918,-0.9991254251740493,0.7934225797653198,-0.4690168499946594,-0.20492896437644958,-6.974038124084473,-10.351967811584473,17.226652145385742,0.09823036193847656,0.16536998748779297,0.00667582219466567,-1.2421079874038696,0.005912871100008488,-0.9500648379325867,0.4236285984516144,1.2428709268569946,0.009727626107633114,0.916876494884491,-0.2439536154270172,-0.43125811219215393,-0.037193864583969116,0.2969787120819092,0.7440680265426636,-0.47220149636268616,0.052842289209365845,-0.7951858043670654,0.0722896158695221,0.13179980218410492,0.8165484070777893,-0.44151920080184937,0.010556254535913467,-0.19298601150512695,0.794747531414032,2.2909514904022217,-0.4625951945781708,0.05035807192325592,0.24299997091293335,0.0061982618644833565,-0.6824305057525635,-0.016900889575481415,-0.7037449479103088,0.07649794220924377,1.2891874313354492,-0.4596192240715027,0.8754512667655945,0.004515501670539379,0.11395557224750519,-0.5340145230293274,0.7710988521575928,-1.0416581630706787,0.27857300639152527,0.07273002713918686,0.8514065742492676,0.6847723126411438,1741530212.9786167,1741530212848,2.7384013671875,-2.734133056640625,0.4322141795967183,5.0598271484375,-0.6552852172851563
1741530213.3793705,0.7160953283309937,0.017942158693594105,-0.04536373189015283,-0.9988093966169983,0.3998444080352783,-0.0625910758972168,-0.5996283292770386,9.102280616760254,-2.913228750228882,2.8918092250823975,0.07572269439697266,0.15201759338378906,0.06275273114442825,-1.2466856241226196,0.004386968910694122,-0.9458686113357544,0.4007400572299957,1.2321895360946655,0.009727626107633114,0.9096284508705139,-0.26874953508377075,-0.39768826961517334,-0.05092698708176613,0.3217746317386627,0.7463569045066833,-0.4671613276004791,0.022748589515686035,-0.770008385181427,0.04558632895350456,0.16422522068023682,0.846684992313385,-0.43947672843933105,0.014378387480974197,-0.6830650568008423,-0.38447216153144836,3.0415267944335938,-0.18948553502559662,-0.09299251437187195,0.08260515332221985,-1.8889093399047852,-0.7365109920501709,0.029755208641290665,-0.3434223234653473,-1.2476379871368408,1.6269797086715698,-0.7153074741363525,1.3630744218826294,0.15907332301139832,0.3054615557193756,-1.8658686876296997,0.8621944189071655,-1.182742953300476,1.5078859329223633,0.9442675113677979,-0.004068315960466862,0.3456557095050812,1741530212.9786167,1741530212848,2.7384013671875,-2.734133056640625,0.4322141795967183,5.0598271484375,-0.6552852172851563
1741530213.399424,0.715072751045227,0.004192878313979634,-0.05240501973465731,-0.9986171106475467,0.3540458679199219,-0.6471959352493286,-0.15249943733215332,-10.361571311950684,-2.0897653102874756,14.673386573791504,0.07610416412353516,0.16918468475341797,0.12149996310472488,-1.2501189708709717,0.005531395319849253,-0.9485389590263367,0.3603036403656006,1.224941611289978,0.009727626107633114,0.9065766334533691,-0.2782863974571228,-0.3889143168926239,-0.04940108209848404,0.3442816734313965,0.7799267768859863,-0.4651626646518707,0.0008069596369750798,-0.7433050870895386,0.0394827201962471,0.1825360506772995,0.8363851308822632,-0.4382554292678833,0.03188919275999069,-0.02861543744802475,0.37443071603775024,2.731642007827759,-0.3214312791824341,-0.09917444735765457,-0.14928358793258667,-2.6528165340423584,-0.4255731403827667,0.00259424839168787,-0.19089506566524506,-0.21982309222221375,0.3079831302165985,0.22203195095062256,0.8069738149642944,2.2160027027130127,0.034315407276153564,-0.47270718216896057,1.643981695175171,-0.1642012894153595,0.7765712141990662,-0.5016760230064392,0.18476106226444244,0.9287765026092529,1741530212.9786167,1741530212848,2.7384013671875,-2.734133056640625,0.4322141795967183,5.0598271484375,-0.6552852172851563
1741530213.419401,0.720338761806488,-0.00024485762452038177,-0.0499236826164952,-0.9987530054817112,-0.20119336247444153,-0.2251509130001068,0.5176613330841064,0.11472392082214355,2.1151068210601807,10.188399314880371,0.058938026428222656,0.16498851776123047,0.182917520403862,-1.2527892589569092,0.005912871100008488,-0.951209306716919,0.3107118308544159,1.2283748388290405,0.009727626107633114,0.9058136940002441,-0.28706035017967224,-0.421339750289917,-0.02841992862522602,0.3538185656070709,0.8791103959083557,-0.47677987813949585,0.019021280109882355,-0.7043945789337158,0.03795681521296501,0.200083926320076,0.8291370868682861,-0.42947375774383545,0.03926648944616318,-0.46163222193717957,-0.04938628152012825,2.8987584114074707,-0.11506299674510956,0.09945335984230042,-0.08041922003030777,-3.493072748184204,0.4639814794063568,0.012311696074903011,0.028483273461461067,-0.5121130347251892,-1.9729163646697998,1.0954376459121704,0.48981302976608276,5.368383407592773,-0.6822917461395264,0.6607316136360168,1.7120718955993652,-0.03204023465514183,0.8565688133239746,-0.46164411306381226,0.38130950927734375,0.15310236811637878,1741530212.9786167,1741530212848,2.7384013671875,-2.734133056640625,0.4322141795967183,5.0598271484375,-0.6552852172851563
1741530213.4394877,0.7422411441802979,-0.0047224700937062835,-0.043080872829473524,-0.9990604269374624,-0.3503679931163788,-0.1331596076488495,1.1804479360580444,-2.8138039112091064,-0.7868340015411377,10.816143989562988,0.047875404357910156,0.15697765350341797,0.22793163359165192,-1.2527892589569092,0.005531395319849253,-0.9500648379325867,0.2573052644729614,1.238293170928955,0.009727626107633114,0.9077210426330566,-0.30079346895217896,-0.49229419231414795,0.009346150793135166,0.3572518527507782,1.0183489322662354,-0.5035915970802307,0.0010188946034759283,-0.6734950542449951,0.03681239113211632,0.200083926320076,0.8081559538841248,-0.42561814188957214,0.04008007422089577,-0.3163440227508545,-0.19283422827720642,2.2396936416625977,-0.01769116334617138,-0.023130320012569427,0.06140109896659851,-3.557687997817993,0.5027757883071899,-0.027421683073043823,0.16847600042819977,-0.6795584559440613,-3.6213619709014893,2.011101007461548,0.07038876414299011,7.084022045135498,-1.4510326385498047,-0.9923869967460632,1.6713522672653198,-0.1425858587026596,-0.0587971955537796,-1.0681447982788086,0.15730027854442596,0.2223445624113083,1741530213.4890196,1741530213248,2.85724169921875,-2.54523828125,0.6744339271648975,5.21507666015625,-0.13817506408691407
1741530213.4594436,0.7738696336746216,-0.003202819610383557,-0.03175396527319546,-0.999490584065689,-0.5848389863967896,0.14452143013477325,1.5856267213821411,1.543123483657837,3.653782844543457,7.86221981048584,0.044060707092285156,0.15125465393066406,0.272945761680603,-1.2505004405975342,0.005531395319849253,-0.9496833682060242,0.1993209719657898,1.239819049835205,0.008964675478637218,0.9100099205970764,-0.31834134459495544,-0.5766003131866455,0.06198977679014206,0.35038527846336365,1.1629282236099243,-0.5402215123176575,0.003497740952298045,-0.6441214680671692,0.02689402550458908,0.19092851877212524,0.7925154566764832,-0.42528074979782104,0.0441364161670208,-0.11642885953187943,-0.15376165509223938,2.2315473556518555,0.19440507888793945,-0.011198689229786396,-0.00985059142112732,-3.8377485275268555,0.05581662058830261,0.0025797798298299313,0.1792491227388382,-0.879730224609375,-3.947026014328003,2.6704020500183105,-0.32853585481643677,7.072981357574463,-1.8741379976272583,0.443644642829895,1.412361741065979,-0.48351356387138367,-0.514955997467041,-0.7594907283782959,-0.023008087649941444,0.17204166948795319,1741530213.4890196,1741530213248,2.85724169921875,-2.54523828125,0.6744339271648975,5.21507666015625,-0.13817506408691407
1741530213.4794776,0.8057957887649536,-0.0018252366332382089,-0.019436103352203624,-0.9998094350413559,-0.5981698632240295,0.08073829114437103,1.5999139547348022,0.14589880406856537,3.822124719619751,8.86273193359375,0.032616615295410156,0.14438819885253906,0.31719690561294556,-1.2482116222381592,0.005531395319849253,-0.9485389590263367,0.13828489184379578,1.2386746406555176,0.009346150793135166,0.9138246774673462,-0.3236820101737976,-0.6555657386779785,0.10929274559020996,0.34695202112197876,1.2666895389556885,-0.569754421710968,0.006305428687483072,-0.6155108213424683,0.009727626107633114,0.17071031033992767,0.7749675512313843,-0.42733827233314514,0.04802253469824791,-0.3221409320831299,-0.16749051213264465,2.207498550415039,0.07861454039812088,-0.016043629497289658,0.11245612055063248,-4.064055442810059,-0.1211610734462738,-0.00695257680490613,0.287528932094574,-0.08811573684215546,-3.5525057315826416,2.295530080795288,-0.2874622046947479,4.56792688369751,-1.3516252040863037,-0.0689699575304985,1.412934422492981,-0.8963914513587952,-1.0018031597137451,-0.9739491939544678,-0.07115259766578674,0.21621307730674744,1741530213.4890196,1741530213248,2.85724169921875,-2.54523828125,0.6744339271648975,5.21507666015625,-0.13817506408691407
1741530213.4994898,0.827942818403244,-0.0016153277789452733,-0.008394632834261671,-0.9999634597602777,-0.5445084571838379,0.0019695318769663572,0.9635859727859497,0.4293920397758484,1.5505597591400146,9.901124000549316,0.036812782287597656,0.13446998596191406,0.3591592311859131,-1.2497375011444092,0.005149920005351305,-0.9466315507888794,0.07724879682064056,1.2348599433898926,0.009346150793135166,0.916876494884491,-0.32101166248321533,-0.7093538045883179,0.1520180106163025,0.33131152391433716,1.3075073957443237,-0.5792084336280823,-0.00942414253950119,-0.5750743746757507,-0.01506828423589468,0.1508735716342926,0.7574197053909302,-0.42971789836883545,0.0569695308804512,0.08410468697547913,-0.2966979146003723,2.0743448734283447,-0.14117835462093353,-0.048872850835323334,0.026934970170259476,-4.0019145011901855,-0.3027288615703583,0.021508296951651573,0.14993932843208313,0.2150714248418808,-2.4973785877227783,2.01802659034729,-0.8218841552734375,1.446175456047058,-0.29638054966926575,-0.7329689264297485,2.07960844039917,-1.1568210124969482,-1.0224097967147827,-0.9059786200523376,-0.1644318550825119,0.566746175289154,1741530213.4890196,1741530213248,2.85724169921875,-2.54523828125,0.6744339271648975,5.21507666015625,-0.13817506408691407
1741530213.5195212,0.8368872404098511,-0.00605481702411739,0.002740315283200541,-0.9999779146875961,-0.5633031129837036,-0.2432475984096527,0.31705406308174133,1.7021558284759521,0.13598081469535828,8.502822875976562,0.035668373107910156,0.14209938049316406,0.39730677008628845,-1.2501189708709717,0.005531395319849253,-0.9470130205154419,0.024986648932099342,1.230282187461853,0.009727626107633114,0.917639434337616,-0.29964902997016907,-0.7372015118598938,0.1848248988389969,0.3114747703075409,1.2834744453430176,-0.5680541396141052,-0.005296523682773113,-0.5388342142105103,-0.03376058489084244,0.1348516047000885,0.733386754989624,-0.4342154860496521,0.07197481393814087,-0.02735469490289688,0.22596512734889984,1.896403193473816,-0.11425481736660004,0.006254098378121853,-0.00676749786362052,-3.369478225708008,-0.21451658010482788,0.03170599415898323,0.01332679484039545,1.1636905670166016,-1.228281855583191,1.6095014810562134,-1.0614795684814453,-1.6847034692764282,0.7366557121276855,0.2916966378688812,1.7170889377593994,-0.9646957516670227,-0.73412024974823,-1.196192979812622,-0.19738848507404327,0.6901805400848389,1741530213.4890196,1741530213248,2.85724169921875,-2.54523828125,0.6744339271648975,5.21507666015625,-0.13817506408691407
1741530213.5395248,0.8417313098907471,-0.01215473620547637,0.012576286048042751,-0.9998470380098214,-0.4438903033733368,-0.25491994619369507,0.34190064668655396,2.5063695907592773,1.5143132209777832,6.658931255340576,0.034142494201660156,0.13942909240722656,0.44613564014434814,-1.2543151378631592,0.005531395319849253,-0.9416723847389221,-0.01735713705420494,1.2356228828430176,0.009346150793135166,0.9203097820281982,-0.28629741072654724,-0.7425421476364136,0.212672621011734,0.2962157726287842,1.201838731765747,-0.5359693169593811,-0.01209263689815998,-0.4961089491844177,-0.05207141116261482,0.12111848592758179,0.7169833183288574,-0.438410222530365,0.07946550846099854,-0.04956556111574173,-0.10622218996286392,2.4363858699798584,-0.2134559005498886,0.002034591743722558,0.3116994798183441,-2.764892816543579,0.3980899453163147,-0.024377867579460144,0.28860220313072205,0.4933299422264099,-0.13189412653446198,1.326230525970459,-0.7330475449562073,-4.490479469299316,1.7066290378570557,-0.5071640610694885,2.171705961227417,-1.0069301128387451,-0.6041586995124817,-0.8016347289085388,-0.2201354205608368,0.3125634491443634,1741530213.4921672,1741530213348,2.89731982421875,-2.499955810546875,0.7097843935160997,5.25082861328125,-0.016799589157104493
1741530213.5595667,0.8556501865386963,-0.01726037975370345,0.016660188025964712,-0.9997122173034085,-0.16891011595726013,-0.2377663403749466,0.7305881977081299,-2.3442065715789795,1.4194084405899048,6.608287811279297,0.032235145568847656,0.13828468322753906,0.4716945290565491,-1.2524077892303467,0.005531395319849253,-0.9344243407249451,-0.0551232174038887,1.232571005821228,0.009346150793135166,0.9313725233078003,-0.2935454249382019,-0.7158388495445251,0.23289081454277039,0.290875107049942,1.0671778917312622,-0.5006597638130188,-0.007115002255886793,-0.4659723937511444,-0.06961929053068161,0.11196307092905045,0.7043945789337158,-0.44310712814331055,0.08752771466970444,-0.04830477386713028,-0.022557318210601807,0.9650854468345642,0.07161390036344528,0.006629598326981068,0.34068500995635986,-2.3341870307922363,-0.3024667799472809,0.013452242128551006,0.783482015132904,-0.5659017562866211,1.644730567932129,0.9762776494026184,-0.11867426335811615,-7.149818420410156,1.6919893026351929,0.6291324496269226,1.4390661716461182,-0.8420864343643188,-0.3178381025791168,-0.5027820467948914,-0.23673897981643677,0.5422214269638062,1741530213.5913713,1741530213448,2.9143012695312502,-2.433993408203125,0.8630866544587309,5.28453759765625,0.09936402130126953
1741530213.5806572,0.8744161128997803,-0.016456229972021338,0.017044567302727746,-0.9997192982135389,0.008383424021303654,0.005077841691672802,0.9782847762107849,-0.7722267508506775,-3.5961239337921143,6.80360221862793,0.02956390380859375,0.12455177307128906,0.4716945290565491,-1.2543151378631592,0.005531395319849253,-0.9306095838546753,-0.06961929053068161,1.226467490196228,0.009346150793135166,0.9454871416091919,-0.3229190409183502,-0.6689173579216003,0.2450980395078659,0.30231937766075134,0.8844510316848755,-0.48517394065856934,0.010168339125812054,-0.44232088327407837,-0.06618601083755493,0.12188144028186798,0.7047760486602783,-0.4495476186275482,0.08576449006795883,-0.05765942111611366,-0.3465414047241211,-0.06565065681934357,-0.07898006588220596,-0.0018569158855825663,0.20690613985061646,-0.7700712084770203,-0.3690827190876007,0.0015273948665708303,1.0347180366516113,-1.5729790925979614,2.33563232421875,0.43699079751968384,0.6754947900772095,-9.223593711853027,0.58469158411026,0.5140570402145386,1.095056176185608,0.31130415201187134,0.6633439660072327,0.0070047820918262005,-0.3853086829185486,-0.3618895709514618,1741530213.5913713,1741530213448,2.9143012695312502,-2.433993408203125,0.8630866544587309,5.28453759765625,0.09936402130126953
1741530213.5998554,0.8987478315830231,-0.0142268637512629,0.022353716739148124,-0.9996488922095342,-0.3693687617778778,0.06639167666435242,1.2111259698867798,5.61574125289917,1.5268981456756592,9.909005165100098,0.01964569091796875,0.11158180236816406,0.45719844102859497,-1.2516448497772217,0.005149920005351305,-0.9275577664375305,-0.06542305648326874,1.216549038887024,0.008964675478637218,0.9584572911262512,-0.3591592311859131,-0.622377336025238,0.25272753834724426,0.35191118717193604,0.7688639760017395,-0.4501000940799713,-0.020917626097798347,-0.4182879328727722,-0.059319447726011276,0.15506981313228607,0.7166017889976501,-0.45445701479911804,0.07984733581542969,-0.26077839732170105,-0.4050418734550476,-0.810705840587616,0.25512412190437317,-0.06268958002328873,0.22517040371894836,0.46254393458366394,-0.8835969567298889,-0.029849691316485405,0.7602474689483643,-1.7376055717468262,2.2179245948791504,0.43235859274864197,3.1263043880462646,-2.5991568565368652,2.6141037940979004,-1.762541651725769,1.226172924041748,-0.435537725687027,1.7384470701217651,0.7992011308670044,-0.182952880859375,0.004705688450485468,1741530213.5913713,1741530213448,2.9143012695312502,-2.433993408203125,0.8630866544587309,5.28453759765625,0.09936402130126953
1741530213.6199195,0.9288793206214905,-0.015949588097508,0.018006461634242625,-0.9997106471269246,0.2677249014377594,-0.06580023467540741,1.4450117349624634,6.302225112915039,6.978760719299316,1.257325530052185,0.02040863037109375,0.11654090881347656,0.42668038606643677,-1.2447782754898071,0.005912871100008488,-0.916113555431366,-0.040245670825242996,1.2054862976074219,0.008201723918318748,0.9626535177230835,-0.361066609621048,-0.5876630544662476,0.21839475631713867,0.3740367889404297,0.7887006998062134,-0.4006788432598114,-0.01159238163381815,-0.3854810297489166,-0.02841992862522602,0.21076524257659912,0.7188906669616699,-0.4687004089355469,0.04209890961647034,0.04443953186273575,0.03659103810787201,-1.744678020477295,0.3868342936038971,-0.02170579880475998,0.3846495449542999,2.007115602493286,-0.6394256949424744,0.0010146613931283355,0.28746938705444336,0.21092015504837036,1.3186734914779663,-1.6912789344787598,0.2595767080783844,0.0363546647131443,2.0367789268493652,1.0178589820861816,1.4761182069778442,2.2702980041503906,2.7070133686065674,0.03942521661520004,-0.7578210830688477,-2.3901350498199463,1741530213.5913713,1741530213448,2.9143012695312502,-2.433993408203125,0.8630866544587309,5.28453759765625,0.09936402130126953
1741530213.6398869,0.9528634548187256,-0.013608720095422775,0.015084676879698703,-0.9997936063312265,0.15072770416736603,0.2308720201253891,1.2607182264328003,-14.69921875,-5.450875282287598,22.916828155517578,0.01087188720703125,0.11081886291503906,0.36640727519989014,-1.2443968057632446,0.005531395319849253,-0.916113555431366,-0.004386968910694122,1.2043418884277344,0.008964675478637218,0.9641794562339783,-0.35038527846336365,-0.5613412857055664,0.21725031733512878,0.33131152391433716,0.7520790696144104,-0.383949875831604,-0.0017582571599632502,-0.36373692750930786,0.010490577667951584,0.28400853276252747,0.7486457824707031,-0.4866664409637451,-0.0071600694209337234,-0.3110107183456421,-0.18281801044940948,-3.0940895080566406,0.02178444154560566,0.02262621745467186,-0.03218260407447815,2.340139150619507,-0.005364122800529003,0.019641416147351265,0.10369136184453964,0.6216835975646973,1.4974571466445923,-0.19280247390270233,-2.086521863937378,-1.6941957473754883,0.734167218208313,0.3132255971431732,0.8632484078407288,1.9171873331069946,3.5729336738586426,2.177778482437134,-0.8543499112129211,-1.9261364936828613,1741530213.5913713,1741530213448,2.9143012695312502,-2.433993408203125,0.8630866544587309,5.28453759765625,0.09936402130126953
1741530213.6599448,0.9712481200695038,-0.0025795904715865737,0.017227306372269456,-0.9998482713032787,-0.07854271680116653,0.5769627094268799,0.7457267045974731,7.64448881149292,9.760838508605957,5.314507484436035,-0.00095367431640625,0.10624122619628906,0.30270084738731384,-1.2424894571304321,0.005531395319849253,-0.9138246774673462,0.030708782374858856,1.2108269929885864,0.008964675478637218,0.9637979865074158,-0.31986725330352783,-0.5510414242744446,0.17872129380702972,0.325970858335495,0.7539864182472229,-0.3783015310764313,0.010973109863698483,-0.37975889444351196,0.054741740226745605,0.33360037207603455,0.8405813574790955,-0.4880056083202362,0.009411501698195934,-0.2989572286605835,-0.06954073160886765,-3.210690975189209,0.0936083272099495,-0.005610700696706772,0.09946750104427338,2.268101453781128,0.6194018125534058,0.010629584081470966,-0.11502611637115479,1.5359289646148682,0.12146268784999847,-1.5596243143081665,-0.26471051573753357,0.15388062596321106,0.10799720883369446,0.8275470733642578,-1.2370933294296265,2.1285364627838135,2.0404655933380127,4.82637882232666,0.06385459005832672,1.041520357131958,1741530213.6942253,1741530213548,2.93321044921875,-2.363318115234375,0.872384037423187,5.318609375,0.21314070129394533
1741530213.6799319,0.9716955423355103,0.0005634698020149727,0.01285297032642332,-0.9999172384030443,0.24907812476158142,0.22885674238204956,-0.0814511626958847,2.226398229598999,-0.5970204472541809,7.311981201171875,0.00705718994140625,0.11081886291503906,0.2447165697813034,-1.2413450479507446,0.005531395319849253,-0.9119172692298889,0.06580453366041183,1.2306636571884155,0.01125352829694748,0.960746169090271,-0.28324559330940247,-0.5449378490447998,0.16308079659938812,0.31567102670669556,0.7623788714408875,-0.3876853883266449,0.02082272246479988,-0.438506156206131,0.10585946589708328,0.325970858335495,0.9779125452041626,-0.4785325229167938,0.010668337345123291,0.17328539490699768,0.07482806593179703,-2.781100034713745,0.015119886957108974,0.007052503060549498,-0.008359428495168686,2.453693151473999,1.2702832221984863,0.1298973709344864,-0.16094061732292175,1.9046087265014648,0.44138103723526,-0.9651745557785034,-0.2747713625431061,0.4472779631614685,-0.47024649381637573,0.4417317807674408,-3.0073931217193604,2.669506788253784,-0.6947237849235535,7.140542507171631,0.4715979993343353,-0.36911702156066895,1741530213.6942253,1741530213548,2.93321044921875,-2.363318115234375,0.872384037423187,5.318609375,0.21314070129394533
1741530213.6999784,0.9578953683376312,0.003237556132496969,0.007972661816299291,-0.9999629767615659,0.2755950093269348,0.11391110718250275,-0.7851732969284058,1.226843237876892,3.3756072521209717,10.508135795593262,-0.01049041748046875,0.12798500061035156,0.1840619444847107,-1.2417265176773071,0.005531395319849253,-0.9138246774673462,0.10471503436565399,1.2466856241226196,0.010872052982449532,0.9588387608528137,-0.2481498420238495,-0.5388342142105103,0.13790340721607208,0.31757840514183044,0.7646677494049072,-0.3995301127433777,0.03519158810377121,-0.5342565178871155,0.14667734503746033,0.2927824854850769,1.1404211521148682,-0.4698036015033722,-0.00834877323359251,-0.5012550950050354,0.63172447681427,-2.952624559402466,-0.01598743535578251,0.00033964248723350465,-0.06173212081193924,2.672527313232422,1.0185673236846924,-0.019748253747820854,-0.09108524769544601,1.6638151407241821,0.3657030165195465,-1.3174928426742554,0.027701087296009064,0.0353587344288826,-0.6241239905357361,0.7357248663902283,-4.908878803253174,1.8750816583633423,-1.5606249570846558,8.099824905395508,0.4055815041065216,-0.6362007260322571,1741530213.6942253,1741530213548,2.93321044921875,-2.363318115234375,0.872384037423187,5.318609375,0.21314070129394533
1741530213.719992,0.9335986375808716,0.005998889325308729,-0.005723545663702339,-0.9999656265851833,0.7173258662223816,0.1728731244802475,-1.2761305570602417,4.6909098625183105,0.7765167951583862,8.934678077697754,-0.01277923583984375,0.13370704650878906,0.12684062123298645,-1.2424894571304321,0.005531395319849253,-0.9138246774673462,0.1504921019077301,1.2558410167694092,0.010490577667951584,0.959220290184021,-0.21915769577026367,-0.5231937170028687,0.1184481605887413,0.31834134459495544,0.7661936283111572,-0.41077741980552673,0.042944151908159256,-0.6414511203765869,0.17833982408046722,0.26722362637519836,1.2964446544647217,-0.46989208459854126,0.005417822860181332,-0.11528707295656204,0.34511449933052063,-2.7769482135772705,-0.0625891461968422,-9.229566057911143e-05,-0.031547702848911285,3.0640957355499268,0.4846137464046478,-0.006531058810651302,-0.009255645796656609,1.3699841499328613,0.7324911952018738,-0.9401748180389404,0.12144475430250168,0.11074680089950562,-0.5274896025657654,0.2058597058057785,-5.277576923370361,1.5376068353652954,-1.3274012804031372,7.529030799865723,-0.06262589246034622,0.7187352180480957,1741530213.6942253,1741530213548,2.93321044921875,-2.363318115234375,0.872384037423187,5.318609375,0.21314070129394533
1741530213.7399952,0.9080308675765991,0.006837967113773631,-0.019469341480481746,-0.9997870708046126,0.6824621558189392,0.02063947729766369,-1.2452776432037354,-1.8404419422149658,0.06409270316362381,10.557579040527344,-0.02346038818359375,0.13218116760253906,0.0715266615152359,-1.2409635782241821,0.005531395319849253,-0.9145876169204712,0.20199130475521088,1.2577484846115112,0.010490577667951584,0.9580758213996887,-0.20771344006061554,-0.5102235674858093,0.09975585341453552,0.3217746317386627,0.767719566822052,-0.42465659976005554,0.04133448377251625,-0.7444495558738708,0.20847637951374054,0.23403525352478027,1.3971542119979858,-0.4773370027542114,-0.0004015149315819144,-0.3317677080631256,0.04117925837635994,-2.628791332244873,0.13843105733394623,-0.0105431592091918,-0.03725748509168625,3.545677661895752,0.07687317579984665,-0.004136639181524515,-0.07290182262659073,0.38324645161628723,0.6715144515037537,-0.8891414403915405,0.08723726868629456,0.05679478496313095,-0.7011024951934814,-0.058208487927913666,-5.024118900299072,1.4151722192764282,-1.6448646783828735,4.402934551239014,-0.3681494891643524,-0.555141031742096,1741530213.6942253,1741530213548,2.93321044921875,-2.363318115234375,0.872384037423187,5.318609375,0.21314070129394533
1741530213.7600138,0.8889622986316681,0.012301419718996127,-0.03067862684732196,-0.9994535991869057,0.5485016107559204,0.2662455439567566,-0.758857011795044,2.507967710494995,-1.0162773132324219,9.97769546508789,-0.044442176818847656,0.13256263732910156,0.022697795182466507,-1.23905611038208,0.005531395319849253,-0.916113555431366,0.2615014910697937,1.2577484846115112,0.010109102353453636,0.9561684727668762,-0.20695048570632935,-0.4888609051704407,0.07915617525577545,0.3217746317386627,0.769245445728302,-0.4445644021034241,0.04540346935391426,-0.8257037997245789,0.22106507420539856,0.20542457699775696,1.4288166761398315,-0.48167112469673157,-0.005322680342942476,-0.6699378490447998,0.007366176228970289,-2.30734920501709,0.14660213887691498,0.021190835162997246,-0.05834517255425453,4.044236183166504,-0.0065477690659463406,-0.010051115415990353,-0.14270669221878052,0.14314299821853638,0.999673068523407,-1.0415081977844238,0.0025108351837843657,0.03675656020641327,-1.0667027235031128,0.19566026329994202,-4.0505523681640625,0.4579368233680725,-1.2819675207138062,1.0148866176605225,-0.15615390241146088,0.08628793805837631,1741530213.7967129,1741530213648,2.9645869140625,-2.2875654296875,0.9295441390047022,5.3520771484375,0.32248568725585935
1741530213.780615,0.8854926526546478,0.015858983734868055,-0.036633314635009136,-0.9992029287856143,0.25749021768569946,0.1628216803073883,-0.09029307961463928,1.1871217489242554,0.9585365056991577,9.04286003112793,-0.054741859436035156,0.13256263732910156,-0.018501564860343933,-1.23753023147583,0.005149920005351305,-0.9187838435173035,0.3217746317386627,1.2566040754318237,0.009727626107633114,0.951972246170044,-0.20923933386802673,-0.4819943606853485,0.0551232174038887,0.31795987486839294,0.769245445728302,-0.47051841020584106,0.04931548610329628,-0.8794918656349182,0.21229113638401031,0.182917520403862,1.3921949863433838,-0.4787713885307312,0.010100655257701874,-0.32639241218566895,0.005516280885785818,-2.1554410457611084,0.06078915297985077,-0.07073450833559036,-0.14399056136608124,3.873291254043579,-0.01713572070002556,-0.0006104122148826718,-0.336630254983902,-0.1159500777721405,0.17110058665275574,-1.1922094821929932,-0.22564782202243805,-0.013290944509208202,-1.330517053604126,0.29580795764923096,-2.420997381210327,-0.48257890343666077,-1.0696171522140503,-2.321943521499634,0.21583987772464752,0.4901959002017975,1741530213.7967129,1741530213648,2.9645869140625,-2.2875654296875,0.9295441390047022,5.3520771484375,0.32248568725585935
1741530213.8000822,0.8877592384815216,0.019516402368513572,-0.03832916758440028,-0.999074564259784,0.0687103271484375,0.24886347353458405,0.11482702940702438,1.4743987321853638,-0.7259356379508972,7.608025074005127,-0.06733036041259766,0.13103675842285156,-0.06618601083755493,-1.2371487617492676,0.005531395319849253,-0.9290837049484253,0.3747997283935547,1.2577484846115112,0.010109102353453636,0.9439612627029419,-0.20733195543289185,-0.4671168029308319,0.03681239113211632,0.309567391872406,0.7734416723251343,-0.49574050307273865,0.055031586438417435,-0.9069581031799316,0.19245441257953644,0.1646067053079605,1.3067444562911987,-0.4670277237892151,0.005798730533570051,-0.3821333646774292,-0.05546722188591957,-2.1995186805725098,0.048535481095314026,-0.025639435276389122,-0.6775568127632141,3.4586803913116455,0.11598507314920425,-0.0021323494147509336,-0.5786654949188232,0.11358537524938583,0.977213978767395,-0.8941870927810669,-0.4559895992279053,0.27746134996414185,-1.195983648300171,0.3599529564380646,-1.0994601249694824,-1.101351261138916,-0.8012566566467285,-4.4088945388793945,0.6745815873146057,-0.1846073865890503,1741530213.7967129,1741530213648,2.9645869140625,-2.2875654296875,0.9295441390047022,5.3520771484375,0.32248568725585935
1741530213.8200831,0.8916355073451996,0.025065525393831844,-0.038966313885101224,-0.9989260962748641,0.0015791051555424929,0.28716781735420227,0.12984085083007812,-0.319046288728714,0.4765532314777374,9.762401580810547,-0.07801151275634766,0.12951087951660156,-0.09517814964056015,-1.2356228828430176,0.005531395319849253,-0.9462500810623169,0.42706188559532166,1.2611817121505737,0.010490577667951584,0.9306095838546753,-0.20160982012748718,-0.4549095928668976,0.02536812424659729,0.3084229826927185,0.7776378989219666,-0.5187151432037354,0.06176828593015671,-0.9126802682876587,0.16346226632595062,0.1527809500694275,1.191157341003418,-0.4472012221813202,0.002649410627782345,-0.3175767660140991,-0.026472242549061775,-1.2090718746185303,0.10631212592124939,-0.004928216338157654,-0.8086389303207397,3.478182315826416,0.18168075382709503,-0.0006222084630280733,-0.9245395660400391,0.45251211524009705,0.6100102663040161,-0.5699402093887329,-0.014115380123257637,0.24379585683345795,-1.068345308303833,0.14358997344970703,-0.15993134677410126,-1.516099214553833,-0.5375609397888184,-5.883298873901367,1.0139994621276855,-0.021005786955356598,1741530213.7967129,1741530213648,2.9645869140625,-2.2875654296875,0.9295441390047022,5.3520771484375,0.32248568725585935
1741530213.8401575,0.8916979730129242,0.03398718924104208,-0.038348053941136745,-0.9986862859408961,-0.024452531710267067,0.44881945848464966,-0.006910276133567095,2.90364933013916,2.0878756046295166,7.662044525146484,-0.08373355865478516,0.12531471252441406,-0.09937438368797302,-1.2348599433898926,0.005531395319849253,-0.9611276388168335,0.46330204606056213,1.2585114240646362,0.010109102353453636,0.9195467829704285,-0.19512474536895752,-0.43125811219215393,0.010109102353453636,0.3091859221458435,0.777256429195404,-0.5348192453384399,0.05293549969792366,-0.9019989371299744,0.12836651504039764,0.13027389347553253,1.0587854385375977,-0.4309864342212677,0.002153402427211404,-0.1803775131702423,-0.10004452615976334,-0.07663506269454956,0.02205270528793335,-0.002609424525871873,-0.7237722277641296,2.1723716259002686,-0.23436954617500305,0.016228673979640007,-0.6750691533088684,0.311130166053772,1.212125301361084,-0.8205922842025757,0.05427136644721031,-0.1453448235988617,-0.7857303023338318,-0.5231081247329712,0.5975215435028076,-1.8089978694915771,-1.3070471286773682,-6.590785503387451,0.7261024713516235,-0.017077725380659103,1741530213.7967129,1741530213648,2.9645869140625,-2.2875654296875,0.9295441390047022,5.3520771484375,0.32248568725585935
1741530213.8601358,0.8878277540206909,0.03915355647830165,-0.04251748805354693,-0.9983282337110961,0.27298444509506226,0.191170796751976,-0.21647262573242188,3.8706910610198975,2.0159127712249756,9.18486499786377,-0.08335208892822266,0.12417030334472656,-0.08182650804519653,-1.2356228828430176,0.005531395319849253,-0.968757152557373,0.4797055125236511,1.2546966075897217,0.010109102353453636,0.9107728600502014,-0.19092851877212524,-0.39883267879486084,-0.014686808921396732,0.31605249643325806,0.7696269154548645,-0.5449996590614319,0.04018864408135414,-0.8737697601318359,0.09021896868944168,0.10204470902681351,0.9367132186889648,-0.4300974905490875,-0.0038100285455584526,-0.0237185750156641,-0.038974449038505554,1.1514334678649902,-0.04004213958978653,-0.00422347616404295,-0.27817094326019287,0.9026710987091064,-0.2537862956523895,-0.011090684682130814,-0.5297021269798279,0.13770660758018494,1.724566102027893,-1.244775652885437,0.3285483121871948,-0.424600213766098,-0.4569677412509918,-0.6985651850700378,1.472745418548584,-1.9794807434082031,-1.3370490074157715,-5.8097243309021,-0.10730303823947906,-0.2492169290781021,1741530213.8998249,1741530213748,3.0117451171875,-2.23460986328125,0.8963223670615267,5.38334912109375,0.4283092346191406
1741530213.8802297,0.8823708891868591,0.03371192891084562,-0.05257617294049239,-0.9980477202459016,0.5542517900466919,-0.4131573736667633,-0.21284936368465424,11.074261665344238,-3.810029983520508,17.781442642211914,-0.08297061920166016,0.13981056213378906,-0.040245670825242996,-1.2394375801086426,0.005912871100008488,-0.9660868048667908,0.47894254326820374,1.2463041543960571,0.010109102353453636,0.9050507545471191,-0.19207294285297394,-0.34657052159309387,-0.040245670825242996,0.31948578357696533,0.760471522808075,-0.5363483428955078,0.02404593676328659,-0.8543145060539246,0.056267641484737396,0.0864042118191719,0.8844510316848755,-0.4213680922985077,-0.004683729261159897,-0.011054459027945995,0.3944215774536133,2.145432710647583,-0.3646765947341919,0.024942737072706223,0.16445498168468475,-0.11346219480037689,-0.6046222448348999,0.0013423142954707146,-0.41435113549232483,0.08185246586799622,2.7126402854919434,-1.1848315000534058,0.04215420410037041,-0.47099030017852783,0.5208737850189209,-0.3644082248210907,0.7838176488876343,-1.4132870435714722,-0.5440899729728699,-1.0371302366256714,0.6869706511497498,0.10681957006454468,1741530213.8998249,1741530213748,3.0117451171875,-2.23460986328125,0.8963223670615267,5.38334912109375,0.4283092346191406
1741530213.9005282,0.8763206005096436,0.020922426744395897,-0.05724571485668904,-0.9981408618975942,0.17558066546916962,-0.41789472103118896,-0.3247773051261902,-0.3520166575908661,3.726086139678955,9.545819282531738,-0.10090065002441406,0.14515113830566406,0.01583123579621315,-1.2478300333023071,0.00476844422519207,-0.9596017599105835,0.45681697130203247,1.2371487617492676,0.010109102353453636,0.9004730582237244,-0.20847637951374054,-0.29850462079048157,-0.06885633617639542,0.33588922023773193,0.7639048099517822,-0.5092167854309082,0.047954171895980835,-0.80357825756073,0.03795681521296501,0.10471503436565399,0.9233615398406982,-0.42133960127830505,-0.00017145964375231415,-0.5574641227722168,-0.06977556645870209,2.690631151199341,-0.41113170981407166,-0.04991932585835457,0.3530382812023163,-1.9696656465530396,-0.576856791973114,0.009675662964582443,-0.12621255218982697,-0.9750139713287354,2.3233530521392822,-1.4786877632141113,0.9636562466621399,0.47518470883369446,1.50961172580719,0.9064635038375854,2.362168312072754,-0.9875492453575134,1.104146122932434,1.6230400800704956,-0.14527468383312225,0.30374979972839355,1741530213.8998249,1741530213748,3.0117451171875,-2.23460986328125,0.8963223670615267,5.38334912109375,0.4283092346191406
1741530213.9202166,0.873706728219986,0.00709434282115332,-0.06004293810535122,-0.998170584561383,0.14698931574821472,-0.7365983724594116,-0.17894351482391357,-6.2186198234558105,3.975318431854248,14.38496208190918,-0.09060001373291016,0.15506935119628906,0.08220797777175903,-1.2493560314178467,0.005531395319849253,-0.9561684727668762,0.4083695709705353,1.238293170928955,0.010490577667951584,0.9012359976768494,-0.22182802855968475,-0.290112167596817,-0.06961929053068161,0.33512628078460693,0.8276112079620361,-0.47369062900543213,0.05794302374124527,-0.7745860815048218,0.040245670825242996,0.13942931592464447,0.9218356609344482,-0.42766180634498596,0.017704926431179047,0.2486429661512375,0.33706361055374146,3.4233381748199463,-0.1327674835920334,-0.03918471559882164,0.138240247964859,-3.19508695602417,0.11200220137834549,0.03594989329576492,0.02125275321304798,-0.5219101309776306,-0.0840635821223259,0.17067717015743256,-0.067471444606781,3.769709587097168,1.8095498085021973,0.4823962450027466,1.6490718126296997,0.3148057460784912,1.5901155471801758,-0.1087493747472763,-0.24231629073619843,0.9598757028579712,1741530213.8998249,1741530213748,3.0117451171875,-2.23460986328125,0.8963223670615267,5.38334912109375,0.4283092346191406
1741530213.940232,0.87675741314888,0.0032594735294904863,-0.05830765629983656,-0.9982933401806959,-0.17262257635593414,-0.07078471779823303,0.2906912565231323,3.161982297897339,2.9084701538085938,9.728842735290527,-0.09899330139160156,0.13942909240722656,0.14591439068317413,-1.2550780773162842,0.005912871100008488,-0.9531166553497314,0.34657052159309387,1.23905611038208,0.008964675478637218,0.9023804068565369,-0.22335393726825714,-0.3404669165611267,-0.05359731614589691,0.3240634799003601,0.9649423956871033,-0.43213826417922974,0.0609358511865139,-0.7215610146522522,0.040245670825242996,0.16041046380996704,0.9275577664375305,-0.42792919278144836,0.01969602145254612,-0.22875815629959106,-0.3689119517803192,3.005535125732422,-0.33459314703941345,0.006494260858744383,0.1673775315284729,-4.306954860687256,0.06692611426115036,-0.07970485836267471,0.04818272218108177,-0.09977979212999344,-2.838689088821411,0.7880271077156067,-0.6013904809951782,7.316066265106201,2.081371784210205,-0.06190631911158562,2.3393845558166504,0.01497876737266779,0.989751935005188,0.2057914286851883,0.010529610328376293,-0.05598819628357887,1741530213.8998249,1741530213748,3.0117451171875,-2.23460986328125,0.8963223670615267,5.38334912109375,0.4283092346191406
1741530213.9602838,0.89475217461586,-0.0024081326563449236,-0.055727559718064645,-0.998443108036196,-0.09611696004867554,-0.23052024841308594,0.9491899013519287,1.7401421070098877,-0.2662957012653351,13.155336380004883,-0.10471534729003906,0.13446998596191406,0.20237277448177338,-1.2585114240646362,0.005531395319849253,-0.9481574892997742,0.2801937758922577,1.2409635782241821,0.009727626107633114,0.9027618765830994,-0.22411687672138214,-0.44117647409439087,-0.02384222112596035,0.30003052949905396,1.1324101686477661,-0.40877076983451843,0.01592659018933773,-0.6944762468338013,0.035667963325977325,0.1653696447610855,0.918402373790741,-0.42930203676223755,0.020059045404195786,-0.11469273269176483,-0.18386100232601166,2.7390992641448975,-0.2865455746650696,-0.0092252716422081,0.25682252645492554,-4.302369117736816,0.09563987702131271,0.021501578390598297,0.015588297508656979,-0.04492953047156334,-5.148447036743164,1.2737213373184204,-1.2589523792266846,8.199963569641113,0.9609872102737427,-2.574007987976074,1.5655421018600464,-0.2991318106651306,0.1698969155550003,-0.4315861463546753,-0.05628389120101929,0.02002604492008686,1741530214.0056975,1741530213848,3.06113134765625,-2.159280517578125,0.9347386869656407,5.413634765625,0.5294036865234375
1741530213.9803107,0.9194279909133911,0.002137111502931239,-0.051751869454400405,-0.9986576874797484,-0.21011856198310852,0.33856019377708435,1.2779340744018555,7.705867767333984,-1.1048516035079956,6.97774600982666,-0.10204505920410156,0.11806678771972656,0.2588311731815338,-1.2600373029708862,0.005531395319849253,-0.9466315507888794,0.20695048570632935,1.2394375801086426,0.008964675478637218,0.9035248160362244,-0.22335393726825714,-0.5479896068572998,-0.0024795911740511656,0.28286412358283997,1.2850003242492676,-0.4286133050918579,0.0020985042210668325,-0.648699164390564,0.02079041674733162,0.16422522068023682,0.9069581031799316,-0.4309384822845459,0.022422345355153084,0.06292401254177094,-0.519298791885376,2.6708052158355713,-0.06224863976240158,0.0007219018880277872,0.030453529208898544,-5.026309490203857,-0.12483378499746323,-0.005404917988926172,0.06019630655646324,0.10523205250501633,-5.365821361541748,1.1354379653930664,-0.6895636320114136,7.090897560119629,-1.3894566297531128,-0.14980801939964294,2.1657142639160156,-0.8192359805107117,-0.1148645281791687,-0.657629668712616,-0.11818604171276093,0.19745448231697083,1741530214.0056975,1741530213848,3.06113134765625,-2.159280517578125,0.9347386869656407,5.413634765625,0.5294036865234375
1741530214.0003147,0.9460907876491547,-0.00030139917633518565,-0.04454716257573216,-0.9990072369432504,-0.3509790003299713,-0.07520264387130737,1.30145263671875,-0.13476024568080902,3.296241044998169,12.588793754577637,-0.10242652893066406,0.11387062072753906,0.31681543588638306,-1.2596558332443237,0.005531395319849253,-0.9473945498466492,0.1333257108926773,1.23600435256958,0.009727626107633114,0.9042877554893494,-0.21076524257659912,-0.6445029377937317,0.01926451548933983,0.2752346098423004,1.3723583221435547,-0.4728703498840332,0.004554412793368101,-0.6147478222846985,0.004386968910694122,0.1497291475534439,0.884069561958313,-0.4369480311870575,0.02792912721633911,-0.004178026225417852,-0.18399512767791748,2.9866766929626465,-0.010285865515470505,-0.018509333953261375,-0.018884528428316116,-4.864834785461426,-0.2416452020406723,0.026678090915083885,0.08709985762834549,0.6908599734306335,-4.547009468078613,1.1200536489486694,-0.47055792808532715,3.74120831489563,-2.2933998107910156,-0.18916606903076172,1.8460347652435303,-1.0496833324432373,-0.738108217716217,-1.0411796569824219,-0.2826962172985077,0.27389371395111084,1741530214.0056975,1741530213848,3.06113134765625,-2.159280517578125,0.9347386869656407,5.413634765625,0.5294036865234375
1741530214.0203164,0.9610508382320404,0.000428992572353629,-0.038407454699595375,-0.999262069423668,-0.298265278339386,0.08781320601701736,0.5927995443344116,3.257805824279785,0.5927643179893494,8.973572731018066,-0.09899330139160156,0.10853004455566406,0.3706035017967224,-1.2611817121505737,0.005531395319849253,-0.9493018984794617,0.06580453366041183,1.231045126914978,0.009727626107633114,0.9054322242736816,-0.19321736693382263,-0.7169833183288574,0.04444190114736557,0.2645532786846161,1.3864728212356567,-0.5167181491851807,-0.004212713334709406,-0.5556191205978394,-0.02384222112596035,0.135233074426651,0.8638513684272766,-0.4460221827030182,0.035281211137771606,0.07888096570968628,-0.17951473593711853,2.5535972118377686,-0.022995654493570328,0.0010794670088216662,-0.0730140209197998,-4.4196319580078125,-0.30201008915901184,0.015904322266578674,0.1088695079088211,1.1034867763519287,-3.4185521602630615,1.2491333484649658,-0.5385062098503113,0.20381563901901245,-2.116992473602295,-0.3707617223262787,2.914048433303833,-1.3626612424850464,-0.8040873408317566,-1.1073356866836548,-0.5315781831741333,0.4768180847167969,1741530214.0056975,1741530213848,3.06113134765625,-2.159280517578125,0.9347386869656407,5.413634765625,0.5294036865234375
1741530214.0403962,0.9592100977897644,-0.0008257747620618565,-0.03344363935674571,-0.9994402638890522,-0.24302895367145538,-0.11707112938165665,-0.2081630378961563,9.365107536315918,-0.9171388745307922,8.073887825012207,-0.09250736236572266,0.11158180236816406,0.4201953113079071,-1.2646150588989258,0.005912871100008488,-0.9470130205154419,0.008964675478637218,1.2321895360946655,0.009727626107633114,0.9092469811439514,-0.15774014592170715,-0.769245445728302,0.0711451917886734,0.2470054179430008,1.342221736907959,-0.535311758518219,-0.005898141767829657,-0.5182345509529114,-0.043678950518369675,0.11730372905731201,0.8318074345588684,-0.4590064585208893,0.0487200953066349,0.187518909573555,0.10325613617897034,2.5089809894561768,-0.3314417004585266,0.020995082333683968,0.16752928495407104,-3.7089223861694336,0.170408234000206,-0.0016380392480641603,0.23396316170692444,1.7313973903656006,-2.5019333362579346,1.3901845216751099,-0.9299777150154114,-2.579115390777588,-0.660889208316803,-0.08253823220729828,1.6871058940887451,-0.9177244305610657,-0.8242470026016235,-1.6053811311721802,-0.6476227641105652,0.6265662312507629,1741530214.0056975,1741530213848,3.06113134765625,-2.159280517578125,0.9347386869656407,5.413634765625,0.5294036865234375
1741530214.0604177,0.9573112726211548,0.0009189911522960543,-0.02918156979781463,-0.9995737048559238,-0.16981741786003113,0.1956707239151001,0.027880290523171425,4.237089157104492,1.1426068544387817,6.205902576446533,-0.09746742248535156,0.09861183166503906,0.47665369510650635,-1.2672853469848633,0.005531395319849253,-0.9390020370483398,-0.05054550990462303,1.2379117012023926,0.009346150793135166,0.9206912517547607,-0.14248111844062805,-0.80663001537323,0.10204470902681351,0.23365376889705658,1.255245327949524,-0.5182755589485168,-0.01575123518705368,-0.46215763688087463,-0.061226826161146164,0.1028076633810997,0.8093003630638123,-0.473385751247406,0.05338355898857117,-0.13414663076400757,-0.3654329478740692,2.674323081970215,-0.004690957255661488,-0.004836515989154577,0.3808170557022095,-4.019307613372803,0.24343979358673096,-0.008973466232419014,0.8771266341209412,0.5705668926239014,-1.7177884578704834,1.592195987701416,-0.696540355682373,-4.647407531738281,1.1157219409942627,-0.3458206057548523,2.6988108158111572,-0.8035454154014587,-0.6061667799949646,-1.1985194683074951,-0.7894105911254883,0.1794811636209488,1741530214.1050103,1741530214048,3.1392314453125,-1.999446533203125,0.961986616480778,5.46695947265625,0.71991015625
1741530214.0803869,0.9601687490940094,0.0029951298531479785,-0.027181893366251157,-0.9996260170034534,-0.09504098445177078,0.1424921602010727,0.14835408329963684,-4.997504234313965,0.5615691542625427,9.679451942443848,-0.09479713439941406,0.08449649810791016,0.5025940537452698,-1.2653779983520508,0.005531395319849253,-0.9321355223655701,-0.09098191559314728,1.23447847366333,0.009346150793135166,0.9390020370483398,-0.1493476778268814,-0.80663001537323,0.1371404528617859,0.22068360447883606,1.1331731081008911,-0.4796307384967804,-0.01266869343817234,-0.43163958191871643,-0.06885633617639542,0.09517814964056015,0.7879377603530884,-0.4920422434806824,0.06108314171433449,0.04615437239408493,-0.40782278776168823,1.099683403968811,0.034066639840602875,0.0013639061944559216,0.3149949610233307,-2.4582579135894775,-0.2983298897743225,0.00628058984875679,1.2740459442138672,-0.572603166103363,0.22605077922344208,1.7499381303787231,-0.5160057544708252,-6.387699127197266,1.9966944456100464,0.2268812656402588,1.5794692039489746,-0.34279903769493103,-0.19206145405769348,-0.7544509172439575,-0.9062632918357849,0.37670522928237915,1741530214.1050103,1741530214048,3.1392314453125,-1.999446533203125,0.961986616480778,5.46695947265625,0.71991015625
1741530214.1004329,0.968773365020752,0.011768075013402865,-0.027326535726230818,-0.9995572884310744,0.019425611943006516,0.38480478525161743,0.49304085969924927,0.7473887801170349,-3.6037590503692627,2.4173295497894287,-0.09784889221191406,0.07572269439697266,0.506790280342102,-1.2642335891723633,0.005531395319849253,-0.924887478351593,-0.11005569249391556,1.2276118993759155,0.009346150793135166,0.9580758213996887,-0.1844434291124344,-0.7879377603530884,0.16041046380996704,0.23327229917049408,0.9794384837150574,-0.440489262342453,-0.0004344843910075724,-0.39730677008628845,-0.06580453366041183,0.11310750246047974,0.7749675512313843,-0.5135141015052795,0.0604606531560421,-0.086787648499012,-0.26057887077331543,0.01979019120335579,0.10180983692407608,-0.006196185480803251,0.3465517461299896,-0.9611658453941345,-0.44029542803764343,0.015459122136235237,1.2069743871688843,-1.7971628904342651,1.132601022720337,1.0068763494491577,0.7430015802383423,-8.203190803527832,1.8654325008392334,0.7228314876556396,1.6169148683547974,0.34462523460388184,0.9782504439353943,-0.8516115546226501,-1.090151309967041,-0.15710464119911194,1741530214.1050103,1741530214048,3.1392314453125,-1.999446533203125,0.961986616480778,5.46695947265625,0.71991015625
1741530214.1204362,0.9834781587123871,0.015834666231058753,-0.025078387030935855,-0.9995600721563849,-0.14233353734016418,0.1972440928220749,0.8003227114677429,-3.163492202758789,2.288384437561035,9.955692291259766,-0.09975624084472656,0.07648563385009766,0.49229419231414795,-1.2604187726974487,0.005531395319849253,-0.9210727214813232,-0.1024261862039566,1.222271203994751,0.009346150793135166,0.9699015617370605,-0.22487983107566833,-0.7429236173629761,0.19474326074123383,0.25349050760269165,0.7990005612373352,-0.42262864112854004,0.010366310365498066,-0.3580147922039032,-0.04940108209848404,0.13981078565120697,0.7658121585845947,-0.5294545292854309,0.04997170716524124,-0.06556018441915512,-0.00018811227346304804,-0.8204107880592346,0.3527370095252991,-0.011386306025087833,0.15743951499462128,0.7190438508987427,-0.35711848735809326,0.0022632544860243797,0.7486712336540222,-1.916641116142273,2.3866798877716064,1.7980258464813232,1.0107325315475464,-8.819655418395996,0.806454598903656,0.34024256467819214,2.0068979263305664,0.7281481623649597,1.3511526584625244,-0.3944636881351471,-0.7403950095176697,-0.5565897226333618,1741530214.1050103,1741530214048,3.1392314453125,-1.999446533203125,0.961986616480778,5.46695947265625,0.71991015625
1741530214.1404502,1.0000285506248474,0.01146662065382367,-0.01974726778638937,-0.9997392470168178,-0.3032183349132538,-0.41331520676612854,0.7919288277626038,-7.913743495941162,5.143157482147217,15.622288703918457,-0.10357093811035156,0.09556007385253906,0.4648279547691345,-1.2524077892303467,0.005912871100008488,-0.9180209040641785,-0.07267109304666519,1.209682583808899,0.008964675478637218,0.9718089699745178,-0.2481498420238495,-0.698291003704071,0.1974135935306549,0.30308231711387634,0.7703898549079895,-0.37108346819877625,-0.024413472041487694,-0.3061341345310211,-0.05436026677489281,0.17376211285591125,0.7703898549079895,-0.5346629023551941,0.019143471494317055,-0.09679920971393585,0.6927953362464905,-1.3313624858856201,0.5776407718658447,0.048937831073999405,0.27931246161460876,2.013312578201294,-0.8769586682319641,-0.0035321300383657217,0.05024774372577667,-0.9379596710205078,2.3449907302856445,-0.7959583401679993,2.730323314666748,0.6186721920967102,2.6565980911254883,-1.4925717115402222,2.649099111557007,-0.4857933223247528,1.8559216260910034,0.16444869339466095,-0.023299947381019592,-1.2406647205352783,1741530214.1050103,1741530214048,3.1392314453125,-1.999446533203125,0.961986616480778,5.46695947265625,0.71991015625
1741530214.1604595,1.017675668001175,0.008831817390306165,-0.02342329957122569,-0.9996866249174193,0.14268755912780762,-0.100679412484169,0.8043133616447449,-5.10666036605835,-2.538045883178711,0.04271426424384117,-0.09556007385253906,0.09861183166503906,0.41409170627593994,-1.2508819103240967,0.005531395319849253,-0.9172579646110535,-0.027656977996230125,1.2039604187011719,0.008964675478637218,0.9710460305213928,-0.22640573978424072,-0.6532768607139587,0.17605096101760864,0.30193790793418884,0.7898451089859009,-0.3417620062828064,-0.044883713126182556,-0.2645532786846161,-0.04177157208323479,0.19207294285297394,0.7814526557922363,-0.5066491961479187,0.013446632772684097,0.28296804428100586,0.256092369556427,-2.9687659740448,-0.13890574872493744,-0.03839863836765289,-0.02260890044271946,3.1954641342163086,-0.2701796889305115,0.012549055740237236,-0.045054033398628235,1.0899360179901123,1.7657455205917358,-0.6601235270500183,-0.7037227749824524,0.23013722896575928,1.094413161277771,-0.5413121581077576,1.9880259037017822,0.34611034393310547,0.9247810244560242,0.8281726837158203,1.5521248579025269,-0.36587557196617126,1741530214.2070234,1741530214128,3.168219970703125,-1.9173980712890626,0.9980206187827199,5.48654052734375,0.792460693359375
1741530214.1805007,1.025292694568634,0.008529611808991125,-0.025516734343200693,-0.9996380054754053,0.017027368769049644,0.004274788778275251,0.3059022128582001,-20.041147232055664,0.13846604526042938,19.218896865844727,-0.10357093811035156,0.09403419494628906,0.3435187339782715,-1.2535521984100342,0.00476844422519207,-0.9172579646110535,0.01735713705420494,1.2062492370605469,0.009346150793135166,0.9699015617370605,-0.20084688067436218,-0.6265735626220703,0.1489662081003189,0.25387197732925415,0.7681010365486145,-0.3343158960342407,-0.023909728974103928,-0.27141985297203064,-0.02727550081908703,0.20313572883605957,0.8791103959083557,-0.4694294333457947,0.002831387333571911,-0.1485796421766281,-0.061672601848840714,-3.4167280197143555,-0.037935592234134674,-0.10266434401273727,0.03921664506196976,2.9299633502960205,0.20043213665485382,0.0449218824505806,-0.056309059262275696,1.3086642026901245,1.3707456588745117,-1.390777826309204,-2.1225814819335938,-0.8756152987480164,0.4737272560596466,0.9920080304145813,-0.8615308403968811,0.5118929147720337,0.5625369548797607,5.765159606933594,1.8475878238677979,-0.7747676372528076,1741530214.2070234,1741530214128,3.168219970703125,-1.9173980712890626,0.9980206187827199,5.48654052734375,0.792460693359375
1741530214.2005334,1.0267089307308197,0.01441058926989626,-0.028927331392352255,-0.9994776357755142,0.26017576456069946,0.23949366807937622,-0.20070880651474,1.3488335609436035,-5.401476860046387,10.742890357971191,-0.10433387756347656,0.09632301330566406,0.26989394426345825,-1.2485930919647217,0.005149920005351305,-0.9145876169204712,0.06237125024199486,1.221508264541626,0.009727626107633114,0.9683756828308105,-0.164988175034523,-0.6139848828315735,0.10624094307422638,0.22182802855968475,0.775730550289154,-0.3286173343658447,-0.0076394579373300076,-0.3542000353336334,-0.00667582219466567,0.20923933386802673,1.0664149522781372,-0.4261459708213806,-0.008834495209157467,0.005484774708747864,0.06093654781579971,-3.7126104831695557,0.2891022264957428,0.006445548962801695,0.11402352154254913,2.895376205444336,1.0993666648864746,0.034888457506895065,-0.1693243533372879,1.6822086572647095,0.4524494707584381,-2.2330565452575684,-1.6290358304977417,0.4820334315299988,0.1672801673412323,0.8110228180885315,-4.393373012542725,1.562543272972107,0.08532989770174026,9.677841186523438,2.182461977005005,-0.42969295382499695,1741530214.2070234,1741530214128,3.168219970703125,-1.9173980712890626,0.9980206187827199,5.48654052734375,0.792460693359375
1741530214.2205865,1.008434534072876,0.020949302547279516,-0.03683118009076511,-0.9991018921490961,0.3747237026691437,0.32087984681129456,-0.9434064626693726,-4.454250335693359,-2.7397079467773438,12.820685386657715,-0.10395240783691406,0.09670448303222656,0.1958876997232437,-1.2482116222381592,0.005531395319849253,-0.9138246774673462,0.10166323184967041,1.236767292022705,0.010872052982449532,0.9634165167808533,-0.1367589831352234,-0.6002517938613892,0.08564125746488571,0.20885786414146423,0.7845044732093811,-0.3379856050014496,9.459160537517164e-06,-0.4713130295276642,0.032616160809993744,0.1974135935306549,1.2773709297180176,-0.392345666885376,-0.005479862447828054,-0.0007223442662507296,0.016746196895837784,-3.761319398880005,0.02423170395195484,-0.002252921462059021,0.03375622257590294,2.7184202671051025,0.9408693313598633,0.025551874190568924,-0.34199944138526917,1.4706329107284546,0.8137472867965698,-0.9344531297683716,-0.4897482991218567,0.3627065420150757,-0.528192937374115,0.5568104386329651,-5.846022129058838,2.1082119941711426,-0.5690250992774963,10.421305656433105,1.4000046253204346,0.13385415077209473,1741530214.2070234,1741530214128,3.168219970703125,-1.9173980712890626,0.9980206187827199,5.48654052734375,0.792460693359375
1741530214.2405655,0.981828361749649,0.024139041260082563,-0.04368268512341401,-0.9987537883319656,0.41473478078842163,0.09428811818361282,-1.388041377067566,-0.7738255262374878,-0.553095281124115,14.18604564666748,-0.11539649963378906,0.10891151428222656,0.12378881871700287,-1.2463041543960571,0.005531395319849253,-0.9134432077407837,0.1497291475534439,1.2516448497772217,0.009727626107633114,0.9565499424934387,-0.10662241280078888,-0.5746929049491882,0.08220797777175903,0.21190966665744781,0.7902265787124634,-0.3512904644012451,0.014283801428973675,-0.5849927663803101,0.06961929053068161,0.1676585078239441,1.4444571733474731,-0.39770856499671936,-0.006623740307986736,-0.3852119445800781,0.37520018219947815,-3.513887643814087,0.15880954265594482,0.004665639717131853,0.011680418625473976,3.2935023307800293,0.9938826560974121,-0.030014870688319206,-0.41969072818756104,1.549994707107544,1.3950111865997314,-0.13853590190410614,0.1940849870443344,0.32412564754486084,-0.6593570709228516,0.6814355254173279,-5.497030735015869,1.8170276880264282,-1.5767916440963745,7.794206142425537,-0.5734301805496216,-0.18303282558918,1741530214.2070234,1741530214128,3.168219970703125,-1.9173980712890626,0.9980206187827199,5.48654052734375,0.792460693359375
1741530214.2605896,0.9533532559871674,0.02338997221006799,-0.04944948608893238,-0.9985027078208414,0.25415873527526855,-0.11101418733596802,-1.4277468919754028,-0.33167970180511475,-3.535784959793091,11.038232803344727,-0.11425209045410156,0.12035560607910156,0.059319447726011276,-1.2424894571304321,0.005149920005351305,-0.9145876169204712,0.20656901597976685,1.2604187726974487,0.010109102353453636,0.9496833682060242,-0.08030059933662415,-0.5388342142105103,0.08030059933662415,0.21152819693088531,0.7913710474967957,-0.3693397045135498,0.002340767765417695,-0.6795986890792847,0.09594109654426575,0.12302586436271667,1.5306706428527832,-0.4352172911167145,-0.010596388019621372,-0.006471049506217241,0.34275656938552856,-3.3011088371276855,0.2997704744338989,-0.005299266427755356,-0.07481680810451508,3.883981227874756,0.5829797387123108,0.0055349585600197315,-0.4996925890445709,1.1737520694732666,1.7881629467010498,-0.1372220665216446,-0.030399560928344727,-0.02524188533425331,-0.9789093136787415,-0.8070054650306702,-4.721612930297852,1.134742259979248,-2.3577067852020264,3.6096181869506836,-2.047057628631592,-0.0001911267900140956,1741530214.3080957,1741530214248,3.2284267578125,-1.8206662597656251,0.9505900049465291,5.51555908203125,0.8977057495117188
1741530214.2806091,0.9279157817363739,0.02159012911796805,-0.04670390346668779,-0.998675428618149,-0.12287569046020508,-0.14116929471492767,-1.2209653854370117,-0.2321600764989853,-5.028193473815918,8.901312828063965,-0.12607765197753906,0.12760353088378906,0.007438773289322853,-1.235241413116455,0.005149920005351305,-0.9180209040641785,0.2645532786846161,1.2684297561645508,0.010109102353453636,0.9443427324295044,-0.06389715522527695,-0.4980163276195526,0.07305257022380829,0.20504310727119446,0.7856488823890686,-0.3971991539001465,0.00022736639948561788,-0.7562752962112427,0.10471503436565399,0.06809338182210922,1.5352483987808228,-0.4797396957874298,0.004078247584402561,-0.33617934584617615,0.2098023146390915,-2.498131513595581,0.46167510747909546,-0.010334327816963196,-0.1426345407962799,3.7887208461761475,0.43571701645851135,0.005694687832146883,-0.3845668137073517,0.8388383388519287,2.0871055126190186,-0.3955034613609314,-0.4022165536880493,-0.34612810611724854,-1.4670298099517822,0.1716184765100479,-3.7365517616271973,0.3851326107978821,-2.7124695777893066,-0.2944886386394501,-2.278015613555908,0.9370068907737732,1741530214.3080957,1741530214248,3.2284267578125,-1.8206662597656251,0.9505900049465291,5.51555908203125,0.8977057495117188
1741530214.3006465,0.9143984019756317,0.020864747629997783,-0.042707561089671046,-0.9988697245047066,-0.19486470520496368,-0.05653414502739906,-0.6751300096511841,-1.3438113927841187,-0.40361934900283813,9.048266410827637,-0.13332557678222656,0.12645912170410156,-0.034142062067985535,-1.2340970039367676,0.00476844422519207,-0.9210727214813232,0.3217746317386627,1.2688112258911133,0.009727626107633114,0.9390020370483398,-0.04940108209848404,-0.45986875891685486,0.06313420087099075,0.19054703414440155,0.7761120200157166,-0.4292585253715515,-0.0008515740628354251,-0.8173113465309143,0.09899290651082993,0.021553369238972664,1.4726864099502563,-0.5080049633979797,0.008275455795228481,-0.20628345012664795,0.005564441904425621,-2.0780081748962402,-0.024363670498132706,-0.08897606283426285,-0.21750092506408691,3.7512545585632324,-0.07481589913368225,-0.004159432835876942,-0.3526381552219391,0.6495174765586853,1.8249973058700562,-0.5080791711807251,-0.7468151450157166,-0.41746386885643005,-1.6244254112243652,-0.14608514308929443,-2.8709819316864014,-0.3730170726776123,-2.258894205093384,-3.635694742202759,-1.208060383796692,-0.00666574714705348,1741530214.3080957,1741530214248,3.2284267578125,-1.8206662597656251,0.9505900049465291,5.51555908203125,0.8977057495117188
1741530214.320692,0.9043051600456238,0.022816616855488633,-0.03777486278026363,-0.9990257562932009,-0.22766627371311188,0.09500408917665482,-0.49586886167526245,2.433320999145508,-4.397388458251953,7.642460823059082,-0.13904762268066406,0.11654090881347656,-0.08030059933662415,-1.235241413116455,0.005531395319849253,-0.9336614012718201,0.3732738196849823,1.2672853469848633,0.009727626107633114,0.9344243407249451,-0.035667963325977325,-0.4327840209007263,0.054741740226745605,0.17566949129104614,0.7688639760017395,-0.4634610116481781,-0.007845373824238777,-0.8562218546867371,0.08335240930318832,-0.013923857361078262,1.3689249753952026,-0.5020118951797485,0.008573143742978573,-0.17809882760047913,-0.3051909804344177,-2.1975057125091553,-0.059997327625751495,0.0010377202415838838,-0.7032178640365601,3.368455648422241,-0.06041890010237694,0.004839408677071333,-0.2636267840862274,0.6335585117340088,1.2317358255386353,-0.3445609211921692,-0.7272078394889832,-0.4045577943325043,-1.6926662921905518,-0.21517330408096313,-1.7813737392425537,-0.8016765713691711,-1.756462574005127,-5.399121284484863,0.5842693448066711,0.20015281438827515,1741530214.3080957,1741530214248,3.2284267578125,-1.8206662597656251,0.9505900049465291,5.51555908203125,0.8977057495117188
1741530214.340693,0.8995222747325897,0.026434988796861396,-0.03297608977539688,-0.9991064852509141,-0.260896235704422,0.2503242492675781,-0.30707845091819763,2.445263385772705,-2.8091776371002197,5.485013008117676,-0.14324378967285156,0.10357093811035156,-0.10929274559020996,-1.235241413116455,0.005531395319849253,-0.951209306716919,0.43011367321014404,1.2684297561645508,0.009727626107633114,0.9275577664375305,-0.011635004542768002,-0.4011215269565582,0.04711223021149635,0.15850308537483215,0.7623788714408875,-0.49444445967674255,-0.007987016811966896,-0.8794918656349182,0.05359731614589691,-0.038719769567251205,1.2430380582809448,-0.46425601840019226,0.01774623803794384,-0.1193910762667656,-0.48495033383369446,-1.2803312540054321,-0.004170033149421215,0.008638052269816399,-0.8667227029800415,3.8451783657073975,0.03082294389605522,-0.020217061042785645,-0.5622396469116211,1.343953251838684,1.631791591644287,-0.455542653799057,-0.9559429287910461,-0.3191128671169281,-1.4796953201293945,0.13072481751441956,-0.9950821995735168,-1.596558928489685,-1.1531264781951904,-6.435412883758545,1.9676538705825806,0.32719147205352783,1741530214.3080957,1741530214248,3.2284267578125,-1.8206662597656251,0.9505900049465291,5.51555908203125,0.8977057495117188
1741530214.3606904,0.8945196568965912,0.03437302294434068,-0.028848907445881998,-0.9989926104996206,-0.15562422573566437,0.3753742277622223,-0.21746614575386047,-0.6164596080780029,0.49190086126327515,10.380548477172852,-0.14362525939941406,0.09479713439941406,-0.11768520623445511,-1.235241413116455,0.005531395319849253,-0.9645609259605408,0.4678797721862793,1.2661409378051758,0.009727626107633114,0.9214541912078857,0.024223696440458298,-0.3736552894115448,0.03185320645570755,0.12989242374897003,0.7543678879737854,-0.5216683149337769,-0.004586631432175636,-0.8768215179443359,0.009346150793135166,-0.06275273114442825,1.1015106439590454,-0.4194999039173126,0.014553448185324669,-0.012228368781507015,-0.306339293718338,-0.28273695707321167,-0.025906940922141075,-0.0009232153533957899,-0.6244178414344788,2.4065637588500977,-0.1721741110086441,-0.0017108272295445204,-0.40153101086616516,1.8486872911453247,1.3831182718276978,-0.7393912076950073,-1.5584555864334106,-0.3522782027721405,-1.3194066286087036,0.26776933670043945,0.3159742057323456,-2.2423579692840576,-1.2163968086242676,-7.0532684326171875,2.2823240756988525,-0.23066678643226624,1741530214.3080957,1741530214248,3.2284267578125,-1.8206662597656251,0.9505900049465291,5.51555908203125,0.8977057495117188
1741530214.3807065,0.8914527297019958,0.0413828823177587,-0.028657743234211434,-0.9987322918599341,0.014799591153860092,0.29170846939086914,-0.15609274804592133,4.322659969329834,-0.16160179674625397,5.97043514251709,-0.14133644104003906,0.09212589263916016,-0.10547798871994019,-1.236767292022705,0.005531395319849253,-0.9706645011901855,0.48962387442588806,1.2634705305099487,0.009727626107633114,0.9145876169204712,0.06466010212898254,-0.33245593309402466,0.0078202486038208,0.09479667246341705,0.7402533292770386,-0.5342944860458374,-0.005484114401042461,-0.8653773069381714,-0.03833829239010811,-0.10814831405878067,0.9657053351402283,-0.3735387623310089,0.006673234514892101,0.057264797389507294,-0.04655585065484047,0.7971698045730591,-0.11773871630430222,-0.0038813280407339334,-0.2195630669593811,1.2223103046417236,-0.21551613509655,0.0036401429679244757,-0.4542175531387329,1.9250633716583252,2.064598321914673,-1.2101377248764038,-1.7095400094985962,-0.8649810552597046,-0.49141886830329895,-0.07149911671876907,0.6481893062591553,-2.3812255859375,-2.4660165309906006,-6.585296154022217,2.2400829792022705,-0.5895577669143677,1741530214.3080957,1741530214248,3.2284267578125,-1.8206662597656251,0.9505900049465291,5.51555908203125,0.8977057495117188
1741530214.4013324,0.8891180753707886,0.04036613992909106,-0.033993274121083474,-0.9986065451726991,0.3060145080089569,-0.1110350489616394,-0.10565660893917084,1.9506036043167114,-3.033848524093628,5.703031539916992,-0.13446998596191406,0.09632301330566406,-0.07038223743438721,-1.2394375801086426,0.005531395319849253,-0.9714275002479553,0.49267566204071045,1.2573670148849487,0.009727626107633114,0.9100099205970764,0.09517814964056015,-0.2756160795688629,-0.016594186425209045,0.06427863240242004,0.7234683632850647,-0.5167253613471985,-0.010927379131317139,-0.8432517051696777,-0.09212634712457657,-0.15812161564826965,0.8566033244132996,-0.341019868850708,-0.007613017689436674,0.18541491031646729,0.17224621772766113,1.9541922807693481,-0.17441938817501068,0.0005018444499000907,-0.03307676315307617,0.044000014662742615,-0.45874813199043274,-0.006046414840966463,-0.29367467761039734,1.3722102642059326,2.8792309761047363,-1.210461974143982,-1.4201534986495972,-0.8046041131019592,0.9287770390510559,0.1023339182138443,1.1544737815856934,-2.721497058868408,-2.475240707397461,-5.209345817565918,1.437821626663208,-0.6882424354553223,1741530214.3080957,1741530214248,3.2284267578125,-1.8206662597656251,0.9505900049465291,5.51555908203125,0.8977057495117188
1741530214.420737,0.8871977627277374,0.03059264826618321,-0.043969069465205776,-0.9985643748914866,0.5643449425697327,-0.5684969425201416,-0.05094923824071884,7.79346227645874,-1.5478795766830444,12.859597206115723,-0.13065528869628906,0.11463356018066406,-0.01583123579621315,-1.2413450479507446,0.005531395319849253,-0.9710460305213928,0.47779813408851624,1.2497375011444092,0.009727626107633114,0.9077210426330566,0.11272602528333664,-0.22602425515651703,-0.045204851776361465,0.043678950518369675,0.7345311641693115,-0.5060243010520935,0.00028679336537607014,-0.8176928162574768,-0.12607766687870026,-0.19283588230609894,0.8093003630638123,-0.31980830430984497,-0.021473292261362076,0.11278721690177917,0.5325384736061096,2.628671407699585,-0.16603122651576996,0.006972234230488539,0.0071473149582743645,-1.144128680229187,-0.5440511107444763,-0.009335063397884369,-0.16930371522903442,0.8815863132476807,2.3426871299743652,-1.106079339981079,-0.9082922339439392,0.9315369725227356,0.44450926780700684,0.3493870794773102,1.2099140882492065,-1.3745002746582031,-1.5622389316558838,-1.1761142015457153,1.0713444948196411,-0.6724810600280762,1741530214.3080957,1741530214248,3.2284267578125,-1.8206662597656251,0.9505900049465291,5.51555908203125,0.8977057495117188
