Freshhhhh-LC/Legged_odom/data/7/segments/booster_seg_9.89s.csv
time,yaw,projected_gravity_x,projected_gravity_y,projected_gravity_z,ang_vel_x,ang_vel_y,ang_vel_z,lin_acc_x,lin_acc_y,lin_acc_z,q_0,q_1,q_2,q_3,q_4,q_5,q_6,q_7,q_8,q_9,q_10,q_11,q_12,q_13,q_14,q_15,q_16,q_17,q_18,q_19,q_20,q_21,q_22,dq_0,dq_1,dq_2,dq_3,dq_4,dq_5,dq_6,dq_7,dq_8,dq_9,dq_10,dq_11,dq_12,dq_13,dq_14,dq_15,dq_16,dq_17,dq_18,dq_19,dq_20,dq_21,dq_22,mocap_time,mocap_timestamp,robot_x,robot_y,robot_yaw,ball_x,ball_y
1741530586.2212477,3.730607032775879,-0.04776415884120058,0.025524136536833962,-0.9985324749772747,-0.12533573806285858,-0.11662236601114273,-0.28089311718940735,8.66142749786377,6.706630706787109,9.472472190856934,-0.3027009963989258,0.057030677795410156,0.23594263195991516,-1.301999568939209,0.005531395319849253,-0.8104447722434998,0.16117341816425323,1.2608002424240112,0.009346150793135166,0.778019368648529,0.25539788603782654,-0.8611810207366943,-0.042153049260377884,-0.14782176911830902,1.2762264013290405,-0.42541569471359253,-0.0018344685668125749,-0.45834288001060486,0.056267641484737396,-0.1680399775505066,0.6887540817260742,-0.4283808469772339,-0.03844429925084114,0.35516679286956787,0.03438812866806984,1.49143648147583,0.4248546063899994,-0.005072273313999176,-1.2255667448043823,-1.807281732559204,-0.43279653787612915,0.0017137989634647965,1.2881752252578735,0.44408267736434937,-3.45235276222229,-0.7353705167770386,0.5759832262992859,4.608717918395996,1.4693979024887085,-0.08724452555179596,-0.5834177136421204,0.626774251461029,0.19145090878009796,-0.45979785919189453,-0.43036776781082153,-0.8455894589424133,1741530586.2424488,1741530586148,3.2275358886718752,0.0058068008422851565,-2.5528891069299595,-2.6552768554687503,-2.824976806640625
1741530586.2231762,3.700165271759033,-0.04560562718858676,0.028987607823227485,-0.9985388552086606,0.09290271997451782,0.13399788737297058,-0.8795832991600037,-5.44694709777832,-0.8175636529922485,13.48344898223877,-0.2653160095214844,0.050164222717285156,0.309567391872406,-1.292462706565857,0.005531395319849253,-0.8527885675430298,0.09861142933368683,1.2558410167694092,0.009727626107633114,0.8226520419120789,0.25387197732925415,-0.9042877554893494,-0.07267109304666519,-0.11348897218704224,1.3048371076583862,-0.37612780928611755,0.005952015519142151,-0.4655908942222595,0.07610437273979187,-0.14209964871406555,0.6929503083229065,-0.4509662389755249,-0.05542263016104698,0.35476166009902954,-0.10957732796669006,1.7804709672927856,0.13943108916282654,0.0035250484943389893,-0.8521555662155151,-2.044354200363159,-0.024549027904868126,0.032657962292432785,1.4993586540222168,-0.4759979546070099,0.3815735876560211,-0.19603991508483887,0.5113563537597656,-1.5550856590270996,0.8567391633987427,0.525438129901886,-0.5755541324615479,0.4203217029571533,0.2722274959087372,0.13735322654247284,-0.6427247524261475,-0.6163504719734192,1741530586.2424488,1741530586148,3.2275358886718752,0.0058068008422851565,-2.5528891069299595,-2.6552768554687503,-2.824976806640625
1741530586.2250388,3.7314705848693848,0.04812498481104881,0.0298363968216927,-0.9983956005820712,0.08352009207010269,-0.05272534117102623,0.3738407492637634,-8.742454528808594,7.607992172241211,11.026363372802734,-0.10776710510253906,0.02613067626953125,0.46063172817230225,-1.2573670148849487,0.005912871100008488,-0.9313725233078003,-0.12798504531383514,1.223034143447876,0.009346150793135166,0.9771496057510376,-0.11196307092905045,-0.7818341255187988,0.12836651504039764,0.14476996660232544,0.8882657885551453,-0.3328224718570709,-3.68533656001091e-05,-0.5407415628433228,0.05703059583902359,0.10509651154279709,0.840962827205658,-0.432145893573761,0.02229972369968891,-0.22454525530338287,0.8554168343544006,-1.1341115236282349,0.18092748522758484,0.04842608422040939,0.26151779294013977,2.027536392211914,-0.17855848371982574,-0.05199937894940376,0.015364901162683964,-0.22728724777698517,2.7937798500061035,0.3550143539905548,3.4052913188934326,0.6796027421951294,3.1522586345672607,0.32964643836021423,1.6207689046859741,0.21778015792369843,0.11174444109201431,1.6817280054092407,-1.5214223861694336,-2.0649454593658447,1741530586.2424488,1741530586148,3.2275358886718752,0.0058068008422851565,-2.5528891069299595,-2.6552768554687503,-2.824976806640625
1741530586.243061,3.741074323654175,0.047964416724826965,0.02459807370641865,-0.9985461178624555,0.2042035609483719,-0.20331916213035583,0.3911515176296234,0.4557744860649109,-5.664641380310059,15.674222946166992,-0.10738563537597656,0.032616615295410156,0.41103988885879517,-1.2566040754318237,0.005912871100008488,-0.9287022352218628,-0.07381551712751389,1.2211267948150635,0.008964675478637218,0.9744792580604553,-0.09212634712457657,-0.7413977384567261,0.11768520623445511,0.14476996660232544,0.8718623518943787,-0.3009081482887268,-0.002016232116147876,-0.5155642032623291,0.06008239835500717,0.1028076633810997,0.8703364729881287,-0.4478287994861603,-0.001564284902997315,0.0012673215242102742,0.3089750409126282,-2.7665016651153564,0.018432971090078354,0.046915601938962936,0.14935055375099182,3.8605639934539795,-0.18128012120723724,0.007641887757927179,-0.31577417254447937,0.8866828083992004,1.5159071683883667,-0.48172226548194885,-0.6530106067657471,-1.1539236307144165,1.3800389766693115,-0.07798323035240173,1.1163878440856934,-0.13413433730602264,-0.04687875136733055,1.4138747453689575,-0.5056673288345337,-0.7582300901412964,1741530586.2424488,1741530586148,3.2275358886718752,0.0058068008422851565,-2.5528891069299595,-2.6552768554687503,-2.824976806640625
1741530586.2630658,3.743563413619995,0.04502614697635905,0.021023646098271044,-0.9987645630443632,0.18019577860832214,0.012745905667543411,0.07958236336708069,9.183493614196777,-10.081052780151367,11.490572929382324,-0.11501502990722656,0.02613067626953125,0.34847790002822876,-1.2573670148849487,0.005149920005351305,-0.9225986003875732,-0.01735713705420494,1.219982385635376,0.009346150793135166,0.967994213104248,-0.05855649709701538,-0.6940947771072388,0.09555962681770325,0.11120012402534485,0.8760585784912109,-0.30192264914512634,0.017709210515022278,-0.5006866455078125,0.04634927958250046,0.09327077120542526,0.9370946884155273,-0.4286311864852905,0.00850822776556015,-0.2294689416885376,-0.11636333167552948,-3.0453782081604004,-0.08215022832155228,-0.06204870343208313,0.2976573407649994,3.7656946182250977,0.04859732836484909,0.023226622492074966,-0.44680047035217285,1.679473638534546,2.2436790466308594,-1.7320852279663086,-1.3773692846298218,0.3177960216999054,-0.34759920835494995,1.2214046716690063,0.7438550591468811,-0.37988609075546265,-0.7057788372039795,3.912562608718872,1.1402631998062134,0.49608954787254333,1741530586.2424488,1741530586148,3.2275358886718752,0.0058068008422851565,-2.5528891069299595,-2.6552768554687503,-2.824976806640625
1741530586.2831075,3.7333240509033203,0.036708040921984195,0.019398967596606993,-0.9991377281375455,0.06259335577487946,-0.407709002494812,-0.5941784977912903,-12.353395462036133,-3.5824406147003174,12.321584701538086,-0.11806678771972656,0.039864540100097656,0.28439003229141235,-1.2546966075897217,0.005149920005351305,-0.9199283123016357,0.038719769567251205,1.2321895360946655,0.010872052982449532,0.959220290184021,-0.02040894143283367,-0.6727321147918701,0.06733043491840363,0.08983749151229858,0.8779659867286682,-0.3368344008922577,0.029891017824411392,-0.5460822582244873,0.03833829239010811,0.06427863240242004,1.053444743156433,-0.3939102292060852,-0.001302103977650404,-0.08114016056060791,0.4231729805469513,-3.3106465339660645,0.22285562753677368,-0.06754203885793686,0.08977060765028,3.8208675384521484,0.9774288535118103,0.1186712235212326,-0.5610108375549316,1.9314627647399902,1.2165380716323853,-1.2932559251785278,-1.0581332445144653,0.1919230818748474,-1.847826361656189,0.27850422263145447,-2.5858750343322754,-0.5391339063644409,-1.2469964027404785,5.921940803527832,1.7414449453353882,-0.5164865255355835,1741530586.2424488,1741530586148,3.2275358886718752,0.0058068008422851565,-2.5528891069299595,-2.6552768554687503,-2.824976806640625
1741530586.3031628,3.7163197994232178,0.0407470538517122,0.020737567607525938,-0.9989542686690562,-0.038629110902547836,0.22107791900634766,-0.9224445223808289,5.424556255340576,-2.9823532104492188,9.654574394226074,-0.12417030334472656,0.02536773681640625,0.21152819693088531,-1.2466856241226196,0.005531395319849253,-0.9222171306610107,0.10013733059167862,1.2505004405975342,0.010109102353453636,0.953498125076294,0.010872052982449532,-0.6330586671829224,0.0551232174038887,0.07877469807863235,0.8806362748146057,-0.3739721179008484,0.0147135304287076,-0.6147478222846985,0.03757534176111221,0.02880140393972397,1.201838731765747,-0.3725159764289856,-0.007901418022811413,-0.1796136498451233,-0.34640347957611084,-3.6324362754821777,0.5929478406906128,0.02299085631966591,-0.11969685554504395,4.07963752746582,1.1431279182434082,-0.04885406047105789,-0.4014643728733063,1.4645789861679077,1.7740371227264404,-0.540063738822937,-0.4199582636356354,-0.03089115209877491,-1.861327886581421,-0.7952431440353394,-3.3892877101898193,0.15083624422550201,-1.7414385080337524,7.46091890335083,0.8644698858261108,-0.0897064134478569,1741530586.344864,1741530586248,3.15717919921875,-0.057898330688476565,-2.5709949282580022,-2.772205810546875,-2.883668701171875
1741530586.3231292,3.696326732635498,0.03578128769132218,0.022015688131867814,-0.9991171147204071,-0.01514801848679781,-0.23550254106521606,-1.0095969438552856,-10.791836738586426,-1.2374106645584106,11.327739715576172,-0.12836647033691406,0.02384185791015625,0.13942931592464447,-1.2363858222961426,0.005149920005351305,-0.9252689480781555,0.1657511293888092,1.2611817121505737,0.010490577667951584,0.9470130205154419,0.03681239113211632,-0.6052109599113464,0.05703059583902359,0.07915617525577545,0.8752956390380859,-0.4094652235507965,0.018493983894586563,-0.699816882610321,0.040245670825242996,-0.002861066721379757,1.3235293626785278,-0.3774667978286743,-0.001346599543467164,-0.12606380879878998,-0.08481796830892563,-3.6659557819366455,0.6693375110626221,-0.028761932626366615,-0.17808857560157776,4.4079203605651855,0.6482706069946289,0.00862639769911766,-0.36672353744506836,1.222908616065979,1.521807074546814,0.14069701731204987,-0.06704474240541458,-0.23676297068595886,-1.7324105501174927,0.374327689409256,-4.097094535827637,0.0668473094701767,-1.470694899559021,5.719514846801758,-0.38884401321411133,0.24268458783626556,1741530586.344864,1741530586248,3.15717919921875,-0.057898330688476565,-2.5709949282580022,-2.772205810546875,-2.883668701171875
1741530586.343203,3.6775286197662354,0.03939985383898803,0.023453237888157275,-0.99894824548123,-0.03807820752263069,0.18720228970050812,-0.9127644896507263,9.256064414978027,-1.5846234560012817,5.093910217285156,-0.13446998596191406,0.01850128173828125,0.06961929053068161,-1.229519248008728,0.005531395319849253,-0.9287022352218628,0.23365376889705658,1.2672853469848633,0.010109102353453636,0.9435797929763794,0.04940108209848404,-0.5491340756416321,0.057793546468019485,0.071908138692379,0.8653773069381714,-0.4353809356689453,0.005527627654373646,-0.7654306888580322,0.04100862145423889,-0.0394827201962471,1.3941023349761963,-0.39813870191574097,-0.003263316350057721,-0.19547848403453827,-0.18589091300964355,-3.273725748062134,0.4252980649471283,0.004723499529063702,-0.13146144151687622,4.5941290855407715,0.31522849202156067,-0.00818859413266182,-0.24121128022670746,0.47028428316116333,2.6447877883911133,0.015326088294386864,-0.3495902717113495,-0.7045775651931763,-1.1942170858383179,-0.894170880317688,-3.1851258277893066,0.06617817282676697,-1.8585519790649414,3.0391452312469482,-1.11250638961792,-2.029051393037662e-05,1741530586.344864,1741530586248,3.15717919921875,-0.057898330688476565,-2.5709949282580022,-2.772205810546875,-2.883668701171875
1741530586.363236,3.6602156162261963,0.031816856395274824,0.026792056822996665,-0.9991345621788468,-0.16739527881145477,-0.391208291053772,-0.8272857666015625,-4.590680122375488,-0.2098657637834549,10.373430252075195,-0.14133644104003906,0.02651214599609375,0.012397955171763897,-1.2241785526275635,0.005531395319849253,-0.9279392957687378,0.30003052949905396,1.2672853469848633,0.010109102353453636,0.9386205673217773,0.05397878959774971,-0.506027340888977,0.05893797054886818,0.06809338182210922,0.8421072959899902,-0.456078439950943,-0.002524584997445345,-0.8226520419120789,0.034142062067985535,-0.07534141838550568,1.4024949073791504,-0.4174583852291107,0.0018037038389593363,-0.2104836255311966,0.22558172047138214,-2.807440757751465,0.34596917033195496,-0.003976957406848669,0.02467837557196617,4.360403537750244,0.021639199927449226,0.013737206347286701,-0.34446921944618225,0.43053296208381653,2.2364590167999268,0.08472593128681183,-0.12816669046878815,-1.1590505838394165,-1.053767204284668,0.10768298804759979,-2.619872808456421,-0.3781740665435791,-1.7108268737792969,0.013427088037133217,-0.8797633051872253,0.38299933075904846,1741530586.344864,1741530586248,3.15717919921875,-0.057898330688476565,-2.5709949282580022,-2.772205810546875,-2.883668701171875
1741530586.3832421,3.650334596633911,0.03205466932136917,0.031038607423612048,-0.9990040555592857,-0.18504828214645386,0.04149599000811577,-0.5009608268737793,5.110592842102051,0.4580557942390442,7.699138641357422,-0.14972877502441406,0.01697540283203125,-0.0394827201962471,-1.223034143447876,0.005149920005351305,-0.9283207654953003,0.3587777614593506,1.2703371047973633,0.009727626107633114,0.9359502792358398,0.06237125024199486,-0.44270238280296326,0.06046387553215027,0.05664911866188049,0.8176928162574768,-0.46702975034713745,0.0015960846794769168,-0.8604180812835693,0.01888304017484188,-0.10700388997793198,1.3651102781295776,-0.42295750975608826,0.0066529749892652035,-0.24567873775959015,-0.22672033309936523,-2.868109703063965,0.0036992572713643312,-0.006411386653780937,-0.05550852790474892,3.8040618896484375,0.10393963754177094,-0.003463257569819689,-0.16013556718826294,0.3932012617588043,3.0307562351226807,-0.013272582553327084,-0.6332235336303711,-1.3527854681015015,-0.4630874693393707,-0.08074010163545609,-1.7692103385925293,-0.8191918730735779,-1.563560128211975,-2.0803604125976562,-0.1075851172208786,0.1399361938238144,1741530586.344864,1741530586248,3.15717919921875,-0.057898330688476565,-2.5709949282580022,-2.772205810546875,-2.883668701171875
1741530586.403244,3.6431076526641846,0.028586769300950752,0.03396524932219414,-0.9990140932236219,-0.13475582003593445,-0.19701778888702393,-0.3434862196445465,0.2946849763393402,3.8405673503875732,8.44890308380127,-0.15201759338378906,0.01926422119140625,-0.0883115902543068,-1.223797082901001,0.00476844422519207,-0.9328984618186951,0.41142138838768005,1.2680482864379883,0.010109102353453636,0.9336614012718201,0.07763027399778366,-0.4064621925354004,0.05397878959774971,0.048638131469488144,0.7829785346984863,-0.4795094132423401,-0.0008946771849878132,-0.8871213793754578,-0.010490577667951584,-0.13866636157035828,1.2968261241912842,-0.4075491428375244,0.005443254951387644,-0.07793933153152466,0.004410013556480408,-2.23862886428833,-0.025309935212135315,-0.11033983528614044,-0.31487593054771423,3.6193418502807617,-0.060542721301317215,0.017764931544661522,-0.2007184624671936,0.7953123450279236,1.6587809324264526,-0.31736037135124207,-0.34951651096343994,-1.6490331888198853,-0.6455528140068054,-0.0034698136150836945,-1.24472975730896,-1.6441720724105835,-1.5551997423171997,-3.53999924659729,0.9292458891868591,-0.008278556168079376,1741530586.344864,1741530586248,3.15717919921875,-0.057898330688476565,-2.5709949282580022,-2.772205810546875,-2.883668701171875
1741530586.4232516,3.6370134353637695,0.030497288098112398,0.03447540300248672,-0.9989401193297208,0.0023521336261183023,0.18841589987277985,-0.312509685754776,3.6217875480651855,-2.508356809616089,7.0448808670043945,-0.15468788146972656,0.01544952392578125,-0.11730372905731201,-1.2241785526275635,0.005912871100008488,-0.9428167939186096,0.4655908942222595,1.2676668167114258,0.009727626107633114,0.927176296710968,0.10662241280078888,-0.35076677799224854,0.04901960864663124,0.029564354568719864,0.7520790696144104,-0.49045470356941223,-0.0025664109271019697,-0.8958953022956848,-0.049782559275627136,-0.17261768877506256,1.205653429031372,-0.37421512603759766,0.00850242841988802,-0.09270517528057098,-0.12114668637514114,-1.303727149963379,-0.028334829956293106,0.05444978550076485,-0.5524536967277527,3.309732675552368,-0.12387099862098694,-0.005118582397699356,-0.39799314737319946,1.4464325904846191,2.8888139724731445,-0.2584887742996216,-1.0602513551712036,-1.617627739906311,-0.5164116621017456,-0.14346134662628174,-0.36475488543510437,-1.9815913438796997,-1.686967134475708,-4.675698757171631,1.7088263034820557,0.12141971290111542,1741530586.344864,1741530586248,3.15717919921875,-0.057898330688476565,-2.5709949282580022,-2.772205810546875,-2.883668701171875
1741530586.443272,3.6325876712799072,0.0318449904251215,0.03422287269954331,-0.9989067481847416,0.024011436849832535,0.013553060591220856,-0.22994783520698547,-12.768736839294434,2.0636579990386963,12.69406509399414,-0.15583229064941406,0.00934600830078125,-0.12455176562070847,-1.224941611289978,0.005531395319849253,-0.9531166553497314,0.4968718886375427,1.2627075910568237,0.010109102353453636,0.9210727214813232,0.135233074426651,-0.3084229826927185,0.03681239113211632,0.01201647985726595,0.7043945789337158,-0.5037602782249451,-0.003365423297509551,-0.8779659867286682,-0.09098191559314728,-0.20428015291690826,1.0961699485778809,-0.3323776423931122,0.005052126944065094,-0.04201377555727959,-0.17150059342384338,-0.15663276612758636,-0.05119911581277847,-0.004384365864098072,-0.5160433650016785,2.0171031951904297,-0.2814822494983673,0.021000416949391365,-0.39196938276290894,1.4560586214065552,2.070725202560425,-0.6375524997711182,-0.7013498544692993,-2.287693500518799,-0.6561605930328369,0.03690652176737785,1.1939839124679565,-2.062777280807495,-1.561479091644287,-5.7403340339660645,2.1136343479156494,-0.2426656186580658,1741530586.540601,1741530586348,3.08059326171875,-0.10525177764892578,-2.645089213279669,-2.891083251953125,-2.92667138671875
1741530586.4632916,3.6283786296844482,0.03871208691648458,0.03130026341892529,-0.998760065199083,0.17829184234142303,0.2944440543651581,-0.25863006711006165,1.5355597734451294,-1.3226295709609985,5.289165019989014,-0.15468788146972656,-0.00057220458984375,-0.11272602528333664,-1.2253230810165405,0.005531395319849253,-0.9626535177230835,0.506790280342102,1.2615631818771362,0.009727626107633114,0.9164950251579285,0.16994735598564148,-0.23823148012161255,0.03032730519771576,-0.009346150793135166,0.6692988276481628,-0.5013156533241272,-0.006470377556979656,-0.8516441583633423,-0.12340734153985977,-0.25539788603782654,0.9634165167808533,-0.2954229414463043,-0.0009957377333194017,0.04916028305888176,-0.17121003568172455,0.7289888858795166,-0.003907519858330488,-0.0019162849057465792,-0.4559800326824188,0.3610619604587555,-0.12200144678354263,0.03683043271303177,-0.29334190487861633,1.593580722808838,3.3662948608398438,-0.32081395387649536,-1.0579193830490112,-1.8327492475509644,0.19743390381336212,-0.08761074393987656,1.3781602382659912,-1.555318832397461,-2.558595657348633,-6.731245994567871,1.7652614116668701,-0.10608915239572525,1741530586.540601,1741530586348,3.08059326171875,-0.10525177764892578,-2.645089213279669,-2.891083251953125,-2.92667138671875
1741530586.4833412,3.6232962608337402,0.036878625592022395,0.025792812818687616,-0.9989868356396613,0.26801249384880066,-0.1393584907054901,-0.278780072927475,0.2386786788702011,0.11077006906270981,5.462600231170654,-0.15125465393066406,0.00171661376953125,-0.07763027399778366,-1.2253230810165405,0.005531395319849253,-0.9641794562339783,0.50030517578125,1.2554595470428467,0.009727626107633114,0.9122987985610962,0.19092851877212524,-0.18520638346672058,0.01773861236870289,-0.027656977996230125,0.6418325901031494,-0.4948257505893707,-0.0013889719266444445,-0.8085374236106873,-0.14782176911830902,-0.2946898639202118,0.8268482685089111,-0.28131377696990967,-0.007073134649544954,0.12196268886327744,0.0633905902504921,1.8710960149765015,-0.00990920141339302,-0.002090318128466606,-0.020024612545967102,-0.5511879324913025,-0.41719743609428406,-0.028323015198111534,-0.26434093713760376,0.8867156505584717,2.4062609672546387,-0.6310627460479736,-0.7502013444900513,-1.1998056173324585,0.2845699191093445,0.2382659763097763,2.276791572570801,-1.1117092370986938,-1.8691513538360596,-6.657206058502197,0.4516463577747345,-0.29009440541267395,1741530586.540601,1741530586348,3.08059326171875,-0.10525177764892578,-2.645089213279669,-2.891083251953125,-2.92667138671875
1741530586.5033824,3.617459297180176,0.030846014148721592,0.017987474737786155,-0.9993622837408335,0.43031156063079834,-0.25099050998687744,-0.26256251335144043,-0.8934770822525024,4.775662422180176,7.735121250152588,-0.14858436584472656,0.01125335693359375,-0.024223696440458298,-1.2253230810165405,0.005531395319849253,-0.9611276388168335,0.47474631667137146,1.2516448497772217,0.009727626107633114,0.9130617380142212,0.20237277448177338,-0.152399480342865,-0.011635004542768002,-0.024986648932099342,0.6715877056121826,-0.4882752597332001,-0.001254300237633288,-0.7578011751174927,-0.1501106321811676,-0.31567102670669556,0.6986724734306335,-0.3007686138153076,-0.011919543147087097,0.08082502335309982,0.27194610238075256,2.778435468673706,-0.01588249020278454,-0.009984968230128288,0.11520200967788696,-1.865363597869873,-0.22881130874156952,-0.005711669567972422,0.0425608791410923,0.6007058024406433,1.5975778102874756,-1.3033897876739502,0.21519118547439575,2.2175590991973877,0.39058294892311096,0.0536113977432251,2.422882080078125,-0.08587107062339783,-0.7884814143180847,-6.239960670471191,-1.2536516189575195,-0.11731364578008652,1741530586.540601,1741530586348,3.08059326171875,-0.10525177764892578,-2.645089213279669,-2.891083251953125,-2.92667138671875
1741530586.5233824,3.612370729446411,0.026070280099920674,0.0029888344618583564,-0.9996556443916431,0.7878321409225464,-0.31107112765312195,-0.09769963473081589,-33.98009490966797,-9.605834007263184,17.556686401367188,-0.14629554748535156,0.01926422119140625,0.03528648987412453,-1.2291377782821655,0.005912871100008488,-0.961509108543396,0.4331654906272888,1.2466856241226196,0.009727626107633114,0.9138246774673462,0.20504310727119446,-0.17223620414733887,-0.00476844422519207,-0.048256658017635345,0.7803082466125488,-0.47359538078308105,0.01583865098655224,-0.7291905283927917,-0.12569619715213776,-0.28744181990623474,0.6818875670433044,-0.29531291127204895,-0.022210557013750076,0.04794309660792351,0.266997754573822,2.8019258975982666,-0.4487192928791046,0.00922637339681387,-0.010715097188949585,-2.840075731277466,-0.40879014134407043,-0.0061377547681331635,-0.04528455436229706,0.0737227350473404,-1.6310186386108398,0.6723034381866455,-1.350990653038025,5.8495192527771,0.835602343082428,0.9527206420898438,1.5176310539245605,1.6432088613510132,1.7742303609848022,1.0282949209213257,0.5839227437973022,-0.619566798210144,1741530586.540601,1741530586348,3.08059326171875,-0.10525177764892578,-2.645089213279669,-2.891083251953125,-2.92667138671875
1741530586.5434139,3.607637882232666,0.029316864011693554,0.006287678859341734,-0.9995503922159611,-0.2181597203016281,0.08506155014038086,-0.1146085113286972,15.26547908782959,11.152398109436035,2.9310078620910645,-0.15011024475097656,0.02307891845703125,0.09975585341453552,-1.236767292022705,0.006294346414506435,-0.960746169090271,0.368314653635025,1.2451597452163696,0.010872052982449532,0.9096284508705139,0.19474326074123383,-0.24090181291103363,-0.026131074875593185,-0.07724879682064056,0.9397650361061096,-0.4354173541069031,0.025903677567839622,-0.7177462577819824,-0.10051880776882172,-0.22678720951080322,0.7310978770256042,-0.2996574640274048,-0.029660174623131752,-0.22381411492824554,0.20414979755878448,3.0930910110473633,-0.3786524534225464,0.08552691340446472,0.057495299726724625,-4.630804538726807,0.18652012944221497,0.10152199864387512,-0.15498097240924835,-0.40241533517837524,-3.8857421875,-1.2252875566482544,-1.425391674041748,8.595147132873535,2.0622646808624268,0.39939215779304504,0.2248029261827469,0.9056167006492615,3.0857441425323486,1.7457554340362549,-0.4279825985431671,-0.056169964373111725,1741530586.5406637,1741530586448,2.984469482421875,-0.1529352569580078,-2.6684333689982007,-3.0139814453125,-2.97369091796875
1741530586.5634706,3.6073293685913086,0.024559041898830042,0.008419860520220453,-0.9996629228944283,-0.12816503643989563,-0.07975234091281891,-0.021978264674544334,2.2256085872650146,4.461353302001953,12.565073013305664,-0.13675880432128906,0.02613067626953125,0.1668955534696579,-1.23600435256958,0.00476844422519207,-0.9588387608528137,0.28248265385627747,1.2493560314178467,0.010490577667951584,0.9134432077407837,0.1997024416923523,-0.3370336592197418,-0.06046387553215027,-0.14057374000549316,1.1308842897415161,-0.38655585050582886,0.035111259669065475,-0.6883726119995117,-0.05054550990462303,-0.1966506391763687,0.733386754989624,-0.3117337226867676,-0.023634539917111397,0.33606281876564026,-0.015540609136223793,3.3333117961883545,0.08437885344028473,-0.02814161218702793,0.018951887264847755,-5.773276329040527,0.1253088414669037,-0.0602891631424427,0.2345663160085678,0.4575372338294983,-4.894216537475586,-1.6197446584701538,-3.039337635040283,9.468518257141113,2.453089952468872,0.3854910731315613,1.8441451787948608,2.754328727722168,1.053626298904419,0.07807272672653198,-0.3993403911590576,0.2302253246307373,1741530586.5406637,1741530586448,2.984469482421875,-0.1529352569580078,-2.6684333689982007,-3.0139814453125,-2.97369091796875
1741530586.5834432,3.6114296913146973,0.01857456283430337,0.020024381632429842,-0.9996269352892375,-0.6784762740135193,-0.3642989695072174,0.13772830367088318,-0.7766554951667786,-7.477561950683594,7.15772819519043,-0.14324378967285156,0.043679237365722656,0.23594263195991516,-1.23600435256958,0.005912871100008488,-0.9603646993637085,0.19321736693382263,1.2501189708709717,0.010109102353453636,0.9142061471939087,0.20389868319034576,-0.44270238280296326,-0.10471503436565399,-0.182917520403862,1.2960631847381592,-0.35241541266441345,0.013491924852132797,-0.6513695120811462,-0.04253452271223068,-0.1680399775505066,0.7330052852630615,-0.3133062422275543,-0.02558808960020542,-0.2494693398475647,0.5001280307769775,3.3031039237976074,-0.03770093247294426,0.054229993373155594,-0.036922894418239594,-5.865150451660156,0.14573970437049866,0.04481315612792969,0.03678198531270027,0.08467574417591095,-5.150449275970459,-2.4083147048950195,-1.7382675409317017,7.912792682647705,1.3921139240264893,-1.1830989122390747,1.7437399625778198,0.15426920354366302,1.558137059211731,0.011040766723453999,-0.0619632825255394,0.030886506661772728,1741530586.5406637,1741530586448,2.984469482421875,-0.1529352569580078,-2.6684333689982007,-3.0139814453125,-2.97369091796875
1741530586.6034884,3.6195013523101807,0.005660505073237083,0.030647984340237612,-0.9995142118740465,-0.4513879120349884,-0.6461736559867859,0.460778146982193,-1.4912261962890625,2.5219058990478516,9.028741836547852,-0.13179969787597656,0.051690101623535156,0.29964902997016907,-1.2405821084976196,0.005531395319849253,-0.9569314122200012,0.11272602528333664,1.2554595470428467,0.010109102353453636,0.9164950251579285,0.20466163754463196,-0.5453193187713623,-0.14324407279491425,-0.17528800666332245,1.405928134918213,-0.3661702275276184,0.0010535595938563347,-0.6048294901847839,-0.03376058489084244,-0.16308079659938812,0.7360570430755615,-0.31236210465431213,-0.014430367387831211,0.3556821644306183,0.3255711793899536,3.3226606845855713,-0.4775490164756775,-0.0031433328986167908,0.1162341833114624,-5.215219020843506,0.2644633650779724,-0.04776604846119881,0.20946571230888367,-0.08373896777629852,-5.1002020835876465,-1.5927252769470215,0.5598190426826477,5.0486836433410645,-1.0951961278915405,-0.21187305450439453,2.405457019805908,0.3851701319217682,0.25531914830207825,0.03264180198311806,0.01876271888613701,0.4863101840019226,1741530586.6421409,1741530586548,2.9077890625,-0.20310238647460938,-2.6580462071955937,-3.132588134765625,-3.01855029296875
1741530586.6235332,3.6337881088256836,-0.00569618998500726,0.032462318788811936,-0.9994567280670577,-0.0008322749054059386,-0.5370321869850159,0.7384869456291199,2.550938367843628,4.089226245880127,7.245034694671631,-0.12951087951660156,0.044060707092285156,0.3545815348625183,-1.2539336681365967,0.005531395319849253,-0.9515907764434814,0.04558632895350456,1.2520263195037842,0.00858320016413927,0.9195467829704285,0.18787670135498047,-0.6456473469734192,-0.13752193748950958,-0.15926603972911835,1.4520866870880127,-0.41324642300605774,0.005135873798280954,-0.5609598159790039,-0.02384222112596035,-0.14820325374603271,0.7318608164787292,-0.319783478975296,-0.0018658547196537256,0.08124709129333496,-0.15514139831066132,2.7695600986480713,-0.8043670058250427,-0.016853343695402145,0.3103717565536499,-4.327584266662598,-0.2945287823677063,-0.07776163518428802,0.24826514720916748,-0.9310956001281738,-4.829713344573975,0.18420082330703735,0.860514223575592,1.7943164110183716,-2.418771266937256,0.11138107627630234,2.032801389694214,0.6190221309661865,0.861323356628418,-0.14723999798297882,-0.404572993516922,0.7712844014167786,1741530586.6421409,1741530586548,2.9077890625,-0.20310238647460938,-2.6580462071955937,-3.132588134765625,-3.01855029296875
1741530586.6435559,3.6494579315185547,-0.011688832363642541,0.028363300108476576,-0.9995293364403723,0.183734729886055,-0.25916117429733276,0.7634249329566956,-2.852993965148926,7.704793453216553,6.694711685180664,-0.12684059143066406,0.02155303955078125,0.39730677008628845,-1.2592743635177612,0.005531395319849253,-0.9451056718826294,-0.00476844422519207,1.2424894571304321,0.00858320016413927,0.9245060086250305,0.17528800666332245,-0.7375829815864563,-0.13218127191066742,-0.11577782779932022,1.4333943128585815,-0.4638693630695343,-0.00779277179390192,-0.5350194573402405,-0.00476844422519207,-0.12340734153985977,0.7375829815864563,-0.3406641185283661,0.0038349260576069355,0.07135438919067383,-0.6688482761383057,1.9852542877197266,-0.2893834710121155,-0.007457504980266094,0.2526429295539856,-3.121683359146118,-0.6566624641418457,0.00138972292188555,0.32012075185775757,-0.6222265958786011,-4.587102890014648,0.46624094247817993,1.8735181093215942,-1.3558851480484009,-2.4962997436523438,-0.6657176613807678,1.1225368976593018,0.7105074524879456,1.4318811893463135,0.4578951299190521,-1.1136177778244019,0.24222351610660553,1741530586.6421409,1741530586548,2.9077890625,-0.20310238647460938,-2.6580462071955937,-3.132588134765625,-3.01855029296875
1741530586.6635532,3.655062437057495,-0.01271029609123781,0.02373656119041905,-0.9996374462954689,0.22949130833148956,-0.05909624323248863,0.2842142879962921,0.06705581396818161,1.4278490543365479,9.130367279052734,-0.12111854553222656,0.00286102294921875,0.4224841594696045,-1.2611817121505737,0.005912871100008488,-0.9428167939186096,-0.050164032727479935,1.233715534210205,0.008964675478637218,0.9287022352218628,0.16308079659938812,-0.8196002244949341,-0.12302586436271667,-0.09136339277029037,1.3681620359420776,-0.48594313859939575,-0.009688698686659336,-0.5331120491027832,0.004386968910694122,-0.11081864684820175,0.7562752962112427,-0.3680499196052551,0.003924611024558544,0.13615842163562775,-0.548344612121582,1.1401019096374512,-0.0627935379743576,0.01651778444647789,0.09998026490211487,-3.3881967067718506,-0.5512760281562805,0.020652221515774727,0.32883623242378235,-0.5622274279594421,-4.254970550537109,0.5100422501564026,1.0291032791137695,-3.522247314453125,-0.7396965026855469,0.022516855970025063,0.14909124374389648,0.3267202079296112,0.44747549295425415,1.114829182624817,-1.4085575342178345,0.047585733234882355,1741530586.6421409,1741530586548,2.9077890625,-0.20310238647460938,-2.6580462071955937,-3.132588134765625,-3.01855029296875
1741530586.6835802,3.66081166267395,-0.0005324633424023175,0.021945052740397358,-0.9997590365398106,0.051552534103393555,0.6749779582023621,0.23215362429618835,0.3781449794769287,6.186323165893555,3.881277561187744,-0.11882972717285156,-0.02079010009765625,0.44346532225608826,-1.2634705305099487,0.005531395319849253,-0.9370946884155273,-0.09822995215654373,1.228756308555603,0.008964675478637218,0.9443427324295044,0.15964750945568085,-0.8749141693115234,-0.11158160120248795,-0.08525978773832321,1.264019250869751,-0.46221545338630676,-0.011681991629302502,-0.5308232307434082,-0.004005493130534887,-0.10891126841306686,0.7917525172233582,-0.39914536476135254,0.00393910426646471,0.06281159073114395,-0.6716921925544739,1.1505013704299927,-0.19895073771476746,-0.018112557008862495,0.35316944122314453,-2.842287063598633,-0.28543877601623535,-0.0017627319321036339,1.1931238174438477,-0.11456336826086044,-2.619999647140503,0.47271642088890076,0.3032975494861603,-5.578526973724365,1.43063223361969,-0.2269902229309082,0.076105996966362,-0.4678650498390198,-0.009918395429849625,1.7318123579025269,-1.6351547241210938,0.05481144040822983,1741530586.6421409,1741530586548,2.9077890625,-0.20310238647460938,-2.6580462071955937,-3.132588134765625,-3.01855029296875
1741530586.7036042,3.659956693649292,0.012537913638754327,0.017855083450156975,-0.999761970029154,0.2476174682378769,0.6151251792907715,-0.02333690971136093,-1.9901880025863647,1.418701171875,9.83363151550293,-0.11577796936035156,-0.01354217529296875,0.465209424495697,-1.2615631818771362,0.005531395319849253,-0.927176296710968,-0.12684062123298645,1.227230429649353,0.008964675478637218,0.959220290184021,0.14667734503746033,-0.9115357995033264,-0.09098191559314728,-0.08258945494890213,1.1079957485198975,-0.41855236887931824,-0.007163981907069683,-0.534637987613678,-0.010109102353453636,-0.11158160120248795,0.8253223299980164,-0.4338025450706482,0.008915388956665993,0.06434758752584457,0.17703017592430115,0.8596861958503723,0.17749685049057007,-0.002508437028154731,0.44978663325309753,-1.7289036512374878,-0.07206925004720688,0.005465087480843067,1.0120426416397095,-0.6585765480995178,-1.3037805557250977,1.1823294162750244,0.03839132562279701,-7.920934677124023,2.1903982162475586,0.38193562626838684,-0.15473154187202454,-0.302571177482605,-0.023038234561681747,1.64634108543396,-1.6903319358825684,0.2672783136367798,1741530586.747206,1741530586648,2.8311728515625,-0.26317327880859376,-2.6213548610428488,-3.24848779296875,-3.059119140625
1741530586.7236874,3.655881404876709,0.029201589575051184,0.013735845858647537,-0.9994791612158994,0.18047381937503815,0.813194751739502,-0.20886307954788208,7.490553855895996,-1.039432168006897,2.3633291721343994,-0.10509681701660156,-0.00553131103515625,0.465209424495697,-1.2615631818771362,0.005531395319849253,-0.9210727214813232,-0.1329442262649536,1.2268489599227905,0.008964675478637218,0.9710460305213928,0.12760357558727264,-0.8962767720222473,-0.05283436179161072,-0.071908138692379,0.9172579646110535,-0.37712180614471436,0.0022600889205932617,-0.5292973518371582,0.001716639962978661,-0.1039520874619484,0.8672846555709839,-0.4713418185710907,0.008408565074205399,0.2998570203781128,0.3383689522743225,-0.0675567090511322,-0.022748896852135658,-0.008586868643760681,0.2613745927810669,-0.19800132513046265,-0.03484727069735527,-0.013859576545655727,0.6627031564712524,-0.9351854920387268,1.0410399436950684,1.9587819576263428,0.6609640121459961,-9.595995903015137,1.9228931665420532,0.4417848289012909,0.17205604910850525,0.7343816161155701,0.44244858622550964,2.022552967071533,-1.9875613451004028,0.04969196021556854,1741530586.747206,1741530586648,2.8311728515625,-0.26317327880859376,-2.6213548610428488,-3.24848779296875,-3.059119140625
1741530586.7436345,3.6485650539398193,0.03127894649632543,0.017085577411738988,-0.9993646534426698,-0.2607213854789734,-0.06605051457881927,-0.4385376274585724,-27.41640281677246,-13.357998847961426,22.961137771606445,-0.08869266510009766,0.02956390380859375,0.46330204606056213,-1.2592743635177612,0.005149920005351305,-0.9180209040641785,-0.11615930497646332,1.2268489599227905,0.008964675478637218,0.9729533791542053,0.10471503436565399,-0.8669031858444214,-0.03528648987412453,-0.024223696440458298,0.8169298768043518,-0.31541019678115845,-0.006077764090150595,-0.5163271427154541,0.01926451548933983,-0.09555962681770325,0.9016174674034119,-0.512915313243866,0.0019959802739322186,0.48207810521125793,0.9184246063232422,-0.08901005238294601,0.22312180697917938,-0.044030774384737015,0.25068971514701843,1.3652042150497437,0.019013825803995132,-0.0025898166932165623,0.05021427571773529,-1.166144609451294,1.6636908054351807,0.48304831981658936,2.649052619934082,-1.891489028930664,3.7121291160583496,-0.5772331357002258,0.9493226408958435,0.29800087213516235,0.5056808590888977,1.6973791122436523,-2.030832052230835,-0.4689239263534546,1741530586.747206,1741530586648,2.8311728515625,-0.26317327880859376,-2.6213548610428488,-3.24848779296875,-3.059119140625
1741530586.7637222,3.650770425796509,0.03885623651968912,0.011173041529587605,-0.999182343732366,0.3159705698490143,0.44405725598335266,0.1635676920413971,0.7970284223556519,-0.5098822712898254,-3.9208197593688965,-0.09174442291259766,0.041390419006347656,0.4388876259326935,-1.2524077892303467,0.005912871100008488,-0.9122987985610962,-0.07724879682064056,1.231045126914978,0.008201723918318748,0.9733348488807678,0.1192111074924469,-0.8306630253791809,-0.03185320645570755,-0.01201647985726595,0.8630884289741516,-0.2543666660785675,-0.02160060778260231,-0.4736018776893616,0.02079041674733162,-0.10509651154279709,0.9145876169204712,-0.5323495268821716,-0.0044738841243088245,-0.006942161824554205,0.32392868399620056,-1.5825294256210327,0.4655533730983734,0.013934796676039696,0.19335871934890747,2.889295816421509,0.2513207197189331,-0.029333561658859253,0.035620007663965225,1.0602262020111084,1.0874136686325073,0.27130457758903503,-0.29992595314979553,1.2543368339538574,2.458021640777588,-0.5335057377815247,2.0074214935302734,0.42329835891723633,-0.746374249458313,0.5089409351348877,-0.6129233837127686,-0.036562420427799225,1741530586.747206,1741530586648,2.8311728515625,-0.26317327880859376,-2.6213548610428488,-3.24848779296875,-3.059119140625
1741530586.7836819,3.6515519618988037,0.03798175606759665,0.004661615018301833,-0.9992675595412085,0.21345213055610657,-0.09669876843690872,0.1011452004313469,12.146634101867676,-0.5136097073554993,7.176659107208252,-0.09632301330566406,0.056649208068847656,0.3763256371021271,-1.2516448497772217,0.005149920005351305,-0.9145876169204712,-0.01583123579621315,1.2333340644836426,0.008964675478637218,0.970283031463623,0.12645913660526276,-0.7948042750358582,-0.012397955171763897,-0.061226826161146164,0.8367666006088257,-0.233489990234375,-0.026132911443710327,-0.4533836841583252,0.013923857361078262,-0.12378881871700287,0.951972246170044,-0.5155307650566101,0.003273374168202281,-0.10083375871181488,0.49101772904396057,-3.4273078441619873,0.055973634123802185,-0.03959580883383751,-0.15621952712535858,4.047395706176758,0.13988082110881805,0.07330606877803802,-0.22196155786514282,0.03966985270380974,2.322023391723633,0.29372838139533997,-1.8081480264663696,-1.1783987283706665,0.9806521534919739,-0.12064994871616364,0.8576207756996155,-0.5424953103065491,-0.8697569966316223,2.6177730560302734,1.0569887161254883,0.18520352244377136,1741530586.747206,1741530586648,2.8311728515625,-0.26317327880859376,-2.6213548610428488,-3.24848779296875,-3.059119140625
1741530586.8037903,3.6509451866149902,0.035805933310142486,0.00769831642233744,-0.9993291104856554,-0.18161295354366302,-0.12585586309432983,-0.3301325738430023,2.1052141189575195,-6.100489139556885,8.259193420410156,-0.09632301330566406,0.059319496154785156,0.30117493867874146,-1.2463041543960571,0.005149920005351305,-0.9142061471939087,0.04291599988937378,1.2470670938491821,0.010872052982449532,0.9618905782699585,0.134470134973526,-0.7558938264846802,-0.03223468363285065,-0.06656748056411743,0.8554589152336121,-0.2211761176586151,-0.0030748944263905287,-0.47703516483306885,-0.0009536888683214784,-0.14476996660232544,1.0599298477172852,-0.4757944345474243,-0.006051372271031141,0.05430959537625313,0.09733274579048157,-3.6124939918518066,0.4113328754901886,-0.05893124267458916,0.10850972682237625,3.789780378341675,1.2239737510681152,0.20638439059257507,-0.622711718082428,0.5196901559829712,1.2337374687194824,-0.7255518436431885,-0.6873334050178528,1.0213230848312378,0.332974910736084,1.31339693069458,-1.6563364267349243,-0.9152054190635681,-1.0536363124847412,5.861481189727783,2.0412583351135254,-0.3613159656524658,1741530586.8554199,1741530586748,2.745921142578125,-0.32457794189453126,-2.6325976279631504,-3.365062255859375,-3.103588134765625
1741530586.8238187,3.6334598064422607,0.03255285674226704,0.009510939526947397,-0.9994247613238488,-0.09026653319597244,-0.04969966411590576,-0.958325207233429,-4.155135631561279,-0.8690224289894104,15.836118698120117,-0.09136295318603516,0.060463905334472656,0.24128328263759613,-1.2405821084976196,0.005149920005351305,-0.9122987985610962,0.09746700525283813,1.2672853469848633,0.013160906732082367,0.9538795948028564,0.1501106321811676,-0.7295719981193542,-0.03604944050312042,-0.08602273464202881,0.8733882904052734,-0.2427356243133545,0.009676824323832989,-0.5491340756416321,-0.00858320016413927,-0.17452506721019745,1.2060348987579346,-0.433895081281662,-0.003802566323429346,0.12162616848945618,-0.13688302040100098,-3.3230490684509277,0.40396222472190857,-0.019901081919670105,0.021611977368593216,3.7202537059783936,1.13657808303833,0.06623630970716476,-0.5172298550605774,0.7720402479171753,1.502677083015442,-0.2539430558681488,-0.7106719613075256,0.8408892750740051,-1.315868616104126,0.25572842359542847,-3.5254430770874023,-0.31299299001693726,-1.4859158992767334,7.34644079208374,1.9628392457962036,0.17690502107143402,1741530586.8554199,1741530586748,2.745921142578125,-0.32457794189453126,-2.6325976279631504,-3.365062255859375,-3.103588134765625
1741530586.8438203,3.611051082611084,0.0318022606472529,0.01201469117158475,-0.9994219646444517,-0.07606836408376694,-0.06722844392061234,-1.1488456726074219,-2.9125168323516846,-2.222926616668701,10.68149185180664,-0.10051918029785156,0.07915592193603516,0.17452506721019745,-1.232571005821228,0.006294346414506435,-0.9126802682876587,0.15621423721313477,1.2745333909988403,0.01125352829694748,0.9466315507888794,0.17643244564533234,-0.7066834568977356,-0.02841992862522602,-0.0871671661734581,0.8852140307426453,-0.2925421893596649,-0.0005442328983917832,-0.6311513185501099,-0.018501564860343933,-0.19550621509552002,1.343747615814209,-0.41659069061279297,-0.0005826771957799792,-0.22685305774211884,0.4793528616428375,-3.2837986946105957,0.5428310632705688,0.03369513154029846,-0.029060183092951775,3.9232542514801025,0.44461265206336975,-0.09492943435907364,-0.44056400656700134,1.3048148155212402,1.2482340335845947,0.5913589000701904,-0.058784257620573044,0.48733529448509216,-2.5801174640655518,-0.4894881844520569,-3.7309226989746094,-0.45942938327789307,-0.9887869358062744,6.343169212341309,0.566141664981842,0.09931710362434387,1741530586.8554199,1741530586748,2.745921142578125,-0.32457794189453126,-2.6325976279631504,-3.365062255859375,-3.103588134765625
1741530586.8638232,3.5879745483398438,0.03058748184483664,0.010633253280143704,-0.9994755324064076,0.1057279109954834,-0.03146998956799507,-1.0951677560806274,2.3401315212249756,-0.8773226141929626,10.028464317321777,-0.09746742248535156,0.07991886138916016,0.1028076633810997,-1.2260860204696655,0.00476844422519207,-0.9142061471939087,0.21801327168941498,1.2791110277175903,0.01125352829694748,0.9420538544654846,0.19016556441783905,-0.6635767221450806,-0.01583123579621315,-0.08907453715801239,0.8867399096488953,-0.3423033356666565,-0.012368669733405113,-0.7001983523368835,-0.01735713705420494,-0.21000228822231293,1.420424222946167,-0.42688244581222534,-0.0033885990269482136,0.0723947137594223,0.11497770249843597,-3.6267857551574707,0.432250440120697,-0.026851579546928406,-0.09116867184638977,4.205253601074219,0.22988323867321014,-0.01935301162302494,-0.29230114817619324,0.5677556395530701,2.234133720397949,0.5778061151504517,-0.09549453854560852,0.01595829240977764,-2.4055092334747314,-0.5425615906715393,-3.232802391052246,0.06692249327898026,-0.5293281674385071,3.2263264656066895,-0.6553751826286316,-0.1370311975479126,1741530586.8554199,1741530586748,2.745921142578125,-0.32457794189453126,-2.6325976279631504,-3.365062255859375,-3.103588134765625
1741530586.883823,3.567997694015503,0.024235803435698523,0.010110365442235779,-0.9996551437082943,0.025935985147953033,-0.341434121131897,-0.975471019744873,0.48628494143486023,-1.3945705890655518,9.905701637268066,-0.09823036193847656,0.08335208892822266,0.03452353551983833,-1.220745325088501,0.005531395319849253,-0.916876494884491,0.2809567451477051,1.2772036790847778,0.010490577667951584,0.9370946884155273,0.1981765478849411,-0.614366352558136,0.000572213320992887,-0.09212634712457657,0.8764400482177734,-0.38378438353538513,-0.018086742609739304,-0.7536049485206604,-0.01735713705420494,-0.2141985148191452,1.4280537366867065,-0.446153461933136,-0.00030849711038172245,-0.00489382678642869,0.16491322219371796,-3.4380722045898438,0.2837231755256653,0.032971348613500595,-0.15537820756435394,4.171605110168457,-0.14028315246105194,-0.04341503605246544,-0.35432639718055725,0.4545338749885559,2.477036476135254,0.79388028383255,-0.059260569512844086,-0.6364315152168274,-2.0413155555725098,-0.18017856776714325,-2.5280373096466064,-0.03068842738866806,-0.20916256308555603,-0.0758979469537735,-0.9851731657981873,0.3339943289756775,1741530586.8554199,1741530586748,2.745921142578125,-0.32457794189453126,-2.6325976279631504,-3.365062255859375,-3.103588134765625
1741530586.9044628,3.5542380809783936,0.01919421208827551,0.010863134829714188,-0.9997567576785774,-0.003200929146260023,-0.2353930026292801,-0.6890239119529724,1.8342015743255615,-1.8238012790679932,7.228267192840576,-0.10624122619628906,0.07610416412353516,-0.02193484455347061,-1.221508264541626,0.005149920005351305,-0.9199283123016357,0.3416113555431366,1.2745333909988403,0.010490577667951584,0.9355688095092773,0.20084688067436218,-0.5540932416915894,0.016212711110711098,-0.09365224838256836,0.8585107326507568,-0.4174741804599762,-0.018260177224874496,-0.7944228053092957,-0.03490501269698143,-0.22030213475227356,1.3857098817825317,-0.4585173726081848,0.005859909579157829,-0.25980743765830994,-0.16994218528270721,-2.6425554752349854,-0.06948940455913544,-0.04415345564484596,-0.1629820168018341,3.7378175258636475,-0.21414685249328613,-0.0026557352393865585,-0.06264324486255646,0.05404328182339668,2.906858205795288,0.6870211362838745,-0.026829086244106293,-0.9310395121574402,-1.6273908615112305,-0.03231145069003105,-1.8477814197540283,-1.0256890058517456,-0.28587600588798523,-2.2442591190338135,-0.478866308927536,0.2649841010570526,1741530586.8554199,1741530586748,2.745921142578125,-0.32457794189453126,-2.6325976279631504,-3.365062255859375,-3.103588134765625
1741530586.9244668,3.5439603328704834,0.012818182884254162,0.010049785201313914,-0.9998673392030331,0.051334530115127563,-0.2853570878505707,-0.46762943267822266,-1.020516276359558,-1.774398922920227,8.069856643676758,-0.10471534729003906,0.06313419342041016,-0.07343403995037079,-1.2234156131744385,0.005531395319849253,-0.9287022352218628,0.3919661343097687,1.2672853469848633,0.010109102353453636,0.9355688095092773,0.20160982012748718,-0.5018310546875,0.028038453310728073,-0.0883115902543068,0.8333333134651184,-0.4475693702697754,-0.01964324526488781,-0.8230335116386414,-0.0707637146115303,-0.230601966381073,1.3181887865066528,-0.4496919810771942,0.004913884215056896,0.033553555607795715,-0.35944101214408875,-2.571448564529419,-0.11329517513513565,-0.015733733773231506,-0.47275063395500183,3.4056711196899414,-0.5008788108825684,0.009120971895754337,0.02466016635298729,0.07599806785583496,2.555920362472534,0.6149551272392273,0.3330186605453491,-1.2892684936523438,-1.510820746421814,-0.15144330263137817,-1.3384945392608643,-1.9544261693954468,-0.4912041127681732,-3.560166358947754,0.5912463068962097,-0.04872623085975647,1741530586.955102,1741530586848,2.6623974609375,-0.3531893310546875,-2.7349329911361693,-3.47333349609375,-3.14605126953125
1741530586.9444747,3.5365567207336426,0.008403643770162526,0.0077064194571905215,-0.9999349928223004,0.1361263245344162,-0.23598165810108185,-0.3661900460720062,0.9837720394134521,-0.42799001932144165,8.129142761230469,-0.10509681701660156,0.050545692443847656,-0.10776684433221817,-1.2253230810165405,0.005531395319849253,-0.9439612627029419,0.44766154885292053,1.2634705305099487,0.010109102353453636,0.9332799315452576,0.20275425910949707,-0.4488059878349304,0.038719769567251205,-0.07801175117492676,0.805867075920105,-0.47664254903793335,-0.017857447266578674,-0.8390554785728455,-0.11081864684820175,-0.24242770671844482,1.2312123775482178,-0.41820597648620605,0.009699508547782898,-0.015840107575058937,-0.33949610590934753,-1.6178339719772339,-0.17825663089752197,0.013984261080622673,-0.7617408037185669,3.6849212646484375,-0.25577837228775024,-0.018711956217885017,-0.20821012556552887,0.07252614945173264,2.7919085025787354,0.5331087112426758,0.4803463816642761,-1.3254998922348022,-1.4364548921585083,0.17854686081409454,-0.6684446930885315,-1.9828383922576904,-0.5327575206756592,-4.5435791015625,1.717569351196289,0.10286354273557663,1741530586.955102,1741530586848,2.6623974609375,-0.3531893310546875,-2.7349329911361693,-3.47333349609375,-3.14605126953125
1741530586.9645185,3.530641794204712,0.0059094611260278405,0.004266790207572798,-0.99997343603244,0.1661592274904251,-0.09751471132040024,-0.2525644302368164,1.733561396598816,2.4047412872314453,7.741105079650879,-0.10509681701660156,0.03070831298828125,-0.12264438718557358,-1.2291377782821655,0.005531395319849253,-0.9584572911262512,0.4839017391204834,1.2581299543380737,0.010109102353453636,0.927176296710968,0.20351719856262207,-0.3877699077129364,0.043678950518369675,-0.07610437273979187,0.776493489742279,-0.5041545033454895,-0.01378561556339264,-0.8348592519760132,-0.14858472347259521,-0.25616082549095154,1.122873306274414,-0.3723115921020508,0.00774384243413806,-0.017733843997120857,-0.49102991819381714,-0.5463166832923889,-0.21535305678844452,-0.003595059271901846,-0.7160787582397461,2.239650249481201,-0.32722240686416626,0.01956818997859955,-0.3752399682998657,0.07984628528356552,3.0151610374450684,0.1207619160413742,0.06716449558734894,-1.5496214628219604,-1.358199954032898,0.16238711774349213,0.4562046229839325,-1.8778797388076782,-0.7055885195732117,-5.611523151397705,2.3191885948181152,-0.16529200971126556,1741530586.955102,1741530586848,2.6623974609375,-0.3531893310546875,-2.7349329911361693,-3.47333349609375,-3.14605126953125
1741530586.9845152,3.52455472946167,0.004503418835997855,-0.0005682623872839107,-0.9999896980952587,0.22907890379428864,-0.11091329902410507,-0.3189162611961365,3.7223265171051025,1.3777116537094116,4.8670525550842285,-0.10280799865722656,0.02307891845703125,-0.11463340371847153,-1.2291377782821655,0.005531395319849253,-0.9683756828308105,0.5029755234718323,1.2524077892303467,0.010109102353453636,0.9210727214813232,0.2145799994468689,-0.32101166248321533,0.04558632895350456,-0.07801175117492676,0.7436865568161011,-0.5233719348907471,-0.013915210962295532,-0.8119707107543945,-0.17948424816131592,-0.28324559330940247,0.9905012845993042,-0.3284381031990051,3.7031918509455863e-06,0.06508681178092957,-0.2074049711227417,0.5793018937110901,0.005117989145219326,-0.0036090491339564323,-0.4528886079788208,0.9788090586662292,-0.3765088617801666,0.013602806255221367,-0.397430956363678,0.5539931058883667,3.34896183013916,0.07883806526660919,-0.10952875763177872,-1.696578025817871,-0.904722273349762,0.07999403774738312,1.1202774047851562,-1.5214579105377197,-1.5198462009429932,-6.729378700256348,2.0532495975494385,-0.4130363166332245,1741530586.955102,1741530586848,2.6623974609375,-0.3531893310546875,-2.7349329911361693,-3.47333349609375,-3.14605126953125
1741530587.0045438,3.5177979469299316,-0.0008925705312234769,-0.007573463507754491,-0.9999709225614231,0.36659419536590576,-0.269813597202301,-0.3235604465007782,0.545000433921814,-5.1691694259643555,5.184543609619141,-0.09937477111816406,0.02117156982421875,-0.08487831056118011,-1.227993369102478,0.005531395319849253,-0.9706645011901855,0.5029755234718323,1.2489745616912842,0.009727626107633114,0.916876494884491,0.22411687672138214,-0.25310903787612915,0.03452353551983833,-0.08602273464202881,0.7181277275085449,-0.5169696807861328,-0.02824649214744568,-0.7745860815048218,-0.1985580176115036,-0.31795987486839294,0.846684992313385,-0.30731937289237976,-0.006434211041778326,0.09116796404123306,-0.06544454395771027,1.51617431640625,0.0396166555583477,4.925041866954416e-05,-0.07966574281454086,-0.12362746894359589,-0.25046461820602417,-0.023756230250000954,-0.2919091582298279,0.5023373961448669,3.32776141166687,-0.66839200258255,-0.46855151653289795,-1.118506669998169,0.4333186149597168,-0.7707458138465881,1.9760030508041382,-0.835460901260376,-1.5831677913665771,-7.122452735900879,0.7584051489830017,-0.2960224449634552,1741530587.053486,1741530586948,2.563394287109375,-0.38266223144531253,-2.766506159873504,-3.584239013671875,-3.19245556640625
1741530587.0246,3.511012554168701,-0.008098389905715504,-0.013557804322577135,-0.9998752932355544,0.3368280827999115,-0.3508564233779907,-0.34606578946113586,-6.065001964569092,1.768018126487732,11.800454139709473,-0.09288883209228516,0.03108978271484375,-0.040245670825242996,-1.227230429649353,0.005531395319849253,-0.9710460305213928,0.4839017391204834,1.2447782754898071,0.010109102353453636,0.9138246774673462,0.230601966381073,-0.1997024416923523,0.02079041674733162,-0.1028076633810997,0.7188906669616699,-0.506043016910553,-0.030665328726172447,-0.7379644513130188,-0.21114671230316162,-0.343137264251709,0.7295719981193542,-0.31035739183425903,-0.016422361135482788,0.17605340480804443,0.28973424434661865,2.312074899673462,0.09421271085739136,-0.011278928257524967,-0.013193801045417786,-1.577754020690918,-0.22815093398094177,0.025049516931176186,-0.1329101026058197,0.2641342580318451,2.5019874572753906,-0.44952937960624695,-1.0610363483428955,0.39327237010002136,0.46988335251808167,0.04185973480343819,1.6897337436676025,-0.6110536456108093,-1.2159184217453003,-5.125120639801025,0.04526273161172867,-0.5569795370101929,1741530587.053486,1741530586948,2.563394287109375,-0.38266223144531253,-2.766506159873504,-3.584239013671875,-3.19245556640625
1741530587.0446165,3.501615047454834,-0.015590484042872157,-0.02280536822309131,-0.9996183531666064,0.34974247217178345,-0.2927892804145813,-0.516944944858551,-6.082490921020508,0.08574825525283813,10.383927345275879,-0.08564090728759766,0.036049842834472656,0.01926451548933983,-1.227230429649353,0.005531395319849253,-0.970283031463623,0.44651713967323303,1.2424894571304321,0.009727626107633114,0.9107728600502014,0.2317463904619217,-0.17566949129104614,0.029564354568719864,-0.13179980218410492,0.7642862796783447,-0.4945024847984314,-0.02270287461578846,-0.7047760486602783,-0.18520638346672058,-0.35114824771881104,0.770008385181427,-0.30401164293289185,-0.03894323855638504,0.20933043956756592,0.15234676003456116,3.3151443004608154,-0.06651659309864044,-0.01404418796300888,0.024634726345539093,-2.7209017276763916,-0.1686631292104721,-0.0073407976888120174,-0.22138448059558868,-0.10145925730466843,0.7966009378433228,0.10145226866006851,-1.3620281219482422,2.492133617401123,0.8032068014144897,0.325999915599823,2.0912225246429443,1.5986049175262451,0.06316330283880234,2.650322914123535,0.045724254101514816,-1.1188846826553345,1741530587.053486,1741530586948,2.563394287109375,-0.38266223144531253,-2.766506159873504,-3.584239013671875,-3.19245556640625
1741530587.0647495,3.494623899459839,-0.011040281661521486,-0.022913233138151346,-0.9996764956364589,0.0032583018764853477,0.18616937100887299,-0.25766637921333313,3.9931702613830566,6.380241870880127,8.33825969696045,-0.08754825592041016,0.02880096435546875,0.08602273464202881,-1.228756308555603,0.006294346414506435,-0.968757152557373,0.37975889444351196,1.2474485635757446,0.010109102353453636,0.9134432077407837,0.22182802855968475,-0.2004653960466385,0.023079270496964455,-0.16346226632595062,0.8630884289741516,-0.4584392309188843,-0.010577524080872536,-0.6876096725463867,-0.1672770231962204,-0.31376364827156067,0.7917525172233582,-0.32598257064819336,-0.05049705132842064,-0.07215196639299393,-0.13078419864177704,3.0873358249664307,-0.15510207414627075,0.04723406210541725,0.09794945269823074,-4.646945953369141,0.47280439734458923,0.011000608094036579,0.24452582001686096,-0.4143242835998535,-1.6283987760543823,-0.5296882390975952,-1.791728138923645,5.308948516845703,1.8709871768951416,0.6614316701889038,0.45058473944664,1.0799793004989624,1.828338384628296,0.5511443018913269,-1.1203782558441162,-0.5795239210128784,1741530587.053486,1741530586948,2.563394287109375,-0.38266223144531253,-2.766506159873504,-3.584239013671875,-3.19245556640625
1741530587.0847888,3.495729446411133,-0.0050925299199881344,-0.016880067148978634,-0.9998445526540913,-0.41894295811653137,0.37016725540161133,0.13680586218833923,7.043816089630127,2.508157968521118,8.892958641052246,-0.07686710357666016,0.02307891845703125,0.14820325374603271,-1.229519248008728,0.005531395319849253,-0.9637979865074158,0.30498969554901123,1.2546966075897217,0.009727626107633114,0.9142061471939087,0.2153429538011551,-0.27141985297203064,0.0024795911740511656,-0.21686884760856628,1.0236896276474,-0.41304823756217957,0.0011412192834541202,-0.655184268951416,-0.134470134973526,-0.2920195460319519,0.7986190319061279,-0.33050546050071716,-0.04667362943291664,0.27944087982177734,-0.18430763483047485,2.9416956901550293,-0.08025258034467697,0.01594758965075016,0.26141422986984253,-4.90250301361084,0.48894426226615906,-0.03252429515123367,-0.030927591025829315,-0.3312254250049591,-3.8472518920898438,-1.2862153053283691,-2.9231033325195312,8.661409378051758,2.3263213634490967,0.5464305877685547,1.618904709815979,1.7296751737594604,0.800422728061676,0.2794640362262726,-0.117062509059906,0.17279763519763947,1741530587.053486,1741530586948,2.563394287109375,-0.38266223144531253,-2.766506159873504,-3.584239013671875,-3.19245556640625
1741530587.1047711,3.508358955383301,-0.007184315602011618,-0.0018915490912168498,-0.9999724034448981,-0.7420575618743896,-0.13010455667972565,0.6914239525794983,-6.242277145385742,1.2459735870361328,13.395679473876953,-0.07495975494384766,0.047493934631347656,0.20542457699775696,-1.2299007177352905,0.005531395319849253,-0.9565499424934387,0.22793163359165192,1.2596558332443237,0.010109102353453636,0.9145876169204712,0.2149614691734314,-0.37899595499038696,-0.038719769567251205,-0.26989394426345825,1.2090867757797241,-0.36643895506858826,0.006724576465785503,-0.6280995011329651,-0.10891126841306686,-0.28439003229141235,0.7902265787124634,-0.3319922983646393,-0.04418104141950607,0.05986020341515541,0.5619478225708008,2.8107244968414307,-0.06048179045319557,-0.014302877709269524,0.3075537085533142,-5.257817268371582,0.23481561243534088,-0.010941395536065102,0.03480367362499237,0.0006072603864595294,-5.505659580230713,-2.145498514175415,-2.4580118656158447,9.354535102844238,2.2192888259887695,0.20680955052375793,1.489351749420166,1.051221489906311,0.2441570907831192,-0.3935396671295166,-0.06862539798021317,0.2062663733959198,1741530587.053486,1741530586948,2.563394287109375,-0.38266223144531253,-2.766506159873504,-3.584239013671875,-3.19245556640625
1741530587.124808,3.528455972671509,-0.0062696034052867125,0.01262306850951342,-0.9999006701740651,-0.7084704637527466,0.05673585087060928,1.062499761581421,10.031004905700684,5.750033378601074,7.097148418426514,-0.06656742095947266,0.048638343811035156,0.2611200213432312,-1.2321895360946655,0.005531395319849253,-0.9489204287528992,0.1508735716342926,1.2592743635177612,0.009727626107633114,0.9164950251579285,0.21801327168941498,-0.4980163276195526,-0.09403372555971146,-0.28400853276252747,1.3773174285888672,-0.3579452633857727,0.011821954511106014,-0.5834668278694153,-0.09937438368797302,-0.2904936373233795,0.7860303521156311,-0.33077019453048706,-0.03180863708257675,0.249672532081604,0.06091250851750374,2.9067091941833496,-0.16456009447574615,-0.007055874913930893,0.3891613483428955,-5.076823711395264,-0.07441689074039459,-0.0005471018957905471,0.11955345422029495,0.12643375992774963,-5.947585105895996,-2.7464685440063477,-0.3294576108455658,7.84190034866333,0.03648700937628746,0.3337053060531616,2.170294761657715,0.4212329387664795,-0.3956066966056824,-0.23169729113578796,0.09631164371967316,0.7014870643615723,1741530587.1574852,1741530587048,2.461208251953125,-0.41525180053710936,-2.776247817440919,-3.6847548828125003,-3.2278828125
1741530587.1448123,3.5530529022216797,-0.011840416041771886,0.021082629785339035,-0.9997076208918745,-0.3479708135128021,-0.31913256645202637,1.242780089378357,-5.201115608215332,6.264009952545166,11.029505729675293,-0.055504798889160156,0.051690101623535156,0.31528952717781067,-1.2371487617492676,0.005531395319849253,-0.9401465058326721,0.08258945494890213,1.2524077892303467,0.010109102353453636,0.916876494884491,0.21839475631713867,-0.621614396572113,-0.1333257108926773,-0.25463491678237915,1.4837491512298584,-0.39263156056404114,0.016661275178194046,-0.5514228940010071,-0.09746700525283813,-0.2939268946647644,0.7810711860656738,-0.33209556341171265,-0.02475040778517723,0.3246292769908905,0.09479490667581558,2.6608405113220215,-0.3712969720363617,-0.00559408962726593,0.41384953260421753,-4.47843074798584,-0.5329886078834534,0.00713628763332963,0.033726662397384644,0.037481505423784256,-5.994180202484131,-1.612919807434082,1.6213940382003784,4.606508255004883,-1.9941577911376953,0.25673577189445496,1.5850967168807983,0.15290868282318115,-0.09372944384813309,-0.14058630168437958,-0.12678182125091553,0.35787004232406616,1741530587.1574852,1741530587048,2.461208251953125,-0.41525180053710936,-2.776247817440919,-3.6847548828125003,-3.2278828125
1741530587.1648462,3.5701494216918945,-0.010746774143398665,0.01912165679253182,-0.9997594056006771,0.15836504101753235,0.04251209646463394,0.7049745321273804,3.6036558151245117,0.05556883662939072,7.8522186279296875,-0.045968055725097656,0.039864540100097656,0.36259251832962036,-1.2459226846694946,0.005531395319849253,-0.9340428709983826,0.026512550190091133,1.2405821084976196,0.009346150793135166,0.917639434337616,0.2138170450925827,-0.726901650428772,-0.14476996660232544,-0.20122835040092468,1.5119783878326416,-0.44266146421432495,0.01114534493535757,-0.5102235674858093,-0.0879301130771637,-0.28667888045310974,0.7829785346984863,-0.3454548120498657,-0.012683024629950523,0.3030313551425934,-0.27202245593070984,2.250351667404175,-0.6224823594093323,-0.009572548791766167,0.2530185282230377,-3.5629639625549316,-0.7993698120117188,-0.02463153935968876,0.0321766659617424,-0.2330504059791565,-5.091877460479736,-0.6647166609764099,2.965715169906616,0.7517249584197998,-2.534160614013672,-0.44471994042396545,1.9481160640716553,0.6071847081184387,0.49516114592552185,0.028475018218159676,-0.8289192914962769,0.5917589664459229,1741530587.1574852,1741530587048,2.461208251953125,-0.41525180053710936,-2.776247817440919,-3.6847548828125003,-3.2278828125
1741530587.1849787,3.572812795639038,-0.012272444735816054,0.0135104637247331,-0.9998334133595203,0.2768012583255768,-0.0705498680472374,-0.024090616032481194,0.3250417709350586,-1.978685975074768,10.84017562866211,-0.037575721740722656,0.031853675842285156,0.4026474356651306,-1.2527892589569092,0.005531395319849253,-0.9344243407249451,-0.018120087683200836,1.2291377782821655,0.009727626107633114,0.916876494884491,0.2149614691734314,-0.811589241027832,-0.1493476778268814,-0.13828489184379578,1.4604791402816772,-0.48017722368240356,-0.010453235357999802,-0.4957274794578552,-0.07610437273979187,-0.2752346098423004,0.7848859429359436,-0.38252538442611694,-0.013892066664993763,0.24910108745098114,-0.21795736253261566,1.997096300125122,-0.4971776306629181,-0.034047968685626984,-0.04631200060248375,-3.000314235687256,-0.7155343294143677,0.03561082482337952,-0.018665943294763565,0.041787631809711456,-3.8763742446899414,-0.10420597344636917,2.9315168857574463,-3.1217613220214844,-1.6552027463912964,-0.975195586681366,0.5007918477058411,0.45643970370292664,0.5548834800720215,0.23037214577198029,-1.9645047187805176,-0.23079979419708252,1741530587.1574852,1741530587048,2.461208251953125,-0.41525180053710936,-2.776247817440919,-3.6847548828125003,-3.2278828125
1741530587.2048326,3.5759050846099854,-0.006904747419367602,0.007362224285536745,-0.9999490597608681,0.32153329253196716,0.37756192684173584,0.22200429439544678,1.3514920473098755,1.837407112121582,6.732554912567139,-0.033761024475097656,0.02155303955078125,0.44346532225608826,-1.2585114240646362,0.005531395319849253,-0.9340428709983826,-0.07724879682064056,1.224941611289978,0.009727626107633114,0.925650417804718,0.2004653960466385,-0.8691920638084412,-0.1497291475534439,-0.09441519528627396,1.350995659828186,-0.47897961735725403,-0.013287771493196487,-0.47512778639793396,-0.07343403995037079,-0.26913100481033325,0.7993820309638977,-0.4257711172103882,-0.018855471163988113,0.12734587490558624,-0.3343375027179718,2.0412871837615967,-0.3501594066619873,-0.07206228375434875,0.028330013155937195,-3.6867501735687256,-0.24038058519363403,0.014883115887641907,0.7022322416305542,-0.7970499992370605,-2.693612575531006,0.008585953153669834,1.8867156505584717,-5.878828525543213,0.3598680794239044,0.09999043494462967,1.1298619508743286,0.017136039212346077,0.421602725982666,0.7642708420753479,-2.1780548095703125,-0.09321882575750351,1741530587.1574852,1741530587048,2.461208251953125,-0.41525180053710936,-2.776247817440919,-3.6847548828125003,-3.2278828125
1741530587.2248697,3.579710006713867,0.0052708348208209506,0.0002824933337391766,-0.9999860691518697,0.34397411346435547,0.7008673548698425,0.14107787609100342,1.0748445987701416,-0.060448240488767624,9.563577651977539,-0.02880096435546875,0.01659393310546875,0.4705500900745392,-1.2600373029708862,0.005531395319849253,-0.9355688095092773,-0.10929274559020996,1.2218897342681885,0.009346150793135166,0.9443427324295044,0.17795833945274353,-0.889028787612915,-0.14705882966518402,-0.07801175117492676,1.201075792312622,-0.4427325427532196,-0.010412250645458698,-0.4686427116394043,-0.07343403995037079,-0.2592126429080963,0.8127336502075195,-0.4656417965888977,-0.015112962573766708,0.1332409828901291,-0.1553102433681488,1.1542186737060547,-0.07242506742477417,-0.0005955726373940706,-0.07846814393997192,-1.9834121465682983,-0.25388389825820923,-0.04569976404309273,1.2259502410888672,-1.1724308729171753,-0.7874147891998291,0.15972016751766205,0.5624221563339233,-7.707809925079346,1.979297399520874,0.045686736702919006,0.3383921682834625,0.047979459166526794,0.6295154690742493,0.7936279773712158,-1.9498721361160278,-0.018291503190994263,1741530587.266515,1741530587148,2.3729921875,-0.46249774169921876,-2.704890213147744,-3.786555419921875,-3.267123046875
1741530587.2448628,3.5829482078552246,0.022528889811291884,-0.0068032663145165565,-0.9997230439933474,0.3276820182800293,0.7898050546646118,0.18719317018985748,-0.9517309665679932,-0.1737145036458969,6.7986040115356445,-0.02689361572265625,0.01392364501953125,0.47894254326820374,-1.2608002424240112,0.005531395319849253,-0.9351872801780701,-0.12493324279785156,1.2180750370025635,0.009727626107633114,0.960746169090271,0.14591439068317413,-0.8947508931159973,-0.13065537810325623,-0.07724879682064056,1.0145342350006104,-0.3972173035144806,-0.003180754603818059,-0.45719844102859497,-0.06504157930612564,-0.24166475236415863,0.8279926776885986,-0.5019859671592712,-0.014529168605804443,0.04814687371253967,-0.04105675220489502,0.2847808599472046,-0.03733816742897034,-0.003011189866811037,0.020357824862003326,-0.7315594553947449,-0.2110355943441391,0.050226788967847824,1.0277726650238037,-1.5599831342697144,0.025936786085367203,0.9462445378303528,0.06457792967557907,-9.192021369934082,2.214939594268799,0.4411579370498657,0.47474873065948486,0.5050496459007263,0.9509834051132202,0.6281989216804504,-1.8957295417785645,-0.05090528726577759,1741530587.266515,1741530587148,2.3729921875,-0.46249774169921876,-2.704890213147744,-3.786555419921875,-3.267123046875
1741530587.264915,3.586958408355713,0.03570381765813411,-0.008165739969305936,-0.9993290539634022,-0.0038607618771493435,0.5995228290557861,0.22730235755443573,11.538908958435059,0.3275497853755951,4.794127941131592,-0.02651214599609375,0.01239776611328125,0.4732204079627991,-1.2588928937911987,0.005531395319849253,-0.9351872801780701,-0.11615930497646332,1.2180750370025635,0.009346150793135166,0.9699015617370605,0.1199740618467331,-0.8783474564552307,-0.10433356463909149,-0.05245288833975792,0.8440146446228027,-0.35959529876708984,0.00968414917588234,-0.43163958191871643,-0.03833829239010811,-0.230601966381073,0.838674008846283,-0.537365734577179,-0.013342860154807568,0.002368084853515029,-0.016821281984448433,-0.35822102427482605,0.1633160561323166,-0.005687365308403969,-0.01228981651365757,0.7937440872192383,0.021030837669968605,-0.016198482364416122,0.5483921766281128,-1.1374260187149048,0.8681122660636902,1.2490736246109009,1.406847596168518,-7.879973888397217,1.8157836198806763,0.5076063275337219,1.3313961029052734,1.333520531654358,0.4846912920475006,0.46955880522727966,-1.7872740030288696,0.06955411285161972,1741530587.266515,1741530587148,2.3729921875,-0.46249774169921876,-2.704890213147744,-3.786555419921875,-3.267123046875
1741530587.2850063,3.5884363651275635,0.03187827761154115,-0.003007632878994074,-0.9994872333156571,-0.23979336023330688,-0.32406556606292725,0.08466918021440506,-10.124468803405762,7.321863174438477,15.48922061920166,-0.02689361572265625,0.044060707092285156,0.45948728919029236,-1.2520263195037842,0.005531395319849253,-0.9313725233078003,-0.08373387902975082,1.219219446182251,0.009346150793135166,0.968757152557373,0.10891126841306686,-0.8550774455070496,-0.086785688996315,-0.0078202486038208,0.8146410584449768,-0.31474363803863525,0.023102732375264168,-0.3896772861480713,-0.01926451548933983,-0.23441672325134277,0.8428702354431152,-0.5446076393127441,0.000387951557058841,-0.022383524104952812,0.9913621544837952,-0.7350744605064392,0.521899938583374,-0.009286398999392986,0.27079081535339355,2.3462471961975098,0.0723859891295433,0.004800884053111076,-0.16251707077026367,-0.3288842439651489,1.6392799615859985,0.8553961515426636,2.274529218673706,0.35558682680130005,2.2934818267822266,0.8915316462516785,2.2429919242858887,0.5422326326370239,-0.24097606539726257,0.13564744591712952,-0.1484043002128601,0.35673585534095764,1741530587.266515,1741530587148,2.3729921875,-0.46249774169921876,-2.704890213147744,-3.786555419921875,-3.267123046875
1741530587.3049414,3.5944101810455322,0.03654918573163134,-0.0036549797323537025,-0.9993251713759195,-0.0049200779758393764,0.2048477977514267,0.2701437473297119,4.0075225830078125,-2.597942352294922,7.167798042297363,-0.02155303955078125,0.031853675842285156,0.4171435236930847,-1.2451597452163696,0.005912871100008488,-0.927176296710968,-0.03299763426184654,1.219219446182251,0.00858320016413927,0.9668498039245605,0.12760357558727264,-0.8199816942214966,-0.06008239835500717,-0.02231631986796856,0.8478294014930725,-0.3053433895111084,0.03122684359550476,-0.3408484160900116,-0.010490577667951584,-0.2504386901855469,0.8573662638664246,-0.5265175104141235,-0.022766945883631706,0.1495683193206787,-0.2782594561576843,-2.5332961082458496,0.3195655047893524,0.025909069925546646,0.17609848082065582,3.51133394241333,-0.00429885508492589,-0.0322728157043457,-0.11574704200029373,0.8770225048065186,1.1713992357254028,1.4314545392990112,-1.3581955432891846,0.935131847858429,0.17862403392791748,0.25316721200942993,2.161740779876709,0.5611228942871094,-0.8906998038291931,1.023164987564087,1.0764343738555908,-0.7655182480812073,1741530587.266515,1741530587148,2.3729921875,-0.46249774169921876,-2.704890213147744,-3.786555419921875,-3.267123046875
1741530587.324967,3.5988051891326904,0.03351964130507083,-0.003279933488903118,-0.9994326769138018,-0.026181736961007118,-0.03698365390300751,0.2247794270515442,0.9496963024139404,-5.235934257507324,10.589330673217773,-0.031472206115722656,0.038720130920410156,0.35229265689849854,-1.2482116222381592,0.005149920005351305,-0.9214541912078857,0.02384222112596035,1.2268489599227905,0.010490577667951584,0.960746169090271,0.13866636157035828,-0.7818341255187988,-0.06008239835500717,-0.05245288833975792,0.8550774455070496,-0.30500543117523193,0.019793035462498665,-0.3400854468345642,-0.016975661739706993,-0.2470054179430008,0.9359502792358398,-0.49748924374580383,-0.03184705227613449,-0.27796003222465515,0.10102909803390503,-3.4104514122009277,-0.18990880250930786,-0.09275304526090622,0.25161221623420715,3.7787904739379883,0.6995015740394592,0.13741806149482727,-0.4231349229812622,0.3358079195022583,2.2405192852020264,-0.7696928381919861,-0.8902917504310608,0.5350474119186401,0.08332031220197678,-0.5397658348083496,-0.38233834505081177,-0.2860717177391052,0.4534664452075958,4.516992568969727,1.5803865194320679,-0.43723931908607483,1741530587.266515,1741530587148,2.3729921875,-0.46249774169921876,-2.704890213147744,-3.786555419921875,-3.267123046875
1741530587.3449805,3.5953104496002197,0.03128633385497462,-0.0057314346824627535,-0.9994940299823685,0.17342276871204376,-0.09889066219329834,-0.3699083924293518,-1.9707649946212769,-3.3259479999542236,10.30823040008545,-0.02498626708984375,0.046349525451660156,0.2763790488243103,-1.2489745616912842,0.005531395319849253,-0.9203097820281982,0.08258945494890213,1.2466856241226196,0.010872052982449532,0.954261064529419,0.14324407279491425,-0.7444495558738708,-0.07457847148180008,-0.08182650804519653,0.8634698987007141,-0.30986687541007996,0.018571190536022186,-0.4015030264854431,-0.02079041674733162,-0.22564278542995453,1.0885404348373413,-0.4542820155620575,-0.038364894688129425,0.19221383333206177,0.34778615832328796,-3.745771646499634,-0.09891943633556366,0.013912076130509377,0.03858986496925354,3.8958230018615723,1.2897043228149414,0.022769827395677567,-0.44756847620010376,0.31833359599113464,1.7339495420455933,-0.5261886119842529,-1.5270955562591553,0.3853750228881836,-0.29541918635368347,-0.07392364740371704,-3.4713056087493896,-0.020500700920820236,1.1119637489318848,7.9450531005859375,2.2154440879821777,-0.3291819393634796,1741530587.266515,1741530587148,2.3729921875,-0.46249774169921876,-2.704890213147744,-3.786555419921875,-3.267123046875
1741530587.3651135,3.5771543979644775,0.0318063452233395,-0.005845837090371253,-0.9994769545078299,-0.0012917406857013702,0.045225031673908234,-1.018757700920105,-0.07490444928407669,-6.698263168334961,11.655255317687988,-0.02803802490234375,0.035668373107910156,0.20313572883605957,-1.2482116222381592,0.005531395319849253,-0.9218356609344482,0.134470134973526,1.2604187726974487,0.010490577667951584,0.9481574892997742,0.14782176911830902,-0.7059205174446106,-0.07419699430465698,-0.09708552807569504,0.8718623518943787,-0.313778281211853,0.011927208863198757,-0.5037384629249573,-0.018120087683200836,-0.20313572883605957,1.261348843574524,-0.41486069560050964,-0.02523416467010975,-0.10484793037176132,-0.22668130695819855,-3.678419351577759,0.09307694435119629,0.002649656729772687,-0.07447367906570435,3.3176991939544678,0.8871787786483765,-0.0033134943805634975,-0.3658702075481415,0.259952574968338,1.9127711057662964,0.11576887965202332,-0.6258606910705566,0.3138571083545685,-0.20717211067676544,-0.2392081469297409,-5.174668312072754,0.16831879317760468,1.1914616823196411,8.514952659606934,1.8195594549179077,0.9308565258979797,1741530587.266515,1741530587148,2.3729921875,-0.46249774169921876,-2.704890213147744,-3.786555419921875,-3.267123046875
1741530587.3850672,3.5503199100494385,0.030293666587799976,-0.006266249308951157,-0.9995213994128715,0.09494029730558395,-0.06457172334194183,-1.3678117990493774,-0.4053921699523926,-2.339367628097534,12.499272346496582,-0.034523963928222656,0.035668373107910156,0.13179980218410492,-1.2443968057632446,0.005149920005351305,-0.9237430095672607,0.18711376190185547,1.2695741653442383,0.010872052982449532,0.9454871416091919,0.15430685877799988,-0.6651026010513306,-0.06351567804813385,-0.10738536715507507,0.8699550032615662,-0.3248523771762848,0.009070486761629581,-0.6067368388175964,-0.014686808921396732,-0.19016556441783905,1.4032578468322754,-0.40999332070350647,0.004175892099738121,-0.22430680692195892,-0.05869503319263458,-3.5632576942443848,0.2673792243003845,-0.02581964060664177,-0.12043680995702744,3.589369773864746,0.5554956793785095,0.004422252997756004,-0.15879559516906738,0.333210825920105,2.107635974884033,0.5860304832458496,-0.3322024643421173,-0.02864200621843338,-0.6442036628723145,-0.22507299482822418,-5.101755619049072,0.06508994847536087,0.4902806282043457,6.487593173980713,-0.12406426668167114,1.1128880977630615,1741530587.463951,1741530587248,2.269576171875,-0.515142822265625,-2.680369830396166,-3.877242919921875,-3.298973876953125
1741530587.4050815,3.5230586528778076,0.02867351995037834,-0.009107343095165907,-0.9995473403273114,0.1797625720500946,-0.06494274735450745,-1.3512953519821167,1.4865024089813232,-6.481316566467285,11.893006324768066,-0.034142494201660156,0.035286903381347656,0.06389715522527695,-1.238293170928955,0.005531395319849253,-0.926413357257843,0.2447165697813034,1.2718631029129028,0.010490577667951584,0.9447242021560669,0.1497291475534439,-0.6162737607955933,-0.05130846053361893,-0.10776684433221817,0.8619440197944641,-0.3521410822868347,0.0028224100824445486,-0.6960021257400513,-0.01773861236870289,-0.19436179101467133,1.4703974723815918,-0.4395131766796112,-0.008136361837387085,0.007434950675815344,0.06068044900894165,-3.2452003955841064,0.4120112359523773,-0.013402369804680347,-0.08019024133682251,3.8744192123413086,0.03801768273115158,-0.018663698807358742,-0.07063265889883041,-0.1934271603822708,2.4745218753814697,0.7038702964782715,0.01177198626101017,-0.4907810091972351,-1.525029182434082,-0.13725535571575165,-4.359816551208496,-0.24336791038513184,-0.15514196455478668,2.6973109245300293,-1.6133339405059814,-0.7859266996383667,1741530587.463951,1741530587248,2.269576171875,-0.515142822265625,-2.680369830396166,-3.877242919921875,-3.298973876953125
1741530587.4265738,3.513449192047119,0.02575123045923369,-0.01324218536106933,-0.9995806714101162,0.21090096235275269,-0.1438940167427063,-0.3986430764198303,1.0958383083343506,-4.312503814697266,8.735379219055176,-0.042916297912597656,0.03032684326171875,0.004386968910694122,-1.2379117012023926,0.005912871100008488,-0.9260318875312805,0.30231937766075134,1.2691926956176758,0.009727626107633114,0.9443427324295044,0.14019227027893066,-0.5601968169212341,-0.03376058489084244,-0.10433356463909149,0.8424887657165527,-0.3921562433242798,0.0015822364948689938,-0.768482506275177,-0.027656977996230125,-0.19321736693382263,1.4604791402816772,-0.4738132357597351,-0.003095387015491724,-0.2518054246902466,-0.1018490418791771,-3.0045344829559326,-0.10450923442840576,-0.014526494778692722,-0.05156563222408295,3.7780447006225586,-0.2242441475391388,-0.042002733796834946,-0.019750788807868958,-0.6753146052360535,2.844247817993164,0.7857775688171387,0.19463945925235748,-1.1321885585784912,-2.0348856449127197,-0.034936096519231796,-3.4475839138031006,-0.5160635113716125,0.07617001980543137,-0.9947769641876221,-1.6054401397705078,0.6576515436172485,1741530587.463951,1741530587248,2.269576171875,-0.515142822265625,-2.680369830396166,-3.877242919921875,-3.298973876953125
1741530587.4451487,3.5158848762512207,0.024008496504162216,-0.01749448173048877,-0.9995586702163066,0.23063524067401886,-0.07227566093206406,0.14150986075401306,0.3752676248550415,-2.9683871269226074,7.660613059997559,-0.048256874084472656,0.02498626708984375,-0.06084534898400307,-1.239819049835205,0.005912871100008488,-0.9283207654953003,0.3580147922039032,1.2688112258911133,0.010109102353453636,0.9431982636451721,0.11348897218704224,-0.49420157074928284,-0.015449759550392628,-0.09136339277029037,0.8096818327903748,-0.4325999319553375,-0.005504101514816284,-0.8237964510917664,-0.045204851776361465,-0.1810101419687271,1.3944838047027588,-0.4864230155944824,0.015026641078293324,-0.1501467227935791,-0.14553704857826233,-3.4783036708831787,-0.11156676709651947,0.02388181909918785,-0.1506984680891037,3.659330129623413,0.0024729284923523664,0.054407164454460144,-0.11195585131645203,-1.3680552244186401,3.350022077560425,0.8552200794219971,0.7134923934936523,-1.7056695222854614,-2.0007576942443848,-0.32769569754600525,-2.5948309898376465,-0.8646420836448669,0.5994396805763245,-3.4891836643218994,-0.40204542875289917,0.5337511897087097,1741530587.463951,1741530587248,2.269576171875,-0.515142822265625,-2.680369830396166,-3.877242919921875,-3.298973876953125
1741530587.4651694,3.521746873855591,0.02410701681071839,-0.023995902894037933,-0.9994213567784049,0.30307498574256897,-0.005396742839366198,0.26060473918914795,1.3351659774780273,0.4068707227706909,5.482625484466553,-0.050164222717285156,0.02117156982421875,-0.11539635062217712,-1.2394375801086426,0.005531395319849253,-0.9401465058326721,0.422102689743042,1.2688112258911133,0.009727626107633114,0.9370946884155273,0.09098191559314728,-0.4343098998069763,0.0024795911740511656,-0.06847485899925232,0.778019368648529,-0.4698300361633301,-0.0064859334379434586,-0.8634698987007141,-0.0707637146115303,-0.1665140837430954,1.2941558361053467,-0.46782949566841125,0.009393149986863136,-0.06412801146507263,-0.14188642799854279,-2.4726333618164062,0.030505960807204247,-0.008756072260439396,-0.5859296321868896,4.173521518707275,-0.046371158212423325,-0.028193453326821327,-0.5205006003379822,-0.9459916949272156,2.8187196254730225,0.8100643754005432,1.1181198358535767,-1.5958479642868042,-1.8307991027832031,-0.031913094222545624,-1.841802716255188,-1.3207101821899414,0.7036458849906921,-5.1267805099487305,1.1447962522506714,-0.2548501491546631,1741530587.463951,1741530587248,2.269576171875,-0.515142822265625,-2.680369830396166,-3.877242919921875,-3.298973876953125
1741530587.4851599,3.5233829021453857,0.023335065245651865,-0.029143524994122153,-0.999302821811736,0.2438763678073883,-0.02851453423500061,0.059236034750938416,2.2614033222198486,0.5560653805732727,4.979366779327393,-0.049782752990722656,0.01697540283203125,-0.14248111844062805,-1.236767292022705,0.005531395319849253,-0.952735185623169,0.4667353332042694,1.2646150588989258,0.010109102353453636,0.9283207654953003,0.08983749151229858,-0.38166627287864685,0.01201647985726595,-0.058175019919872284,0.7497901916503906,-0.5004568696022034,-0.010438403114676476,-0.881017804145813,-0.1031891331076622,-0.15888457000255585,1.1732280254364014,-0.4250759780406952,0.00791378878057003,0.002923090709373355,-0.11487694084644318,-1.1580551862716675,0.22272725403308868,-0.014686417765915394,-0.6364794373512268,2.680100917816162,-0.29911836981773376,0.014418268576264381,-0.5925185680389404,0.08229274302721024,2.7508578300476074,0.3483225703239441,0.2579878568649292,-1.3416001796722412,-1.4420353174209595,-0.18939460813999176,-0.6691479086875916,-1.6976382732391357,0.3529365360736847,-6.070012092590332,2.1407361030578613,-0.046086348593235016,1741530587.463951,1741530587248,2.269576171875,-0.515142822265625,-2.680369830396166,-3.877242919921875,-3.298973876953125
1741530587.5051785,3.5161056518554688,0.024548031398548227,-0.0329774276588536,-0.9991545843459163,0.21261899173259735,0.06351971626281738,-0.42980045080184937,3.4863977432250977,-0.6781039237976074,4.86570405960083,-0.049401283264160156,0.00972747802734375,-0.14248111844062805,-1.23295259475708,0.005531395319849253,-0.9653238654136658,0.4873350262641907,1.2592743635177612,0.009727626107633114,0.9218356609344482,0.11081864684820175,-0.3290226459503174,0.007438773289322853,-0.06313420087099075,0.7295719981193542,-0.5227892994880676,-0.006670660804957151,-0.8653773069381714,-0.1367589831352234,-0.15964750945568085,1.0282673835754395,-0.3800686001777649,0.0012271354207769036,0.004849603865295649,-0.23457665741443634,0.24869531393051147,0.21283107995986938,-0.013002750463783741,-0.5791208744049072,1.1305663585662842,-0.4078245759010315,-0.01119714044034481,-0.3747675120830536,1.168798804283142,2.5619256496429443,-0.2978740930557251,-0.3014213740825653,-0.9278131723403931,-1.069715976715088,0.3040797710418701,0.9476253390312195,-1.6347529888153076,-0.13384340703487396,-7.5493364334106445,2.1556236743927,-0.21691247820854187,1741530587.463951,1741530587248,2.269576171875,-0.515142822265625,-2.680369830396166,-3.877242919921875,-3.298973876953125
1741530587.5252526,3.5017426013946533,0.023636663490371707,-0.03741013912609406,-0.9990204150214396,0.25105002522468567,-0.12080278992652893,-0.7256365418434143,4.744397163391113,-0.69240802526474,1.775437355041504,-0.047875404357910156,0.01010894775390625,-0.11730372905731201,-1.2299007177352905,0.005531395319849253,-0.9710460305213928,0.4884794354438782,1.2505004405975342,0.009727626107633114,0.918402373790741,0.13904783129692078,-0.2809567451477051,-0.01773861236870289,-0.06198977679014206,0.728427529335022,-0.5226472020149231,-0.01852591708302498,-0.8367666006088257,-0.16079194843769073,-0.17681391537189484,0.8539330363273621,-0.35933977365493774,-0.008255562745034695,0.038101159036159515,-0.009940569289028645,1.4876952171325684,0.2658557593822479,-0.0046112872660160065,-0.2234489768743515,-0.0008525291923433542,-0.6000858545303345,0.0019667528104037046,-0.21265719830989838,1.3678865432739258,2.273885488510132,-1.3965593576431274,0.28903868794441223,0.08992787450551987,0.15970078110694885,-0.6022951602935791,1.6097259521484375,-1.1696295738220215,-0.6543009281158447,-8.893014907836914,0.7326514720916748,-0.39661604166030884,1741530587.463951,1741530587248,2.269576171875,-0.515142822265625,-2.680369830396166,-3.877242919921875,-3.298973876953125
1741530587.5452318,3.488266944885254,0.01866371965002422,-0.04611512427843941,-0.9987617638263938,0.5428371429443359,-0.30427226424217224,-0.648784875869751,-6.005346775054932,7.165771484375,34.10227966308594,-0.044823646545410156,0.01850128173828125,-0.07610437273979187,-1.219982385635376,0.005531395319849253,-0.9729533791542053,0.47665369510650635,1.2413450479507446,0.009727626107633114,0.9157320261001587,0.14820325374603271,-0.24128328263759613,-0.01125352829694748,-0.06809338182210922,0.761997401714325,-0.5117888450622559,-0.010513130575418472,-0.8093003630638123,-0.17719538509845734,-0.18673227727413177,0.770008385181427,-0.33146539330482483,0.00784372165799141,0.08577786386013031,0.23795169591903687,2.1959238052368164,0.6952721476554871,0.006960303522646427,-0.10141665488481522,-0.9543030858039856,-0.6186622381210327,-0.006290958262979984,-0.21854433417320251,0.2703649401664734,1.7481603622436523,0.9636839032173157,-0.2758808434009552,2.2141168117523193,0.4872417151927948,0.5667238235473633,1.1988945007324219,-0.3496280014514923,-0.6373242139816284,-1.2278510332107544,1.9635820388793945,0.830318808555603,1741530587.463951,1741530587248,2.269576171875,-0.515142822265625,-2.680369830396166,-3.877242919921875,-3.298973876953125
1741530587.5652585,3.477508068084717,0.01663502501575061,-0.049390415407104184,-0.998641007974657,0.09744484722614288,0.19657041132450104,-0.353251188993454,11.706177711486816,2.701855182647705,3.9259629249572754,-0.044442176818847656,0.01201629638671875,-0.021553369238972664,-1.2188379764556885,0.006294346414506435,-0.9725719094276428,0.44270238280296326,1.2340970039367676,0.009727626107633114,0.9088655114173889,0.12569619715213776,-0.23517967760562897,-0.006294346414506435,-0.06008239835500717,0.8333333134651184,-0.4929952621459961,-0.0011108537437394261,-0.7658121585845947,-0.14133669435977936,-0.17299915850162506,0.8360036611557007,-0.29160502552986145,0.05847831442952156,-0.03427930921316147,-0.42039018869400024,2.6618566513061523,0.038145579397678375,0.10531686991453171,0.06371024250984192,-2.6389567852020264,-0.38054215908050537,0.007713092025369406,-0.276496559381485,-1.1288366317749023,-0.15660825371742249,0.07413481920957565,0.5814852714538574,3.876060724258423,1.1886837482452393,0.21989713609218597,1.6759134531021118,1.1332881450653076,1.423914909362793,2.4459986686706543,1.551647663116455,2.377807140350342,1741530587.463951,1741530587248,2.269576171875,-0.515142822265625,-2.680369830396166,-3.877242919921875,-3.298973876953125
1741530587.585241,3.477046251296997,0.01719614293251138,-0.05413508635499299,-0.9983855393051234,0.31659209728240967,0.1227908656001091,0.1489003300666809,-4.758612155914307,2.7290873527526855,8.24221134185791,-0.043679237365722656,0.01811981201171875,0.03757534176111221,-1.2268489599227905,0.005912871100008488,-0.9710460305213928,0.38166627287864685,1.2356228828430176,0.010109102353453636,0.9122987985610962,0.09632257372140884,-0.2752346098423004,-0.015449759550392628,-0.06656748056411743,0.9596017599105835,-0.4521954655647278,0.008386651985347271,-0.7478827834129333,-0.12607766687870026,-0.11081864684820175,0.8112077713012695,-0.2798207402229309,0.05907193571329117,0.03877539187669754,-0.0865938663482666,3.1034023761749268,-0.7398520708084106,0.023835357278585434,0.0394122451543808,-4.0908427238464355,0.05443096533417702,0.030572563409805298,0.2620934844017029,-1.3623031377792358,-2.1691274642944336,-0.5869084596633911,-0.4475550353527069,6.606629848480225,2.0969154834747314,0.5094839334487915,1.0756313800811768,0.9884013533592224,2.6418254375457764,-1.43950617313385,0.5249022841453552,-0.4705837368965149,1741530587.6681998,1741530587548,1.9544934082031251,-0.5781233520507812,-2.8266701319920955,-4.17224560546875,-3.415005859375
1741530587.6053176,3.485895872116089,0.020011970320304228,-0.05622070224817641,-0.9982177887027566,0.020947247743606567,0.16478803753852844,0.5902689099311829,1.1525059938430786,3.252493381500244,9.890826225280762,-0.031472206115722656,0.02841949462890625,0.09861142933368683,-1.2424894571304321,0.005912871100008488,-0.9710460305213928,0.3221561014652252,1.23295259475708,0.009727626107633114,0.9115357995033264,0.061226826161146164,-0.3549630045890808,-0.035667963325977325,-0.07038223743438721,1.1305028200149536,-0.4056675434112549,0.01746717281639576,-0.7116426229476929,-0.0875486359000206,-0.0879301130771637,0.8226520419120789,-0.26263317465782166,0.021618269383907318,0.2724372148513794,0.3639436662197113,2.9197239875793457,-0.9942626357078552,0.035404469817876816,-0.00011521167471073568,-4.128184795379639,-0.16893167793750763,-0.0048725176602602005,-0.008601484820246696,-1.6443732976913452,-4.258411407470703,-1.2039316892623901,-0.09932391345500946,8.439716339111328,2.2586355209350586,0.288987934589386,1.606985092163086,1.751468539237976,1.29599130153656,0.719607949256897,0.7915751934051514,-1.877110242843628,1741530587.6681998,1741530587548,1.9544934082031251,-0.5781233520507812,-2.8266701319920955,-4.17224560546875,-3.415005859375
1741530587.6253176,3.504331111907959,0.014905632742291518,-0.055251952029994916,-0.9983611790877223,-0.019511137157678604,-0.25716686248779297,0.9129712581634521,-2.0327632427215576,5.193580627441406,13.443291664123535,-0.01239776611328125,0.051308631896972656,0.15888457000255585,-1.2535521984100342,0.005531395319849253,-0.9706645011901855,0.25425344705581665,1.232571005821228,0.010109102353453636,0.9130617380142212,0.03604944050312042,-0.45796138048171997,-0.06504157930612564,-0.051689937710762024,1.2979705333709717,-0.383807510137558,0.0073403604328632355,-0.689517080783844,-0.07915617525577545,-0.05970092490315437,0.8211261034011841,-0.2615460455417633,0.015005498193204403,0.5920523405075073,0.6312733292579651,2.958996534347534,-0.744900643825531,-0.012583850882947445,0.00691373972222209,-4.611453533172607,-0.11564259976148605,0.026712505146861076,0.1548071652650833,-1.2462223768234253,-5.148440837860107,-1.44962739944458,1.185418725013733,8.158937454223633,0.7050668597221375,-0.48744043707847595,1.3302206993103027,0.36090579628944397,1.1985163688659668,-0.06837986409664154,-0.03374968096613884,-0.03038901649415493,1741530587.6681998,1741530587548,1.9544934082031251,-0.5781233520507812,-2.8266701319920955,-4.17224560546875,-3.415005859375
1741530587.645312,3.5231986045837402,0.012345447444114801,-0.05719546481346196,-0.9982866666104364,0.08685889095067978,-0.053784411400556564,0.9796374440193176,3.193458080291748,3.985103130340576,9.68210506439209,0.01544952392578125,0.07190799713134766,0.22716869413852692,-1.2646150588989258,0.005912871100008488,-0.9660868048667908,0.17872129380702972,1.2299007177352905,0.009346150793135166,0.9157320261001587,0.004386968910694122,-0.5540932416915894,-0.07686731964349747,-0.005149920005351305,1.41317617893219,-0.40432116389274597,0.008928860537707806,-0.647936224937439,-0.07801175117492676,-0.0558861680328846,0.8253223299980164,-0.2718466818332672,0.012291914783418179,0.8166573643684387,0.5362547636032104,3.4903345108032227,-0.7523264288902283,0.0077156247571110725,0.26924413442611694,-5.024723052978516,-0.15957945585250854,-0.02978704869747162,0.14813965559005737,-1.6069307327270508,-4.587615489959717,-0.3181593716144562,2.3699417114257812,5.114223480224609,-1.2867776155471802,0.2813981771469116,1.9498904943466187,-0.00513712503015995,0.1558767706155777,0.15890803933143616,-0.7123954892158508,-0.16806891560554504,1741530587.6681998,1741530587548,1.9544934082031251,-0.5781233520507812,-2.8266701319920955,-4.17224560546875,-3.415005859375
1741530587.6653342,3.543287754058838,0.005235109779764156,-0.061566935879401014,-0.9980892274902157,0.2436923086643219,-0.31179279088974,0.989380419254303,-3.5026965141296387,2.622603178024292,11.27122688293457,0.01697540283203125,0.08945560455322266,0.2962157726287842,-1.2726260423660278,0.005531395319849253,-0.955024003982544,0.10585946589708328,1.2276118993759155,0.009346150793135166,0.9164950251579285,-0.02384222112596035,-0.6395437717437744,-0.07000076025724411,0.049782559275627136,1.4509422779083252,-0.44426602125167847,0.006746810395270586,-0.620088517665863,-0.07763027399778366,-0.04100862145423889,0.8226520419120789,-0.3043712377548218,0.00785141158849001,0.055616118013858795,0.517679750919342,3.49164080619812,-0.5100888013839722,-0.008600574918091297,0.5416316390037537,-4.743256092071533,-0.13608570396900177,0.00295321736484766,0.025160113349556923,-1.2621500492095947,-3.9864578247070312,0.17077048122882843,2.7768919467926025,1.2556055784225464,-1.999276041984558,-0.2805606424808502,1.4133784770965576,0.1339532434940338,0.8977243304252625,-0.14173434674739838,-1.7727923393249512,-0.09764187037944794,1741530587.6681998,1741530587548,1.9544934082031251,-0.5781233520507812,-2.8266701319920955,-4.17224560546875,-3.415005859375
1741530587.6853445,3.556378126144409,0.006368045030026753,-0.06888499474905806,-0.9976042830205362,0.35478541254997253,0.12997856736183167,0.5590384602546692,-0.19231697916984558,1.2278778553009033,9.85207462310791,0.02460479736328125,0.07495975494384766,0.3587777614593506,-1.2749148607254028,0.005531395319849253,-0.9447242021560669,0.04329747334122658,1.226467490196228,0.009346150793135166,0.9164950251579285,-0.04406042397022247,-0.7097352743148804,-0.06885633617639542,0.10929274559020996,1.4208056926727295,-0.47490236163139343,-0.010072457604110241,-0.5739299654960632,-0.07686731964349747,-0.026131074875593185,0.8150225281715393,-0.34670665860176086,0.027622820809483528,0.2302219420671463,-0.33691054582595825,2.7598345279693604,-0.07743306457996368,-0.01601053774356842,0.5019408464431763,-4.139972686767578,-0.06162291392683983,0.003377750050276518,-0.0219962690025568,-0.9342001676559448,-3.4818997383117676,0.0724957212805748,2.561248779296875,-1.9352624416351318,-1.3607500791549683,-0.7049925923347473,2.296201467514038,0.001778140664100647,0.7060168981552124,-0.4447411596775055,-2.174177408218384,1.04690682888031,1741530587.6681998,1741530587548,1.9544934082031251,-0.5781233520507812,-2.8266701319920955,-4.17224560546875,-3.415005859375
1741530587.7053664,3.5621466636657715,0.008533647082837742,-0.07601163950952437,-0.9970704125218738,0.33234912157058716,0.11749333888292313,0.2193031758069992,1.390112042427063,2.8567326068878174,7.715346813201904,0.034905433654785156,0.06847476959228516,0.4091325104236603,-1.2745333909988403,0.005912871100008488,-0.9359502792358398,-0.007438773289322853,1.226467490196228,0.009346150793135166,0.916113555431366,-0.043678950518369675,-0.7654306888580322,-0.06198977679014206,0.13981078565120697,1.345273494720459,-0.47507452964782715,-0.01058321725577116,-0.5514228940010071,-0.07724879682064056,-0.02384222112596035,0.7982375621795654,-0.3864354193210602,0.04336017742753029,0.3060116469860077,-0.2013137936592102,2.4238369464874268,-0.022474968805909157,0.0019225467694923282,0.45798203349113464,-3.2511954307556152,0.006461102049797773,0.016780458390712738,-0.043831758201122284,0.0962688997387886,-2.6734302043914795,0.40255793929100037,1.3362481594085693,-4.080916881561279,0.27225759625434875,0.0003551581467036158,0.9522737860679626,-0.007838090881705284,0.03240580856800079,-0.7962683439254761,-1.9010894298553467,0.6706834435462952,1741530587.6681998,1741530587548,1.9544934082031251,-0.5781233520507812,-2.8266701319920955,-4.17224560546875,-3.415005859375
1741530587.7285404,3.5666630268096924,0.01602343440209804,-0.07707581372582577,-0.9968964682896934,0.048178400844335556,0.48082080483436584,0.3801855146884918,6.30621337890625,1.10861074924469,2.7902143001556396,0.03070831298828125,0.048256874084472656,0.4495689272880554,-1.2718631029129028,0.005912871100008488,-0.9309910535812378,-0.06504157930612564,1.2299007177352905,0.009727626107633114,0.9229800701141357,-0.05092698708176613,-0.810826301574707,-0.05207141116261482,0.16041046380996704,1.2415121793746948,-0.4405839741230011,-0.012715814635157585,-0.5037384629249573,-0.08030059933662415,-0.02193484455347061,0.7898451089859009,-0.4180928170681,0.03716928884387016,-0.14965976774692535,-0.6258008480072021,2.083984136581421,0.2816044092178345,0.02598915621638298,0.29276734590530396,-3.8025221824645996,0.2541193664073944,0.02135244570672512,0.540448784828186,-0.48554813861846924,-2.1249284744262695,0.612535297870636,0.7952633500099182,-5.212838172912598,1.8949474096298218,-0.057219989597797394,2.3851537704467773,-0.13099808990955353,0.09669763594865799,-0.5418066382408142,-1.6430861949920654,-0.435547798871994,1741530587.6681998,1741530587548,1.9544934082031251,-0.5781233520507812,-2.8266701319920955,-4.17224560546875,-3.415005859375
