Freshhhhh-LC/Legged_odom/data/7/segments/booster_seg_9.86s.csv
time,yaw,projected_gravity_x,projected_gravity_y,projected_gravity_z,ang_vel_x,ang_vel_y,ang_vel_z,lin_acc_x,lin_acc_y,lin_acc_z,q_0,q_1,q_2,q_3,q_4,q_5,q_6,q_7,q_8,q_9,q_10,q_11,q_12,q_13,q_14,q_15,q_16,q_17,q_18,q_19,q_20,q_21,q_22,dq_0,dq_1,dq_2,dq_3,dq_4,dq_5,dq_6,dq_7,dq_8,dq_9,dq_10,dq_11,dq_12,dq_13,dq_14,dq_15,dq_16,dq_17,dq_18,dq_19,dq_20,dq_21,dq_22,mocap_time,mocap_timestamp,robot_x,robot_y,robot_yaw,ball_x,ball_y
1741530574.6166685,1.8312377333641052,0.022427801667798942,-0.04884250759515924,-0.9985546570739965,0.6333866119384766,-0.28411760926246643,-1.0850245952606201,2.357807159423828,-1.2833805084228516,9.499942779541016,-0.4156179428100586,0.23441696166992188,-0.09212634712457657,-1.2299007177352905,0.005531395319849253,-0.9576943516731262,0.4716945290565491,1.2501189708709717,0.009727626107633114,0.9004730582237244,0.35152971744537354,-0.4510948359966278,-0.02384222112596035,-0.08983749151229858,0.7436865568161011,-0.39927738904953003,-0.049362778663635254,-0.7894636392593384,-0.25310903787612915,-0.3213931620121002,1.10837721824646,-0.38862648606300354,0.0022030898835510015,0.2538868486881256,0.04747331514954567,-0.07398045808076859,0.08508411049842834,-0.00868656300008297,-0.7377181649208069,2.460236072540283,-0.39882785081863403,-0.0008947078022174537,-0.0404638797044754,0.6485366821289062,2.883864164352417,0.09522782266139984,0.6434178352355957,-1.232151746749878,-1.1824294328689575,0.29298603534698486,0.7810068726539612,-2.1000940799713135,-0.26650312542915344,-3.8359882831573486,1.2506734132766724,-0.05980769544839859,1741530574.6614146,1741530574548,-2.158306396484375,0.7808828125,1.2985625061762545,-0.6632928466796875,2.210713134765625
1741530574.6186686,1.685710608959198,-0.00947108581414233,-0.08080634510501514,-0.9966848213574191,-0.11611629277467728,-0.020118746906518936,-1.2457815408706665,2.370318651199341,2.1497461795806885,9.931084632873535,-0.3961620330810547,0.24090194702148438,0.11692225188016891,-1.224941611289978,0.005531395319849253,-0.9718089699745178,0.3709849715232849,1.2512633800506592,0.010109102353453636,0.9054322242736816,0.38166627287864685,-0.19207294285297394,-0.05207141116261482,-0.1848248988389969,0.7429236173629761,-0.3941696584224701,-0.004978604149073362,-0.5933852195739746,-0.22793163359165192,-0.32101166248321533,0.8054856061935425,-0.3751436173915863,-0.05145833268761635,0.15554986894130707,-0.10877637565135956,2.7744338512420654,0.1677299439907074,0.006686116103082895,0.00988463219255209,-4.05165433883667,0.6568381786346436,0.007299328222870827,0.21123594045639038,-0.42992642521858215,-0.48352083563804626,-0.6787145733833313,-3.3433597087860107,4.22470235824585,1.5561577081680298,0.9232643246650696,1.3590518236160278,1.8405287265777588,3.048112154006958,-0.33563366532325745,-0.6483249068260193,-0.348431259393692,1741530574.6614146,1741530574548,-2.158306396484375,0.7808828125,1.2985625061762545,-0.6632928466796875,2.210713134765625
1741530574.6274307,1.330484579782933,0.04209882855473268,0.00761026338467911,-0.9990844671625794,-0.4007056951522827,0.10433461517095566,-0.3877992033958435,-1.1885617971420288,-15.999090194702148,20.04296875,-0.3957805633544922,0.3030824661254883,0.47436484694480896,-1.2558410167694092,0.005531395319849253,-0.9344243407249451,-0.10852979123592377,1.223797082901001,0.009346150793135166,0.9714275002479553,0.14171816408634186,-0.8592736721038818,-0.08487831056118011,-0.06733043491840363,0.7421606779098511,-0.3620551526546478,0.0001461264764657244,-0.47398337721824646,-0.040245670825242996,-0.2447165697813034,0.8607995510101318,-0.49571219086647034,-0.03424917906522751,-0.7369793057441711,0.6125858426094055,-0.4905473291873932,0.20119057595729828,-0.01345584075897932,-0.0037157663609832525,1.3468044996261597,-0.16285130381584167,0.01617511175572872,0.08378548920154572,0.1936025172472,1.1761629581451416,1.3901597261428833,1.5991865396499634,-5.994801998138428,1.571031928062439,-0.5800790190696716,1.8832916021347046,1.399949312210083,0.0736301839351654,0.5696904063224792,-1.4364306926727295,0.7808147668838501,1741530574.6614146,1741530574548,-2.158306396484375,0.7808828125,1.2985625061762545,-0.6632928466796875,2.210713134765625
1741530574.6474578,1.3224633290665224,0.038128563922148716,0.016681809922331484,-0.9991335895819686,-0.2950046956539154,-0.028839726001024246,-0.3510228395462036,-5.973797798156738,5.691049098968506,12.191588401794434,-0.4056987762451172,0.3183412551879883,0.4510948359966278,-1.2478300333023071,0.005531395319849253,-0.9287022352218628,-0.0722896158695221,1.2321895360946655,0.009727626107633114,0.969520092010498,0.15659570693969727,-0.8192187547683716,-0.06542305648326874,-0.06008239835500717,0.7845044732093811,-0.3236241936683655,-0.004929708782583475,-0.42744335532188416,-0.034142062067985535,-0.2504386901855469,0.8684290647506714,-0.5076187252998352,-0.007174247410148382,-0.32906830310821533,0.3737315237522125,-1.362807035446167,0.5333780646324158,-0.020991597324609756,0.28710347414016724,2.513989210128784,0.7098086476325989,0.022549504414200783,-0.15849457681179047,1.1286813020706177,1.9906398057937622,0.8745829463005066,-0.2245359569787979,2.45773983001709,1.6811962127685547,-0.09816931188106537,2.457460880279541,0.42324355244636536,-0.3561256229877472,0.14173708856105804,-0.37937644124031067,1.1047371625900269,1741530574.6614146,1741530574548,-2.158306396484375,0.7808828125,1.2985625061762545,-0.6632928466796875,2.210713134765625
1741530574.6674883,1.3191826264373958,0.03655378339080741,0.014982012758825814,-0.9992193754193882,0.05371467396616936,-0.17663148045539856,-0.29791173338890076,9.057509422302246,-0.911899209022522,9.28345775604248,-0.4152364730834961,0.3217744827270508,0.3904402256011963,-1.2501189708709717,0.005912871100008488,-0.9237430095672607,-0.013160906732082367,1.238293170928955,0.009727626107633114,0.9657053351402283,0.1832990050315857,-0.8020523190498352,-0.048256658017635345,-0.10624094307422638,0.7928969264030457,-0.30522334575653076,-0.04110375791788101,-0.3908216953277588,-0.020027466118335724,-0.2592126429080963,0.8894102573394775,-0.4888328015804291,-0.009661768563091755,-0.31957152485847473,0.23651328682899475,-3.1839234828948975,-0.2991967499256134,-0.04042845591902733,0.18210531771183014,4.1014180183410645,0.26845455169677734,-0.0013160323724150658,-0.3287779688835144,1.085563063621521,1.171545147895813,0.5139397382736206,-1.998880386352539,-0.06581702083349228,0.6841257810592651,-1.7248961925506592,1.5943111181259155,0.5931388735771179,-0.27249231934547424,1.516982913017273,1.152330756187439,-0.268919438123703,1741530574.6614146,1741530574548,-2.158306396484375,0.7808828125,1.2985625061762545,-0.6632928466796875,2.210713134765625
1741530574.6875374,1.3102000299841166,0.030464932229435006,0.020740591976428215,-0.9993206271005934,-0.31038159132003784,-0.20833998918533325,-0.5264080762863159,1.0493247509002686,-0.957220196723938,8.773676872253418,-0.4438467025756836,0.3309297561645508,0.31681543588638306,-1.2505004405975342,0.005149920005351305,-0.9225986003875732,0.04444190114736557,1.2417265176773071,0.009727626107633114,0.9588387608528137,0.1974135935306549,-0.7520790696144104,-0.05245288833975792,-0.11539635062217712,0.8012893795967102,-0.2935654819011688,-0.031160499900579453,-0.39768826961517334,-0.024605173617601395,-0.2588311731815338,0.9775310754776001,-0.4491543471813202,-0.022439777851104736,-0.8254523277282715,0.36159104108810425,-3.4464547634124756,0.07774268090724945,-0.01969032734632492,0.07408682256937027,3.779536724090576,0.38868048787117004,0.018290316686034203,-0.4216459393501282,0.6316884160041809,2.0860419273376465,-0.24984246492385864,-0.4300289452075958,0.5609669089317322,0.606340765953064,1.0326460599899292,-0.6808885335922241,-0.4264528453350067,0.14759056270122528,4.954981327056885,2.0388286113739014,-0.5103614926338196,1741530574.6614146,1741530574548,-2.158306396484375,0.7808828125,1.2985625061762545,-0.6632928466796875,2.210713134765625
1741530574.7075543,1.288608357310295,0.021184470761300814,0.021614130558579595,-0.9995419188602147,0.01084108091890812,-0.3676456809043884,-1.1969270706176758,-6.591006278991699,-2.1741507053375244,9.48355770111084,-0.4415578842163086,0.3397035598754883,0.24929426610469818,-1.2455412149429321,0.005149920005351305,-0.9229800701141357,0.1031891331076622,1.2531707286834717,0.010872052982449532,0.9531166553497314,0.21038375794887543,-0.726901650428772,-0.05245288833975792,-0.13904783129692078,0.812352180480957,-0.28759315609931946,-0.016406262293457985,-0.4659723937511444,-0.03643091395497322,-0.2645532786846161,1.115625262260437,-0.41188254952430725,-0.009917683899402618,0.0816950798034668,0.35588377714157104,-3.4501636028289795,0.30035147070884705,-0.011597547680139542,-0.11875459551811218,3.8350138664245605,0.6668460965156555,0.04802613705396652,-0.3739844262599945,0.7026135921478271,1.5788146257400513,-0.03766785189509392,-1.1282355785369873,0.546008825302124,0.20769597589969635,0.3329446613788605,-3.5433108806610107,-0.5197845697402954,-0.3138370215892792,7.058904647827148,1.7250570058822632,0.9778444170951843,1741530574.6614146,1741530574548,-2.158306396484375,0.7808828125,1.2985625061762545,-0.6632928466796875,2.210713134765625
1741530574.72759,1.2538942322134972,0.021701604657080074,0.02444289588209579,-0.999465649833052,-0.14278161525726318,0.03618967533111572,-1.8267556428909302,2.345390796661377,2.9021265506744385,11.943679809570312,-0.4667348861694336,0.3297853469848633,0.17376211285591125,-1.2402005195617676,0.005531395319849253,-0.925650417804718,0.15545128285884857,1.2585114240646362,0.009727626107633114,0.9481574892997742,0.22678720951080322,-0.690280020236969,-0.049782559275627136,-0.14591439068317413,0.8165484070777893,-0.289679616689682,-0.01584232971072197,-0.5495155453681946,-0.04329747334122658,-0.2725642919540405,1.2644007205963135,-0.40629249811172485,0.0031238552182912827,-0.706071674823761,-0.16678549349308014,-3.6438064575195312,0.38934341073036194,0.01111556589603424,-0.04272444173693657,3.440114974975586,0.3702959716320038,-0.05306641757488251,-0.35718563199043274,0.831671416759491,1.7369765043258667,0.20080359280109406,-0.28993141651153564,0.16828812658786774,-0.1042483001947403,0.10841692984104156,-3.8774285316467285,-0.38730135560035706,-0.46677276492118835,7.120029449462891,-0.09952465444803238,0.3034069836139679,1741530574.6614146,1741530574548,-2.158306396484375,0.7808828125,1.2985625061762545,-0.6632928466796875,2.210713134765625
1741530574.747611,1.2131212800741196,0.01710847926097005,0.0259175752499826,-0.9995176732957444,0.014887937344610691,-0.17211757600307465,-1.995842695236206,2.5992543697357178,-2.174880027770996,11.433011054992676,-0.482757568359375,0.3301668167114258,0.10585946589708328,-1.233715534210205,0.005531395319849253,-0.9203097820281982,0.20885786414146423,1.2604187726974487,0.010109102353453636,0.9393835067749023,0.24357213079929352,-0.656710147857666,-0.03299763426184654,-0.14591439068317413,0.8169298768043518,-0.2958366274833679,-0.012838264927268028,-0.6261920928955078,-0.05436026677489281,-0.2798123061656952,1.3601510524749756,-0.4336965084075928,-0.012415547855198383,-0.5162144899368286,-0.0034064380452036858,-3.216662883758545,0.3932178020477295,-0.004884942900389433,0.24206045269966125,3.645087480545044,0.05354900285601616,-0.020179202780127525,-0.6436789035797119,0.760016679763794,1.7928341627120972,0.848116397857666,0.013420469127595425,-0.015923751518130302,-0.34798499941825867,0.109152652323246,-3.4791319370269775,-0.4566919207572937,-0.46283769607543945,4.314306259155273,-1.5619975328445435,-0.6939601898193359,1741530574.6614146,1741530574548,-2.158306396484375,0.7808828125,1.2985625061762545,-0.6632928466796875,2.210713134765625
1741530574.7676296,1.1733232289552689,0.013029196435877683,0.025924536567643822,-0.9995789905975356,0.03357969596982002,-0.16701467335224152,-1.9201890230178833,2.1648199558258057,-3.728999137878418,9.570298194885254,-0.4968719482421875,0.3294038772583008,0.04634927958250046,-1.231808066368103,0.005531395319849253,-0.9134432077407837,0.2653162479400635,1.2588928937911987,0.009346150793135166,0.927176296710968,0.24166475236415863,-0.6067368388175964,-0.008964675478637218,-0.14057374000549316,0.811589241027832,-0.3086880147457123,-0.01806928962469101,-0.6822690367698669,-0.0551232174038887,-0.290875107049942,1.3864728212356567,-0.4714752733707428,-0.0011652963003143668,-0.4773764908313751,-0.012530085630714893,-2.74398136138916,0.11454227566719055,-0.016805589199066162,0.3444697856903076,3.690610885620117,-0.15926885604858398,-0.03525615483522415,-0.8123401999473572,-0.1269807368516922,2.5142946243286133,1.1753817796707153,0.26453593373298645,-0.377218633890152,-0.7157171368598938,-0.25647667050361633,-2.654348850250244,0.02966954931616783,-0.4107101857662201,0.8036075830459595,-1.8398030996322632,0.840441882610321,1741530574.6614146,1741530574548,-2.158306396484375,0.7808828125,1.2985625061762545,-0.6632928466796875,2.210713134765625
1741530574.7876272,1.1523676216602325,0.005972966891536509,0.02544452584097382,-0.9996583915374494,0.025342680513858795,-0.33756086230278015,-1.0195099115371704,2.3279857635498047,-2.5085813999176025,8.803240776062012,-0.51861572265625,0.3362703323364258,-0.0036240178160369396,-1.2299007177352905,0.00476844422519207,-0.9058136940002441,0.31948578357696533,1.2554595470428467,0.008964675478637218,0.916113555431366,0.2283131182193756,-0.5502784848213196,0.014686808921396732,-0.13179980218410492,0.8005264401435852,-0.32645148038864136,-0.02174510434269905,-0.7211795449256897,-0.05855649709701538,-0.2920195460319519,1.352521538734436,-0.4970705509185791,0.011996539309620857,-0.6331014633178711,0.18940497934818268,-2.356966495513916,0.13536348938941956,-0.12868046760559082,0.28783053159713745,3.534106492996216,-0.24143841862678528,-0.004272096324712038,-0.7450472116470337,-0.8080655336380005,2.7967121601104736,1.0776628255844116,0.4669007658958435,-0.5706286430358887,-0.9600837230682373,-0.015984604135155678,-1.8098753690719604,-0.19887471199035645,-0.11702552437782288,-2.0534791946411133,-1.1215176582336426,0.338255375623703,1741530574.6614146,1741530574548,-2.158306396484375,0.7808828125,1.2985625061762545,-0.6632928466796875,2.210713134765625
1741530574.8076608,1.1363469511270523,-0.0004995221180789686,0.025265864488441016,-0.9996806422899791,0.03352316468954086,-0.27035191655158997,-0.7942362427711487,-1.3457469940185547,-6.739363670349121,8.436554908752441,-0.5338754653930664,0.3313112258911133,-0.06084534898400307,-1.2283748388290405,0.005912871100008488,-0.9023804068565369,0.36907759308815,1.2550780773162842,0.009346150793135166,0.9016174674034119,0.2141985148191452,-0.49114975333213806,0.035667963325977325,-0.12455176562070847,0.7860303521156311,-0.350244402885437,-0.017682747915387154,-0.7406347990036011,-0.071908138692379,-0.30117493867874146,1.278515338897705,-0.49611979722976685,0.003929466474801302,-0.488338440656662,-0.13166123628616333,-2.779494524002075,0.06814195960760117,-0.003229759633541107,0.09186141937971115,3.4309704303741455,0.01191055029630661,0.04079286754131317,-1.0675969123840332,-0.6119651198387146,2.9114463329315186,0.9985302686691284,0.37070992588996887,-0.742661714553833,-1.2376739978790283,0.21709175407886505,-0.786773145198822,-0.7936584949493408,-0.6077020764350891,-3.683651924133301,0.2885819971561432,-0.17447343468666077,1741530574.6614146,1741530574548,-2.158306396484375,0.7808828125,1.2985625061762545,-0.6632928466796875,2.210713134765625
1741530574.8276875,1.1232204288244247,-0.00655425303807226,0.024341995412248886,-0.9996822040160879,0.04335547238588333,-0.3057500123977661,-0.6988934874534607,3.872079610824585,-2.231677532196045,7.818244457244873,-0.5464639663696289,0.3282594680786133,-0.09899290651082993,-1.228756308555603,0.005531395319849253,-0.8997100591659546,0.42668038606643677,1.2585114240646362,0.009346150793135166,0.8756771087646484,0.2130540907382965,-0.44499123096466064,0.04444190114736557,-0.11654078215360641,0.7612344622612,-0.377932071685791,-0.020996516570448875,-0.7444495558738708,-0.1028076633810997,-0.31948578357696533,1.180094599723816,-0.4638175368309021,0.01516655646264553,-0.37391093373298645,-0.08243376016616821,-1.6408352851867676,-0.049538131803274155,0.01404748484492302,0.18368378281593323,3.5587618350982666,0.1657203733921051,-0.012657511048018932,-1.7877687215805054,0.10677249729633331,2.1588823795318604,0.4243275821208954,0.4169049859046936,-1.3227312564849854,-1.4672572612762451,-0.25320056080818176,-0.1272396594285965,-1.7034674882888794,-0.8919404745101929,-5.078102111816406,1.8344894647598267,0.40794891119003296,1741530574.8679636,1741530574748,-2.097751708984375,0.9492437744140625,1.0881477311935286,-0.34965206909179686,2.1610009765625002
1741530574.84776,1.11345674097538,-0.0076368141853796895,0.02158493352218415,-0.9997378504957892,0.14970411360263824,0.05123916268348694,-0.49310359358787537,3.398973226547241,-2.0301427841186523,6.837594985961914,-0.5560007095336914,0.3160524368286133,-0.11730372905731201,-1.2291377782821655,0.005531395319849253,-0.8955138325691223,0.45872434973716736,1.2596558332443237,0.009346150793135166,0.8504997491836548,0.22755016386508942,-0.3889143168926239,0.04901960864663124,-0.11730372905731201,0.7394903302192688,-0.40319329500198364,-0.01868833228945732,-0.7337682247161865,-0.13790340721607208,-0.3419928252696991,1.0683223009109497,-0.41876232624053955,0.013633021153509617,-0.28517603874206543,-0.35263076424598694,-0.774323046207428,-0.017079750075936317,-0.006228907033801079,0.16698797047138214,1.9418728351593018,0.1437101662158966,0.030772540718317032,-1.7868818044662476,0.8513622879981995,2.666698455810547,0.1751743108034134,-0.06089825555682182,-1.1816444396972656,-1.239386796951294,0.1834574192762375,0.7222431302070618,-1.760374903678894,-1.023080825805664,-5.683298110961914,2.2891619205474854,-0.19660131633281708,1741530574.8679636,1741530574748,-2.097751708984375,0.9492437744140625,1.0881477311935286,-0.34965206909179686,2.1610009765625002
1741530574.8677528,1.103901132941246,-0.006117586071740493,0.01615758457821307,-0.9998507426617498,0.28445151448249817,0.11649028211832047,-0.4380744695663452,-0.6462602615356445,-2.800621747970581,6.681096076965332,-0.5594339370727539,0.3007936477661133,-0.11081864684820175,-1.230282187461853,0.005531395319849253,-0.8882657885551453,0.4709315598011017,1.2638521194458008,0.009346150793135166,0.8241779208183289,0.24967575073242188,-0.3427557647228241,0.04444190114736557,-0.11959258466959,0.7135500311851501,-0.4197416305541992,-0.0200286116451025,-0.7047760486602783,-0.16956588625907898,-0.36411839723587036,0.9386205673217773,-0.371191143989563,0.006909532472491264,-0.12993668019771576,-0.5089189410209656,0.4547768533229828,-0.0895904004573822,-0.002647245302796364,0.45072630047798157,0.5518566966056824,0.2774147391319275,-0.003675570013001561,-1.748113989830017,1.2252095937728882,2.4105546474456787,-0.2286580204963684,-0.18552610278129578,-1.1565009355545044,-0.7211277484893799,-0.09817305952310562,1.2649708986282349,-1.4610790014266968,-1.2222344875335693,-6.511881351470947,2.378680944442749,-0.2124561071395874,1741530574.8679636,1741530574748,-2.097751708984375,0.9492437744140625,1.0881477311935286,-0.34965206909179686,2.1610009765625002
1741530574.8877957,1.095098614692688,-0.002513131740963641,0.007707785268902292,-0.999967136567548,0.4636259078979492,0.17744876444339752,-0.4767259359359741,3.0217995643615723,-4.768161773681641,6.664841175079346,-0.5594339370727539,0.2908754348754883,-0.0864042118191719,-1.23295259475708,0.005531395319849253,-0.8730067610740662,0.4648279547691345,1.2684297561645508,0.009346150793135166,0.7993820309638977,0.27180132269859314,-0.2935454249382019,0.035667963325977325,-0.12951095402240753,0.700579822063446,-0.41527247428894043,-0.029927890747785568,-0.6757839322090149,-0.18978407979011536,-0.3892957866191864,0.7990005612373352,-0.3221110999584198,0.0010410153772681952,-0.016330203041434288,-0.33140668272972107,1.4867949485778809,-0.21551094949245453,0.008103917352855206,0.8201903700828552,-0.5680978298187256,0.2693983018398285,0.0009410299826413393,-1.6011297702789307,1.026036262512207,2.366913080215454,-0.4998294711112976,-0.6334744691848755,-0.5838391184806824,0.4077196419239044,-0.6345629096031189,1.6066112518310547,-0.864829957485199,-1.1027722358703613,-6.881888389587402,2.3895037174224854,-0.38659605383872986,1741530574.8679636,1741530574748,-2.097751708984375,0.9492437744140625,1.0881477311935286,-0.34965206909179686,2.1610009765625002
1741530574.9078438,1.0850570648908615,-0.002176071196763152,-0.0015476397491428154,-0.9999964347563213,0.45608237385749817,-0.01904994063079357,-0.5425916314125061,0.3472145199775696,3.3997128009796143,6.916074275970459,-0.5590524673461914,0.2885866165161133,-0.04139009863138199,-1.2402005195617676,0.005531395319849253,-0.8501182794570923,0.44232088327407837,1.2707185745239258,0.009346150793135166,0.778782308101654,0.28782328963279724,-0.2576867341995239,0.010872052982449532,-0.13218127191066742,0.7108796834945679,-0.4042242765426636,-0.04217563569545746,-0.6467918157577515,-0.20351719856262207,-0.39654383063316345,0.6746395230293274,-0.282198965549469,-0.010565115138888359,-0.003161647357046604,-0.08529151976108551,2.3605499267578125,-0.4980887174606323,0.0015057603595778346,1.1816260814666748,-1.642159342765808,0.14638260006904602,-0.0015669487183913589,-1.3911545276641846,0.6972548961639404,1.6907707452774048,-1.0881481170654297,-0.020531000569462776,0.8088821768760681,0.5033119320869446,-0.6077386736869812,1.3104146718978882,-0.5774033069610596,-0.46914389729499817,-5.878363609313965,2.012007713317871,-0.6702123880386353,1741530574.8679636,1741530574748,-2.097751708984375,0.9492437744140625,1.0881477311935286,-0.34965206909179686,2.1610009765625002
1741530574.927826,1.0696913003921509,-0.005331191126181217,-0.014800538189025329,-0.9998762535786573,0.6391135454177856,-0.18259064853191376,-0.8113608360290527,-7.255913734436035,-5.646151065826416,13.496068954467773,-0.5567636489868164,0.2927827835083008,0.02079041674733162,-1.2489745616912842,0.005531395319849253,-0.8199816942214966,0.404936283826828,1.2707185745239258,0.009727626107633114,0.7585641145706177,0.2920195460319519,-0.2470054179430008,0.01201647985726595,-0.14324407279491425,0.778782308101654,-0.39503413438796997,-0.038911622017621994,-0.6246662139892578,-0.17910276353359222,-0.3908216953277588,0.6662470698356628,-0.2380407452583313,-0.03688253089785576,0.0804658904671669,0.17047306895256042,3.4733805656433105,-0.5764183402061462,-0.004976999945938587,1.4274449348449707,-2.6075220108032227,0.01583992876112461,0.0029729160014539957,-1.3400485515594482,0.11310909688472748,0.22759142518043518,-0.06295936554670334,-0.4885539412498474,3.8257648944854736,0.5949565768241882,0.28185969591140747,1.3932644128799438,1.72934889793396,0.5866799354553223,0.35919472575187683,2.098067283630371,-1.4680646657943726,1741530574.8679636,1741530574748,-2.097751708984375,0.9492437744140625,1.0881477311935286,-0.34965206909179686,2.1610009765625002
1741530574.9478147,1.0537620782852173,0.004646647298294864,-0.02247270378121628,-0.9997366584524381,0.3721129596233368,0.5332804322242737,-0.8342505693435669,-3.3138861656188965,-3.1696064472198486,11.18757152557373,-0.5777444839477539,0.2924013137817383,0.08907453715801239,-1.2569855451583862,0.005531395319849253,-0.7913710474967957,0.34733349084854126,1.2791110277175903,0.010109102353453636,0.7463569045066833,0.28744181990623474,-0.28591591119766235,-0.0013351644156500697,-0.15926603972911835,0.8916990756988525,-0.3592912554740906,-0.029527535662055016,-0.5998703241348267,-0.1493476778268814,-0.32673379778862,0.6704432964324951,-0.22562189400196075,-0.04315492510795593,-0.6657060384750366,-0.032723236829042435,3.54327654838562,-0.5265237092971802,-0.00020098398090340197,1.3479156494140625,-4.059727191925049,0.5747026205062866,0.03923657909035683,-0.6914904713630676,-0.16838549077510834,-2.261993169784546,-0.6910852789878845,-1.0811408758163452,5.837160587310791,1.9268358945846558,0.5210310220718384,0.7596487402915955,1.512972116470337,3.4510955810546875,-0.010650555603206158,0.4818223714828491,-0.16122646629810333,1741530574.9781764,1741530574848,-2.0436597900390625,1.0355621337890626,1.0456361705034383,-0.19965069580078126,2.137133056640625
1741530574.9678507,1.0428833365440369,0.014364040998059747,-0.023268817225443963,-0.9996260483156363,-0.04517059400677681,0.5109671950340271,-0.5199645161628723,-0.4264828562736511,0.3893885612487793,10.251612663269043,-0.5716409683227539,0.3072786331176758,0.1516365259885788,-1.2707185745239258,0.005531395319849253,-0.775730550289154,0.2790493667125702,1.2863590717315674,0.009727626107633114,0.7433050870895386,0.2801937758922577,-0.3595407009124756,-0.03528648987412453,-0.20160982012748718,1.0370413064956665,-0.30803924798965454,-0.019432220607995987,-0.5880445837974548,-0.11234454810619354,-0.26798656582832336,0.6792172193527222,-0.21958403289318085,-0.03811052069067955,0.12225675582885742,0.4163738787174225,3.178863525390625,-0.9961109161376953,0.0018452873919159174,0.6554118990898132,-4.572719097137451,0.5066632628440857,0.0018514265539124608,-0.11667491495609283,-0.3856859505176544,-3.666398048400879,-1.9013590812683105,-2.3554084300994873,7.5646772384643555,2.6230621337890625,0.5212799310684204,0.6970797777175903,1.9973596334457397,2.577989339828491,0.6098909378051758,0.3072381317615509,0.22630906105041504,1741530574.9781764,1741530574848,-2.0436597900390625,1.0355621337890626,1.0456361705034383,-0.19965069580078126,2.137133056640625
1741530574.9878879,1.0404431819915771,0.017944786462768425,-0.014760469779219139,-0.9997300201407889,-0.44785329699516296,0.12662635743618011,-0.11435171961784363,0.556641697883606,-0.2902142405509949,8.823554992675781,-0.5762186050415039,0.3343629837036133,0.21152819693088531,-1.2840702533721924,0.005531395319849253,-0.7711527943611145,0.2130540907382965,1.2962775230407715,0.010109102353453636,0.7482643127441406,0.28439003229141235,-0.4484245181083679,-0.0879301130771637,-0.25120165944099426,1.1999313831329346,-0.26567837595939636,0.0011404261458665133,-0.5659189820289612,-0.07763027399778366,-0.23403525352478027,0.6822690367698669,-0.21459734439849854,-0.04154006764292717,-0.11542409658432007,0.7853643298149109,3.0966811180114746,-0.8115575313568115,0.014662351459264755,0.12661443650722504,-4.261452674865723,0.6200745701789856,0.024422811344265938,0.38405290246009827,0.32529088854789734,-4.595627307891846,-2.6722679138183594,-2.2568259239196777,8.272494316101074,1.7511630058288574,1.11257004737854,1.1203827857971191,1.4909772872924805,1.5267877578735352,-0.05558543652296066,0.26184579730033875,-0.10345380008220673,1741530574.9781764,1741530574848,-2.0436597900390625,1.0355621337890626,1.0456361705034383,-0.19965069580078126,2.137133056640625
1741530575.0078852,1.0454447269439697,0.017187177483940188,-0.004646610900076881,-0.9998414924063108,-0.49198058247566223,-0.06401044130325317,0.2821100652217865,-2.3517491817474365,0.22083652019500732,11.461103439331055,-0.5743112564086914,0.3465709686279297,0.27103838324546814,-1.295133113861084,0.005531395319849253,-0.7803082466125488,0.15316243469715118,1.298184871673584,0.009727626107633114,0.7631418108940125,0.28667888045310974,-0.5453193187713623,-0.14057374000549316,-0.26836803555488586,1.3361181020736694,-0.27183669805526733,0.022275783121585846,-0.5331120491027832,-0.06237125024199486,-0.21839475631713867,0.6799801588058472,-0.20300015807151794,-0.03408310189843178,0.05469319224357605,0.40399351716041565,2.7223258018493652,-0.7577387690544128,0.00013166639837436378,-0.4992358684539795,-3.961031436920166,0.012638568878173828,-0.010417857207357883,1.0690734386444092,0.03714044764637947,-4.676734447479248,-2.544321060180664,-0.4999130070209503,6.38722562789917,-0.7294901609420776,0.8334558606147766,1.5802667140960693,0.6613563299179077,0.643513560295105,-0.03919632360339165,0.6523451209068298,0.4955275356769562,1741530574.9781764,1741530574848,-2.0436597900390625,1.0355621337890626,1.0456361705034383,-0.19965069580078126,2.137133056640625
1741530575.0329883,1.0559610426425934,0.014066306769270762,0.0019158987030316753,-0.9998992290956288,-0.2929103672504425,-0.16058222949504852,0.5398753881454468,-0.542155921459198,3.251110076904297,14.165063858032227,-0.5746927261352539,0.3500041961669922,0.32520791888237,-1.3035255670547485,0.005531395319849253,-0.7955672740936279,0.10166323184967041,1.292462706565857,0.009727626107633114,0.7860303521156311,0.28744181990623474,-0.6414511203765869,-0.1672770231962204,-0.23937590420246124,1.4143205881118774,-0.3185473084449768,0.02355138771235943,-0.509079098701477,-0.0558861680328846,-0.20237277448177338,0.6845578551292419,-0.19658653438091278,-0.02613321878015995,-0.01957734301686287,0.12704838812351227,2.596440076828003,-0.5552805662155151,-0.008761156350374222,-0.8287102580070496,-3.3185248374938965,-0.4242834746837616,0.007388930302113295,1.5581109523773193,0.08312544226646423,-4.809648513793945,-1.0302354097366333,1.7008066177368164,3.3714632987976074,-2.4917428493499756,0.18355228006839752,1.101911187171936,0.5256766676902771,0.9426931738853455,0.28369227051734924,0.12444368749856949,0.23526756465435028,1741530575.0708654,1741530574948,-1.9883240966796876,1.119220458984375,0.9829345822977984,-0.053675079345703126,2.113066162109375
1741530575.0479245,1.0588006377220154,0.013931592984994523,0.0028227176996242385,-0.9998989663869489,-0.015892164781689644,0.054207950830459595,0.024176964536309242,-0.2655240595340729,5.749363899230957,8.46445083618164,-0.5697336196899414,0.3458080291748047,0.36488136649131775,-1.3103920221328735,0.005531395319849253,-0.8146410584449768,0.06008239835500717,1.2855961322784424,0.010109102353453636,0.8089188933372498,0.2756160795688629,-0.7318608164787292,-0.16918440163135529,-0.1958876997232437,1.4246203899383545,-0.3772529065608978,0.018938645720481873,-0.49114975333213806,-0.039101243019104004,-0.1661325991153717,0.6937133073806763,-0.21298955380916595,-0.02442249469459057,0.10845125466585159,-0.0946476086974144,1.8718516826629639,-0.4548312723636627,0.002885570051148534,-1.0035169124603271,-2.656076669692993,-0.4524734616279602,0.03799339011311531,1.5179696083068848,-0.5564417839050293,-4.262986660003662,-0.14212504029273987,2.1679930686950684,-0.019455866888165474,-2.9224929809570312,-0.024371396750211716,0.8932021260261536,0.9052587151527405,2.030128240585327,0.44447219371795654,-0.9557685256004333,0.2076745331287384,1741530575.0708654,1741530574948,-1.9883240966796876,1.119220458984375,0.9829345822977984,-0.053675079345703126,2.113066162109375
1741530575.067952,1.0498241782188416,0.017644037387468284,0.0006846841834817422,-0.9998440974233125,0.12494534999132156,0.20080438256263733,-0.5016535520553589,-1.142582893371582,-3.5382838249206543,10.200698852539062,-0.5697336196899414,0.3408479690551758,0.3896772861480713,-1.3122994899749756,0.005531395319849253,-0.8272297382354736,0.02040894143283367,1.2821629047393799,0.009727626107633114,0.8276112079620361,0.2775234580039978,-0.8073930144309998,-0.17032882571220398,-0.14362554252147675,1.3712139129638672,-0.42191919684410095,-0.010784732177853584,-0.4819943606853485,-0.025749599561095238,-0.12493324279785156,0.6963835954666138,-0.24816769361495972,-0.008473408408463001,0.01614493690431118,-0.11255203187465668,1.1131170988082886,-0.14995884895324707,-0.018165258690714836,-0.5647381544113159,-2.887077569961548,-0.13868214190006256,-0.013617216609418392,1.182568907737732,0.05766749382019043,-3.552703857421875,-0.028973979875445366,2.2918310165405273,-3.1409008502960205,-1.955411672592163,-1.506563663482666,0.3519819974899292,0.5533577799797058,1.9467086791992188,0.14400511980056763,-1.866634488105774,1.0019701719284058,1741530575.0708654,1741530574948,-1.9883240966796876,1.119220458984375,0.9829345822977984,-0.053675079345703126,2.113066162109375
1741530575.0879798,1.041824996471405,0.027053633136476192,-0.004838119818545339,-0.9996222754274429,0.31524160504341125,0.5602693557739258,-0.36708375811576843,-0.1367851048707962,1.6078100204467773,6.6538004875183105,-0.5735483169555664,0.3221559524536133,0.4091325104236603,-1.3130624294281006,0.005531395319849253,-0.8241779208183289,-0.02994582988321781,1.2802555561065674,0.009727626107633114,0.8413442969322205,0.26798656582832336,-0.8550774455070496,-0.1684214472770691,-0.11196307092905045,1.2659265995025635,-0.42823120951652527,-0.01814967580139637,-0.4808499217033386,-0.02231631986796856,-0.10814831405878067,0.7108796834945679,-0.29770800471305847,-0.00596981355920434,-0.10818734019994736,-0.5605475902557373,0.9364145398139954,-0.10283061861991882,-0.04420578107237816,0.26669612526893616,-2.976365327835083,-0.1637236475944519,-0.006738132797181606,0.9016274213790894,-0.5966439843177795,-2.152881145477295,0.09267239272594452,1.4360480308532715,-5.613648414611816,0.014749732799828053,-0.035784803330898285,0.1616729497909546,0.11303738504648209,0.7389206290245056,0.9106181263923645,-2.5505013465881348,-0.11334928870201111,1741530575.0708654,1741530574948,-1.9883240966796876,1.119220458984375,0.9829345822977984,-0.053675079345703126,2.113066162109375
1741530575.108028,1.0323493778705597,0.04244414088137474,-0.012074480902185054,-0.9990258764495465,0.37736859917640686,0.7905716896057129,-0.483429878950119,5.632323741912842,3.1324989795684814,3.8719522953033447,-0.5762186050415039,0.3091859817504883,0.41447317600250244,-1.3103920221328735,0.005531395319849253,-0.8112077713012695,-0.06389715522527695,1.2768222093582153,0.009346150793135166,0.8493552803993225,0.248531311750412,-0.8669031858444214,-0.1646067053079605,-0.1035706102848053,1.1160067319869995,-0.39677557349205017,-0.0076128654181957245,-0.4892423748970032,-0.023460745811462402,-0.0864042118191719,0.7421606779098511,-0.3497787117958069,-0.015027975663542747,-0.08877318352460861,-0.4263738989830017,0.12534396350383759,0.22393997013568878,0.0002768599661067128,0.6972822546958923,-2.182640552520752,-0.19932538270950317,0.013189283199608326,0.35434186458587646,-1.0394514799118042,-0.5146703124046326,0.21919499337673187,0.21927405893802643,-7.930611610412598,1.8107054233551025,0.3120482563972473,-0.42029091715812683,-0.037415724247694016,1.2302552461624146,1.6717814207077026,-2.605180025100708,-0.43854692578315735,1741530575.0708654,1741530574948,-1.9883240966796876,1.119220458984375,0.9829345822977984,-0.053675079345703126,2.113066162109375
1741530575.1281593,1.0198438167572021,0.054941390389329076,-0.021244449180198632,-0.9982635508727729,0.4675225615501404,0.6054102182388306,-0.6481771469116211,-1.1526761054992676,3.375460386276245,1.6014829874038696,-0.5766000747680664,0.3049898147583008,0.4091325104236603,-1.309247612953186,0.005531395319849253,-0.7909895181655884,-0.07991912961006165,1.2749148607254028,0.009727626107633114,0.846684992313385,0.22487983107566833,-0.8485923409461975,-0.14705882966518402,-0.10776684433221817,0.9237430095672607,-0.3485510051250458,-0.00354033918119967,-0.4976348578929901,-0.00858320016413927,-0.06351567804813385,0.7894636392593384,-0.38936182856559753,-0.004637587815523148,-0.02203797549009323,-0.1371462047100067,-0.37472856044769287,0.03047676756978035,0.004125512205064297,1.0547996759414673,-0.8450037240982056,-0.1336541622877121,-0.009955608285963535,-0.27585819363594055,-1.1431801319122314,1.2724460363388062,0.9713922739028931,-0.10924585163593292,-9.783113479614258,2.4088869094848633,0.25326007604599,-0.37953832745552063,0.8279747366905212,1.0469650030136108,2.3579158782958984,-1.8309649229049683,0.6524010896682739,1741530575.0708654,1741530574948,-1.9883240966796876,1.119220458984375,0.9829345822977984,-0.053675079345703126,2.113066162109375
1741530575.1480656,1.0018653571605682,0.062428633020965886,-0.02666189821124487,-0.9976932439196463,0.2649199664592743,0.24701163172721863,-0.9363811016082764,0.9950635433197021,-0.019861457869410515,4.041846752166748,-0.5735483169555664,0.3091859817504883,0.39692530035972595,-1.309247612953186,0.005531395319849253,-0.7665750980377197,-0.07724879682064056,1.2695741653442383,0.009346150793135166,0.8329518437385559,0.21152819693088531,-0.8085374236106873,-0.12073700875043869,-0.10128175467252731,0.726901650428772,-0.3060673177242279,0.003683785442262888,-0.506790280342102,0.01735713705420494,-0.06542305648326874,0.8432517051696777,-0.4039419889450073,-0.0010242490097880363,0.06938126683235168,0.19912737607955933,-0.6039670705795288,0.0012835826491937041,-0.012188884429633617,1.2998816967010498,0.3539646565914154,-0.44382503628730774,0.006954370066523552,-1.0074560642242432,-0.6036641001701355,1.9687883853912354,1.2505958080291748,0.3374604284763336,-9.785154342651367,1.9482858180999756,0.3248334527015686,-0.4103008508682251,1.3668032884597778,-0.28795325756073,2.807008981704712,-0.5160379409790039,-0.22505421936511993,1741530575.0708654,1741530574948,-1.9883240966796876,1.119220458984375,0.9829345822977984,-0.053675079345703126,2.113066162109375
1741530575.1680915,0.9796289503574371,0.06095797952446781,-0.021179346582568263,-0.9979156076596006,-0.3595712184906006,-0.19509822130203247,-1.1854952573776245,-37.23099899291992,9.649712562561035,36.339088439941406,-0.5895700454711914,0.3362703323364258,0.38166627287864685,-1.3073402643203735,0.005149920005351305,-0.7398717999458313,-0.05741206929087639,1.2646150588989258,0.009346150793135166,0.8070115447044373,0.21190966665744781,-0.7806897163391113,-0.086785688996315,-0.086785688996315,0.6418325901031494,-0.2385334074497223,-0.029605090618133545,-0.5167086124420166,0.01430533267557621,-0.07763027399778366,0.9180209040641785,-0.39868637919425964,-0.033105090260505676,-0.435040146112442,0.9091083407402039,-0.809109091758728,0.15979979932308197,-0.04287812113761902,1.3216280937194824,1.418841004371643,-0.26815110445022583,-0.01857578754425049,-1.8200126886367798,0.001619372982531786,1.2336976528167725,1.6692841053009033,0.8177176713943481,-1.6956669092178345,4.033417701721191,-2.0252480506896973,-0.5573828816413879,-0.719804584980011,-0.5754570364952087,3.873706340789795,0.2093934267759323,-1.5831756591796875,1741530575.0708654,1741530574948,-1.9883240966796876,1.119220458984375,0.9829345822977984,-0.053675079345703126,2.113066162109375
1741530575.193044,0.9632886648178101,0.0602354820667496,-0.016382174823928217,-0.9980497537939803,-0.15714693069458008,0.13416893780231476,-0.8690133690834045,3.4229278564453125,-2.702505588531494,4.989791393280029,-0.5899515151977539,0.3313112258911133,0.3530556261539459,-1.2985663414001465,0.005531395319849253,-0.7059205174446106,-0.02193484455347061,1.2680482864379883,0.008201723918318748,0.7734416723251343,0.23365376889705658,-0.7616159319877625,-0.06694895774126053,-0.10585946589708328,0.699816882610321,-0.15805146098136902,-0.05450022593140602,-0.5319676399230957,0.010872052982449532,-0.1192111074924469,0.994316041469574,-0.38645586371421814,-0.04954696446657181,-0.06677639484405518,-0.25161272287368774,-1.6691983938217163,0.551662027835846,-0.02572324499487877,1.524646520614624,2.612600326538086,0.30217573046684265,-0.06718729436397552,-2.240039110183716,1.2219593524932861,0.4084323048591614,0.9655306935310364,-1.480482816696167,2.2552590370178223,3.649232864379883,-0.5707639455795288,-0.8925106525421143,0.31130918860435486,-2.380263566970825,3.706737756729126,0.9738699197769165,-0.6865795850753784,1741530575.0708654,1741530574948,-1.9883240966796876,1.119220458984375,0.9829345822977984,-0.053675079345703126,2.113066162109375
1741530575.2081544,0.9453755915164948,0.05060033886696784,-0.005641356769665463,-0.998703049359691,-0.6765205264091492,-0.47013187408447266,-0.9890445470809937,1.4846986532211304,-12.607396125793457,10.205182075500488,-0.5933847427368164,0.3461894989013672,0.29812315106391907,-1.295896053314209,0.005531395319849253,-0.6830319762229919,0.02841992862522602,1.2806370258331299,0.010490577667951584,0.7372015118598938,0.247768372297287,-0.7391088604927063,-0.04406042397022247,-0.12684062123298645,0.6940947771072388,-0.1087527945637703,-0.039148762822151184,-0.5548561811447144,0.009346150793135166,-0.1653696447610855,1.0725184679031372,-0.3509988784790039,-0.04475000128149986,-0.09467662125825882,0.36087071895599365,-3.0062289237976074,0.0440942607820034,0.00021600211039185524,1.0664182901382446,3.2073137760162354,1.0139787197113037,0.15385237336158752,-2.454956531524658,0.5833341479301453,1.4425148963928223,0.9543958306312561,-0.5935672521591187,-0.6271138191223145,2.170989513397217,0.846483051776886,-0.9815460443496704,-0.1791304349899292,-2.0417232513427734,4.137110710144043,1.7940104007720947,0.26943954825401306,1741530575.0708654,1741530574948,-1.9883240966796876,1.119220458984375,0.9829345822977984,-0.053675079345703126,2.113066162109375
1741530575.2281294,0.9226494133472443,0.038490373993816496,0.015650071996705567,-0.9991364102845587,-0.9527415037155151,-0.617477297782898,-1.2777988910675049,-12.479486465454102,6.754833221435547,18.23199462890625,-0.6075000762939453,0.3465709686279297,0.23517967760562897,-1.292462706565857,0.005149920005351305,-0.6673914790153503,0.07610437273979187,1.3103920221328735,0.010872052982449532,0.7009612917900085,0.2569237947463989,-0.7150759100914001,-0.03643091395497322,-0.13752193748950958,0.7120240926742554,-0.06872562319040298,-0.01954760029911995,-0.5880445837974548,-0.012779430486261845,-0.200083926320076,1.1587319374084473,-0.3197948932647705,-0.015678808093070984,-0.38249698281288147,0.06026085093617439,-3.335939884185791,0.3383057117462158,-0.019163114950060844,0.8509369492530823,3.236403465270996,2.0577738285064697,-0.0014718498568981886,-2.409226417541504,0.6232842803001404,0.6796591281890869,0.304518461227417,-0.7741327285766602,1.4212093353271484,1.9366377592086792,0.7227832674980164,-1.6556514501571655,-1.171742558479309,-1.560034155845642,4.071043014526367,1.4438362121582031,1.7328827381134033,1741530575.0708654,1741530574948,-1.9883240966796876,1.119220458984375,0.9829345822977984,-0.053675079345703126,2.113066162109375
1741530575.2481956,0.8932336270809174,0.03493881150650807,0.024658863969718083,-0.9990851915018236,-0.3709218204021454,-0.12532269954681396,-1.4901721477508545,-2.0800979137420654,1.268429160118103,15.40048599243164,-0.5926218032836914,0.3236818313598633,0.1832990050315857,-1.2882665395736694,0.005531395319849253,-0.6467918157577515,0.12607766687870026,1.3294658660888672,0.008964675478637218,0.6689173579216003,0.2763790488243103,-0.7139315009117126,-0.024223696440458298,-0.14171816408634186,0.7532234787940979,-0.06052079051733017,-0.01882243901491165,-0.6288624405860901,-0.02384222112596035,-0.23746852576732635,1.2289234399795532,-0.31804296374320984,0.0027436937671154737,0.41360190510749817,-0.6427428126335144,-2.5236117839813232,0.1927310824394226,-0.009535432793200016,0.9947726726531982,3.259770393371582,1.0502358675003052,-0.16381393373012543,-2.1769187450408936,0.7295330166816711,0.052090585231781006,0.6524990200996399,0.1760413944721222,1.856902837753296,-0.00824684090912342,-0.13365772366523743,-2.1321940422058105,-0.5506201386451721,-1.9484567642211914,3.1700265407562256,-0.2540356516838074,0.4854587912559509,1741530575.28545,1741530575148,-1.9228304443359376,1.268489990234375,0.8902569720989677,0.2312031707763672,2.07149560546875
1741530575.268188,0.8670227825641632,0.03542480239724956,0.02793259955809488,-0.9989819083732413,-0.09819553792476654,0.09244251251220703,-1.2441558837890625,-2.638519763946533,-1.6671141386032104,12.206864356994629,-0.6052112579345703,0.3007936477661133,0.13981078565120697,-1.2897924184799194,0.005531395319849253,-0.6284809708595276,0.17223620414733887,1.3386212587356567,0.008964675478637218,0.6418325901031494,0.27103838324546814,-0.7055390477180481,-0.005912871100008488,-0.11425192654132843,0.7654306888580322,-0.09119881689548492,-0.02236311137676239,-0.6746395230293274,-0.03604944050312042,-0.2569237947463989,1.2628748416900635,-0.3488946557044983,-0.012158495374023914,-0.3076627850532532,-0.6893455982208252,-2.123713731765747,-0.1412796974182129,0.006909364368766546,0.9303989410400391,3.051147699356079,0.6347495317459106,0.027449510991573334,-1.7713454961776733,-0.28472834825515747,0.5796018838882446,1.05344820022583,1.46670401096344,0.33427146077156067,-1.7228994369506836,0.00041875161696225405,-2.253113269805908,-0.5199803709983826,-0.6994940042495728,1.4295915365219116,-1.7148255109786987,-0.6702798008918762,1741530575.28545,1741530575148,-1.9228304443359376,1.268489990234375,0.8902569720989677,0.2312031707763672,2.07149560546875
1741530575.2882137,0.8481228649616241,0.0419604930367575,0.024580715686631865,-0.9988168528015761,0.22517432272434235,0.38137224316596985,-1.0452584028244019,-2.367532730102539,-3.052323579788208,12.03431224822998,-0.6059741973876953,0.2790489196777344,0.08907453715801239,-1.293225646018982,0.005531395319849253,-0.6158922910690308,0.2130540907382965,1.3466322422027588,0.008964675478637218,0.620088517665863,0.2599755823612213,-0.6765468716621399,0.02231631986796856,-0.09555962681770325,0.7597085237503052,-0.13595491647720337,-0.018972963094711304,-0.7124055624008179,-0.04406042397022247,-0.25272753834724426,1.260585904121399,-0.39050623774528503,-0.008158305659890175,-0.006395581178367138,-0.5960180759429932,-2.595865249633789,-0.2095254808664322,0.009264777414500713,0.5203295350074768,2.6107473373413086,0.46655377745628357,0.012317205779254436,-1.460827112197876,-0.6297414898872375,1.4497045278549194,1.2751582860946655,0.941676139831543,-0.2524561285972595,-2.2744228839874268,0.1496777981519699,-1.7071977853775024,-0.40341219305992126,0.31645166873931885,-0.3427785634994507,-2.059654474258423,0.5151081681251526,1741530575.28545,1741530575148,-1.9228304443359376,1.268489990234375,0.8902569720989677,0.2312031707763672,2.07149560546875
1741530575.3082516,0.8245778977870941,0.04920277760021481,0.020258365552669223,-0.9985833391868494,0.2520952820777893,0.348039835691452,-1.225435495376587,0.48110830783843994,-1.0583058595657349,7.442097187042236,-0.6033039093017578,0.2649345397949219,0.04177157208323479,-1.2993292808532715,0.005531395319849253,-0.6124590039253235,0.2447165697813034,1.3500655889511108,0.009346150793135166,0.5991073250770569,0.25310903787612915,-0.6460288166999817,0.04253452271223068,-0.07572289556264877,0.7528420090675354,-0.17282819747924805,-0.026894154027104378,-0.7280460596084595,-0.05664911866188049,-0.25463491678237915,1.2300678491592407,-0.42466479539871216,0.011481755413115025,0.10540302097797394,-0.40705087780952454,-2.2094249725341797,-0.4387191832065582,-0.00794351939111948,0.2319103479385376,2.095337152481079,0.23303496837615967,0.014239167794585228,-1.382968544960022,-0.2965550720691681,1.5819854736328125,1.0048978328704834,1.0059772729873657,-0.40422993898391724,-1.7049692869186401,-0.39614811539649963,-0.6525039672851562,-0.5947877764701843,-0.37075257301330566,-1.667372703552246,-1.5875167846679688,0.7126547694206238,1741530575.28545,1741530575148,-1.9228304443359376,1.268489990234375,0.8902569720989677,0.2312031707763672,2.07149560546875
1741530575.3282514,0.7965593338012695,0.05281691943655006,0.017622259204578758,-0.9984487112524908,0.19904232025146484,0.14524419605731964,-1.3634231090545654,2.9682650566101074,-1.1177724599838257,5.811100006103516,-0.6010150909423828,0.2626457214355469,0.019645990803837776,-1.306958794593811,0.005531395319849253,-0.6097886562347412,0.2653162479400635,1.3538802862167358,0.009346150793135166,0.5807965397834778,0.2508201599121094,-0.6071183085441589,0.06008239835500717,-0.06160829961299896,0.7452124953269958,-0.18846818804740906,-0.0331219844520092,-0.7387273907661438,-0.07267109304666519,-0.26913100481033325,1.177042841911316,-0.4407254755496979,0.0034777147229760885,0.048652276396751404,-0.04752418398857117,-0.9898138046264648,-0.5051801800727844,-0.011690104380249977,0.09633062034845352,1.2259080410003662,0.24118168652057648,0.010518797673285007,-1.175452470779419,-0.06722690910100937,1.8843903541564941,0.7212115526199341,0.6640908122062683,-0.3659825921058655,-0.6508263945579529,-0.21515578031539917,-0.44273561239242554,-0.8669180870056152,-0.6945536136627197,-2.8784120082855225,-0.6248641610145569,-0.5340531468391418,1741530575.28545,1741530575148,-1.9228304443359376,1.268489990234375,0.8902569720989677,0.2312031707763672,2.07149560546875
1741530575.3483038,0.7703781723976135,0.0496808100961423,0.014715066716243484,-0.9986567397858623,0.22944137454032898,-0.1727779507637024,-1.2765246629714966,2.491650342941284,-2.5851376056671143,7.791965484619141,-0.5991077423095703,0.2691307067871094,0.013923857361078262,-1.3130624294281006,0.005531395319849253,-0.612840473651886,0.28591591119766235,1.3561691045761108,0.009346150793135166,0.5678263306617737,0.2508201599121094,-0.572022557258606,0.06809338182210922,-0.06046387553215027,0.7444495558738708,-0.18952979147434235,-0.03848295658826828,-0.7391088604927063,-0.09517814964056015,-0.28439003229141235,1.1053253412246704,-0.43484020233154297,0.008283990435302258,0.05334150791168213,0.16082863509655,-0.17860464751720428,-0.36423739790916443,-0.003131861099973321,-0.17280620336532593,1.5856447219848633,0.11193777620792389,0.014888637699186802,-0.8776945471763611,0.027361271902918816,1.7328475713729858,0.3505336344242096,-0.03277933597564697,-0.002983379876241088,0.008171777240931988,-0.26100972294807434,0.08957749605178833,-1.0690609216690063,-0.690931499004364,-3.5439982414245605,0.4555148482322693,0.43414628505706787,1741530575.3877857,1741530575248,-1.8845263671875,1.3164602050781251,0.7651451610275581,0.36631106567382815,2.051658447265625
1741530575.3683221,0.7468239665031433,0.04340437990045743,0.010014092413718255,-0.9990073962481891,0.31040826439857483,-0.2912462651729584,-1.1262309551239014,-1.426885724067688,-1.3176575899124146,9.879343032836914,-0.5979633331298828,0.2630271911621094,0.01926451548933983,-1.313443899154663,0.005531395319849253,-0.6158922910690308,0.308041512966156,1.3546432256698608,0.009346150793135166,0.5605783462524414,0.2504386901855469,-0.5430304408073425,0.071908138692379,-0.06847485899925232,0.7448310256004333,-0.1908469945192337,-0.03731873631477356,-0.7196536064147949,-0.11692225188016891,-0.2943083941936493,1.019874930381775,-0.40737390518188477,0.011871337890625,0.016526037827134132,-0.1716766208410263,0.3496256470680237,-0.00729081965982914,-0.005529086571186781,-0.10377897322177887,1.304842233657837,-0.09313426911830902,0.003036986803635955,-0.3245874345302582,-0.014422457665205002,1.4657936096191406,0.17836596071720123,-0.43718987703323364,0.03567436710000038,-0.061251915991306305,0.049418315291404724,1.0673199892044067,-1.0752372741699219,-0.46101120114326477,-4.391890525817871,1.524675726890564,0.030317043885588646,1741530575.3877857,1741530575248,-1.8845263671875,1.3164602050781251,0.7651451610275581,0.36631106567382815,2.051658447265625
1741530575.3883226,0.7275950312614441,0.03806055599387248,0.002780394805525706,-0.9992715664333509,0.4065079391002655,-0.2506186366081238,-0.9360078573226929,0.04152282327413559,-3.075901985168457,7.426860809326172,-0.5941486358642578,0.2592124938964844,0.032616160809993744,-1.313443899154663,0.005531395319849253,-0.6170367002487183,0.31795987486839294,1.3546432256698608,0.009346150793135166,0.5640115737915039,0.25463491678237915,-0.5155642032623291,0.0711451917886734,-0.07953765243291855,0.7452124953269958,-0.19570915400981903,-0.038816578686237335,-0.6826505064964294,-0.1363775134086609,-0.3084229826927185,0.9149690866470337,-0.36276063323020935,0.004929378628730774,0.12286514788866043,-0.1076018288731575,0.7649872899055481,0.021584365516901016,0.0013768092030659318,-0.0846807062625885,0.6377630233764648,0.0020361528731882572,-0.0003116974257864058,0.3169649541378021,0.278735488653183,1.3186055421829224,-0.01628548465669155,-0.5236833691596985,-0.003107476746663451,-0.2859223186969757,-0.05114743486046791,2.0030517578125,-0.9505418539047241,-0.7040451765060425,-5.413433074951172,2.3032419681549072,-0.23724545538425446,1741530575.3877857,1741530575248,-1.8845263671875,1.3164602050781251,0.7651451610275581,0.36631106567382815,2.051658447265625
1741530575.4083474,0.7090156674385071,0.03397986582752383,-0.004026605829892807,-0.999414406121822,0.36439070105552673,-0.190884068608284,-0.9108447432518005,1.961274266242981,-2.5715813636779785,6.01657772064209,-0.5918588638305664,0.2546348571777344,0.0555046908557415,-1.311918020248413,0.005531395319849253,-0.620851457118988,0.31834134459495544,1.3546432256698608,0.009346150793135166,0.5773632526397705,0.26798656582832336,-0.49343863129615784,0.06542305648326874,-0.09746700525283813,0.7467383742332458,-0.20936813950538635,-0.03709251806139946,-0.6376363635063171,-0.14782176911830902,-0.325970858335495,0.7906080484390259,-0.31145864725112915,0.0019920943304896355,0.05520668998360634,-0.13704539835453033,1.197651743888855,0.08854174613952637,-0.009977208450436592,-0.2451729029417038,-0.06279929727315903,-0.009570706635713577,0.007729039993137121,0.9125811457633972,0.7251150608062744,1.0749828815460205,-0.31849467754364014,-0.9070708155632019,0.055231355130672455,-0.761152982711792,0.19069978594779968,2.153538703918457,-0.4175700545310974,-0.9541863799095154,-6.298586845397949,2.5268518924713135,-0.06101534143090248,1741530575.3877857,1741530575248,-1.8845263671875,1.3164602050781251,0.7651451610275581,0.36631106567382815,2.051658447265625
1741530575.428385,0.6922410130500793,0.028338143612721068,-0.01104868574806032,-0.9995373310486334,0.4041641652584076,-0.2868115305900574,-0.8070301413536072,-9.997653007507324,-13.742594718933105,13.80058479309082,-0.5880441665649414,0.24814987182617188,0.08487831056118011,-1.311155080795288,0.005531395319849253,-0.6296253800392151,0.31414511799812317,1.3534988164901733,0.009346150793135166,0.5945296287536621,0.28400853276252747,-0.4728389382362366,0.043678950518369675,-0.12760357558727264,0.7578011751174927,-0.22681070864200592,-0.031568218022584915,-0.6055924296379089,-0.1489662081003189,-0.3553444743156433,0.690280020236969,-0.2506938874721527,-0.01237818319350481,0.10449360311031342,-0.18232473731040955,1.4554808139801025,0.011159422807395458,-0.011941556818783283,-0.4412027597427368,-0.27434611320495605,-0.14425089955329895,-0.0026129046455025673,1.1241291761398315,0.9029434323310852,1.0169720649719238,-1.1641764640808105,-1.556553840637207,0.7421618103981018,-0.8724977374076843,0.2624185085296631,1.4897962808609009,0.04422407224774361,-1.7351447343826294,-3.9648971557617188,3.156895399093628,-0.9118044972419739,1741530575.3877857,1741530575248,-1.8845263671875,1.3164602050781251,0.7651451610275581,0.36631106567382815,2.051658447265625
1741530575.4484074,0.6747997999191284,0.023830517680190726,-0.010842276401421441,-0.9996572169846668,-0.052753739058971405,-0.000704350124578923,-0.9373034238815308,-1.9128921031951904,0.7854182720184326,7.2023210525512695,-0.5838479995727539,0.24967575073242188,0.11654078215360641,-1.311918020248413,0.005531395319849253,-0.6395437717437744,0.30193790793418884,1.3531173467636108,0.009727626107633114,0.6090257167816162,0.291638046503067,-0.46063172817230225,0.026512550190091133,-0.16422522068023682,0.7825970649719238,-0.2370762676000595,-0.026814978569746017,-0.5640115737915039,-0.1192111074924469,-0.36335545778274536,0.6635767221450806,-0.2043655812740326,-0.04084774851799011,0.10472434014081955,0.016816623508930206,1.6161158084869385,-0.003759282873943448,-0.011774740181863308,-0.5402648448944092,-0.9955947399139404,0.07855089753866196,0.019909821450710297,1.0901997089385986,0.4053605794906616,0.3459722697734833,-0.8457251191139221,-1.842209815979004,1.333503246307373,-0.3283872902393341,0.4567110538482666,1.8263930082321167,1.3804484605789185,0.12217550724744797,-1.5388342142105103,1.9957026243209839,-1.1579235792160034,1741530575.4821868,1741530575348,-1.8354522705078125,1.3389307861328126,0.6647640088925661,0.5010241394042969,2.0342098388671874
1741530575.4684086,0.6602346897125244,0.02874668986753798,-0.012678010106208577,-0.9995063260837355,0.13217975199222565,0.2144048660993576,-0.7521669268608093,-0.3635464310646057,3.336927652359009,11.77601432800293,-0.5807962417602539,0.24319076538085938,0.14782176911830902,-1.3122994899749756,0.005531395319849253,-0.6509880423545837,0.2759975492954254,1.3512099981307983,0.009727626107633114,0.6273365616798401,0.2973601818084717,-0.4861905872821808,0.016594186425209045,-0.21763180196285248,0.8333333134651184,-0.22718322277069092,-0.009525579400360584,-0.5437933802604675,-0.10624094307422638,-0.3221561014652252,0.6391623020172119,-0.19281849265098572,-0.04391102492809296,0.18990913033485413,-0.19252826273441315,1.4429590702056885,-0.08973676711320877,-0.0005799815990030766,-0.629003643989563,-1.8166013956069946,-0.19318139553070068,-0.004854381084442139,1.1817982196807861,0.11809096485376358,-1.5665090084075928,-0.5726128220558167,-2.6210410594940186,2.668478488922119,0.5963123440742493,0.8756570816040039,1.0419145822525024,0.8506287932395935,1.9581046104431152,-0.9364597797393799,0.3305337429046631,-0.016379976645112038,1741530575.4821868,1741530575348,-1.8354522705078125,1.3389307861328126,0.6647640088925661,0.5010241394042969,2.0342098388671874
1741530575.488468,0.6466005444526672,0.040561624491924804,-0.012878298332313787,-0.9990940416450494,-0.012405198067426682,0.6055068969726562,-0.5999225378036499,1.4757583141326904,7.144821643829346,10.45132827758789,-0.5666818618774414,0.23556137084960938,0.17376211285591125,-1.3176400661468506,0.005531395319849253,-0.6654840707778931,0.24052032828330994,1.3435804843902588,0.009727626107633114,0.6467918157577515,0.2927824854850769,-0.5239566564559937,-0.009727626107633114,-0.2637903392314911,0.9157320261001587,-0.21361325681209564,0.005166219547390938,-0.5270084738731384,-0.08602273464202881,-0.30231937766075134,0.6364919543266296,-0.19891229271888733,-0.0476570799946785,0.3780977129936218,-0.25918716192245483,1.2973673343658447,-0.35146364569664,0.005706575699150562,-0.7298374772071838,-2.4062440395355225,-0.5129777193069458,-0.009791834279894829,1.3467615842819214,-0.25837236642837524,-2.0000269412994385,-1.3341975212097168,-2.2886242866516113,4.5405778884887695,0.6118967533111572,0.6415606141090393,0.7081353068351746,0.7694545984268188,0.9735581278800964,-0.18775500357151031,-0.31999123096466064,-0.30193859338760376,1741530575.4821868,1741530575348,-1.8354522705078125,1.3389307861328126,0.6647640088925661,0.5010241394042969,2.0342098388671874
1741530575.508449,0.6371124982833862,0.04500704072478995,-0.013115269511823915,-0.998900573626239,0.039019327610731125,0.1844855397939682,-0.4619803726673126,-6.127412796020508,0.14558978378772736,11.209307670593262,-0.5613412857055664,0.2531089782714844,0.200083926320076,-1.3245066404342651,0.005531395319849253,-0.6788357496261597,0.20237277448177338,1.3351880311965942,0.009727626107633114,0.6658655405044556,0.28706035017967224,-0.5880445837974548,-0.04787518084049225,-0.2920195460319519,1.0267413854599,-0.2167217880487442,0.00655757961794734,-0.5197604298591614,-0.0711451917886734,-0.2904936373233795,0.6235218048095703,-0.2055473029613495,-0.05035390704870224,0.18369261920452118,0.4034169614315033,1.3014112710952759,-0.4628211259841919,-0.0031558566261082888,-0.7218940258026123,-2.534100294113159,-0.6201680302619934,0.0038280293811112642,1.3140417337417603,-0.18791575729846954,-3.3906021118164062,-1.909570574760437,-1.237089991569519,5.625096797943115,-0.3741750419139862,-0.026997841894626617,0.4237665832042694,0.7721683382987976,0.4244024157524109,-0.6207736730575562,-0.27812713384628296,0.056021738797426224,1741530575.4821868,1741530575348,-1.8354522705078125,1.3389307861328126,0.6647640088925661,0.5010241394042969,2.0342098388671874
1741530575.5285122,0.6294450163841248,0.05038166792292943,-0.011974604846747009,-0.9986582480388714,-0.04807776212692261,0.24959495663642883,-0.39722180366516113,2.0286247730255127,-1.272943139076233,6.770827293395996,-0.5506601333618164,0.2588310241699219,0.22602425515651703,-1.3264141082763672,0.005531395319849253,-0.6963835954666138,0.164988175034523,1.3229807615280151,0.009346150793135166,0.6864652633666992,0.291638046503067,-0.6643396615982056,-0.0864042118191719,-0.28896772861480713,1.1522468328475952,-0.24940350651741028,0.007339931093156338,-0.5048828721046448,-0.061226826161146164,-0.2782863974571228,0.6170367002487183,-0.2052885890007019,-0.042896974831819534,0.2780729830265045,0.2179260551929474,1.290851354598999,-0.09535237401723862,0.0002458857779856771,-0.871876060962677,-2.4943442344665527,-0.8099315166473389,0.006636602338403463,1.3203061819076538,0.29684823751449585,-3.659053325653076,-1.8891321420669556,0.33262020349502563,6.197063446044922,-1.919769525527954,0.06296750158071518,0.6029086112976074,0.3262743651866913,0.6568443179130554,-0.3322056829929352,0.05331806093454361,0.2636577785015106,1741530575.4821868,1741530575348,-1.8354522705078125,1.3389307861328126,0.6647640088925661,0.5010241394042969,2.0342098388671874
1741530575.548485,0.6215875148773193,0.05104310902246492,-0.010641444926376493,-0.9986397552026455,-0.020348940044641495,-0.023872217163443565,-0.44181424379348755,-1.8086516857147217,-1.418656349182129,9.723267555236816,-0.5415048599243164,0.2637901306152344,0.25272753834724426,-1.3264141082763672,0.005531395319849253,-0.7154573798179626,0.13027389347553253,1.3103920221328735,0.009727626107633114,0.7082093358039856,0.290112167596817,-0.7452124953269958,-0.12264438718557358,-0.2603570520877838,1.2502861022949219,-0.30319690704345703,0.006918139290064573,-0.5006866455078125,-0.06046387553215027,-0.26989394426345825,0.6147478222846985,-0.20833183825016022,-0.0428314171731472,0.2691204249858856,0.13921228051185608,1.3347333669662476,0.003519695019349456,-0.0014909193851053715,-0.9561007022857666,-2.2198116779327393,-0.8286086320877075,0.024823250249028206,1.4390249252319336,-0.15328527987003326,-4.0796074867248535,-1.8060847520828247,1.5084872245788574,4.433459758758545,-2.7821426391601562,-0.22112937271595,0.21299973130226135,0.03957105427980423,0.393551766872406,-0.060270749032497406,-0.24354864656925201,0.05316996946930885,1741530575.5828562,1741530575448,-1.7851185302734376,1.354861328125,0.6022463089032158,0.6332767333984375,2.0179556884765626
1741530575.5696497,0.6106634140014648,0.05429340603611784,-0.012116835377288821,-0.9984515052627427,0.11817305535078049,0.15791194140911102,-0.5073127150535583,1.358830451965332,4.119299411773682,9.008421897888184,-0.5262451171875,0.2592124938964844,0.2771419882774353,-1.3241251707077026,0.005531395319849253,-0.7375829815864563,0.10013733059167862,1.2978034019470215,0.009346150793135166,0.7307164072990417,0.28858625888824463,-0.8127336502075195,-0.14286258816719055,-0.2294575423002243,1.2945373058319092,-0.35782408714294434,0.0006351502379402518,-0.4957274794578552,-0.06008239835500717,-0.25196459889411926,0.6219958662986755,-0.22441644966602325,-0.03582906723022461,0.4155314564704895,-0.1095365583896637,1.210960865020752,0.16302409768104553,-0.004608201794326305,-1.0933793783187866,-1.997251272201538,-0.8223394155502319,-0.035812415182590485,1.490954041481018,-0.021904168650507927,-3.174057722091675,-0.8826508522033691,1.4633151292800903,1.6883195638656616,-2.6913764476776123,-0.3088882565498352,0.19754870235919952,0.03346262872219086,0.9908826947212219,0.44034600257873535,-0.9696057438850403,0.446163147687912,1741530575.5828562,1741530575448,-1.7851185302734376,1.354861328125,0.6022463089032158,0.6332767333984375,2.0179556884765626
1741530575.5885203,0.5972315073013306,0.05628656388223349,-0.01863557965773497,-0.9982407214180113,0.3879704475402832,0.0666617751121521,-0.6018895506858826,-0.6920858025550842,4.8574042320251465,6.565525054931641,-0.5140380859375,0.2550163269042969,0.30041199922561646,-1.3233622312545776,0.005531395319849253,-0.7585641145706177,0.0715266615152359,1.287885069847107,0.009727626107633114,0.7539864182472229,0.2782863974571228,-0.8604180812835693,-0.1497291475534439,-0.1958876997232437,1.275844931602478,-0.39287513494491577,-0.007059154566377401,-0.5033569931983948,-0.06084534898400307,-0.23632410168647766,0.6368734240531921,-0.2568233013153076,-0.04399358481168747,0.3701477348804474,-0.1264694333076477,1.1557310819625854,0.029973523691296577,0.0020710730459541082,-1.0612598657608032,-1.8727747201919556,-0.6432958841323853,0.021996261551976204,1.5670995712280273,-0.6231987476348877,-2.2030422687530518,-0.5190244317054749,1.564194917678833,-1.427082896232605,-1.555334448814392,-0.42476996779441833,-0.47293561697006226,-0.015302371233701706,0.6985440850257874,0.874494194984436,-1.794817566871643,-0.6578927636146545,1741530575.5828562,1741530575448,-1.7851185302734376,1.354861328125,0.6022463089032158,0.6332767333984375,2.0179556884765626
1741530575.6085608,0.5865027904510498,0.059370095348049545,-0.027479070603655193,-0.9978577516144889,0.4563871920108795,0.13494424521923065,-0.5253859162330627,0.3277347981929779,3.265523910522461,6.365447521209717,-0.50640869140625,0.2508201599121094,0.31872281432151794,-1.3210734128952026,0.005531395319849253,-0.7799267768859863,0.04634927958250046,1.2772036790847778,0.009346150793135166,0.7795453071594238,0.2626459002494812,-0.8764400482177734,-0.16002899408340454,-0.1653696447610855,1.202601671218872,-0.3977934718132019,-0.0070157479494810104,-0.5136567950248718,-0.05970092490315437,-0.21839475631713867,0.6582360863685608,-0.2975162863731384,-0.0685502216219902,0.21444223821163177,-0.14743562042713165,0.8514769077301025,0.20068129897117615,0.006996919400990009,-1.0757067203521729,-1.651169776916504,-0.7077372670173645,-0.028697825968265533,1.7156028747558594,-0.8710331916809082,-0.5383719801902771,-0.34154650568962097,1.4274388551712036,-4.043261528015137,-0.0026428343262523413,0.06555013358592987,-0.5102589130401611,0.04668882116675377,0.8601076602935791,1.1256228685379028,-1.9768123626708984,-1.1228762865066528,1741530575.5828562,1741530575448,-1.7851185302734376,1.354861328125,0.6022463089032158,0.6332767333984375,2.0179556884765626
1741530575.6285698,0.5731372833251953,0.06071204889931299,-0.0356582452283695,-0.9975181886390247,0.43119603395462036,0.06223928555846214,-0.6199650764465332,-0.6640480160713196,-1.023856282234192,7.961182117462158,-0.498779296875,0.2515830993652344,0.3286411762237549,-1.316495656967163,0.005531395319849253,-0.8012893795967102,0.02231631986796856,1.2665224075317383,0.009346150793135166,0.804341197013855,0.2466239482164383,-0.8619440197944641,-0.15888457000255585,-0.14629587531089783,1.0858701467514038,-0.38087305426597595,-0.004485394340008497,-0.5247195959091187,-0.05092698708176613,-0.1985580176115036,0.6853207945823669,-0.33156031370162964,-0.08170516788959503,0.19662052392959595,0.0347810760140419,0.43274354934692383,0.35423025488853455,-0.010399047285318375,-1.0674158334732056,-1.499027132987976,-0.717060387134552,0.003181620966643095,1.6451094150543213,-0.7428019642829895,0.9691384434700012,0.10516493022441864,0.881719172000885,-6.04662561416626,0.9587802290916443,0.15113258361816406,-0.4800738990306854,0.3790663182735443,0.9462374448776245,1.4084290266036987,-1.6169590950012207,-0.5656566619873047,1741530575.5828562,1741530575448,-1.7851185302734376,1.354861328125,0.6022463089032158,0.6332767333984375,2.0179556884765626
1741530575.6486154,0.5590430498123169,0.06279911863479992,-0.040246209967791616,-0.9972143767926337,0.25263217091560364,0.029466593638062477,-0.6981791257858276,-3.169477701187134,2.136349678039551,3.2828915119171143,-0.4907684326171875,0.24853134155273438,0.33207446336746216,-1.3073402643203735,0.005531395319849253,-0.8226520419120789,0.009727626107633114,1.2573670148849487,0.009346150793135166,0.8279926776885986,0.23708705604076385,-0.8302815556526184,-0.15430685877799988,-0.12874799966812134,0.9393835067749023,-0.3604986071586609,-1.7397307601640932e-05,-0.5281528830528259,-0.04596780240535736,-0.18787670135498047,0.7150759100914001,-0.3583088219165802,-0.08091282099485397,0.2327517569065094,-0.06848368048667908,0.061119187623262405,0.6187678575515747,-0.0012707349378615618,-1.049267053604126,-0.72510826587677,-0.6033428311347961,-0.006615028716623783,1.5728310346603394,-0.3490774929523468,1.6780298948287964,0.2729405462741852,0.8056312799453735,-7.382673740386963,0.9345407485961914,0.30103591084480286,-0.1877754181623459,0.15670394897460938,0.46925410628318787,1.4511653184890747,-1.3126037120819092,0.13651248812675476,1741530575.687459,1741530575548,-1.753289794921875,1.374127197265625,0.562650479211342,0.7558538208007812,2.0035965576171875
1741530575.6686172,0.5452927947044373,0.06163227572874244,-0.03826003674154241,-0.9973653453860486,-0.12531565129756927,-0.12042228132486343,-0.7166033983230591,-1.1404441595077515,-1.7243335247039795,5.372798919677734,-0.4823760986328125,0.2512016296386719,0.3278782367706299,-1.2962775230407715,0.005531395319849253,-0.8436331748962402,0.00858320016413927,1.2508819103240967,0.009346150793135166,0.8504997491836548,0.23937590420246124,-0.7898451089859009,-0.14591439068317413,-0.11539635062217712,0.7806897163391113,-0.35657933354377747,0.007014376576989889,-0.5277714133262634,-0.03833829239010811,-0.19512474536895752,0.7440680265426636,-0.37916359305381775,-0.07414485514163971,0.24484604597091675,0.08203861117362976,-0.16351018846035004,0.7733238339424133,-0.00030767283169552684,-1.076297640800476,0.034475814551115036,-0.3771136403083801,-0.003332422347739339,1.410010814666748,0.15720346570014954,2.004939317703247,0.4384858310222626,0.6655572652816772,-7.824149131774902,0.008410036563873291,0.32413527369499207,0.05580957233905792,0.45805495977401733,-0.37278133630752563,1.4161946773529053,-0.9985911250114441,0.31718721985816956,1741530575.687459,1741530575548,-1.753289794921875,1.374127197265625,0.562650479211342,0.7558538208007812,2.0035965576171875
1741530575.6886773,0.5353459715843201,0.05628929019080864,-0.026049986530424812,-0.9980746034298137,-0.6709201335906982,-0.33256518840789795,-0.48128387331962585,0.4868166446685791,-0.03076583333313465,8.474276542663574,-0.482757568359375,0.2557792663574219,0.33169299364089966,-1.2836887836456299,0.005531395319849253,-0.8600366115570068,0.01926451548933983,1.2508819103240967,0.009346150793135166,0.8703364729881287,0.24967575073242188,-0.7547493577003479,-0.12264438718557358,-0.11196307092905045,0.6578545570373535,-0.370212197303772,0.004325996618717909,-0.5197604298591614,-0.018501564860343933,-0.2134355753660202,0.7711527943611145,-0.39584654569625854,-0.07018382102251053,0.004506356082856655,0.17122365534305573,0.12829850614070892,0.8897448182106018,-0.00045936473179608583,-0.7765517234802246,0.8744224309921265,0.058475762605667114,0.006691433023661375,1.3210092782974243,0.5820351839065552,1.5487784147262573,1.295958399772644,0.03559350594878197,-5.602148532867432,-0.5542927384376526,-0.39597299695014954,0.4691742956638336,0.9772569537162781,-0.8693759441375732,1.353694200515747,-0.825141429901123,0.14727015793323517,1741530575.687459,1741530575548,-1.753289794921875,1.374127197265625,0.562650479211342,0.7558538208007812,2.0035965576171875
1741530575.7107627,0.5294378995895386,0.04380038870953576,-0.006516519303692574,-0.9990190493304211,-0.8909676671028137,-0.5603343844413757,-0.29594647884368896,-5.598529815673828,-2.253131866455078,17.918947219848633,-0.4739837646484375,0.2634086608886719,0.3282597064971924,-1.2653779983520508,0.005531395319849253,-0.8699550032615662,0.04177157208323479,1.2573670148849487,0.009727626107633114,0.8848325610160828,0.2580682039260864,-0.7387273907661438,-0.1039520874619484,-0.14095520973205566,0.6868467330932617,-0.348442941904068,-0.030267974361777306,-0.5033569931983948,-0.01735713705420494,-0.23327229917049408,0.7948042750358582,-0.41120412945747375,-0.05838991701602936,0.23205424845218658,0.300382137298584,-0.2587635815143585,1.2619493007659912,0.02533126063644886,-0.34775692224502563,1.5432549715042114,0.6059370040893555,0.02963651716709137,0.9353339672088623,0.44332703948020935,0.8364483714103699,0.5998618006706238,-1.6212679147720337,2.3818955421447754,1.2855422496795654,-2.131443738937378,0.8201315999031067,-0.1421544849872589,-1.0056815147399902,0.8693940043449402,-0.8227524757385254,0.8526217937469482,1741530575.687459,1741530575548,-1.753289794921875,1.374127197265625,0.562650479211342,0.7558538208007812,2.0035965576171875
1741530575.7286928,0.529418408870697,0.036625990736517816,0.0032487190716571183,-0.9993237626650143,-0.4799804091453552,-0.49766504764556885,-0.009995558299124241,7.103914260864258,8.350141525268555,7.392695426940918,-0.4491872787475586,0.24433517456054688,0.30308231711387634,-1.2466856241226196,0.005531395319849253,-0.8806362748146057,0.07686731964349747,1.2630890607833862,0.009727626107633114,0.9004730582237244,0.28667888045310974,-0.7383459210395813,-0.07305257022380829,-0.16880293190479279,0.7097352743148804,-0.3210553228855133,-0.0860903188586235,-0.482375830411911,-0.0020981156267225742,-0.2759975492954254,0.8039597272872925,-0.432979017496109,-0.009774460457265377,0.7327179312705994,-0.43591922521591187,-1.5495250225067139,1.2257378101348877,-0.0028825115878134966,-0.6051973104476929,2.511107921600342,0.18437831103801727,0.00342810177244246,1.0246859788894653,1.474597454071045,0.32220613956451416,1.4171875715255737,-1.0674960613250732,0.4541727602481842,1.2840279340744019,-2.1852471828460693,0.7431371808052063,0.8461341261863708,-2.263711929321289,0.468534916639328,-1.0892057418823242,2.4455411434173584,1741530575.687459,1741530575548,-1.753289794921875,1.374127197265625,0.562650479211342,0.7558538208007812,2.0035965576171875
1741530575.7487106,0.5154196619987488,0.021677397828658723,0.01975505194811952,-0.9995698216462446,-0.8755280375480652,-0.6655454039573669,-0.7038111686706543,-0.64581698179245,-1.6049565076828003,10.339733123779297,-0.4495687484741211,0.24357223510742188,0.2569237947463989,-1.23295259475708,0.00476844422519207,-0.8997100591659546,0.1184481605887413,1.2615631818771362,0.009727626107633114,0.9134432077407837,0.2965972423553467,-0.7059205174446106,-0.05207141116261482,-0.17948424816131592,0.7009612917900085,-0.29258137941360474,-0.07016420364379883,-0.47741663455963135,-0.005912871100008488,-0.3103303611278534,0.846684992313385,-0.46399325132369995,-0.0016970145516097546,0.03370728716254234,-0.05744902789592743,-2.3805437088012695,0.7911783456802368,-0.05924788489937782,-1.0119309425354004,2.5946059226989746,0.04153558984398842,0.019676584750413895,0.8238763809204102,0.3752323091030121,1.6533148288726807,0.762615442276001,-0.399032860994339,-0.3012668788433075,1.4412380456924438,1.1941492557525635,0.0915599837899208,-0.5415967106819153,-1.4949212074279785,2.695110559463501,-1.599069595336914,-0.34045276045799255,1741530575.720445,1741530575648,-1.7248499755859374,1.3982469482421875,0.5000292413768457,0.8790767822265625,1.9884986572265626
1741530575.7688396,0.49762117862701416,0.010428945536091958,0.02866748302386162,-0.9995345979565099,-0.313198059797287,-0.4658425450325012,-1.0285006761550903,-0.17749102413654327,1.855346441268921,11.121963500976562,-0.4358358383178711,0.23289108276367188,0.21839475631713867,-1.2260860204696655,0.005149920005351305,-0.9100099205970764,0.15468832850456238,1.2661409378051758,0.010109102353453636,0.9294651746749878,0.3107118308544159,-0.6921873688697815,-0.046730753034353256,-0.19398032128810883,0.7009612917900085,-0.26374951004981995,-0.054609913378953934,-0.5140383243560791,-0.03185320645570755,-0.33054855465888977,0.9462500810623169,-0.4966011941432953,-0.013634520582854748,0.38504263758659363,-0.2692452073097229,-1.9744905233383179,0.3657227158546448,-0.06379503011703491,-0.5206900835037231,2.5232715606689453,0.21613004803657532,0.01288683246821165,1.0376437902450562,0.7668590545654297,0.7301135659217834,0.28039485216140747,-0.9029580354690552,0.021396303549408913,1.3472919464111328,0.5727366805076599,-2.139863967895508,-1.330885410308838,-0.9832544922828674,5.274177551269531,-1.6641982793807983,-0.2548796534538269,1741530575.720445,1741530575648,-1.7248499755859374,1.3982469482421875,0.5000292413768457,0.8790767822265625,1.9884986572265626
1741530575.788903,0.46629756689071655,0.009208661736040374,0.02889172409998025,-0.9995401286729623,0.027685528621077538,-0.005115739535540342,-1.5140005350112915,1.4829972982406616,-0.1326613575220108,8.792832374572754,-0.4171438217163086,0.20122814178466797,0.17223620414733887,-1.223797082901001,0.005531395319849253,-0.9206912517547607,0.18520638346672058,1.2608002424240112,0.009727626107633114,0.9447242021560669,0.32063019275665283,-0.6761654019355774,-0.040627144277095795,-0.18902114033699036,0.699053943157196,-0.24850575625896454,-0.061341673135757446,-0.5891889929771423,-0.05893797054886818,-0.34847790002822876,1.0728999376296997,-0.5236921310424805,0.012177277356386185,0.4620417058467865,-0.8804998993873596,-2.311224937438965,0.1707008332014084,0.03269694000482559,-0.4324676990509033,1.9778085947036743,-0.42650747299194336,-0.0016138723585754633,0.999796986579895,0.4295103847980499,0.6938818693161011,0.2749432623386383,0.5285369753837585,-0.1510002464056015,0.6422761082649231,-0.33857011795043945,-3.5808374881744385,-1.450018048286438,-0.7270196676254272,6.351032257080078,-1.267686367034912,1.110666275024414,1741530575.720445,1741530575648,-1.7248499755859374,1.3982469482421875,0.5000292413768457,0.8790767822265625,1.9884986572265626
1741530575.8165264,0.43549495935440063,0.00903711087538553,0.023218394352648896,-0.9996895702120288,0.33959248661994934,0.03093528188765049,-1.5499347448349,-0.14428415894508362,-3.474806308746338,12.41982364654541,-0.4129476547241211,0.18101024627685547,0.1188296303153038,-1.2234156131744385,0.005531395319849253,-0.9275577664375305,0.22182802855968475,1.2489745616912842,0.009346150793135166,0.955024003982544,0.3221561014652252,-0.6681544184684753,-0.01735713705420494,-0.1680399775505066,0.7021057605743408,-0.2466091811656952,-0.06421826034784317,-0.6631952524185181,-0.09899290651082993,-0.34657052159309387,1.187342643737793,-0.538777768611908,-0.003830522298812866,0.16015422344207764,-0.6060208678245544,-2.7453055381774902,0.003970734775066376,0.0012420627754181623,-0.31091421842575073,2.5120186805725098,-0.8253386616706848,-0.02828095480799675,0.6283275485038757,0.07647962123155594,0.4864548444747925,1.25642728805542,1.2017569541931152,0.283092737197876,0.0009852242656052113,-0.08436441421508789,-3.532188892364502,-1.9608951807022095,0.25572770833969116,5.430707931518555,-0.6272327899932861,-1.0346648693084717,1741530575.720445,1741530575648,-1.7248499755859374,1.3982469482421875,0.5000292413768457,0.8790767822265625,1.9884986572265626
1741530575.8289027,0.4067925214767456,0.007386768114640482,0.01692478768938798,-0.9998294790705512,0.3074142336845398,-0.07587607949972153,-1.3655706644058228,2.823239326477051,-1.2512072324752808,9.00854778289795,-0.4034099578857422,0.17681407928466797,0.06351567804813385,-1.2234156131744385,0.005531395319849253,-0.9302281141281128,0.2622644305229187,1.2405821084976196,0.009727626107633114,0.9573128819465637,0.32024872303009033,-0.6525139212608337,0.013160906732082367,-0.14057374000549316,0.7085908055305481,-0.25335556268692017,-0.07419261336326599,-0.7124055624008179,-0.13218127191066742,-0.343137264251709,1.2518119812011719,-0.5352236032485962,0.00019306711328681558,0.2610965073108673,-0.1324397772550583,-2.7732784748077393,0.01681373454630375,-0.007362414617091417,-0.08760229498147964,2.7244484424591064,-0.4496024250984192,0.022479388862848282,0.09044913947582245,-0.09828363358974457,0.846070408821106,1.5807608366012573,1.3809475898742676,0.24068336188793182,-0.3739480972290039,-0.6338983178138733,-2.200374126434326,-1.5100007057189941,0.055488310754299164,2.765916585922241,0.32597771286964417,0.6514431834220886,1741530575.720445,1741530575648,-1.7248499755859374,1.3982469482421875,0.5000292413768457,0.8790767822265625,1.9884986572265626
1741530575.8526764,0.3867604732513428,0.0012625778464757111,0.01184353935131205,-0.9999290657205718,0.23497195541858673,-0.3148645758628845,-0.9529919028282166,2.4700703620910645,-3.113837242126465,9.48138427734375,-0.4003582000732422,0.17833995819091797,0.01506828423589468,-1.2234156131744385,0.005531395319849253,-0.9294651746749878,0.30537116527557373,1.2402005195617676,0.009346150793135166,0.9561684727668762,0.31643396615982056,-0.6303883194923401,0.043678950518369675,-0.12455176562070847,0.7101167440414429,-0.26179367303848267,-0.09527808427810669,-0.7280460596084595,-0.1520180106163025,-0.3393225073814392,1.2510490417480469,-0.5193585157394409,0.015040526166558266,0.10826817154884338,0.0749521404504776,-2.2739946842193604,0.03762562572956085,-0.01177553553134203,0.0269093606621027,2.8966002464294434,-0.03290298581123352,0.00013857788871973753,-0.08727831393480301,-0.2672102153301239,1.1318660974502563,1.5007469654083252,0.6845381855964661,0.04159398004412651,-0.38401925563812256,-1.0603989362716675,-0.5720621347427368,-0.9603711366653442,0.21299736201763153,-0.4224052131175995,0.8392385840415955,0.35402175784111023,1741530575.8918476,1741530575748,-1.6943134765625,1.4088897705078125,0.3986187869394714,0.9955442504882813,1.973759765625
1741530575.8689377,0.37321746349334717,-0.008121360221600944,0.008825402191066404,-0.9999280753055776,0.14208686351776123,-0.478979229927063,-0.6651657223701477,3.8738560676574707,-0.9975764155387878,6.2024245262146,-0.3927288055419922,0.18711376190185547,-0.018501564860343933,-1.223797082901001,0.005531395319849253,-0.9290837049484253,0.34618905186653137,1.2413450479507446,0.009346150793135166,0.9508277773857117,0.3122377395629883,-0.6078813076019287,0.06427863240242004,-0.11501488089561462,0.7093538045883179,-0.26992231607437134,-0.10617019981145859,-0.725375771522522,-0.17032882571220398,-0.33665215969085693,1.2006943225860596,-0.4977244436740875,0.0009607322863303125,0.20886747539043427,0.25512179732322693,-1.5507121086120605,-0.02120264060795307,-0.014581981115043163,-0.011529888957738876,2.6702678203582764,0.05228898674249649,-0.003420863766223192,-0.4661361277103424,-0.199863001704216,1.0919699668884277,1.019968867301941,0.4934230148792267,-0.04920521378517151,-0.42782798409461975,-0.32618600130081177,0.1877656728029251,-0.8440293073654175,0.1358117312192917,-2.799137592315674,1.1083780527114868,-0.5546708703041077,1741530575.8918476,1741530575748,-1.6943134765625,1.4088897705078125,0.3986187869394714,0.9955442504882813,1.973759765625
1741530575.8889651,0.357621967792511,-0.017901445947848763,0.006373994747306666,-0.9998194389108153,0.09519023448228836,-0.44311264157295227,-0.837721049785614,-0.17993862926959991,-0.07192231714725494,8.328245162963867,-0.3843364715576172,0.18673229217529297,-0.046730753034353256,-1.224560022354126,0.005912871100008488,-0.9313725233078003,0.37899595499038696,1.2421079874038696,0.010109102353453636,0.9435797929763794,0.31605249643325806,-0.5838482975959778,0.08068207651376724,-0.11272602528333664,0.7112611532211304,-0.2802318334579468,-0.10662044584751129,-0.7097352743148804,-0.18787670135498047,-0.33131152391433716,1.1175326108932495,-0.4716419577598572,0.006776315160095692,0.24408231675624847,0.021545039489865303,-1.441768765449524,-0.06983070820569992,0.04437033459544182,-0.13825012743473053,2.1226799488067627,0.06805839389562607,0.053834762424230576,-0.47450143098831177,0.3431926369667053,1.225180983543396,0.889692485332489,0.09764333814382553,0.13580355048179626,-0.48252540826797485,-0.12752525508403778,0.9789623618125916,-0.807708740234375,0.26967912912368774,-4.085491180419922,1.2962325811386108,0.43568384647369385,1741530575.8918476,1741530575748,-1.6943134765625,1.4088897705078125,0.3986187869394714,0.9955442504882813,1.973759765625
1741530575.9090037,0.3367103934288025,-0.0225646546798991,0.004530459129102316,-0.9997351205690718,0.06275136023759842,-0.1964389532804489,-1.0867953300476074,-1.834506869316101,-1.9580262899398804,8.450495719909668,-0.3763256072998047,0.17948436737060547,-0.06084534898400307,-1.223797082901001,0.005149920005351305,-0.9424353241920471,0.403410404920578,1.2459226846694946,0.009727626107633114,0.9359502792358398,0.33245593309402466,-0.570496678352356,0.09021896868944168,-0.11005569249391556,0.7181277275085449,-0.292574942111969,-0.11366685479879379,-0.6712062358856201,-0.20466163754463196,-0.33016708493232727,1.0088120698928833,-0.45236068964004517,0.004052306991070509,0.23394569754600525,-0.12327247112989426,-0.5853559970855713,0.03187532350420952,-0.02078055590391159,-0.6029208302497864,1.6427377462387085,0.2736893594264984,-0.01393438782542944,-0.5609447956085205,0.8763603568077087,0.5845853090286255,0.4612383544445038,0.12681233882904053,0.4286840260028839,-0.6295812726020813,-0.3297095000743866,2.082838773727417,-0.859136700630188,0.002385225612670183,-5.553337097167969,0.8575528264045715,-0.3098506033420563,1741530575.8918476,1741530575748,-1.6943134765625,1.4088897705078125,0.3986187869394714,0.9955442504882813,1.973759765625
1741530575.929031,0.3089923858642578,-0.021260950505725375,0.0029714740231083702,-0.9997695446080177,0.06490138918161392,0.06618031114339828,-1.405745029449463,-0.8123282194137573,1.1492258310317993,6.418726444244385,-0.3664073944091797,0.16384410858154297,-0.054741740226745605,-1.223797082901001,0.005531395319849253,-0.9531166553497314,0.4186694025993347,1.2455412149429321,0.009727626107633114,0.9287022352218628,0.3606851398944855,-0.5624856948852539,0.09403372555971146,-0.11196307092905045,0.732623815536499,-0.3071468770503998,-0.11697794497013092,-0.6338216066360474,-0.2149614691734314,-0.3412298858165741,0.8813992738723755,-0.445657879114151,-0.006426222622394562,0.29273438453674316,-0.37637943029403687,0.4559493362903595,0.007274491712450981,-0.00143772317096591,-0.5076053738594055,0.8202974796295166,-0.08699005097150803,0.008894789963960648,-0.4677777588367462,1.3973184823989868,0.24702860414981842,0.12496431916952133,-0.1281580626964569,0.7116062641143799,-0.7780468463897705,-0.06007545813918114,1.8130557537078857,-0.3830544352531433,-0.6268165707588196,-6.528680324554443,0.2659199833869934,-0.29346713423728943,1741530575.8918476,1741530575748,-1.6943134765625,1.4088897705078125,0.3986187869394714,0.9955442504882813,1.973759765625
1741530575.949034,0.2781713008880615,-0.02026603014771909,-0.002869613771994411,-0.9997905047252906,0.2598783075809479,-0.07848164439201355,-1.568253993988037,-14.37563419342041,-16.720413208007812,18.714641571044922,-0.3503856658935547,0.16231822967529297,-0.03223468363285065,-1.2226526737213135,0.005149920005351305,-0.9596017599105835,0.4186694025993347,1.2428709268569946,0.009727626107633114,0.9218356609344482,0.3770885765552521,-0.5479896068572998,0.09136339277029037,-0.12493324279785156,0.7558938264846802,-0.31854575872421265,-0.11927858740091324,-0.6105515956878662,-0.2153429538011551,-0.3877699077129364,0.8203631639480591,-0.4208880364894867,-0.007125061936676502,0.45433059334754944,-0.06747004389762878,1.2776776552200317,0.06609953194856644,-0.023369042202830315,-0.28249281644821167,-0.06964906305074692,-0.20557384192943573,-0.004788277670741081,-0.5736380219459534,0.6540429592132568,0.8331684470176697,0.3157707452774048,-0.7739493250846863,1.2038731575012207,-0.4899176061153412,-0.2183774709701538,1.1516482830047607,0.4686523377895355,-2.717481851577759,-1.344597339630127,1.3480230569839478,-0.5652408003807068,1741530575.8918476,1741530575748,-1.6943134765625,1.4088897705078125,0.3986187869394714,0.9955442504882813,1.973759765625
1741530575.969052,0.24697339534759521,-0.02084959458344556,-0.0035402596053773243,-0.9997763554753796,-0.01831718161702156,-0.039980169385671616,-1.490574598312378,4.749368667602539,-1.5586849451065063,8.583518981933594,-0.3454265594482422,0.18215465545654297,0.007057297509163618,-1.2234156131744385,0.005531395319849253,-0.9626535177230835,0.39921414852142334,1.2421079874038696,0.009727626107633114,0.9153505563735962,0.3728923499584198,-0.5243381261825562,0.07495994865894318,-0.16346226632595062,0.7623788714408875,-0.34023717045783997,-0.08660970628261566,-0.5891889929771423,-0.18673227727413177,-0.3927290737628937,0.8096818327903748,-0.4134042263031006,-0.03643720597028732,0.1946219950914383,0.4698341488838196,2.0328574180603027,-0.05227913707494736,0.015165540389716625,-0.11989966779947281,-1.5409013032913208,0.01414701621979475,0.009123031049966812,-0.297433078289032,-0.1437273472547531,1.2714585065841675,-0.9029601216316223,-2.148470401763916,0.2049834430217743,-1.1200156211853027,2.0514588356018066,0.7929685115814209,1.024520993232727,0.4013502299785614,-1.0127711296081543,0.2462005913257599,-0.8546302914619446,1741530576.0021975,1741530575848,-1.652472412109375,1.3949495849609375,0.30704891125544165,1.110098388671875,1.960076904296875
1741530575.9892719,0.22142207622528076,-0.02268283905986845,-0.001444912802461964,-0.9997416671516585,-0.15308420360088348,-0.04650314152240753,-1.2360360622406006,-12.24972152709961,3.536743402481079,15.261554718017578,-0.3347444534301758,0.19092845916748047,0.053215838968753815,-1.225704550743103,0.005531395319849253,-0.960746169090271,0.36907759308815,1.2470670938491821,0.010109102353453636,0.9119172692298889,0.3595407009124756,-0.506790280342102,0.03833829239010811,-0.23479819297790527,0.7803082466125488,-0.36856284737586975,-0.04017923027276993,-0.5579079985618591,-0.1668955534696579,-0.34962233901023865,0.7883192300796509,-0.4093448519706726,-0.03281194716691971,0.31359225511550903,0.27175238728523254,2.298916816711426,-0.27210351824760437,-0.017964079976081848,0.0824737474322319,-2.036065101623535,0.3425346910953522,-0.006363074295222759,-0.18401050567626953,-0.8163840770721436,0.7125716209411621,-2.017456531524658,-3.8820464611053467,1.2248127460479736,-1.4643025398254395,2.3909225463867188,1.998239517211914,1.3726272583007812,1.9484667778015137,-0.7978034615516663,0.2552441954612732,-0.0032993911299854517,1741530576.0021975,1741530575848,-1.652472412109375,1.3949495849609375,0.30704891125544165,1.110098388671875,1.960076904296875
1741530576.016954,0.2051076889038086,-0.01897990165920435,0.0005083310076924704,-0.9998197362187813,-0.09100291132926941,0.051913462579250336,-0.7289260029792786,-0.9722180962562561,-0.18344539403915405,10.517725944519043,-0.3225374221801758,0.19169139862060547,0.1028076633810997,-1.2428709268569946,0.005531395319849253,-0.9611276388168335,0.33016708493232727,1.2489745616912842,0.009727626107633114,0.9130617380142212,0.3393225073814392,-0.5125123858451843,-0.010490577667951584,-0.29964902997016907,0.8539330363273621,-0.40650060772895813,0.0008396211778745055,-0.5430304408073425,-0.13179980218410492,-0.33436331152915955,0.7703898549079895,-0.41071316599845886,-0.039961040019989014,0.3358843922615051,0.02639811858534813,2.397521495819092,-1.2409193515777588,-0.03556906059384346,-0.029382802546024323,-2.6131882667541504,0.06997943669557571,0.009945039637386799,0.04904268682003021,-1.0805752277374268,-0.7244977951049805,-2.5344138145446777,-2.98909854888916,4.043567180633545,-1.9535490274429321,2.034834146499634,0.5812643766403198,1.5303761959075928,0.9083910584449768,-1.0466136932373047,-0.15412311255931854,-0.4459856450557709,1741530576.0021975,1741530575848,-1.652472412109375,1.3949495849609375,0.30704891125544165,1.110098388671875,1.960076904296875
1741530576.0292017,0.20121753215789795,-0.017096766798948372,0.003610953492864602,-0.999847319134224,-0.20674321055412292,0.17804855108261108,-0.09923922270536423,0.9162943363189697,1.1539456844329834,7.1573591232299805,-0.3095674514770508,0.20237255096435547,0.15354390442371368,-1.2562226057052612,0.005531395319849253,-0.9611276388168335,0.28744181990623474,1.2482116222381592,0.009727626107633114,0.9145876169204712,0.3122377395629883,-0.5563820600509644,-0.06160829961299896,-0.31910428404808044,0.9721904397010803,-0.44216054677963257,0.0008094687946140766,-0.5201418995857239,-0.1039520874619484,-0.32024872303009033,0.7562752962112427,-0.4121169447898865,-0.04069221392273903,0.3530086278915405,0.21529534459114075,2.5266637802124023,-0.7700341939926147,0.016561361029744148,0.006221659015864134,-2.924722671508789,-0.024594593793153763,-0.02523435652256012,0.0893106609582901,-1.4200937747955322,-2.4017717838287354,-2.472137689590454,-0.5289856791496277,6.175119400024414,-1.6649032831192017,-0.4611584544181824,1.2247799634933472,1.358518123626709,0.5763615965843201,-0.6548943519592285,-0.05995086953043938,-0.029489630833268166,1741530576.0021975,1741530575848,-1.652472412109375,1.3949495849609375,0.30704891125544165,1.110098388671875,1.960076904296875
1741530576.049148,0.20835578441619873,-0.020032146172558107,0.0077123924169666775,-0.9997695895169686,-0.19634248316287994,-0.21207335591316223,0.4094015955924988,-6.974289417266846,-1.0148756504058838,9.558795928955078,-0.2992677688598633,0.22068405151367188,0.20504310727119446,-1.2657594680786133,0.005531395319849253,-0.9611276388168335,0.23937590420246124,1.2466856241226196,0.009727626107633114,0.9145876169204712,0.28286412358283997,-0.6338216066360474,-0.10700388997793198,-0.2962157726287842,1.114862322807312,-0.4685828983783722,-0.010354562662541866,-0.5113679766654968,-0.08106355369091034,-0.31490805745124817,0.7387273907661438,-0.4146243631839752,-0.04708809033036232,0.32609960436820984,0.4889098107814789,2.6428306102752686,-0.6469401717185974,-0.007460194174200296,-0.0075421142391860485,-3.1365764141082764,-0.17178107798099518,-0.0031310569029301405,-0.019853850826621056,-1.4431509971618652,-3.875009298324585,-2.1846425533294678,1.2768828868865967,7.255520343780518,-1.2761023044586182,-0.04888041689991951,0.40546488761901855,1.0843297243118286,0.2515954375267029,-0.7196211814880371,-0.12947839498519897,-0.29304349422454834,1741530576.0021975,1741530575848,-1.652472412109375,1.3949495849609375,0.30704891125544165,1.110098388671875,1.960076904296875
1741530576.0691893,0.22065818309783936,-0.0162080469867051,0.014242016470963015,-0.9997672049931012,-0.3115888833999634,0.2056092917919159,0.6259309649467468,0.3158063292503357,1.2777656316757202,8.610880851745605,-0.2821016311645508,0.22297286987304688,0.2584496736526489,-1.2672853469848633,0.005531395319849253,-0.9611276388168335,0.18635080754756927,1.2440153360366821,0.009727626107633114,0.9157320261001587,0.2588311731815338,-0.7288090586662292,-0.14019227027893066,-0.265697717666626,1.2518119812011719,-0.4850883483886719,0.00422085402533412,-0.4964904189109802,-0.07000076025724411,-0.3099488914012909,0.7375829815864563,-0.41824430227279663,-0.04973084107041359,0.4922909736633301,0.1047283336520195,2.5721499919891357,-0.04292142391204834,-0.003307883394882083,1.6525817727597314e-06,-3.686499834060669,-0.164756178855896,-0.0019927688408643007,0.06582178920507431,-1.1691101789474487,-4.7436137199401855,-1.5935593843460083,1.672691822052002,6.7619547843933105,-0.7328388094902039,0.6386311054229736,0.5990585088729858,0.4438054859638214,0.1789175570011139,-0.06585538387298584,-0.20542025566101074,-0.07180610299110413,1741530576.097635,1741530575948,-1.597260986328125,1.3765147705078125,0.17489302362186465,1.2185189208984375,1.94594873046875
1741530576.0891945,0.23458778858184814,-0.013785646403307318,0.018660605357843085,-0.9997308326549311,-0.2104395180940628,0.09794744104146957,0.6733800768852234,1.5957176685333252,-0.239021435379982,10.276823043823242,-0.2656974792480469,0.22945785522460938,0.3118562698364258,-1.2669038772583008,0.005531395319849253,-0.9596017599105835,0.12798504531383514,1.2409635782241821,0.009727626107633114,0.916113555431366,0.247768372297287,-0.8165484070777893,-0.17223620414733887,-0.2309834510087967,1.346036434173584,-0.48748579621315,-0.007858972065150738,-0.5006866455078125,-0.05855649709701538,-0.3099488914012909,0.7391088604927063,-0.4269337058067322,-0.059910181909799576,0.48946961760520935,0.2092183530330658,2.690080404281616,0.06570292264223099,-0.003916329238563776,0.08941373229026794,-3.8608756065368652,-0.21657505631446838,-0.0014317163731902838,0.02871551923453808,-0.46708863973617554,-4.0370941162109375,-1.7318305969238281,1.681301236152649,4.138723850250244,-0.015718217939138412,-0.6481898427009583,-0.29068872332572937,0.5863946676254272,0.04793568700551987,0.08279084414243698,-0.4791264832019806,-0.636012852191925,1741530576.097635,1741530575948,-1.597260986328125,1.3765147705078125,0.17489302362186465,1.2185189208984375,1.94594873046875
1741530576.1092436,0.2422548532485962,-0.009562127786080498,0.02267342267725336,-0.9996971949627054,-0.18953730165958405,0.22942204773426056,0.23973393440246582,1.8613085746765137,1.0447604656219482,9.68104362487793,-0.23823165893554688,0.22983932495117188,0.3622110188007355,-1.2638521194458008,0.005149920005351305,-0.959983229637146,0.0715266615152359,1.23905611038208,0.009727626107633114,0.916113555431366,0.24166475236415863,-0.8802548050880432,-0.1962691694498062,-0.20542457699775696,1.3735027313232422,-0.4781566858291626,-0.0032266261987388134,-0.501068115234375,-0.050164032727479935,-0.308041512966156,0.7444495558738708,-0.44018444418907166,-0.0656307190656662,0.8040567636489868,0.04204588383436203,2.450204610824585,0.12749488651752472,-0.02918079122900963,-0.05117591843008995,-3.673447847366333,-0.10315418243408203,0.010352587327361107,-0.029035300016403198,-0.3743322193622589,-2.970217704772949,-1.0525171756744385,1.212259292602539,0.7801079750061035,0.5054324865341187,0.41794294118881226,0.21738025546073914,0.4016079902648926,0.11938773840665817,0.36613354086875916,-0.6703872084617615,-0.2590794861316681,1741530576.097635,1741530575948,-1.597260986328125,1.3765147705078125,0.17489302362186465,1.2185189208984375,1.94594873046875
1741530576.1292722,0.23563885688781738,-0.0030502082514200254,0.024721925894591178,-0.999689713165883,-0.10201852768659592,0.3408466577529907,-0.4418383836746216,-3.725159168243408,-2.095993995666504,10.799062728881836,-0.21572399139404297,0.23022079467773438,0.404173344373703,-1.2611817121505737,0.005531395319849253,-0.9596017599105835,0.024223696440458298,1.2386746406555176,0.010109102353453636,0.916876494884491,0.2458609938621521,-0.9042877554893494,-0.2004653960466385,-0.19474326074123383,1.3311588764190674,-0.46015140414237976,-0.0019809757359325886,-0.5033569931983948,-0.0394827201962471,-0.30155640840530396,0.7543678879737854,-0.4561135172843933,-0.06951887905597687,0.684904932975769,0.015903811901807785,2.0198545455932617,0.1378759741783142,-0.009463950991630554,0.03525287285447121,-3.053633451461792,0.0051856255158782005,0.03365246206521988,0.03157205879688263,0.26917770504951477,-0.7943713068962097,-0.11737046390771866,0.4458683431148529,-2.593782424926758,0.9476006627082825,-0.12533366680145264,-0.16592763364315033,0.5924228429794312,0.3328098654747009,0.5191284418106079,-0.7971547245979309,-0.16792714595794678,1741530576.097635,1741530575948,-1.597260986328125,1.3765147705078125,0.17489302362186465,1.2185189208984375,1.94594873046875
