Freshhhhh-LC/Legged_odom/data/1/segments/booster_seg_9.57s.csv
time,yaw,projected_gravity_x,projected_gravity_y,projected_gravity_z,ang_vel_x,ang_vel_y,ang_vel_z,lin_acc_x,lin_acc_y,lin_acc_z,q_0,q_1,q_2,q_3,q_4,q_5,q_6,q_7,q_8,q_9,q_10,q_11,q_12,q_13,q_14,q_15,q_16,q_17,q_18,q_19,q_20,q_21,q_22,dq_0,dq_1,dq_2,dq_3,dq_4,dq_5,dq_6,dq_7,dq_8,dq_9,dq_10,dq_11,dq_12,dq_13,dq_14,dq_15,dq_16,dq_17,dq_18,dq_19,dq_20,dq_21,dq_22,mocap_time,mocap_timestamp,robot_x,robot_y,robot_yaw,ball_x,ball_y
1741422413.7345102,0.1401880383491516,0.028572920605657404,-0.034354712725822405,-0.9990011721322399,-0.09501197189092636,-0.01279409509152174,1.3280293941497803,-0.9636680483818054,1.9676644802093506,10.254480361938477,0.11081886291503906,0.7497901916503906,0.20809490978717804,-1.2608002424240112,0.005149920005351305,-0.9386205673217773,0.23670557141304016,1.2482116222381592,0.0036240178160369396,0.8993285894393921,-0.07305257022380829,-0.5159456729888916,-0.03452353551983833,0.10166323184967041,1.343747615814209,-0.4033711850643158,0.0014466290595009923,-0.698291003704071,0.000572213320992887,0.037193864583969116,0.8680475950241089,-0.2813147008419037,-0.01176199596375227,0.9185286164283752,1.0212022066116333,3.016923427581787,-0.47888022661209106,-0.00649304548278451,1.0294984579086304,-4.84006404876709,0.14029298722743988,-0.035265229642391205,-0.3100343942642212,-0.6160839200019836,-4.831902503967285,-0.24541188776493073,-0.053867146372795105,7.198079586029053,0.5918229222297668,-1.4536702632904053,2.4943296909332275,-0.60072261095047,0.2737041115760803,0.2316802591085434,0.31251904368400574,0.4622421860694885,1741422413.7285964,1741422414319,4.3953173828125,-0.09830287170410157,0.6815402173416558,4.39551611328125,0.6439692993164062
1741422413.746272,0.2682284712791443,0.05112218669128411,-0.02126609782867487,-0.9984659609175682,-0.43507230281829834,-0.20226402580738068,0.5209600329399109,-1.949607491493225,-5.529409885406494,7.0614166259765625,0.4770355224609375,0.8588924407958984,0.3854810297489166,-1.2890294790267944,0.005149920005351305,-0.7162203192710876,-0.04329747334122658,1.2554595470428467,0.0036240178160369396,0.7818341255187988,-0.17299915850162506,-0.7436865568161011,0.10891126841306686,0.2725642919540405,0.6315327882766724,-0.22296415269374847,0.00499697495251894,-0.3557259440422058,0.02079041674733162,0.08030059933662415,0.8470664620399475,-0.37224727869033813,0.0053834761492908,0.6735368371009827,0.25887560844421387,-1.6653188467025757,-0.07675602287054062,-0.010364818386733532,0.767861545085907,2.7216084003448486,0.26102709770202637,0.015710007399320602,-1.634947419166565,-0.6357402205467224,1.9329743385314941,0.685869574546814,0.3841363191604614,-6.245786190032959,1.8627772331237793,0.21715706586837769,0.10451022535562515,0.4634118378162384,0.031515926122665405,3.2984702587127686,0.29213395714759827,-0.25847697257995605,1741422413.7285964,1741422414319,4.3953173828125,-0.09830287170410157,0.6815402173416558,4.39551611328125,0.6439692993164062
1741422413.7485542,0.3030128479003906,0.048254980346762164,-0.0068071904675342555,-0.9988118536689842,0.12558495998382568,0.07460208237171173,0.11013317853212357,0.0943271592259407,-0.39170295000076294,13.703987121582031,0.5899515151977539,0.8966579437255859,0.17681391537189484,-1.3138253688812256,0.005531395319849253,-0.6548027992248535,0.1356145590543747,1.300473690032959,0.0036240178160369396,0.6776912808418274,-0.1668955534696579,-0.6506065726280212,0.05245288833975792,0.15926603972911835,0.647936224937439,-0.07420957833528519,0.029334699735045433,-0.5525673031806946,0.09403372555971146,0.1363775134086609,1.2731746435165405,-0.22932298481464386,-0.0058382414281368256,0.8806107044219971,0.5140184760093689,-3.39548397064209,-0.6459693908691406,0.05079998821020126,0.7723606824874878,2.752596139907837,1.1391823291778564,0.013915354385972023,-1.8684970140457153,0.09912486374378204,0.6324476599693298,0.0015201190253719687,-0.49617624282836914,0.7835615277290344,1.8261449337005615,-0.15811610221862793,-3.9896621704101562,2.1564810276031494,1.1098477840423584,4.952773571014404,1.4786546230316162,0.6530218124389648,1741422413.7285964,1741422414319,4.3953173828125,-0.09830287170410157,0.6815402173416558,4.39551611328125,0.6439692993164062
1741422413.7535667,0.2987578511238098,0.04572617090554971,-0.010833306132994908,-0.9988952681700647,0.19511976838111877,0.14485003054141998,-0.16226030886173248,-4.556830883026123,2.7077133655548096,15.044488906860352,0.6364917755126953,0.9088659286499023,0.10776684433221817,-1.3241251707077026,0.005149920005351305,-0.6349660754203796,0.17948424816131592,1.3287029266357422,0.004005493130534887,0.6410696506500244,-0.16117341816425323,-0.6311513185501099,0.045204851776361465,0.15659570693969727,0.6750209927558899,-0.058745771646499634,0.03580857813358307,-0.6498435735702515,0.12607766687870026,0.13981078565120697,1.3391698598861694,-0.2576656937599182,-0.007589344400912523,1.4901018142700195,0.19361260533332825,-2.4713997840881348,-0.5051753520965576,0.007618206087499857,0.7243467569351196,2.111142635345459,1.5448213815689087,-0.0006060008890926838,-1.8248026371002197,0.16674590110778809,0.9952887296676636,-0.5833814740180969,-0.39454078674316406,1.223196029663086,0.0934697836637497,0.05899322032928467,-3.647876501083374,0.9217914342880249,-0.06881200522184372,1.6647855043411255,-1.8558869361877441,-0.29399439692497253,1741422413.7285964,1741422414319,4.3953173828125,-0.09830287170410157,0.6815402173416558,4.39551611328125,0.6439692993164062
1741422413.7735217,0.292860746383667,0.050506354634427236,-0.018546110271316585,-0.9985515259291059,0.3666168749332428,0.14939868450164795,-0.3154361844062805,-4.660355091094971,-1.6361236572265625,10.778038024902344,0.6979093551635742,0.9149694442749023,0.057793546468019485,-1.3344250917434692,0.00476844422519207,-0.621614396572113,0.20580606162548065,1.3462507724761963,0.004005493130534887,0.6139848828315735,-0.152399480342865,-0.6235218048095703,0.03452353551983833,0.1329442262649536,0.6826505064964294,-0.07259044796228409,0.022227821871638298,-0.7288090586662292,0.13218127191066742,0.13218127191066742,1.3338292837142944,-0.3164654076099396,-0.008213195949792862,1.8380025625228882,0.20718838274478912,-2.466355800628662,-0.6623051762580872,-0.04398968070745468,0.6485046148300171,1.7004472017288208,1.0595682859420776,0.008470077998936176,-1.7947384119033813,0.31175097823143005,0.37621456384658813,-0.5200799703598022,-1.1375179290771484,0.2615220546722412,-0.8113532662391663,-0.751171350479126,-4.168185234069824,0.12849704921245575,-0.33807373046875,-0.5321137309074402,-3.1093060970306396,-0.07703771442174911,1741422413.7285964,1741422414319,4.3953173828125,-0.09830287170410157,0.6815402173416558,4.39551611328125,0.6439692993164062
1741422413.7935805,0.28763699531555176,0.057084692235487094,-0.024561477355418734,-0.9980671679513854,0.3336419463157654,0.37866663932800293,-0.2373371720314026,-1.8008449077606201,0.8136293888092041,7.446293830871582,0.7566566467285156,0.9092473983764648,0.02079041674733162,-1.3374768495559692,0.005149920005351305,-0.614366352558136,0.22564278542995453,1.361891269683838,0.004005493130534887,0.5914778113365173,-0.15812161564826965,-0.6036850810050964,0.027656977996230125,0.11539635062217712,0.6887540817260742,-0.09272345155477524,0.0019470214610919356,-0.8020523190498352,0.13218127191066742,0.12188144028186798,1.3014038801193237,-0.37526071071624756,0.0036484352312982082,1.7726598978042603,-0.13685055077075958,-1.830790400505066,-0.14480739831924438,0.005673166364431381,0.3846205174922943,1.2503387928009033,1.01771879196167,0.020524632185697556,-1.4507981538772583,-0.30722394585609436,1.0737018585205078,-0.26227155327796936,-0.9150489568710327,0.37477177381515503,-1.0219833850860596,-1.002310037612915,-3.5750067234039307,-0.005350043531507254,-0.4162187874317169,-1.7386395931243896,-2.7263262271881104,0.5522405505180359,1741422413.8228374,1741422414519,4.63407373046875,-0.012328502655029296,1.07332249385839,4.041400146484375,0.8949749145507813
1741422413.8136148,0.28280001878738403,0.06641752980781575,-0.030460524784201023,-0.9973268612466523,0.2802380621433258,0.43117210268974304,-0.18330246210098267,-2.0991077423095703,0.6912024021148682,4.008143424987793,0.8035783767700195,0.8974208831787109,-0.004005493130534887,-1.3397656679153442,0.005149920005351305,-0.6101701259613037,0.23823148012161255,1.3710466623306274,0.004005493130534887,0.5716410875320435,-0.17299915850162506,-0.5964370369911194,0.02536812424659729,0.10433356463909149,0.7028687000274658,-0.11586086452007294,-0.0023001544177532196,-0.8588922023773193,0.12912946939468384,0.11730372905731201,1.2499046325683594,-0.4024214744567871,0.01533152163028717,1.3959121704101562,-0.33555540442466736,-1.0669249296188354,-0.16873224079608917,0.0003830407513305545,0.21027925610542297,0.7813283205032349,0.5422757267951965,0.007740028202533722,-1.3169574737548828,-0.8544184565544128,0.11522334069013596,-0.14102543890476227,-0.4839952290058136,0.7776152491569519,-1.1820064783096313,-0.11448387056589127,-2.662187337875366,-0.20615309476852417,-0.12146355956792831,-2.898455858230591,-0.9896590709686279,0.47606536746025085,1741422413.8228374,1741422414519,4.63407373046875,-0.012328502655029296,1.07332249385839,4.041400146484375,0.8949749145507813
1741422413.8335943,0.28271210193634033,0.07426980107674544,-0.03557816746888026,-0.9966033266287931,0.24824629724025726,0.3189285099506378,0.033917348831892014,-2.543030261993408,-3.9009392261505127,8.310267448425293,0.8333330154418945,0.8936061859130859,-0.01201647985726595,-1.3420546054840088,0.005149920005351305,-0.6013962030410767,0.24357213079929352,1.3760058879852295,0.004005493130534887,0.5544747114181519,-0.18863965570926666,-0.6036850810050964,0.026131074875593185,0.09365224838256836,0.7360570430755615,-0.13713888823986053,-0.000201032729819417,-0.9023804068565369,0.12531471252441406,0.11539635062217712,1.1717021465301514,-0.3870673179626465,0.01248760987073183,0.9218475222587585,-0.14793765544891357,-0.30933335423469543,-0.16506457328796387,-0.014111865311861038,0.5208677053451538,0.30765366554260254,0.25315579771995544,0.01964978501200676,-1.1909815073013306,-0.685706377029419,-0.2600790858268738,-0.015813162550330162,-0.6205263733863831,1.8869801759719849,-1.0225410461425781,0.07465362548828125,-2.1305575370788574,-0.208136647939682,-0.09677810966968536,-4.415092945098877,1.0896228551864624,-0.1783902496099472,1741422413.8228374,1741422414519,4.63407373046875,-0.012328502655029296,1.07332249385839,4.041400146484375,0.8949749145507813
1741422413.853995,0.2889949679374695,0.07772482744276567,-0.03631282717853014,-0.9963133190825537,-0.04634057357907295,0.19380182027816772,0.33526623249053955,3.5004444122314453,-2.7657675743103027,4.592504024505615,0.7619972229003906,0.8897914886474609,-0.008964675478637218,-1.3428175449371338,0.005149920005351305,-0.5869001150131226,0.25196459889411926,1.3782947063446045,0.004386968910694122,0.5342565178871155,-0.1958876997232437,-0.6048294901847839,0.02040894143283367,0.07534141838550568,0.7951858043670654,-0.1518671214580536,-0.003300252603366971,-0.9134432077407837,0.11387044936418533,0.11692225188016891,1.0656518936157227,-0.3419593870639801,0.008283664472401142,-2.1083757877349854,-0.12748654186725616,0.24152982234954834,-0.041248492896556854,-0.011463227681815624,0.8051817417144775,0.7120205760002136,0.21798434853553772,0.00586570193991065,-1.4251813888549805,-0.31793051958084106,-0.22459261119365692,-0.4216024577617645,-0.8346566557884216,3.0952930450439453,-0.6715376973152161,-0.1768074780702591,-0.15333855152130127,-0.5928207039833069,0.09183219075202942,-5.637992858886719,2.320810079574585,-0.23441410064697266,1741422413.8228374,1741422414519,4.63407373046875,-0.012328502655029296,1.07332249385839,4.041400146484375,0.8949749145507813
1741422413.873716,0.30704593658447266,0.06903634911562857,-0.030381783073991475,-0.9971514076397977,-0.360477089881897,-0.48465386033058167,0.9483651518821716,-0.40562283992767334,-3.3244640827178955,6.890242099761963,0.5926218032836914,0.8932247161865234,0.0020981156267225742,-1.3428175449371338,0.005149920005351305,-0.5659189820289612,0.2630273997783661,1.3832539319992065,0.004386968910694122,0.5125123858451843,-0.1997024416923523,-0.6342030763626099,0.0013351644156500697,0.06237125024199486,0.8669031858444214,-0.1587338000535965,-0.005257415119558573,-0.8730067610740662,0.09250781685113907,0.1192111074924469,0.9115357995033264,-0.28853991627693176,0.002162016462534666,-5.0506911277771,0.11834175884723663,0.5810197591781616,-0.005091751925647259,-0.005747424438595772,0.9896605610847473,0.6609972715377808,0.2938425838947296,-0.006859997287392616,-1.407860279083252,-0.05910881981253624,-1.5598808526992798,-1.2327601909637451,-0.35086387395858765,3.6876790523529053,-0.30626440048217773,-0.023797649890184402,2.3839168548583984,-1.1445525884628296,0.05335676670074463,-8.15485668182373,2.6390042304992676,-0.07497542351484299,1741422413.8228374,1741422414519,4.63407373046875,-0.012328502655029296,1.07332249385839,4.041400146484375,0.8949749145507813
1741422413.893741,0.3296915888786316,0.060155239801879354,-0.02758346948563815,-0.9978078469001499,-0.11820686608552933,-0.3392722010612488,1.0292079448699951,2.702821969985962,-5.539370536804199,0.6086893677711487,0.5540933609008789,0.8962764739990234,0.024986648932099342,-1.3428175449371338,0.005149920005351305,-0.5483710765838623,0.26684215664863586,1.384398341178894,0.004386968910694122,0.499542236328125,-0.19398032128810883,-0.656710147857666,-0.02689402550458908,0.07305257022380829,0.9439612627029419,-0.1580626368522644,-0.00048005941789597273,-0.8039597272872925,0.05741206929087639,0.12226291000843048,0.7219424843788147,-0.2354685664176941,-0.001026855199597776,-1.2975825071334839,0.06164275109767914,1.2876648902893066,-0.018170440569519997,0.001035243389196694,0.8485460877418518,0.1827111542224884,0.05752280727028847,0.01443292386829853,-0.7864934802055359,0.19715963304042816,-1.254113793373108,-1.0971081256866455,0.6385117769241333,3.539128303527832,0.09390144050121307,0.29204124212265015,3.461880683898926,-1.947270154953003,0.3626348376274109,-9.484439849853516,2.5352683067321777,-0.19562971591949463,1741422413.9339738,1741422414619,4.72369091796875,-0.0023591244220733643,0.9744641871637554,3.8693154296875,1.019078369140625
1741422413.913715,0.35326653718948364,0.053595131388948926,-0.03981940908663073,-0.997768498476171,0.6442111134529114,-0.2748751640319824,1.2055305242538452,-4.186315059661865,3.392139434814453,27.08167266845703,0.6464099884033203,0.9054317474365234,0.05970092490315437,-1.3435804843902588,0.005149920005351305,-0.5312047004699707,0.26798656582832336,1.3817280530929565,0.004005493130534887,0.49267566204071045,-0.19398032128810883,-0.6612878441810608,-0.023460745811462402,0.086785688996315,0.9889753460884094,-0.15592710673809052,0.007540533319115639,-0.7703898549079895,0.02040894143283367,0.12111848592758179,0.6319142580032349,-0.1588621884584427,0.023752188310027122,2.4976439476013184,0.27462756633758545,1.741748332977295,-0.08663158863782883,0.0013369475491344929,0.8609321713447571,0.10902432352304459,-0.27131137251853943,-0.006560292094945908,-0.5009376406669617,-0.022861631587147713,0.04310331121087074,0.552821695804596,0.6940311789512634,1.8628675937652588,0.05086411535739899,0.37612879276275635,1.2744954824447632,-1.4279838800430298,-0.30648601055145264,-2.0934085845947266,4.291778087615967,1.3565071821212769,1741422413.9339738,1741422414619,4.72369091796875,-0.0023591244220733643,0.9744641871637554,3.8693154296875,1.019078369140625
1741422413.93376,0.3743966221809387,0.05597293145728121,-0.05117565497531471,-0.9971198941360693,0.46993905305862427,0.35675373673439026,1.0311555862426758,15.990403175354004,6.62686014175415,12.69154167175293,0.7352943420410156,0.9077215194702148,0.09784847497940063,-1.3500655889511108,0.005149920005351305,-0.5170900821685791,0.2626459002494812,1.374098539352417,0.004005493130534887,0.4854276478290558,-0.2145799994468689,-0.6349660754203796,-0.022697795182466507,0.12111848592758179,0.9855420589447021,-0.1635216623544693,0.010537493042647839,-0.7578011751174927,0.010490577667951584,0.12912946939468384,0.6799801588058472,-0.08298241347074509,0.026391327381134033,2.661090612411499,0.015418782830238342,1.9907742738723755,-0.4182654917240143,-0.003111149650067091,0.6335036754608154,-0.48199036717414856,-0.5691937208175659,-0.0007336163544096053,-0.3817041218280792,-1.1959103345870972,1.4749685525894165,-0.4950542449951172,1.8987709283828735,-0.28007638454437256,-0.3992471992969513,0.02463497780263424,0.4003571569919586,-0.9360132813453674,0.7696210145950317,2.2202372550964355,3.309133768081665,-0.4643605649471283,1741422413.9339738,1741422414619,4.72369091796875,-0.0023591244220733643,0.9744641871637554,3.8693154296875,1.019078369140625
1741422413.9537144,0.39863210916519165,0.05445132555840249,-0.06967409077961596,-0.9960826141535484,0.9465165138244629,-0.026526421308517456,1.3418346643447876,-2.0365500450134277,1.6080352067947388,5.317974090576172,0.7772560119628906,0.9206914901733398,0.13828489184379578,-1.358839511871338,0.005149920005351305,-0.5094605684280396,0.248531311750412,1.3630356788635254,0.004005493130534887,0.4888609051704407,-0.2286945879459381,-0.6109330654144287,-0.0551232174038887,0.14858472347259521,0.9763866662979126,-0.1814923733472824,0.007436662446707487,-0.7448310256004333,-0.03185320645570755,0.1516365259885788,0.6921873688697815,-0.03892875835299492,-0.002319417195394635,1.3161362409591675,0.30930009484291077,1.9950224161148071,-0.6183276176452637,0.003538743359968066,0.309043288230896,-0.9537318348884583,-0.7418255805969238,-0.005149430129677057,0.36238235235214233,-0.2764061987400055,1.1925523281097412,-1.4232401847839355,1.274316668510437,-0.17732250690460205,-1.0658220052719116,0.0069092679768800735,1.0234217643737793,-2.211653709411621,0.9023784399032593,0.32632583379745483,2.1248316764831543,-1.1052839756011963,1741422413.9339738,1741422414619,4.72369091796875,-0.0023591244220733643,0.9744641871637554,3.8693154296875,1.019078369140625
1741422413.973738,0.43266957998275757,0.05153260784005163,-0.09936174344469698,-0.9937160732668228,1.44920015335083,-0.03687896952033043,1.7951939105987549,-0.6168823838233948,4.912827491760254,19.056135177612305,0.816929817199707,0.9279394149780273,0.17223620414733887,-1.3687578439712524,0.005149920005351305,-0.5094605684280396,0.23212787508964539,1.3512099981307983,0.0036240178160369396,0.501068115234375,-0.22602425515651703,-0.6052109599113464,-0.06504157930612564,0.16918440163135529,0.995841920375824,-0.21387681365013123,0.012278847396373749,-0.7295719981193542,-0.06160829961299896,0.1493476778268814,0.689517080783844,-0.00433544535189867,0.017298826947808266,1.181161642074585,0.21889011561870575,1.6629056930541992,-0.6703904271125793,-5.509547554538585e-05,-0.012971270829439163,-1.027984380722046,-0.7884554266929626,0.017418505623936653,0.8561568856239319,-0.020891893655061722,0.07267097383737564,0.09134924411773682,1.0285145044326782,1.0901204347610474,-1.8035188913345337,0.25538963079452515,0.07537560164928436,-1.1006319522857666,-0.21528011560440063,0.09549813717603683,1.4822410345077515,1.5465080738067627,1741422413.9339738,1741422414619,4.72369091796875,-0.0023591244220733643,0.9744641871637554,3.8693154296875,1.019078369140625
1741422413.9937782,0.4699903726577759,0.05363965897098056,-0.1184522975464267,-0.9915098790185853,0.7288059592247009,0.5111724138259888,1.8050885200500488,-0.8025404214859009,4.335399150848389,10.314876556396484,0.826085090637207,0.9084844589233398,0.19207294285297394,-1.374098539352417,0.00476844422519207,-0.5144197940826416,0.21725031733512878,1.3386212587356567,0.004005493130534887,0.5106050372123718,-0.22602425515651703,-0.6219958662986755,-0.04406042397022247,0.20809490978717804,1.029411792755127,-0.2684897482395172,0.011015059426426888,-0.7417792081832886,-0.09136339277029037,0.1520180106163025,0.7272831201553345,0.0002019893581746146,0.03994068503379822,0.37353643774986267,-0.5136950016021729,0.8679587244987488,-0.22934937477111816,-0.019069669768214226,-0.3356205224990845,-1.041885495185852,-0.7827044725418091,-0.0014271530089899898,0.635231614112854,0.22028683125972748,-1.0354015827178955,0.8749809265136719,2.19328236579895,1.806019902229309,-2.9104835987091064,-0.05261402577161789,-0.35738593339920044,-1.5701769590377808,0.10927806794643402,1.8288778066635132,0.06537385284900665,0.5812473893165588,1741422414.0368185,1741422414719,4.78426611328125,0.012073041915893555,0.9673467325674228,3.700447998046875,1.14075439453125
1741422414.0137641,0.49072834849357605,0.06169141372257102,-0.12189792962689071,-0.9906235734251373,0.0513848215341568,0.49840837717056274,1.0078656673431396,-3.452173948287964,4.396327495574951,8.931626319885254,0.8432512283325195,0.8947505950927734,0.20084688067436218,-1.372191071510315,0.005149920005351305,-0.5273899435997009,0.1848248988389969,1.3317546844482422,0.004386968910694122,0.5212863087654114,-0.19130998849868774,-0.6654840707778931,-0.04940108209848404,0.23861294984817505,1.0751888751983643,-0.3352099657058716,0.0060893758200109005,-0.7352941036224365,-0.09479667246341705,0.13027389347553253,0.7375829815864563,-0.002936094533652067,0.03114544413983822,0.42761579155921936,-0.4026995897293091,0.36642178893089294,0.16253551840782166,-0.00011015631025657058,-0.631830096244812,-2.5247087478637695,-0.38300198316574097,0.015366770327091217,0.7565551400184631,1.9995208978652954,-2.192082166671753,-0.37243741750717163,1.1376537084579468,2.280590772628784,-3.3311376571655273,-0.3347609341144562,0.442792147397995,-0.05549866333603859,-1.3867090940475464,0.11968608945608139,-0.14067842066287994,-0.2763882577419281,1741422414.0368185,1741422414719,4.78426611328125,0.012073041915893555,0.9673467325674228,3.700447998046875,1.14075439453125
1741422414.033816,0.498263955116272,0.07071309895128773,-0.11606710594260884,-0.9907209922853218,-0.3716243505477905,0.4346795678138733,0.3494427800178528,-3.652320384979248,1.8872216939926147,10.934089660644531,0.8669033050537109,0.8802547454833984,0.20923933386802673,-1.372191071510315,0.005149920005351305,-0.5380712747573853,0.14019227027893066,1.3252695798873901,0.004005493130534887,0.5399786233901978,-0.13752193748950958,-0.7078278660774231,-0.04177157208323479,0.23861294984817505,1.114862322807312,-0.3973211348056793,-0.001220074133016169,-0.7188906669616699,-0.1325627565383911,0.09517814964056015,0.7227054238319397,-0.005184915382415056,0.027211947366595268,0.6789636611938477,-0.42831432819366455,0.5627438426017761,-0.024922853335738182,-0.004315133672207594,-0.4184842109680176,-2.897273302078247,-0.556287944316864,-0.017996061593294144,1.2917468547821045,2.611109733581543,-2.0032644271850586,0.479076623916626,-0.2167271226644516,1.8499935865402222,-2.9965388774871826,-0.6022719740867615,1.0757638216018677,-2.5653176307678223,-1.380731225013733,-0.5263130068778992,-0.12458755075931549,-0.1926574409008026,1741422414.0368185,1741422414719,4.78426611328125,0.012073041915893555,0.9673467325674228,3.700447998046875,1.14075439453125
1741422414.0538301,0.5101131796836853,0.07771806049519454,-0.1051217570932934,-0.9914178328325973,-0.6092275381088257,0.36601176857948303,0.5732720494270325,-3.556478977203369,2.9249393939971924,7.753327369689941,0.8741512298583984,0.8710994720458984,0.22640573978424072,-1.370665192604065,0.005149920005351305,-0.5422675013542175,0.10852979123592377,1.3161141872406006,0.0036240178160369396,0.5556191205978394,-0.1028076633810997,-0.7310978770256042,-0.038719769567251205,0.22640573978424072,1.1316472291946411,-0.4395134150981903,-0.0036305433604866266,-0.6929503083229065,-0.16918440163135529,0.07343403995037079,0.7188906669616699,-0.010934502817690372,0.030209435150027275,0.26283615827560425,-0.3062293529510498,0.731511116027832,0.2016979604959488,-0.00985068641602993,-0.2134668231010437,-1.8630725145339966,-0.5475072860717773,-0.00790907721966505,0.9491204023361206,1.6830488443374634,-0.9546735286712646,0.07874786853790283,-0.4667518436908722,0.5260491967201233,-1.9487444162368774,-0.11179779469966888,1.1671329736709595,-1.0599713325500488,-1.1451098918914795,-0.3319244384765625,-0.3222190737724304,0.2975771725177765,1741422414.0368185,1741422414719,4.78426611328125,0.012073041915893555,0.9673467325674228,3.700447998046875,1.14075439453125
1741422414.0738676,0.5294304490089417,0.08026235583465068,-0.09721143625392609,-0.9920221221814164,-0.47246092557907104,0.18849800527095795,0.9812794923782349,1.7275768518447876,3.5268585681915283,5.695623397827148,0.8825435638427734,0.8859767913818359,0.22755016386508942,-1.367613434791565,0.005149920005351305,-0.5422675013542175,0.09327077120542526,1.3115365505218506,0.0036240178160369396,0.5663004517555237,-0.08068207651376724,-0.7406347990036011,-0.03337911143898964,0.2149614691734314,1.11142897605896,-0.4528208076953888,-0.0065903873182833195,-0.6635767221450806,-0.17910276353359222,0.06961929053068161,0.7085908055305481,-0.01610425114631653,0.035409875214099884,0.2658132016658783,0.34659045934677124,-0.08022908866405487,0.05987507477402687,-0.008263720199465752,0.04284941405057907,-0.9054239392280579,-0.35832446813583374,-0.0014828842831775546,0.6595932245254517,0.7948582172393799,-0.4934370815753937,0.4337945282459259,-0.5912178158760071,-1.3079524040222168,-0.4156552851200104,-0.1973346769809723,1.5370243787765503,-0.8617732524871826,0.01199261099100113,-0.40533706545829773,-0.20564356446266174,0.13134051859378815,1741422414.0368185,1741422414719,4.78426611328125,0.012073041915893555,0.9673467325674228,3.700447998046875,1.14075439453125
1741422414.0938504,0.5555303394794464,0.0752666993736568,-0.09193451318994342,-0.9929163959014494,-0.3508172929286957,-0.18197840452194214,1.3259412050247192,-2.4108588695526123,0.8603987097740173,6.559215545654297,0.8882656097412109,0.8966579437255859,0.21763180196285248,-1.36837637424469,0.005149920005351305,-0.54112309217453,0.09365224838256836,1.306958794593811,0.0036240178160369396,0.570496678352356,-0.07953765243291855,-0.7379644513130188,-0.03452353551983833,0.22068360447883606,1.0629816055297852,-0.43893465399742126,-0.006770776119083166,-0.6338216066360474,-0.18520638346672058,0.08030059933662415,0.7024872303009033,-0.021261489018797874,0.03782716393470764,0.19521647691726685,0.3255099058151245,-0.5643497109413147,-0.04010554030537605,-0.009555850178003311,0.02215946465730667,0.15197712182998657,-0.2733767032623291,0.002859127940610051,0.1971585899591446,0.23466870188713074,0.3362402021884918,-0.027312837541103363,0.31092187762260437,-2.678107738494873,0.869499921798706,-0.029334111139178276,1.4198131561279297,-0.03795475512742996,0.569139838218689,-0.30584925413131714,-0.2532883286476135,0.1737649142742157,1741422414.128837,1741422414819,4.8215986328125,-0.026731847763061523,2.508427352133073,3.532163330078125,1.2612061767578124
1741422414.113906,0.5819017887115479,0.06755238075030152,-0.08900610582277939,-0.9937376862035727,-0.23120597004890442,-0.2640267610549927,1.172326922416687,0.9293575882911682,2.082653522491455,7.839159965515137,0.9046688079833984,0.8939876556396484,0.20275425910949707,-1.36837637424469,0.005149920005351305,-0.54264897108078,0.10090028494596481,1.305432915687561,0.0036240178160369396,0.570496678352356,-0.07724879682064056,-0.7063019871711731,-0.03337911143898964,0.21915769577026367,0.9863049983978271,-0.4027232229709625,-0.006965873762965202,-0.6147478222846985,-0.1832990050315857,0.09670405089855194,0.6979095339775085,-0.02771284431219101,0.040321413427591324,0.49226275086402893,-0.027692042291164398,-0.7423352003097534,-0.04766013100743294,-0.022295694798231125,-0.08390501141548157,0.394234836101532,-0.11022646725177765,-0.00017053452029358596,-0.03295651078224182,-0.1624823659658432,1.7592873573303223,-0.023315424099564552,-0.10353449732065201,-4.108516216278076,1.9519234895706177,0.0021254124585539103,0.8464105725288391,0.020718993619084358,0.6241902112960815,-0.07783302664756775,-0.38071972131729126,0.14941327273845673,1741422414.128837,1741422414819,4.8215986328125,-0.026731847763061523,2.508427352133073,3.532163330078125,1.2612061767578124
1741422414.133894,0.6076360046863556,0.05935021878303511,-0.08761650553793227,-0.9943846838561661,-0.18340593576431274,-0.2697022557258606,1.1880284547805786,-2.635258436203003,4.226261138916016,6.102099895477295,0.9195470809936523,0.8878841400146484,0.18825818598270416,-1.36837637424469,0.005149920005351305,-0.5422675013542175,0.10929274559020996,1.306195855140686,0.0036240178160369396,0.569733738899231,-0.07763027399778366,-0.655184268951416,-0.03833829239010811,0.2161058932542801,0.883306622505188,-0.35401973128318787,-0.00207712734118104,-0.6067368388175964,-0.1810101419687271,0.10471503436565399,0.7093538045883179,-0.04082798585295677,0.03699213266372681,0.45515716075897217,-0.1892615407705307,-0.7457439303398132,0.000805071322247386,-0.009183811023831367,0.012571973726153374,0.6432693600654602,0.047267891466617584,-0.0043678744696080685,-0.09535007923841476,0.14464877545833588,2.665855884552002,-0.3446445167064667,-0.21153216063976288,-5.394876003265381,2.398620367050171,0.2289983183145523,0.28277847170829773,0.1820235699415207,0.5162551403045654,0.6323099732398987,-0.7389600276947021,-0.20107489824295044,1741422414.128837,1741422414819,4.8215986328125,-0.026731847763061523,2.508427352133073,3.532163330078125,1.2612061767578124
1741422414.1539552,0.6177220940589905,0.05235295149511693,-0.0833476003019896,-0.9951443844958627,-0.221427783370018,-0.331737220287323,0.4518556594848633,-0.4593920111656189,1.8566447496414185,6.2317094802856445,0.9359502792358398,0.8840694427490234,0.17833982408046722,-1.367613434791565,0.005149920005351305,-0.5430304408073425,0.11425192654132843,1.3088661432266235,0.0036240178160369396,0.5670633912086487,-0.06809338182210922,-0.6040665507316589,-0.057793546468019485,0.20923933386802673,0.763523280620575,-0.30119431018829346,0.004112765192985535,-0.6059738993644714,-0.17223620414733887,0.10929274559020996,0.726901650428772,-0.06490291655063629,0.030136121436953545,0.4582568109035492,-0.0936400443315506,-0.43416303396224976,0.09382222592830658,0.0009845588356256485,-0.022132689133286476,0.252331018447876,0.2239239662885666,0.00943825114518404,-0.11450955271720886,0.4551771581172943,2.4850802421569824,-1.088743805885315,-0.2773776650428772,-6.163695812225342,2.6437935829162598,0.32699117064476013,0.11252795159816742,0.5569813847541809,0.12617865204811096,0.9442458152770996,-1.2988134622573853,-0.4070916175842285,1741422414.128837,1741422414819,4.8215986328125,-0.026731847763061523,2.508427352133073,3.532163330078125,1.2612061767578124
1741422414.1739342,0.6206305623054504,0.04883306654728657,-0.07692808771394449,-0.9958400478652503,-0.35202649235725403,-0.13640102744102478,0.13054004311561584,-2.248591184616089,2.000180959701538,5.383920192718506,0.9489202499389648,0.8726253509521484,0.17566949129104614,-1.3672319650650024,0.005149920005351305,-0.5422675013542175,0.11654078215360641,1.3145883083343506,0.0036240178160369396,0.5651560425758362,-0.059319447726011276,-0.5617227554321289,-0.06809338182210922,0.1989395022392273,0.6418325901031494,-0.2517332136631012,0.0017585461027920246,-0.6029220819473267,-0.16041046380996704,0.10624094307422638,0.7566567659378052,-0.09839081019163132,0.022725090384483337,0.3895459473133087,-0.336873859167099,-0.09461481869220734,0.025896551087498665,-0.011338208802044392,0.03544185683131218,0.195822075009346,0.3973132371902466,-0.006779986899346113,-0.17256227135658264,0.38847672939300537,1.980780839920044,-0.29441455006599426,-0.5750590562820435,-5.996749401092529,2.3596248626708984,-0.0698656216263771,0.09564738720655441,0.616016149520874,-0.17507262527942657,1.609230637550354,-1.7536770105361938,-0.2627052962779999,1741422414.128837,1741422414819,4.8215986328125,-0.026731847763061523,2.508427352133073,3.532163330078125,1.2612061767578124
1741422414.1939764,0.6215530633926392,0.04949435056732936,-0.06715796644752557,-0.9965139822423724,-0.5331143736839294,0.059725455939769745,0.03007545694708824,0.39496153593063354,-19.177410125732422,21.2119140625,0.9546422958374023,0.8642330169677734,0.17605096101760864,-1.36685049533844,0.005149920005351305,-0.54264897108078,0.12149996310472488,1.3195475339889526,0.0036240178160369396,0.5621042251586914,-0.06504157930612564,-0.54417484998703,-0.059319447726011276,0.18635080754756927,0.5567635893821716,-0.20478521287441254,0.013575520366430283,-0.612077534198761,-0.14515145123004913,0.09937438368797302,0.7944228053092957,-0.13970333337783813,0.02290007844567299,0.17076626420021057,-0.2506067156791687,0.018278995528817177,0.05625735595822334,-0.013597394339740276,-0.028348689898848534,0.3132944405078888,0.29967358708381653,0.0035886773839592934,-0.21149955689907074,-0.40277931094169617,0.5681357979774475,0.48166289925575256,-0.44608402252197266,-3.333869695663452,2.4715182781219482,1.0341732501983643,-0.5792719125747681,0.6352904438972473,-0.4127478003501892,1.8476104736328125,-2.140871047973633,0.04285223409533501,1741422414.128837,1741422414819,4.8215986328125,-0.026731847763061523,2.508427352133073,3.532163330078125,1.2612061767578124
1741422414.213965,0.6266507804393768,0.052980453909674555,-0.057030376405817415,-0.996965700348079,-0.4059997797012329,0.28642863035202026,0.23738452792167664,4.781376838684082,2.5182313919067383,13.007760047912598,0.9538793563842773,0.8699550628662109,0.17376211285591125,-1.366087555885315,0.005149920005351305,-0.5407415628433228,0.12760357558727264,1.3229807615280151,0.0036240178160369396,0.5582894682884216,-0.08030059933662415,-0.5537117719650269,-0.05703059583902359,0.182917520403862,0.571259617805481,-0.1494959145784378,0.05114150792360306,-0.619325578212738,-0.14553292095661163,0.09746700525283813,0.8237964510917664,-0.1840311586856842,0.024790573865175247,-0.01145092211663723,0.14232701063156128,-0.1873379945755005,0.009951584972441196,-0.0070497021079063416,0.0713077187538147,0.4324674904346466,0.22396530210971832,0.00571596110239625,-0.2440224438905716,-0.6309381723403931,-0.6862457394599915,0.04027841240167618,-0.3538993299007416,1.0446432828903198,2.6702001094818115,1.6551940441131592,-0.19364750385284424,0.20541420578956604,-0.14471301436424255,1.2704201936721802,-2.1709773540496826,0.04125170782208443,1741422414.128837,1741422414819,4.8215986328125,-0.026731847763061523,2.508427352133073,3.532163330078125,1.2612061767578124
1741422414.234034,0.6396915316581726,0.055884880697260046,-0.053746546973827275,-0.9969895630335572,-0.25243672728538513,0.1433914303779602,0.626893162727356,-11.8266019821167,-6.890819072723389,15.826940536499023,0.9561681747436523,0.8905544281005859,0.16117341816425323,-1.36990225315094,0.005149920005351305,-0.5430304408073425,0.13828489184379578,1.3264141082763672,0.0036240178160369396,0.5563820600509644,-0.09288929402828217,-0.5651560425758362,-0.042153049260377884,0.15697719156742096,0.5960555672645569,-0.11440055817365646,0.04507617652416229,-0.6235218048095703,-0.12836651504039764,0.09670405089855194,0.840962827205658,-0.22151178121566772,0.007430558558553457,0.02795412763953209,0.5390599966049194,-0.5942147374153137,-0.15340816974639893,-0.005834391340613365,-0.13992424309253693,0.7415435910224915,0.19620759785175323,0.007785601541399956,-0.15943185985088348,-0.7112278938293457,-0.19100795686244965,1.1240314245224,-1.5667438507080078,1.0430166721343994,1.4957243204116821,-0.5879297256469727,-0.35801589488983154,0.7513022422790527,0.18216915428638458,0.9586800932884216,-1.9136685132980347,-1.1446757316589355,1741422414.128837,1741422414819,4.8215986328125,-0.026731847763061523,2.508427352133073,3.532163330078125,1.2612061767578124
1741422414.2540262,0.659084290266037,0.059421919336501074,-0.046092671095611215,-0.9971682411577488,-0.46249276399612427,0.1374311000108719,0.9799915552139282,-6.3717803955078125,4.443183898925781,13.132415771484375,0.9538793563842773,0.9008541107177734,0.1489662081003189,-1.3653244972229004,0.005149920005351305,-0.5460822582244873,0.14858472347259521,1.3302288055419922,0.0036240178160369396,0.5521858334541321,-0.10814831405878067,-0.5670633912086487,-0.039101243019104004,0.1359960287809372,0.6052109599113464,-0.10771862417459488,0.038604751229286194,-0.655184268951416,-0.11043716967105865,0.11501488089561462,0.8813992738723755,-0.2636280655860901,-0.014346156269311905,-0.07162187248468399,0.37673839926719666,-0.6452715396881104,0.337810218334198,-0.0038489392027258873,-0.16647973656654358,0.676207423210144,0.39003780484199524,0.01705588400363922,-0.2877238988876343,-0.6535592079162598,-0.24237020313739777,0.06867033988237381,-0.8420155644416809,0.287872314453125,0.1966015249490738,-0.10816218703985214,-1.744566559791565,1.0667482614517212,0.8680294752120972,2.344268798828125,-2.2009012699127197,-0.9158108234405518,1741422414.128837,1741422414819,4.8215986328125,-0.026731847763061523,2.508427352133073,3.532163330078125,1.2612061767578124
1741422414.2742307,0.6772430837154388,0.06174797108199835,-0.04154411001054645,-0.997226792154467,-0.264913946390152,0.18448422849178314,0.8822867274284363,-4.126564979553223,-0.9268895387649536,8.580134391784668,0.9596014022827148,0.9111547470092773,0.13790340721607208,-1.3615097999572754,0.005149920005351305,-0.5464637279510498,0.152399480342865,1.3515914678573608,0.005149920005351305,0.5483710765838623,-0.11654078215360641,-0.568970799446106,-0.03299763426184654,0.12264438718557358,0.6048294901847839,-0.10314230620861053,0.03792903572320938,-0.6948577165603638,-0.0722896158695221,0.12302586436271667,0.9699015617370605,-0.31642743945121765,-0.007321747951209545,0.1576429009437561,0.2888282239437103,-0.43737342953681946,0.24836568534374237,-0.012453515082597733,-0.008602207526564598,0.1865442544221878,1.4993045330047607,0.07805083692073822,-0.26131361722946167,-0.3633235692977905,-0.05668143182992935,0.3084612488746643,-0.6212213039398193,-0.0053306203335523605,0.3376815915107727,-0.08899200707674026,-2.17281174659729,1.9638440608978271,0.2054743617773056,4.843739032745361,-2.7713165283203125,0.6636035442352295,1741422414.128837,1741422414819,4.8215986328125,-0.026731847763061523,2.508427352133073,3.532163330078125,1.2612061767578124
1741422414.2961955,0.692024365067482,0.06358701168559334,-0.03549357790414514,-0.9973449242225373,-0.37201446294784546,0.07356540858745575,0.7065752744674683,-2.1749463081359863,-2.766256332397461,8.565997123718262,0.9664678573608398,0.9107732772827148,0.1367589831352234,-1.3557876348495483,0.005149920005351305,-0.5460822582244873,0.152399480342865,1.3710466623306274,0.00476844422519207,0.5468451976776123,-0.11577782779932022,-0.5754558444023132,-0.024986648932099342,0.11120012402534485,0.6021591424942017,-0.0873546451330185,0.02766929566860199,-0.7536049485206604,-0.037193864583969116,0.11310750246047974,1.0866330862045288,-0.3734213709831238,0.005263176281005144,0.18836112320423126,0.03662274405360222,-0.015801412984728813,0.42027926445007324,0.00971674919128418,0.0022890442050993443,0.007148809731006622,1.1516120433807373,-0.011757914908230305,-0.14575614035129547,0.1182904914021492,-0.4278656542301178,0.3962896764278412,-0.601202666759491,-0.0950436219573021,0.803428053855896,-0.43772774934768677,-2.9686031341552734,1.6308180093765259,-0.5768407583236694,5.836191177368164,-2.7628469467163086,0.27204805612564087,1741422414.128837,1741422414819,4.8215986328125,-0.026731847763061523,2.508427352133073,3.532163330078125,1.2612061767578124
1741422414.3142872,0.7035011947154999,0.06409826105922953,-0.027694958971289596,-0.9975592223907118,-0.4240870177745819,0.03774745389819145,0.505837082862854,-2.1069140434265137,-1.607343077659607,7.659021854400635,0.9668493270874023,0.9081029891967773,0.14095520973205566,-1.3485395908355713,0.005149920005351305,-0.5457007884979248,0.1516365259885788,1.383635401725769,0.00476844422519207,0.5449378490447998,-0.10967422276735306,-0.5861371755599976,-0.01773861236870289,0.09555962681770325,0.6082627773284912,-0.07110337167978287,0.02249748632311821,-0.8119707107543945,-0.010109102353453636,0.09250781685113907,1.187342643737793,-0.4162052869796753,0.002950651803985238,0.007875556126236916,-0.0402497872710228,0.27563250064849854,0.4295356273651123,-0.005205163732171059,0.03496966138482094,-0.06743233650922775,0.795806348323822,0.010332190431654453,-0.09192770719528198,0.30771884322166443,-0.5479552745819092,0.3772238492965698,-0.7833277583122253,0.3428800106048584,0.7657942771911621,-0.24758358299732208,-2.7924439907073975,1.3771885633468628,-1.0580512285232544,4.710358619689941,-1.934527039527893,-0.19118966162204742,1741422414.128837,1741422414819,4.8215986328125,-0.026731847763061523,2.508427352133073,3.532163330078125,1.2612061767578124
1741422414.334294,0.7135461717844009,0.061524848899508704,-0.019920207118667255,-0.9979067483067954,-0.4226195812225342,-0.16240505874156952,0.5029408931732178,-2.9233076572418213,-1.714660882949829,7.625652313232422,0.9668493270874023,0.9096288681030273,0.1497291475534439,-1.3428175449371338,0.005149920005351305,-0.5445563197135925,0.1497291475534439,1.3905019760131836,0.00476844422519207,0.5449378490447998,-0.10738536715507507,-0.5987258553504944,-0.008964675478637218,0.08144503086805344,0.6189440488815308,-0.0630781501531601,0.018193870782852173,-0.8478294014930725,0.02536812424659729,0.06694895774126053,1.2373158931732178,-0.42954587936401367,0.009918571449816227,-0.020521385595202446,0.07303064316511154,0.4114043116569519,0.3701271116733551,-0.0021869458723813295,0.04956081137061119,-0.07628129422664642,0.37246090173721313,0.003845261875540018,0.0007740898872725666,0.05160289257764816,-0.6542578935623169,0.4507116675376892,-0.6324678659439087,0.49661529064178467,0.2948794960975647,-0.22345657646656036,-1.4150561094284058,1.8798784017562866,-1.1498520374298096,1.9793940782546997,-0.41166162490844727,0.4562295973300934,1741422414.128837,1741422414819,4.8215986328125,-0.026731847763061523,2.508427352133073,3.532163330078125,1.2612061767578124
1741422414.3543355,0.7268383502960205,0.057593012327480916,-0.011602838932497696,-0.9982727177779391,-0.47354212403297424,-0.20216375589370728,0.6539378762245178,-1.8362387418746948,-1.1792562007904053,8.194324493408203,0.9649419784545898,0.9058132171630859,0.15926603972911835,-1.3397656679153442,0.005149920005351305,-0.5437933802604675,0.1504921019077301,1.390883445739746,0.00476844422519207,0.5453193187713623,-0.11539635062217712,-0.6078813076019287,0.00476844422519207,0.07457847148180008,0.6296253800392151,-0.0664633959531784,0.014665511436760426,-0.8516441583633423,0.05855649709701538,0.06198977679014206,1.2182421684265137,-0.41489696502685547,0.008575604297220707,-0.0661865770816803,-0.09253344684839249,0.4923712909221649,0.15025024116039276,-0.008243945427238941,0.022508207708597183,0.05394402891397476,-0.002462523989379406,0.004600797314196825,-0.014578082598745823,-0.4682312607765198,-0.45361581444740295,0.6724193096160889,-0.2666238248348236,0.571422278881073,-0.2618092894554138,-0.16700808703899384,0.12320472300052643,1.6717491149902344,-0.09486888349056244,-1.527280330657959,0.9071117043495178,-0.1536858081817627,1741422414.128837,1741422414819,4.8215986328125,-0.026731847763061523,2.508427352133073,3.532163330078125,1.2612061767578124
1741422414.3743322,0.7466548085212708,0.053070847389429486,-0.0015488310051109927,-0.9985895484531597,-0.5039782524108887,-0.20875337719917297,0.8869355916976929,0.14664404094219208,0.3650381565093994,7.282500267028809,0.9657049179077148,0.9004726409912109,0.1676585078239441,-1.3405286073684692,0.005149920005351305,-0.543411910533905,0.1516365259885788,1.3885945081710815,0.00476844422519207,0.5453193187713623,-0.12760357558727264,-0.6155108213424683,0.016212711110711098,0.0707637146115303,0.6452658772468567,-0.08134280145168304,0.012486731633543968,-0.8268482685089111,0.08945601433515549,0.0715266615152359,1.1327916383743286,-0.3812137246131897,0.005405763164162636,0.009708762168884277,-0.14220023155212402,0.43971574306488037,-0.06589273363351822,-0.0050190589390695095,0.01900758221745491,0.08729643374681473,-0.2069448083639145,0.0006453164969570935,-0.012989926151931286,-0.6071469187736511,-0.4665195941925049,0.5535658597946167,-0.13816095888614655,0.8261314630508423,-0.848723292350769,-0.0970378890633583,1.4165114164352417,1.452394723892212,0.49594613909721375,-4.824512958526611,1.7654964923858643,-0.08120798319578171,1741422414.128837,1741422414819,4.8215986328125,-0.026731847763061523,2.508427352133073,3.532163330078125,1.2612061767578124
1741422414.394441,0.7665368467569351,0.04752969117646835,0.006906364004929675,-0.9988459493800338,-0.4643474221229553,-0.27961885929107666,0.9704515933990479,0.6981640458106995,0.6357679963111877,4.809023380279541,0.9672307968139648,0.8966579437255859,0.17643244564533234,-1.3412915468215942,0.005149920005351305,-0.543411910533905,0.15430685877799988,1.382109522819519,0.00476844422519207,0.5453193187713623,-0.1367589831352234,-0.6319142580032349,0.021553369238972664,0.0707637146115303,0.6715877056121826,-0.10736891627311707,0.01245357096195221,-0.7795453071594238,0.10967422276735306,0.08373387902975082,0.996604859828949,-0.3422052264213562,0.003689440665766597,0.03445432707667351,-0.12464181333780289,0.40225446224212646,-0.06913329660892487,-0.0034026671200990677,0.00044394575525075197,0.2086513489484787,-0.4542730748653412,0.003172864904627204,-0.005291368346661329,-0.386068195104599,-0.8929025530815125,0.13375870883464813,0.1105889156460762,1.415342092514038,-1.3445284366607666,0.04873529449105263,2.5096237659454346,0.9003387093544006,0.6007072329521179,-7.198362350463867,1.8890260457992554,-0.2372375875711441,1741422414.128837,1741422414819,4.8215986328125,-0.026731847763061523,2.508427352133073,3.532163330078125,1.2612061767578124
1741422414.4143662,0.7847976237535477,0.041424305522751656,0.012487350718450602,-0.9990636080770794,-0.27963998913764954,-0.3067481219768524,0.8749687075614929,-0.6735453009605408,3.4144511222839355,5.197617053985596,0.9740982055664062,0.8955135345458984,0.18558785319328308,-1.3416730165481567,0.005149920005351305,-0.54264897108078,0.15774014592170715,1.373335599899292,0.00476844422519207,0.5453193187713623,-0.13866636157035828,-0.6593804955482483,0.01773861236870289,0.07686731964349747,0.7097352743148804,-0.14042989909648895,0.01584489271044731,-0.7215610146522522,0.11425192654132843,0.08869306743144989,0.840962827205658,-0.3124293386936188,-0.0025102298241108656,0.18761202692985535,-0.04868818819522858,0.44518718123435974,-0.017263084650039673,-0.006984374485909939,0.047280292958021164,0.24978330731391907,-0.6292636394500732,-0.0012877632398158312,-0.005297072231769562,-0.07706163823604584,-1.5535577535629272,-0.23431885242462158,0.19471000134944916,1.9461196660995483,-1.7346872091293335,0.27517253160476685,2.8894641399383545,0.051357172429561615,0.18126548826694489,-7.821375846862793,1.3378068208694458,-0.41961413621902466,1741422414.128837,1741422414819,4.8215986328125,-0.026731847763061523,2.508427352133073,3.532163330078125,1.2612061767578124
1741422414.4348524,0.8013838157057762,0.03430207567525334,0.006193424639026072,-0.9993923199102593,0.43050843477249146,-0.40419986844062805,0.8471664190292358,-36.679805755615234,-7.687329292297363,30.029098510742188,0.9882125854492188,0.9172582626342773,0.19398032128810883,-1.3420546054840088,0.005149920005351305,-0.5392156839370728,0.16269932687282562,1.3630356788635254,0.00476844422519207,0.5453193187713623,-0.14019227027893066,-0.6971465349197388,0.01430533267557621,0.07610437273979187,0.7600900530815125,-0.17742487788200378,0.03252420574426651,-0.6849393248558044,0.10662241280078888,0.09174486994743347,0.7425421476364136,-0.2696007490158081,0.0019198688678443432,0.44909653067588806,0.5920950770378113,0.4290558099746704,-0.04554903879761696,-0.018737083300948143,0.22827786207199097,0.3437773883342743,-0.6966829895973206,-0.0023107235319912434,-0.00585806742310524,-0.07537952065467834,-1.7989881038665771,-0.1299189180135727,-0.06081148236989975,2.526304006576538,-1.7620164155960083,0.8059505820274353,1.2840125560760498,-0.12683328986167908,-0.046941474080085754,-2.892714738845825,2.5375211238861084,0.23147723078727722,1741422414.128837,1741422414819,4.8215986328125,-0.026731847763061523,2.508427352133073,3.532163330078125,1.2612061767578124
1741422414.4548712,0.8130263164639473,0.02896223850922046,0.005315923260198274,-0.9995663708330861,-0.07255344092845917,-0.2386114001274109,0.5196870565414429,14.171311378479004,3.759377956390381,1.3887908458709717,0.9821090698242188,0.9130620956420898,0.1993209719657898,-1.3489210605621338,0.005149920005351305,-0.5380712747573853,0.16193637251853943,1.3538802862167358,0.004386968910694122,0.5403600931167603,-0.15506981313228607,-0.7085908055305481,0.01430533267557621,0.09288929402828217,0.7810711860656738,-0.2160266786813736,0.040902648121118546,-0.697528064250946,0.09861142933368683,0.08869306743144989,0.7639048099517822,-0.22744357585906982,-0.004103957675397396,-0.12223798781633377,-0.02407165803015232,0.22445179522037506,-0.47035732865333557,-0.0054890988394618034,-0.0743798166513443,-0.08762109279632568,-0.6100353598594666,-0.011537653394043446,-0.30799400806427,-0.8312478065490723,-0.5969154238700867,-0.3604256510734558,1.224271297454834,0.6325390934944153,-2.107851266860962,0.19404228031635284,-0.7185820937156677,-1.0628490447998047,0.06714271754026413,0.6393998265266418,1.692743182182312,-0.43119338154792786,1741422414.128837,1741422414819,4.8215986328125,-0.026731847763061523,2.508427352133073,3.532163330078125,1.2612061767578124
1741422414.474872,0.8262737914919853,0.022294097185651326,0.0020696876407114663,-0.9997493133899852,0.2743629813194275,-0.21854755282402039,0.6538298726081848,-0.332999587059021,6.128782272338867,15.01358413696289,0.9821090698242188,0.9164953231811523,0.20199130475521088,-1.3565505743026733,0.005149920005351305,-0.5437933802604675,0.16346226632595062,1.3466322422027588,0.004386968910694122,0.5399786233901978,-0.1668955534696579,-0.7082093358039856,0.004386968910694122,0.10624094307422638,0.7875562906265259,-0.25587037205696106,0.0418044775724411,-0.6887540817260742,0.06275273114442825,0.09021896868944168,0.7478827834129333,-0.2160312384366989,-0.007301142904907465,-0.020920557901263237,0.08064012229442596,0.10739362239837646,-0.625943660736084,-0.01731579191982746,-0.20423980057239532,0.12051799148321152,-0.4875338673591614,-0.014281608164310455,0.014851968735456467,-0.4684470295906067,0.16035346686840057,-0.31530165672302246,0.43787699937820435,0.6843591928482056,-1.8768082857131958,0.12102601677179337,0.8351640105247498,-1.569589614868164,-0.25352877378463745,-0.8541672825813293,0.5981722474098206,0.15863670408725739,1741422414.128837,1741422414819,4.8215986328125,-0.026731847763061523,2.508427352133073,3.532163330078125,1.2612061767578124
1741422414.494932,0.8416498899459839,0.015659109481550013,-0.014865153103184153,-0.9997668825848672,0.8233749270439148,-0.411959171295166,0.7533074021339417,0.40449535846710205,-3.5086162090301514,10.641162872314453,0.9912643432617188,0.9294652938842773,0.20160982012748718,-1.37142813205719,0.005149920005351305,-0.5395971536636353,0.1646067053079605,1.3401471376419067,0.004005493130534887,0.5415045619010925,-0.17719538509845734,-0.7162203192710876,0.009346150793135166,0.12149996310472488,0.8134965896606445,-0.293148934841156,0.03191438317298889,-0.6799801588058472,0.0398641936480999,0.07877469807863235,0.7310978770256042,-0.19976623356342316,0.008888369426131248,0.2107658088207245,0.3518938720226288,-0.03810717165470123,-0.9134287238121033,-0.02279477007687092,0.145061194896698,0.07123067229986191,-0.435183584690094,0.0086539126932621,0.05558708682656288,-0.716268002986908,-0.5931913256645203,0.3175220787525177,0.9072251319885254,1.3278299570083618,-1.9268019199371338,-0.6114961504936218,0.056507229804992676,-1.2815955877304077,-0.2960783541202545,-0.8481345176696777,0.824321448802948,0.608591616153717,1741422414.128837,1741422414819,4.8215986328125,-0.026731847763061523,2.508427352133073,3.532163330078125,1.2612061767578124
1741422414.5149338,0.8671261258423328,0.006582637740820364,-0.029272314434902174,-0.9995497989034849,0.6982244849205017,-0.2994740605354309,1.325705647468567,-5.488863468170166,0.2845815420150757,7.617746829986572,0.9798202514648438,0.9111547470092773,0.200083926320076,-1.3760058879852295,0.005149920005351305,-0.5407415628433228,0.1661325991153717,1.3336620330810547,0.0036240178160369396,0.5415045619010925,-0.1974135935306549,-0.7265201807022095,0.01201647985726595,0.15812161564826965,0.8573662638664246,-0.33094945549964905,0.0006866706535220146,-0.6738765835762024,0.010490577667951584,0.07953765243291855,0.7257572412490845,-0.18045580387115479,0.005137484986335039,-0.3064255118370056,-0.4392174482345581,-0.08809350430965424,-0.25969916582107544,0.008609316311776638,-0.0790056586265564,0.14475585520267487,-0.3500887155532837,-0.028547585010528564,0.029719563201069832,-0.8954602479934692,-0.4488579332828522,0.1591726839542389,1.8442977666854858,2.421558380126953,-1.7647490501403809,-1.6567515134811401,0.6257402896881104,-1.3951958417892456,-0.056997694075107574,-0.18023191392421722,0.9700751900672913,-0.20392054319381714,1741422414.128837,1741422414819,4.8215986328125,-0.026731847763061523,2.508427352133073,3.532163330078125,1.2612061767578124
1741422414.5349422,0.8949447553604841,-0.001417752229630629,-0.040543880838606064,-0.999176752984756,0.5086855888366699,-0.4653884172439575,1.4178372621536255,-0.20447586476802826,-0.7941339015960693,9.709696769714355,0.9760055541992188,0.8581295013427734,0.19550621509552002,-1.379439115524292,0.005149920005351305,-0.5430304408073425,0.17185473442077637,1.3279399871826172,0.0036240178160369396,0.5407415628433228,-0.20580606162548065,-0.7558938264846802,0.023460745811462402,0.1962691694498062,0.9279392957687378,-0.34775975346565247,-0.010979486629366875,-0.6696802973747253,-0.009346150793135166,0.06542305648326874,0.7097352743148804,-0.16409800946712494,0.006172105669975281,-0.21228891611099243,-1.479357123374939,-0.29125872254371643,-0.12713077664375305,0.004629435017704964,-0.08901970088481903,0.40437835454940796,-0.39195966720581055,0.020541518926620483,-0.05443276837468147,-0.299580842256546,-1.790191650390625,0.6113957166671753,1.7749160528182983,3.8295819759368896,-0.62004554271698,-0.27304357290267944,-0.07083287835121155,-1.0261348485946655,-0.882972002029419,-0.9725179672241211,0.7675625681877136,0.05561041459441185,1741422414.128837,1741422414819,4.8215986328125,-0.026731847763061523,2.508427352133073,3.532163330078125,1.2612061767578124
1741422414.5599506,0.9228546702070162,-0.010513650267925825,-0.04302055740827162,-0.9990188660872853,0.04881853237748146,-0.3178774416446686,1.397783637046814,-0.07274225354194641,2.776743173599243,8.098841667175293,0.9737167358398438,0.7845048904418945,0.18711376190185547,-1.377150297164917,0.005149920005351305,-0.54264897108078,0.1817730963230133,1.3210734128952026,0.0032425422687083483,0.5399786233901978,-0.1966506391763687,-0.7921339869499207,0.03643091395497322,0.21648737788200378,1.0099564790725708,-0.3411095142364502,0.0012299241498112679,-0.6681544184684753,-0.030708782374858856,0.046730753034353256,0.7036316394805908,-0.15076015889644623,0.008836764842271805,-0.05955791845917702,-2.128201484680176,-0.44806739687919617,0.1760551929473877,-0.00893322192132473,-0.005006169434636831,0.6737706661224365,-0.3769189715385437,-0.04192114993929863,-0.11613834649324417,0.711898922920227,-1.656567931175232,0.6157695651054382,0.8750745058059692,4.109813690185547,0.4716532826423645,0.5314165949821472,0.3086874485015869,-1.1529666185379028,-0.867766261100769,-0.11167826503515244,0.6375377774238586,0.0675763264298439,1741422414.128837,1741422414819,4.8215986328125,-0.026731847763061523,2.508427352133073,3.532163330078125,1.2612061767578124
1741422414.574982,0.9482903126627207,-0.01579922639044293,-0.03970631112776832,-0.9990864793910927,-0.17082642018795013,-0.23672068119049072,1.202541470527649,1.5042328834533691,0.6251413226127625,12.604954719543457,0.9794387817382812,0.7063016891479492,0.17986571788787842,-1.37295401096344,0.005149920005351305,-0.5422675013542175,0.19283588230609894,1.3214548826217651,0.0036240178160369396,0.5388342142105103,-0.17719538509845734,-0.80357825756073,0.04177157208323479,0.21763180196285248,1.0782406330108643,-0.319185346364975,-0.00264258892275393,-0.6582360863685608,-0.04901960864663124,0.02880140393972397,0.6971465349197388,-0.14791978895664215,0.0103817880153656,0.1377800852060318,-2.274569034576416,-0.3160437345504761,0.25425300002098083,-0.004933220334351063,0.01653769053518772,0.7399349212646484,0.0497431643307209,0.023700935766100883,-0.07419998198747635,0.9086886644363403,-0.3705672323703766,0.0807127058506012,0.01601429283618927,3.1701126098632812,1.1272305250167847,-0.2675711512565613,0.20752522349357605,-0.8123462200164795,-1.163343071937561,-0.49165022373199463,0.03632691502571106,0.061540622264146805,1741422414.128837,1741422414819,4.8215986328125,-0.026731847763061523,2.508427352133073,3.532163330078125,1.2612061767578124
1741422414.5950227,0.965758316218853,-0.027193025038294634,-0.03417977847373168,-0.9990456857084932,-0.23332548141479492,-0.5637272596359253,0.8153079152107239,-0.9384065866470337,1.3610113859176636,8.924347877502441,0.9786758422851562,0.6509876251220703,0.17643244564533234,-1.37142813205719,0.005149920005351305,-0.54112309217453,0.1970321238040924,1.3241251707077026,0.0036240178160369396,0.5376898050308228,-0.15964750945568085,-0.8039597272872925,0.040627144277095795,0.2134355753660202,1.101892113685608,-0.29713886976242065,-0.002329143462702632,-0.6467918157577515,-0.06885633617639542,0.016212711110711098,0.6952391862869263,-0.1493934541940689,0.012171752750873566,-0.027112990617752075,-1.7198753356933594,-0.13186144828796387,0.0570925772190094,-0.009373359382152557,0.09774542599916458,0.16827011108398438,0.23055389523506165,0.001033616834320128,-0.033012159168720245,1.029983401298523,0.3991900086402893,-0.009152952581644058,-0.3527490198612213,0.7767823934555054,0.9874784350395203,0.10380374640226364,0.8585667610168457,-1.1632169485092163,-0.3167199492454529,0.06751523911952972,-0.11054489761590958,0.13833990693092346,1741422414.128837,1741422414819,4.8215986328125,-0.026731847763061523,2.508427352133073,3.532163330078125,1.2612061767578124
1741422414.6150124,0.971797589212656,-0.03795805052577666,-0.029621203679727,-0.9988402127932409,-0.19039681553840637,-0.5974035859107971,0.2703666687011719,3.0523650646209717,6.179222106933594,6.570809841156006,0.9832534790039062,0.6040668487548828,0.17719538509845734,-1.370665192604065,0.005149920005351305,-0.5422675013542175,0.19283588230609894,1.3264141082763672,0.0036240178160369396,0.5392156839370728,-0.14248111844062805,-0.7658121585845947,0.04253452271223068,0.20466163754463196,1.0854886770248413,-0.28760069608688354,0.00591768603771925,-0.6345845460891724,-0.09060044586658478,0.015449759550392628,0.6952391862869263,-0.1571919471025467,0.025624588131904602,0.1235828772187233,-1.4458463191986084,0.07346758991479874,0.0698259100317955,-0.0056946794502437115,-0.045473795384168625,-0.32171255350112915,0.07689989358186722,0.0023933725897222757,0.06786942481994629,0.7709620594978333,1.951930284500122,0.16132745146751404,-0.5187916159629822,-1.0890878438949585,0.3564509153366089,0.3695564568042755,0.4583515524864197,-1.1164741516113281,-0.06382709741592407,0.04258489981293678,-0.4124562740325928,0.6926490664482117,1741422414.128837,1741422414819,4.8215986328125,-0.026731847763061523,2.508427352133073,3.532163330078125,1.2612061767578124
1741422414.6350923,0.9757140390574932,-0.05160763580245599,-0.0311789517037418,-0.9981806073539682,0.12162841111421585,-0.5931911468505859,0.19211724400520325,0.37127307057380676,2.4918084144592285,5.99246072769165,0.9859237670898438,0.5785074234008789,0.1825360506772995,-1.37295401096344,0.005149920005351305,-0.54112309217453,0.18978407979011536,1.3264141082763672,0.0036240178160369396,0.5399786233901978,-0.14400701224803925,-0.7124055624008179,0.03643091395497322,0.19359883666038513,1.041237473487854,-0.29191192984580994,0.001992141827940941,-0.6292439103126526,-0.10433356463909149,0.016212711110711098,0.7036316394805908,-0.1707175225019455,0.035563331097364426,0.05906999856233597,-0.8983172178268433,0.2579050362110138,-0.23718790709972382,-0.01156365405768156,-0.01325436681509018,-0.17027147114276886,-0.004273515194654465,0.002490233164280653,0.0534195601940155,-0.18525061011314392,2.980402946472168,-0.2768050730228424,-0.5375716090202332,-2.3343818187713623,-0.3145042061805725,-0.2197827249765396,0.2592155635356903,-0.756891667842865,0.09809307754039764,0.5289973616600037,-0.764460563659668,0.48659923672676086,1741422414.128837,1741422414819,4.8215986328125,-0.026731847763061523,2.508427352133073,3.532163330078125,1.2612061767578124
1741422414.6550717,0.9797527268528938,-0.06113199052549766,-0.03507959010539659,-0.9975130586074689,0.22282883524894714,-0.4951537549495697,0.18877802789211273,-0.29416167736053467,0.2193579077720642,6.93704891204834,0.9927902221679688,0.5369272232055664,0.18711376190185547,-1.373335599899292,0.005149920005351305,-0.5415045619010925,0.18978407979011536,1.3264141082763672,0.0036240178160369396,0.5399786233901978,-0.1661325991153717,-0.6437399983406067,0.030708782374858856,0.182917520403862,0.9771496057510376,-0.3110806345939636,0.0019446824444457889,-0.6395437717437744,-0.11234454810619354,0.018501564860343933,0.7204165458679199,-0.18952712416648865,0.04847124218940735,0.15945245325565338,-1.2686418294906616,0.16500818729400635,-0.024750759825110435,-0.0011777457548305392,-0.02334687113761902,-0.0006327591254375875,-0.02089092880487442,5.859978045918979e-05,-0.024287717416882515,-1.2949399948120117,3.280534505844116,-0.29998254776000977,-0.4308907687664032,-3.381833076477051,-1.0637518167495728,0.15653660893440247,-0.7097700238227844,-0.29751646518707275,0.08125372976064682,0.9448316693305969,-0.9459415674209595,0.6858939528465271,1741422414.128837,1741422414819,4.8215986328125,-0.026731847763061523,2.508427352133073,3.532163330078125,1.2612061767578124
1741422414.6752975,0.985864482820034,-0.06661086795537673,-0.03785546113456949,-0.9970606583014499,0.12936648726463318,-0.20678022503852844,0.3185500502586365,-0.04603109881281853,-2.5255372524261475,4.184609889984131,0.9889755249023438,0.4770355224609375,0.18787670135498047,-1.37295401096344,0.005149920005351305,-0.5422675013542175,0.18978407979011536,1.3260325193405151,0.0036240178160369396,0.5403600931167603,-0.20313572883605957,-0.5857557058334351,0.021171892061829567,0.17948424816131592,0.8886472582817078,-0.3399549722671509,0.0052188001573085785,-0.6601434350013733,-0.11234454810619354,0.02193484455347061,0.7551308274269104,-0.21215103566646576,0.06151314079761505,-0.10035236179828644,-1.7918158769607544,0.006286573596298695,0.04109847545623779,-0.006077080499380827,-0.04014270380139351,0.005001514218747616,-0.019181005656719208,0.007081764284521341,0.012042905203998089,-1.913193702697754,2.7406766414642334,-0.6209163069725037,0.085089772939682,-4.689661026000977,-1.472610354423523,0.2522799074649811,-1.0018179416656494,0.013215298764407635,0.2311924695968628,1.973093032836914,-1.1725479364395142,0.457668662071228,1741422414.128837,1741422414819,4.8215986328125,-0.026731847763061523,2.508427352133073,3.532163330078125,1.2612061767578124
1741422414.695179,0.9987031668424606,-0.06457602114329676,-0.03396354001208849,-0.9973346556914322,-0.18290330469608307,0.21736101806163788,0.6946324706077576,0.38105863332748413,-5.852009296417236,28.62944793701172,0.9916458129882812,0.4110403060913086,0.18787670135498047,-1.369139313697815,0.005149920005351305,-0.541886031627655,0.18978407979011536,1.3260325193405151,0.0036240178160369396,0.5403600931167603,-0.23746852576732635,-0.5331120491027832,0.012779430486261845,0.1848248988389969,0.7986190319061279,-0.3566665053367615,0.004698348231613636,-0.6921873688697815,-0.10433356463909149,0.02193484455347061,0.8062485456466675,-0.23991213738918304,0.06581331789493561,0.07404635846614838,-1.9716075658798218,-0.009512163698673248,0.3103681206703186,-0.001789372880011797,0.028475303202867508,0.0034063681960105896,-0.01016872376203537,0.0018913832027465105,-0.001038194983266294,-1.7223341464996338,2.3928942680358887,-0.18406839668750763,0.3466222882270813,-4.0313873291015625,-0.315189003944397,0.20916101336479187,-1.8637094497680664,0.3531511723995209,0.02305557020008564,2.6396875381469727,-1.3535521030426025,0.1958732306957245,1741422414.128837,1741422414819,4.8215986328125,-0.026731847763061523,2.508427352133073,3.532163330078125,1.2612061767578124
1741422414.7152867,1.0269762873649597,-0.06753534301760568,-0.037683509086285275,-0.9970049802214823,0.4998718798160553,-0.34409835934638977,1.3688856363296509,0.4936116635799408,-5.8454270362854,4.756871700286865,0.9885940551757812,0.3850994110107422,0.17719538509845734,-1.3653244972229004,0.005531395319849253,-0.536926805973053,0.18978407979011536,1.3287029266357422,0.0032425422687083483,0.5384527444839478,-0.2618829607963562,-0.5487525463104248,0.010490577667951584,0.19436179101467133,0.80663001537323,-0.3270352780818939,0.0443587601184845,-0.7200350761413574,-0.1203555315732956,0.04596780240535736,0.8531700372695923,-0.27105721831321716,0.053247541189193726,-0.04225121811032295,-0.7973234057426453,-0.6476078629493713,0.0549350306391716,-0.007864546962082386,0.16842544078826904,0.005352791398763657,0.1808503121137619,0.009367812424898148,-0.13067051768302917,-1.5524872541427612,-1.3398348093032837,-0.2507346272468567,-0.20439976453781128,0.19773535430431366,1.3666694164276123,1.773879885673523,-1.0664222240447998,-0.10345284640789032,1.286177635192871,2.198021411895752,-1.6871410608291626,-0.9168643951416016,1741422414.128837,1741422414819,4.8215986328125,-0.026731847763061523,2.508427352133073,3.532163330078125,1.2612061767578124
1741422414.7352047,1.0546363294124603,-0.07553963955876476,-0.04569139679170768,-0.9960954066325949,0.3586272597312927,-0.08257464319467545,1.2893381118774414,13.6454496383667,-14.477438926696777,7.359755516052246,0.9859237670898438,0.3458080291748047,0.1684214472770691,-1.36990225315094,0.005149920005351305,-0.5430304408073425,0.19016556441783905,1.3309917449951172,0.004005493130534887,0.536926805973053,-0.290875107049942,-0.5388342142105103,0.0020981156267225742,0.182917520403862,0.7852674126625061,-0.29797786474227905,0.017725462093949318,-0.7429236173629761,-0.09403372555971146,0.08144503086805344,0.8958953022956848,-0.31366395950317383,0.013744832947850227,-0.09344741702079773,-1.243216633796692,-0.3241463899612427,-0.2260138988494873,-0.022952010855078697,-0.4487139880657196,0.05054069310426712,0.20101702213287354,0.01618628203868866,-0.04859079420566559,-1.0547842979431152,1.1330573558807373,-0.5361369252204895,-0.42463645339012146,-1.1817891597747803,1.5636733770370483,-1.6047557592391968,-1.4869691133499146,1.25398850440979,2.1518023014068604,2.274451494216919,-2.1389338970184326,-2.1560797691345215,1741422414.128837,1741422414819,4.8215986328125,-0.026731847763061523,2.508427352133073,3.532163330078125,1.2612061767578124
1741422414.755227,1.065965935587883,-0.07729601428866278,-0.03541960102021142,-0.9963788325926318,-0.5109339952468872,-0.061157453805208206,0.4345378875732422,2.3056817054748535,-1.7840547561645508,11.819750785827637,0.9985122680664062,0.2977418899536133,0.16956588625907898,-1.3645615577697754,0.00476844422519207,-0.5529488325119019,0.19054703414440155,1.3447248935699463,0.005149920005351305,0.533875048160553,-0.29812315106391907,-0.5300602912902832,-0.009346150793135166,0.17490653693675995,0.7539864182472229,-0.26569804549217224,0.027513733133673668,-0.778019368648529,-0.06351567804813385,0.12188144028186798,0.9565499424934387,-0.3552018404006958,-0.015678493306040764,0.36047035455703735,-1.4364384412765503,0.10613054782152176,0.5188352465629578,-0.0008209474617615342,-0.48567724227905273,-0.007024284452199936,1.1098264455795288,0.12718868255615234,-0.2058284729719162,-0.3330379128456116,-0.21097880601882935,-0.5673496127128601,-0.40784546732902527,-1.3926912546157837,1.6426138877868652,1.1446820497512817,-1.4250836372375488,1.5594878196716309,1.7604689598083496,3.1436774730682373,-2.067160129547119,-1.00635826587677,1741422414.128837,1741422414819,4.8215986328125,-0.026731847763061523,2.508427352133073,3.532163330078125,1.2612061767578124
1741422414.7752576,1.0701761096715927,-0.07815367821292914,-0.027007861670546952,-0.9965754251383959,-0.3558226227760315,0.06961140036582947,0.2040361911058426,3.9679269790649414,-3.7588510513305664,8.35805606842041,0.9958419799804688,0.2569236755371094,0.17795833945274353,-1.3451063632965088,0.005149920005351305,-0.5560005903244019,0.18825818598270416,1.3657060861587524,0.005149920005351305,0.5350194573402405,-0.26951247453689575,-0.5437933802604675,-0.01506828423589468,0.1527809500694275,0.7417792081832886,-0.23838801681995392,0.047883130609989166,-0.7890821695327759,-0.03490501269698143,0.12798504531383514,1.0275044441223145,-0.38026851415634155,0.011715699918568134,-0.062193918973207474,-1.2103935480117798,0.43586280941963196,1.207757830619812,-0.011958002112805843,-0.008706510998308659,-0.1966632753610611,1.2819156646728516,-0.012965185567736626,0.11148951947689056,2.0039875507354736,-0.1594931036233902,-0.2009648084640503,-1.291814923286438,-0.4615771770477295,1.2530081272125244,0.5593860149383545,-0.768671452999115,1.3592756986618042,-0.03011167421936989,3.5080952644348145,-0.8990762829780579,1.4694606065750122,1741422414.128837,1741422414819,4.8215986328125,-0.026731847763061523,2.508427352133073,3.532163330078125,1.2612061767578124
1741422414.7953544,1.0690862834453583,-0.07372473981625874,-0.01803066388947553,-0.9971156191228426,-0.47881579399108887,0.2172805368900299,-0.04634922370314598,3.7057199478149414,-0.9720854163169861,9.8106689453125,1.0030899047851562,0.22755050659179688,0.18787670135498047,-1.3325176239013672,0.00476844422519207,-0.5518043637275696,0.17872129380702972,1.377150297164917,0.005149920005351305,0.5388342142105103,-0.230601966381073,-0.5529488325119019,-0.02689402550458908,0.12302586436271667,0.724612832069397,-0.22786793112754822,0.03659232333302498,-0.810826301574707,-0.00858320016413927,0.11615930497646332,1.103417992591858,-0.3788577914237976,0.0156689565628767,0.1686260998249054,-0.8521993160247803,0.4558699429035187,0.7797453999519348,-0.015740860253572464,0.16982610523700714,-0.7239829301834106,0.7347256541252136,0.016439510509371758,0.2280561476945877,1.3556360006332397,-0.762438952922821,-0.809813916683197,-1.5361762046813965,-0.9505767226219177,0.43133488297462463,-0.33201780915260315,-1.0535306930541992,1.1983904838562012,-0.5254168510437012,3.726635217666626,0.15766683220863342,-0.2785036265850067,1741422414.128837,1741422414819,4.8215986328125,-0.026731847763061523,2.508427352133073,3.532163330078125,1.2612061767578124
1741422414.8153806,1.080093428492546,-0.07015917893785183,-0.01303935808896631,-0.9974505826111859,-0.12106779962778091,0.27066272497177124,0.7711523771286011,6.877399921417236,2.1778507232666016,8.5230131149292,0.9943161010742188,0.20962047576904297,0.19283588230609894,-1.3271770477294922,0.005531395319849253,-0.5510414242744446,0.1672770231962204,1.385161280632019,0.00476844422519207,0.5415045619010925,-0.21229113638401031,-0.5601968169212341,-0.0398641936480999,0.09822995215654373,0.7139315009117126,-0.2286875993013382,0.042299993336200714,-0.8306630253791809,0.005149920005351305,0.11463340371847153,1.1732280254364014,-0.3618486225605011,-0.00386584154330194,-0.29315081238746643,-0.5238531827926636,0.11377489566802979,0.26461297273635864,0.01353453192859888,0.07096859067678452,-0.6565508842468262,0.43885189294815063,-0.04190211743116379,0.19494272768497467,1.2713522911071777,-0.12868596613407135,-0.42495521903038025,-1.0746700763702393,-0.40181466937065125,-0.08317727595567703,0.26336872577667236,-1.012164831161499,0.7871905565261841,-0.06820661574602127,3.3438429832458496,0.9980900287628174,-0.730187714099884,1741422414.128837,1741422414819,4.8215986328125,-0.026731847763061523,2.508427352133073,3.532163330078125,1.2612061767578124
1741422414.8353562,1.0931245684623718,-0.0670365197471939,-0.012412456146906269,-0.9976733112359902,-0.01051393710076809,0.1259164959192276,0.6653702259063721,1.0792652368545532,0.1903855800628662,9.202909469604492,1.0015640258789062,0.20542430877685547,0.19321736693382263,-1.3279399871826172,0.00476844422519207,-0.5540932416915894,0.16384375095367432,1.383635401725769,0.004386968910694122,0.54417484998703,-0.212672621011734,-0.5682078003883362,-0.048256658017635345,0.0875486359000206,0.7017242908477783,-0.23449185490608215,0.04215331748127937,-0.8455405235290527,0.030708782374858856,0.11234454810619354,1.2155718803405762,-0.33830687403678894,0.004965870641171932,0.17089898884296417,-0.16549314558506012,0.05972541123628616,-0.05731568858027458,0.0024003549478948116,-0.16105207800865173,-0.15591715276241302,-0.15391696989536285,0.0054198820143938065,0.14305192232131958,-0.6163986921310425,-0.5774531960487366,-0.5092914700508118,-0.5660169720649719,-0.7344674468040466,-0.3045375347137451,-0.08176908642053604,-0.4846494793891907,1.1823539733886719,-0.043261244893074036,1.8055529594421387,1.082134485244751,0.5315305590629578,1741422414.128837,1741422414819,4.8215986328125,-0.026731847763061523,2.508427352133073,3.532163330078125,1.2612061767578124
1741422414.8553684,1.119801551103592,-0.06628149206246761,-0.014155219398850486,-0.9977005530587539,0.2261555790901184,0.09218885004520416,1.4796428680419922,0.35352611541748047,0.4841236472129822,9.36555290222168,0.9931716918945312,0.20237255096435547,0.19398032128810883,-1.3306102752685547,0.005149920005351305,-0.5548561811447144,0.1646067053079605,1.3832539319992065,0.004005493130534887,0.5457007884979248,-0.22106507420539856,-0.5701152086257935,-0.05207141116261482,0.08449683338403702,0.6883726119995117,-0.24015063047409058,0.04321696609258652,-0.8390554785728455,0.05207141116261482,0.1184481605887413,1.2228199243545532,-0.32476985454559326,0.004829205572605133,-0.2736241817474365,-0.0597752146422863,-0.04977339506149292,-0.16960203647613525,0.012582484632730484,0.011979853734374046,0.06771285086870193,-0.04020710289478302,-0.036871377378702164,0.10105766355991364,0.02953260764479637,0.10062205046415329,-0.099552221596241,-0.09559272229671478,-0.596828281879425,-0.2810405194759369,0.20755316317081451,0.4367705285549164,1.1231164932250977,0.33051252365112305,0.16029532253742218,0.5986238718032837,-0.26025527715682983,1741422414.128837,1741422414819,4.8215986328125,-0.026731847763061523,2.508427352133073,3.532163330078125,1.2612061767578124
1741422414.875449,1.1391866952180862,-0.06529842881692684,-0.016177675935718047,-0.9977346330539797,0.11740933358669281,0.05181135982275009,0.8081097602844238,-0.6595143675804138,-3.942035675048828,8.515060424804688,1.0004196166992188,0.19665050506591797,0.19016556441783905,-1.3325176239013672,0.005149920005351305,-0.5533303022384644,0.1657511293888092,1.3790576457977295,0.00476844422519207,0.5445563197135925,-0.22335393726825714,-0.5796520709991455,-0.05283436179161072,0.08373387902975082,0.6750209927558899,-0.24784696102142334,0.044955894351005554,-0.810826301574707,0.06389715522527695,0.12417028844356537,1.1999313831329346,-0.3242223858833313,-0.007662690244615078,0.19119475781917572,-0.1399148553609848,-0.10651956498622894,-0.11569179594516754,-0.0112362215295434,0.05498781427741051,0.026541132479906082,-0.3305630683898926,0.058508146554231644,-0.11851269006729126,-0.4010736644268036,-0.6643857955932617,-0.02609344571828842,-0.09586936980485916,-0.6851770877838135,-0.3831974267959595,0.05567837506532669,1.7388148307800293,0.41062143445014954,0.233917698264122,-1.3439854383468628,-0.0578949972987175,-0.48987072706222534,1741422414.128837,1741422414819,4.8215986328125,-0.026731847763061523,2.508427352133073,3.532163330078125,1.2612061767578124
1741422414.895398,1.1575002819299698,-0.061560778144438805,-0.014756262317648044,-0.9979942501420858,-0.013305270113050938,0.2435564398765564,0.9476815462112427,3.1449005603790283,-2.6422674655914307,7.967424392700195,0.9988937377929688,0.18749523162841797,0.19359883666038513,-1.3325176239013672,0.005149920005351305,-0.5537117719650269,0.1653696447610855,1.3760058879852295,0.0036240178160369396,0.54417484998703,-0.20733195543289185,-0.5910963416099548,-0.05283436179161072,0.08449683338403702,0.6734950542449951,-0.2564782500267029,0.04560965299606323,-0.7600900530815125,0.06847485899925232,0.13027389347553253,1.1449989080429077,-0.33756202459335327,-0.003151457756757736,-0.029824933037161827,-0.26831483840942383,0.18000692129135132,-0.004751869011670351,0.004421031568199396,-0.021889809519052505,0.010414989665150642,-0.1805507093667984,-0.08585703372955322,0.03221535682678223,1.493439793586731,-0.6147199869155884,0.04714377224445343,0.13153210282325745,0.03092421218752861,-0.46243104338645935,0.059728749096393585,2.540618896484375,0.22705374658107758,0.3814488649368286,-3.013188362121582,-0.8384135365486145,0.3067663908004761,1741422414.128837,1741422414819,4.8215986328125,-0.026731847763061523,2.508427352133073,3.532163330078125,1.2612061767578124
1741422414.9154441,1.1706146895885468,-0.05785161848758122,-0.010689255284179713,-0.9982679650573972,-0.2030315399169922,0.20039412379264832,0.49313613772392273,2.475452423095703,-2.4122092723846436,7.909937858581543,1.0004196166992188,0.18291759490966797,0.1993209719657898,-1.3340435028076172,0.00476844422519207,-0.5529488325119019,0.1653696447610855,1.3725725412368774,0.00476844422519207,0.5430304408073425,-0.17948424816131592,-0.6139848828315735,-0.05436026677489281,0.08220797777175903,0.6761654019355774,-0.2690330445766449,0.04637696221470833,-0.698291003704071,0.06923781335353851,0.1340886503458023,1.0523003339767456,-0.37051206827163696,-0.002470303326845169,0.0587894506752491,-0.1531418263912201,0.28949907422065735,-0.16441155970096588,-0.02231323905289173,0.05916089564561844,-0.004961451981216669,-0.22201135754585266,0.0840267688035965,-0.07850410789251328,0.7996307015419006,-1.3077656030654907,-0.19590617716312408,-0.24931971728801727,0.09615056216716766,-0.6411488652229309,0.03473209962248802,3.2897112369537354,-0.012770269066095352,0.10395544767379761,-4.844910621643066,-1.8642265796661377,-0.06732211261987686,1741422414.128837,1741422414819,4.8215986328125,-0.026731847763061523,2.508427352133073,3.532163330078125,1.2612061767578124
1741422414.9354413,1.1910945177078247,-0.05213753316325278,-0.008116991123355325,-0.9986069257173985,0.003210217459127307,0.35832712054252625,1.1841986179351807,5.632994174957275,-0.7012106776237488,3.1283891201019287,0.9946975708007812,0.17948436737060547,0.20542457699775696,-1.3359509706497192,0.005531395319849253,-0.5518043637275696,0.1657511293888092,1.3718096017837524,0.0032425422687083483,0.5468451976776123,-0.15316243469715118,-0.6326771974563599,-0.06694895774126053,0.08525978773832321,0.6837949156761169,-0.28053945302963257,0.046197839081287384,-0.6326771974563599,0.06694895774126053,0.1356145590543747,0.9344243407249451,-0.4202157258987427,-0.005535309202969074,-0.152699813246727,-0.08062555640935898,0.2658599019050598,-0.13812994956970215,0.031335845589637756,0.1033015102148056,0.04001286253333092,-0.059260353446006775,-0.12637925148010254,0.25101685523986816,1.8909366130828857,-0.8500718474388123,-0.7038148641586304,0.43975773453712463,0.5188838839530945,-0.5861626267433167,0.09312808513641357,2.9267494678497314,-0.17170314490795135,0.15058691799640656,-6.182739734649658,-2.522871255874634,-0.07149699330329895,1741422414.128837,1741422414819,4.8215986328125,-0.026731847763061523,2.508427352133073,3.532163330078125,1.2612061767578124
1741422414.9554923,1.2094985246658325,-0.042384269787407246,-0.01398297985804362,-0.9990035284967104,0.44016513228416443,0.6190375089645386,0.8185883164405823,-2.8232574462890625,5.422267436981201,33.682369232177734,1.0076675415039062,0.18596935272216797,0.20656901597976685,-1.3405286073684692,0.00476844422519207,-0.5544747114181519,0.1657511293888092,1.366087555885315,0.004005493130534887,0.5483710765838623,-0.14095520973205566,-0.6628137826919556,-0.0875486359000206,0.09479667246341705,0.693331778049469,-0.2912861704826355,0.05586351454257965,-0.5842298269271851,0.038719769567251205,0.12836651504039764,0.8196002244949341,-0.45115718245506287,0.014060251414775848,0.3917241394519806,0.19693386554718018,0.017878059297800064,-0.3682692050933838,-0.005488082766532898,-0.13348568975925446,0.017737828195095062,-0.4479471743106842,0.06440708786249161,0.08692602813243866,-0.1397094428539276,-1.800543189048767,-1.0919301509857178,0.19989724457263947,0.40345486998558044,-0.4854770004749298,0.4711698591709137,2.444725275039673,-1.559497356414795,-0.5241367220878601,-4.820845127105713,-0.669914186000824,1.570569634437561,1741422414.128837,1741422414819,4.8215986328125,-0.026731847763061523,2.508427352133073,3.532163330078125,1.2612061767578124
1741422414.9754677,1.2380848228931427,-0.034014275058098384,-0.019060379745054968,-0.9992395763860868,0.1381896734237671,0.40665143728256226,1.4509252309799194,0.33192819356918335,9.166402816772461,9.878159523010254,0.9905014038085938,0.18368053436279297,0.20199130475521088,-1.3515914678573608,0.005149920005351305,-0.5491340756416321,0.1661325991153717,1.3573135137557983,0.002861066721379757,0.5464637279510498,-0.11654078215360641,-0.6803616285324097,-0.08907453715801239,0.09365224838256836,0.691042959690094,-0.2997298240661621,0.05582066997885704,-0.6055924296379089,0.011635004542768002,0.11768520623445511,0.8272297382354736,-0.41751745343208313,0.04420378431677818,-0.4572750926017761,0.020472973585128784,-0.2927805483341217,-0.7312297821044922,-0.0648186132311821,0.28016018867492676,0.02505713328719139,-0.5812070965766907,-0.0807497501373291,-0.22033081948757172,1.6846473217010498,-0.20931236445903778,0.17867806553840637,0.4541567265987396,-0.17622214555740356,-0.5741130113601685,-0.3841172456741333,-1.9735682010650635,-2.2995853424072266,-0.2580949366092682,0.05492725595831871,1.7438960075378418,1.5490906238555908,1741422414.128837,1741422414819,4.8215986328125,-0.026731847763061523,2.508427352133073,3.532163330078125,1.2612061767578124
1741422414.9955256,1.2502659261226654,-0.02400169794638578,-0.0177060227081863,-0.9995551086636233,0.10701939463615417,0.6148294806480408,0.49158915877342224,0.6032063961029053,-5.503382682800293,2.334186315536499,0.9939346313476562,0.17986583709716797,0.1985580176115036,-1.358839511871338,0.005149920005351305,-0.5548561811447144,0.1661325991153717,1.3496840000152588,0.004386968910694122,0.54417484998703,-0.10929274559020996,-0.6853207945823669,-0.0883115902543068,0.12188144028186798,0.693331778049469,-0.3179258704185486,0.01147241611033678,-0.6109330654144287,-0.0398641936480999,0.09479667246341705,0.7944228053092957,-0.38359540700912476,0.03729678690433502,0.09734120219945908,-0.055792637169361115,-0.1403735727071762,-0.37400370836257935,0.036313947290182114,-0.3503830134868622,-0.02935192547738552,-0.4414699375629425,0.09164242446422577,-0.13896343111991882,0.07828301936388016,-0.5486718416213989,-0.03241436555981636,1.5927581787109375,0.2061443030834198,-0.7863722443580627,-2.2622475624084473,0.5715707540512085,-1.9113922119140625,-1.7520776987075806,-1.925408959388733,1.7817639112472534,-0.7509752511978149,1741422414.128837,1741422414819,4.8215986328125,-0.026731847763061523,2.508427352133073,3.532163330078125,1.2612061767578124
1741422415.0155363,1.2652960419654846,-0.016742598278572662,-0.027444780532611214,-0.9994831011199735,0.4895872175693512,0.3403598666191101,0.7171589136123657,-1.8720529079437256,-5.7239532470703125,5.508620262145996,1.0034713745117188,0.17910289764404297,0.1985580176115036,-1.361891269683838,0.005531395319849253,-0.5502784848213196,0.1665140837430954,1.3439619541168213,0.0036240178160369396,0.5468451976776123,-0.09479667246341705,-0.7108796834945679,-0.07343403995037079,0.15316243469715118,0.7398717999458313,-0.3364323079586029,-0.004229274112731218,-0.6021591424942017,-0.06618601083755493,0.06351567804813385,0.7406347990036011,-0.34290704131126404,0.018267210572957993,0.13611304759979248,-0.044622793793678284,-0.008911775425076485,-0.27917999029159546,-0.03324142470955849,0.3748503029346466,0.013740812428295612,-0.3421807885169983,-0.04467989504337311,0.17535489797592163,1.167822241783142,-1.461174488067627,0.8187288045883179,1.4195942878723145,2.8390228748321533,-1.0432049036026,-0.3500160276889801,0.13089431822299957,-1.1016238927841187,-0.9738803505897522,-2.600647449493408,2.1812498569488525,-0.4009757339954376,1741422414.128837,1741422414819,4.8215986328125,-0.026731847763061523,2.508427352133073,3.532163330078125,1.2612061767578124
1741422415.0355241,1.2720553576946259,-0.011140229709739737,-0.0326772388929253,-0.9994038689840803,0.23754087090492249,0.31699904799461365,0.20431286096572876,-0.12028595805168152,0.8891481757164001,5.761562347412109,0.9882125854492188,0.17566967010498047,0.1989395022392273,-1.369139313697815,0.005149920005351305,-0.5521858334541321,0.1646067053079605,1.3405286073684692,0.004005493130534887,0.5476081371307373,-0.11387044936418533,-0.7547493577003479,-0.05283436179161072,0.1817730963230133,0.8360036611557007,-0.35541462898254395,0.006883473601192236,-0.5949110984802246,-0.08373387902975082,0.057793546468019485,0.7223239541053772,-0.28915053606033325,0.04299649968743324,-0.42769163846969604,-0.11796639114618301,-0.013082224875688553,-0.3592284321784973,0.032899267971515656,-0.2163219004869461,-0.2021450400352478,-0.22830481827259064,0.05641835555434227,0.021667908877134323,-1.582167625427246,-2.2391104698181152,0.9988721013069153,1.462764859199524,5.0673370361328125,-0.7941478490829468,0.38369181752204895,0.46247950196266174,-0.7773448824882507,-0.5343952178955078,-0.8363276720046997,2.5258548259735107,1.017940640449524,1741422414.128837,1741422414819,4.8215986328125,-0.026731847763061523,2.508427352133073,3.532163330078125,1.2612061767578124
1741422415.0555584,1.295612394809723,-0.01011579832560852,-0.037010988936543955,-0.9992636575609936,0.23488940298557281,-0.005681729409843683,1.2630974054336548,-2.5679094791412354,-5.148097515106201,9.528948783874512,0.9927902221679688,0.17681407928466797,0.1977950781583786,-1.36837637424469,0.005149920005351305,-0.5510414242744446,0.16384375095367432,1.3336620330810547,0.0024795911740511656,0.5502784848213196,-0.1325627565383911,-0.7856488823890686,-0.030708782374858856,0.19512474536895752,0.9477760195732117,-0.35824117064476013,-0.002581350039690733,-0.5914778113365173,-0.08983749151229858,0.056267641484737396,0.6956206560134888,-0.2511690557003021,0.022984180599451065,0.14175352454185486,0.007160381879657507,-0.04731540009379387,0.0669218972325325,-0.06523773819208145,0.22431527078151703,0.06050616502761841,-0.4419168531894684,-0.1270725131034851,0.20887844264507294,-0.7220184206962585,-1.2804337739944458,1.1806155443191528,0.6068971157073975,5.589858531951904,-0.024570900946855545,-0.5633823871612549,-0.07496151328086853,-0.21374617516994476,-0.0173431858420372,-1.5012084245681763,1.8107572793960571,-0.9265044331550598,1741422414.128837,1741422414819,4.8215986328125,-0.026731847763061523,2.508427352133073,3.532163330078125,1.2612061767578124
1741422415.075601,1.3197391033172607,-0.015229197072771443,-0.03412907320358814,-0.9993013949348729,-0.17446734011173248,-0.2532995343208313,1.2071070671081543,0.09668924659490585,3.3094542026519775,11.91650676727295,0.9843978881835938,0.16918468475341797,0.19550621509552002,-1.36685049533844,0.005149920005351305,-0.5525673031806946,0.17071031033992767,1.3241251707077026,0.002861066721379757,0.5495155453681946,-0.15583276748657227,-0.7925154566764832,-0.000572213320992887,0.1981765478849411,1.030174732208252,-0.3507746458053589,-0.005170863587409258,-0.5888075232505798,-0.09555962681770325,0.051689937710762024,0.6757839322090149,-0.22005236148834229,0.0301522109657526,-0.20669203996658325,-0.184901624917984,-0.12277600914239883,0.12754856050014496,0.008693830110132694,-0.19008973240852356,0.5422810316085815,-0.5814597606658936,0.0482979491353035,-0.10123234242200851,-1.6934820413589478,-0.17367669939994812,1.411245346069336,-0.11814167350530624,3.709556818008423,0.43268465995788574,0.019440436735749245,0.4115758538246155,-0.4703865349292755,-0.2753784954547882,-0.7830063700675964,1.4839231967926025,0.5782267451286316,1741422414.128837,1741422414819,4.8215986328125,-0.026731847763061523,2.508427352133073,3.532163330078125,1.2612061767578124
1741422415.0977297,1.3455014526844025,-0.02435773343440388,-0.026452202564258148,-0.9993532817784899,-0.3679199814796448,-0.44561028480529785,1.3948661088943481,9.19704818725586,2.5689613819122314,10.783440589904785,0.9851608276367188,0.16269969940185547,0.19398032128810883,-1.364180088043213,0.005149920005351305,-0.5560005903244019,0.1825360506772995,1.3225992918014526,0.002861066721379757,0.5468451976776123,-0.1657511293888092,-0.7673380374908447,0.01773861236870289,0.19092851877212524,1.0641260147094727,-0.3428232967853546,0.005060094874352217,-0.580033540725708,-0.11272602528333664,0.038719769567251205,0.6612878441810608,-0.20840035378932953,0.035537440329790115,-0.00465055089443922,-0.19329382479190826,-0.08246518671512604,0.1186705008149147,0.00036968124913983047,-0.12069246917963028,0.8736936450004578,-0.031154165044426918,-0.024736437946558,-0.12959390878677368,0.4161892533302307,1.5742793083190918,0.7848584055900574,-0.3239661455154419,1.4276303052902222,0.3115251362323761,0.5453091859817505,0.1545121818780899,-0.7848868370056152,-0.5758135318756104,-0.7777107954025269,0.457308292388916,0.15900443494319916,1741422414.128837,1741422414819,4.8215986328125,-0.026731847763061523,2.508427352133073,3.532163330078125,1.2612061767578124
1741422415.1156235,1.3521505892276764,-0.03402095063776436,-0.017588728565610365,-0.9992663366416122,-0.3992556929588318,-0.3511393964290619,0.1937646120786667,2.286440849304199,5.184757709503174,7.280207633972168,0.9901199340820312,0.15812206268310547,0.19359883666038513,-1.36685049533844,0.005149920005351305,-0.5518043637275696,0.1962691694498062,1.3252695798873901,0.004386968910694122,0.543411910533905,-0.16193637251853943,-0.7242313027381897,0.035667963325977325,0.16994735598564148,1.0667964220046997,-0.34479379653930664,0.006186271086335182,-0.568970799446106,-0.1329442262649536,0.02231631986796856,0.6605249047279358,-0.20877575874328613,0.04299166426062584,0.1187037006020546,-0.11326289176940918,0.06898947060108185,-0.19847677648067474,0.039191991090774536,0.19609971344470978,0.8738458156585693,0.15056322515010834,0.15517571568489075,-0.2611701786518097,0.010000505484640598,2.277604579925537,1.0389734506607056,-1.1746011972427368,-0.11489886045455933,-0.1956324726343155,-0.059206537902355194,0.6061668395996094,-1.0921162366867065,-0.9391788840293884,0.1799609661102295,-0.11025858670473099,0.41723909974098206,1741422414.128837,1741422414819,4.8215986328125,-0.026731847763061523,2.508427352133073,3.532163330078125,1.2612061767578124
1741422415.1356592,1.3578915297985077,-0.039572360327636516,-0.010878606126465386,-0.9991574871995129,-0.3341345489025116,-0.30864590406417847,0.37407320737838745,-3.7396492958068848,2.175607442855835,7.54140567779541,0.9958419799804688,0.15392494201660156,0.1993209719657898,-1.3679949045181274,0.00476844422519207,-0.5518043637275696,0.20351719856262207,1.3260325193405151,0.0036240178160369396,0.5453193187713623,-0.14858472347259521,-0.6704432964324951,0.049782559275627136,0.14286258816719055,1.0423818826675415,-0.36149469017982483,0.0005546463653445244,-0.5739299654960632,-0.1520180106163025,0.007438773289322853,0.6696802973747253,-0.2190011441707611,0.056811243295669556,0.13851363956928253,-0.11835256218910217,0.16299758851528168,-0.010359269566833973,-0.04999249055981636,0.018586590886116028,0.39400339126586914,0.018320217728614807,-0.048982810229063034,0.1549728661775589,1.1305440664291382,2.7303764820098877,0.3760059177875519,-1.2248972654342651,-1.2593318223953247,-1.0086658000946045,-0.24088183045387268,-0.40710535645484924,-0.9259571433067322,-0.4604094922542572,0.6033515930175781,-0.5423447489738464,0.8748314380645752,1741422414.128837,1741422414819,4.8215986328125,-0.026731847763061523,2.508427352133073,3.532163330078125,1.2612061767578124
1741422415.1556585,1.353789895772934,-0.039150950774532026,-0.004643541673068135,-0.9992225180479974,-0.30517128109931946,0.06889256089925766,-0.2825950086116791,-0.5343771576881409,2.6730382442474365,5.438075542449951,0.9939346313476562,0.14476966857910156,0.20122835040092468,-1.369139313697815,0.005149920005351305,-0.5544747114181519,0.200083926320076,1.3256510496139526,0.004386968910694122,0.5460822582244873,-0.1508735716342926,-0.6155108213424683,0.04634927958250046,0.11577782779932022,0.9985122680664062,-0.39687061309814453,0.0055458624847233295,-0.5895704627037048,-0.16002899408340454,0.0013351644156500697,0.7051575779914856,-0.23291122913360596,0.07668688893318176,-0.06665496528148651,-0.2759252190589905,0.15061959624290466,-0.12105702608823776,0.015404319390654564,-0.1380888819694519,-0.36838918924331665,-0.01655801758170128,0.05724218860268593,0.02220505103468895,-0.6360992789268494,2.8060786724090576,-0.18477289378643036,-1.3572691679000854,-2.5826256275177,-1.897993564605713,0.28639695048332214,-0.9451273083686829,-0.3525104224681854,-0.4491383135318756,2.0288004875183105,-0.7524685263633728,0.8581540584564209,1741422414.128837,1741422414819,4.8215986328125,-0.026731847763061523,2.508427352133073,3.532163330078125,1.2612061767578124
1741422415.1757073,1.356968641281128,-0.03802202714789467,-0.0006917050317690835,-0.9992766618888453,-0.21898356080055237,-0.00419069267809391,0.24593070149421692,-33.88145065307617,6.654395580291748,8.715272903442383,0.9954605102539062,0.14286231994628906,0.20313572883605957,-1.367613434791565,0.005149920005351305,-0.5525673031806946,0.1962691694498062,1.3256510496139526,0.0032425422687083483,0.5487525463104248,-0.16994735598564148,-0.5575265288352966,0.04100862145423889,0.09899290651082993,0.9027618765830994,-0.443506121635437,0.007669052574783564,-0.6277180314064026,-0.14820325374603271,0.00667582219466567,0.7631418108940125,-0.254202663898468,0.06714707612991333,0.00031778664560988545,-0.07892578840255737,-0.00651730177924037,0.11330221593379974,0.02040308341383934,0.09603534638881683,-0.10961315780878067,0.007795045617967844,-0.08556108921766281,0.2595391273498535,-0.6706432104110718,3.1777682304382324,-0.2746036648750305,-0.7401935458183289,-5.2805094718933105,-2.3793725967407227,-0.08664896339178085,-2.1611170768737793,0.8486663699150085,0.4977707266807556,3.096566915512085,-1.0791012048721313,-0.6710225343704224,1741422414.128837,1741422414819,4.8215986328125,-0.026731847763061523,2.508427352133073,3.532163330078125,1.2612061767578124
1741422415.1957133,1.3657453656196594,-0.029812727298280616,0.0022079700518576766,-0.9995530632033941,-0.08740591257810593,0.4499463737010956,0.6442896127700806,49.06035614013672,42.66764450073242,16.23177719116211,0.9969863891601562,0.13904762268066406,0.1989395022392273,-1.366087555885315,0.005149920005351305,-0.5491340756416321,0.1989395022392273,1.3260325193405151,0.002861066721379757,0.5506599545478821,-0.19245441257953644,-0.5220493078231812,0.038719769567251205,0.11196307092905045,0.8619440197944641,-0.43333879113197327,-0.009985895827412605,-0.6689173579216003,-0.1520180106163025,0.0398641936480999,0.841725766658783,-0.280387282371521,0.04071373865008354,0.03296197950839996,-0.3699401617050171,-0.2647949755191803,0.10953022539615631,0.04695304483175278,0.39746347069740295,0.14207658171653748,0.040589407086372375,-0.0502355620265007,-0.01547953486442566,-1.3140015602111816,0.3396155536174774,-0.46460819244384766,1.0981366634368896,-0.0032691340893507004,1.2684693336486816,-0.32384079694747925,-1.7564349174499512,-0.7573181390762329,2.0575881004333496,3.9657111167907715,-1.333874225616455,-1.4031959772109985,1741422414.128837,1741422414819,4.8215986328125,-0.026731847763061523,2.508427352133073,3.532163330078125,1.2612061767578124
1741422415.2157378,1.3972488343715668,-0.04591159227867325,-0.015902019935173466,-0.9988189282629852,0.9712774157524109,-0.8293274641036987,1.702297568321228,-13.422953605651855,-8.043980598449707,1.0651928186416626,0.9843978881835938,0.19550609588623047,0.18902114033699036,-1.37142813205719,0.00476844422519207,-0.5399786233901978,0.20160982012748718,1.3328990936279297,0.0036240178160369396,0.5483710765838623,-0.2462424635887146,-0.5460822582244873,0.02384222112596035,0.10090028494596481,0.8665217161178589,-0.3890412449836731,0.015217198058962822,-0.6940947771072388,-0.11463340371847153,0.0722896158695221,0.89131760597229,-0.3163987100124359,-0.002437228336930275,-0.4351581931114197,1.3721915483474731,-0.4982318878173828,-0.43568363785743713,-0.07532494515180588,0.25462594628334045,0.1803809255361557,0.4651610851287842,0.13944348692893982,-0.06422919034957886,-2.4305808544158936,-0.0013940950157120824,-0.43134576082229614,-0.8171337246894836,-0.5227022171020508,1.8851804733276367,1.3200520277023315,-1.5704989433288574,2.1323652267456055,1.1941946744918823,2.3740735054016113,-1.8558530807495117,-2.302203893661499,1741422414.128837,1741422414819,4.8215986328125,-0.026731847763061523,2.508427352133073,3.532163330078125,1.2612061767578124
1741422415.235742,1.433539092540741,-0.04852403680401596,-0.016302731722957417,-0.9986889599823419,-0.17044854164123535,-0.14430665969848633,1.682525634765625,-11.902227401733398,-0.13028302788734436,20.782726287841797,0.9962234497070312,0.17147350311279297,0.17071031033992767,-1.372191071510315,0.005149920005351305,-0.5468451976776123,0.20542457699775696,1.3424360752105713,0.004005493130534887,0.5479896068572998,-0.2756160795688629,-0.5281528830528259,0.0020981156267225742,0.09365224838256836,0.8196002244949341,-0.356365829706192,0.015819814056158066,-0.7070649266242981,-0.07877469807863235,0.10128175467252731,0.925650417804718,-0.3518894612789154,-0.014817181043326855,0.2834934592247009,-0.4080924689769745,-0.9446853995323181,0.09594806283712387,0.019212277606129646,-0.39846792817115784,0.25969403982162476,0.7887429594993591,0.08332688361406326,-0.11359453201293945,-1.342727780342102,0.8392239212989807,-1.2217949628829956,-0.23213985562324524,-2.3281753063201904,1.5834503173828125,-0.09375251084566116,-0.39926856756210327,1.47393798828125,1.2756847143173218,1.5532652139663696,-1.8105069398880005,-0.13587000966072083,1741422414.128837,1741422414819,4.8215986328125,-0.026731847763061523,2.508427352133073,3.532163330078125,1.2612061767578124
