Freshhhhh-LC/Legged_odom/data/1/segments/booster_seg_9.73s.csv
time,yaw,projected_gravity_x,projected_gravity_y,projected_gravity_z,ang_vel_x,ang_vel_y,ang_vel_z,lin_acc_x,lin_acc_y,lin_acc_z,q_0,q_1,q_2,q_3,q_4,q_5,q_6,q_7,q_8,q_9,q_10,q_11,q_12,q_13,q_14,q_15,q_16,q_17,q_18,q_19,q_20,q_21,q_22,dq_0,dq_1,dq_2,dq_3,dq_4,dq_5,dq_6,dq_7,dq_8,dq_9,dq_10,dq_11,dq_12,dq_13,dq_14,dq_15,dq_16,dq_17,dq_18,dq_19,dq_20,dq_21,dq_22,mocap_time,mocap_timestamp,robot_x,robot_y,robot_yaw,ball_x,ball_y
1741422567.7328384,2.6796825528144836,0.013788735306665838,0.0292294584041336,-0.9994776183287166,0.2697157859802246,-0.07173646241426468,-0.8847758173942566,-0.32229843735694885,-0.7871472239494324,11.69483470916748,-0.12951087951660156,0.20618724822998047,0.1836804747581482,-1.2211267948150635,0.00476844422519207,-0.916113555431366,0.15774014592170715,1.2672853469848633,0.005531395319849253,0.9489204287528992,0.2744716703891754,-0.6391623020172119,-0.07953765243291855,-0.19512474536895752,0.8951323628425598,-0.35192519426345825,0.002337288111448288,-0.649462103843689,-0.07572289556264877,-0.3233005404472351,1.281567096710205,-0.4306389093399048,0.0011840129736810923,0.2260660082101822,-0.11495016515254974,-3.5944178104400635,0.23359839618206024,-0.024884307757019997,-0.02740366943180561,4.3473968505859375,0.21643097698688507,-0.018637247383594513,-0.24943211674690247,1.1212984323501587,1.6762181520462036,0.4814559817314148,0.4394976794719696,-0.0792045146226883,-2.5118072032928467,-0.06870882213115692,-3.722830295562744,-0.14143219590187073,-0.44859540462493896,4.33161735534668,0.8647972941398621,0.06582297384738922,1741422567.7448618,1741422568459,-0.7355834350585938,-1.808441650390625,3.073129053867899,-3.5111669921875,-0.14454083251953126
1741422567.7349002,2.662913978099823,0.017107585322148282,0.02403369991455622,-0.999564761180016,0.2512972056865692,0.15734843909740448,-0.8041090965270996,5.288468837738037,-1.1129554510116577,8.623069763183594,-0.12645912170410156,0.19970226287841797,0.10585946589708328,-1.2203638553619385,0.005149920005351305,-0.9180209040641785,0.22373540699481964,1.2688112258911133,0.005149920005351305,0.9462500810623169,0.28782328963279724,-0.5907148718833923,-0.0711451917886734,-0.19512474536895752,0.8848325610160828,-0.3977377414703369,-0.007996740750968456,-0.7063019871711731,-0.08335240930318832,-0.31567102670669556,1.3158998489379883,-0.4260285496711731,-0.002270597731694579,0.036417413502931595,-0.14177267253398895,-3.827867269515991,-0.014951803721487522,0.012509705498814583,-0.06539463251829147,4.377237796783447,0.07237380743026733,0.0017838160274550319,-0.17012915015220642,0.5609034895896912,2.26819109916687,0.424716979265213,0.035494301468133926,-0.621739387512207,-2.23513126373291,-0.45324164628982544,-2.664109945297241,-0.4729173183441162,0.5225427150726318,1.293487787246704,0.1682761311531067,-0.11934871226549149,1741422567.7448618,1741422568459,-0.7355834350585938,-1.808441650390625,3.073129053867899,-3.5111669921875,-0.14454083251953126
1741422567.7369213,2.6077354550361633,0.010039790431103054,-0.023986163780043104,-0.999661876113727,0.29072317481040955,-0.14946971833705902,-0.6551464200019836,4.271295547485352,2.177852153778076,6.414372444152832,-0.12912940979003906,0.14782142639160156,-0.1028076633810997,-1.2291377782821655,0.005149920005351305,-0.9569314122200012,0.49458304047584534,1.2508819103240967,0.00476844422519207,0.9210727214813232,0.26913100481033325,-0.2794308364391327,-0.028038453310728073,-0.12340734153985977,0.7337682247161865,-0.5362427234649658,-0.0006019643042236567,-0.8306630253791809,-0.25463491678237915,-0.3076600432395935,1.0362783670425415,-0.3379856050014496,-9.459145985601936e-06,-0.11824462562799454,-0.2862940728664398,0.1150844544172287,0.15456518530845642,0.00522975530475378,-0.7329551577568054,1.3731052875518799,-0.08036836236715317,0.007282001432031393,-0.5665139555931091,0.39106446504592896,4.261433124542236,0.44110631942749023,0.37000706791877747,-1.5969663858413696,-0.6889878511428833,-0.04497837275266647,0.6956593990325928,-1.3531478643417358,-1.1548489332199097,-5.289106845855713,1.3605642318725586,-0.2758108675479889,1741422567.7448618,1741422568459,-0.7355834350585938,-1.808441650390625,3.073129053867899,-3.5111669921875,-0.14454083251953126
1741422567.753539,2.5889992117881775,0.0025127217274947496,-0.028355922717844054,-0.9995947318170199,0.1962415874004364,-0.44533514976501465,-0.9571757316589355,0.06168524920940399,-6.123846530914307,7.252459526062012,-0.12531471252441406,0.14286231994628906,-0.08030059933662415,-1.2276118993759155,0.00476844422519207,-0.9664682745933533,0.4968718886375427,1.2493560314178467,0.005149920005351305,0.9145876169204712,0.2817196846008301,-0.20466163754463196,-0.024223696440458298,-0.12607766687870026,0.7001983523368835,-0.5320839881896973,-0.01095402892678976,-0.7925154566764832,-0.266460657119751,-0.33665215969085693,0.9096284508705139,-0.3296288251876831,-0.005067216232419014,0.10445582866668701,-0.18601588904857635,1.3648041486740112,0.07622365653514862,-0.007342428434640169,-0.44293931126594543,-0.007876268588006496,-0.14510463178157806,-0.00644439784809947,-0.430593341588974,0.6441872119903564,3.767122983932495,0.015283551067113876,-0.07368633896112442,-1.5274178981781006,0.390933096408844,-0.22290320694446564,2.0213749408721924,-0.49832919239997864,-1.5574414730072021,-6.507848739624023,0.12505127489566803,-0.24209126830101013,1741422567.7448618,1741422568459,-0.7355834350585938,-1.808441650390625,3.073129053867899,-3.5111669921875,-0.14454083251953126
1741422567.7735677,2.5689814686775208,-0.008829858895301562,-0.029988622110487508,-0.9995112386240603,0.13616497814655304,-0.610711395740509,-0.9961644411087036,-3.6859383583068848,-1.1090160608291626,8.035995483398438,-0.11997413635253906,0.14324378967285156,-0.040245670825242996,-1.2234156131744385,0.00476844422519207,-0.967994213104248,0.482375830411911,1.2485930919647217,0.005149920005351305,0.9119172692298889,0.2904936373233795,-0.14553292095661163,-0.040245670825242996,-0.13218127191066742,0.6956206560134888,-0.5210265517234802,-0.0013091745786368847,-0.7463569045066833,-0.26684215664863586,-0.3606851398944855,0.7784008383750916,-0.3438093364238739,-0.0147854620590806,0.16293537616729736,0.0004671213391702622,2.10607647895813,0.32956480979919434,-0.0012421682476997375,-0.021971700713038445,-1.1344367265701294,-0.025473397225141525,0.005881070159375668,-0.07581143826246262,0.32989493012428284,2.7017829418182373,-1.0712621212005615,-0.31520307064056396,0.16522330045700073,0.46764543652534485,0.31783589720726013,2.3253631591796875,0.036070317029953,-0.9431535005569458,-6.115236759185791,-0.5409966111183167,-0.718872606754303,1741422567.7448618,1741422568459,-0.7355834350585938,-1.808441650390625,3.073129053867899,-3.5111669921875,-0.14454083251953126
1741422567.7936397,2.5509716868400574,-0.01928803477847827,-0.03255494226330648,-0.9992838172654538,-0.059201501309871674,-0.5313329696655273,-0.9940253496170044,-17.16023063659668,-4.564529895782471,17.033611297607422,-0.11539649963378906,0.13752174377441406,0.005149920005351305,-1.2180750370025635,0.00476844422519207,-0.9634165167808533,0.4526207447052002,1.2459226846694946,0.004386968910694122,0.9077210426330566,0.28400853276252747,-0.11959258466959,-0.03223468363285065,-0.15850308537483215,0.7505531311035156,-0.5084505081176758,0.007308149244636297,-0.7024872303009033,-0.23250934481620789,-0.3702220320701599,0.8112077713012695,-0.3293716013431549,-0.047406841069459915,0.16708670556545258,-0.12554699182510376,2.3206543922424316,0.21842357516288757,-0.007586169056594372,0.24805308878421783,-2.3171515464782715,-0.18744096159934998,-0.02219134382903576,-0.3486088216304779,-0.8614488244056702,0.7106844782829285,0.15690378844738007,-1.363779902458191,3.0546066761016846,0.8616741895675659,0.6969874501228333,2.5406198501586914,2.32094407081604,-0.15389078855514526,2.355696201324463,0.5620227456092834,-1.8779118061065674,1741422567.7448618,1741422568459,-0.7355834350585938,-1.808441650390625,3.073129053867899,-3.5111669921875,-0.14454083251953126
1741422567.81361,2.540731966495514,-0.018293170562901705,-0.026945037797754343,-0.9994695217208146,-0.27586835622787476,-0.006525423377752304,-0.4256495237350464,-6.9906439781188965,-0.07602714747190475,6.131998062133789,-0.12417030334472656,0.12645912170410156,0.05893797054886818,-1.2203638553619385,0.005149920005351305,-0.961509108543396,0.3934920132160187,1.2539336681365967,0.005531395319849253,0.9100099205970764,0.2599755823612213,-0.1489662081003189,-0.04787518084049225,-0.1844434291124344,0.8600366115570068,-0.46950167417526245,0.015189607627689838,-0.6807430982589722,-0.1985580176115036,-0.33436331152915955,0.8211261034011841,-0.321266233921051,-0.10311482846736908,-0.15513592958450317,-0.26089048385620117,2.639775514602661,-0.2596033811569214,-0.06429121643304825,0.04640096798539162,-4.0865678787231445,0.6468243598937988,0.039583344012498856,0.2317177802324295,-1.2189068794250488,-1.7968745231628418,-1.0508701801300049,-1.7161682844161987,6.016483306884766,2.0233261585235596,0.38401010632514954,0.9221956729888916,1.5871893167495728,2.1616170406341553,-0.4703056514263153,0.3350740075111389,-1.9995018243789673,1741422567.7448618,1741422568459,-0.7355834350585938,-1.808441650390625,3.073129053867899,-3.5111669921875,-0.14454083251953126
1741422567.833645,2.5357936024665833,-0.012258446147975211,-0.01942461226599534,-0.9997361726657453,-0.3851666748523712,0.22198325395584106,-0.1972438246011734,-8.63087272644043,-9.586709976196289,13.692230224609375,-0.11348915100097656,0.11120033264160156,0.10929274559020996,-1.2241785526275635,0.004386968910694122,-0.9641794562339783,0.3236820101737976,1.2596558332443237,0.005531395319849253,0.9134432077407837,0.23861294984817505,-0.22793163359165192,-0.07419699430465698,-0.23479819297790527,1.030174732208252,-0.42300352454185486,0.02497633919119835,-0.6601434350013733,-0.15659570693969727,-0.2965972423553467,0.8005264401435852,-0.3095434606075287,-0.057320572435855865,0.2778269946575165,-0.331316202878952,2.6066644191741943,-0.20309287309646606,-0.0511750653386116,-0.1257399022579193,-4.619394779205322,0.19713905453681946,-0.018420925363898277,0.10520776361227036,-1.1253199577331543,-4.416325092315674,-1.3630532026290894,-2.661029577255249,8.765533447265625,2.319856643676758,0.4212181568145752,1.234670877456665,2.3458173274993896,1.5364707708358765,-0.3758818805217743,0.8623084425926208,2.390929698944092,1741422567.7448618,1741422568459,-0.7355834350585938,-1.808441650390625,3.073129053867899,-3.5111669921875,-0.14454083251953126
1741422567.853642,2.5438053011894226,-0.007997818706858823,-0.0009837310488216673,-0.9999675330575267,-0.9578847289085388,0.11833313852548599,0.48177361488342285,-1.2941607236862183,-0.2598920464515686,10.197779655456543,-0.11844825744628906,0.11806678771972656,0.15774014592170715,-1.2291377782821655,0.005149920005351305,-0.9641794562339783,0.25310903787612915,1.2638521194458008,0.005149920005351305,0.9130617380142212,0.22373540699481964,-0.3416113555431366,-0.11501488089561462,-0.2740901708602905,1.2232013940811157,-0.3768172264099121,0.023164812475442886,-0.6361104846000671,-0.12569619715213776,-0.28858625888824463,0.7993820309638977,-0.3045123517513275,-0.04602213203907013,-0.1569770723581314,0.17900994420051575,2.3917460441589355,-0.39538875222206116,-0.036680471152067184,0.02067205309867859,-4.66864538192749,0.39063745737075806,0.014518576674163342,-0.007217129226773977,-0.6710869669914246,-6.009000301361084,-2.0388810634613037,-1.5945217609405518,9.600458145141602,2.176239490509033,-0.42221561074256897,1.0959383249282837,1.1422384977340698,0.1967935413122177,-0.3099311888217926,0.002177092945203185,0.29475167393684387,1741422567.938441,1741422568559,-0.8225579833984376,-1.749534912109375,2.990395478261433,-3.5955429687500002,-0.06878006744384765
1741422567.873962,2.5610130429267883,-0.008803363797881441,0.017442446502240812,-0.9998091127039493,-0.9022989273071289,0.014587942510843277,0.8825385570526123,2.2559823989868164,2.4269096851348877,11.424590110778809,-0.10700416564941406,0.12989234924316406,0.20695048570632935,-1.23600435256958,0.005149920005351305,-0.9641794562339783,0.182154580950737,1.2649965286254883,0.005531395319849253,0.9142061471939087,0.20504310727119446,-0.4659723937511444,-0.15659570693969727,-0.2813382148742676,1.3818951845169067,-0.362627238035202,0.003951329737901688,-0.6036850810050964,-0.11654078215360641,-0.2954528033733368,0.7974746227264404,-0.3073265552520752,-0.04509901627898216,0.31550362706184387,0.33997270464897156,2.4306540489196777,-0.4179106652736664,-0.010494002141058445,-0.0035558834206312895,-4.7117414474487305,-0.04317295178771019,-0.01002221368253231,0.09446999430656433,-0.9400604963302612,-6.276305675506592,-1.9422355890274048,-0.024640418589115143,7.630922317504883,0.2573184669017792,-0.7609123587608337,1.7334768772125244,0.2643469572067261,-0.30876392126083374,0.013676623813807964,-0.045230500400066376,0.1552169770002365,1741422567.938441,1741422568559,-0.8225579833984376,-1.749534912109375,2.990395478261433,-3.5955429687500002,-0.06878006744384765
1741422567.8937044,2.5825472474098206,-0.0090567265199868,0.031292568078838276,-0.9994692345879254,-0.627569317817688,-0.08463213592767715,1.0469714403152466,-0.9123523235321045,3.0685222148895264,9.89647388458252,-0.09403419494628906,0.13370704650878906,0.2599755823612213,-1.2428709268569946,0.005149920005351305,-0.960746169090271,0.11272602528333664,1.2596558332443237,0.004386968910694122,0.916113555431366,0.1840619444847107,-0.5941481590270996,-0.17681391537189484,-0.25196459889411926,1.4787899255752563,-0.39436665177345276,0.01106721255928278,-0.5754558444023132,-0.10776684433221817,-0.2958342730998993,0.7974746227264404,-0.31209123134613037,-0.029420068487524986,0.3639921247959137,0.12957118451595306,2.831484317779541,-0.492592990398407,0.0006047593196853995,0.16694998741149902,-4.556743144989014,-0.43056169152259827,-0.05985955148935318,0.0894981399178505,-1.1499420404434204,-6.482359409332275,-0.6930381655693054,1.6404521465301514,4.436655044555664,-1.859891414642334,0.3634326756000519,1.2374452352523804,0.5354632139205933,0.10987383872270584,0.00392663711681962,-0.3673100769519806,0.8446190357208252,1741422567.938441,1741422568559,-0.8225579833984376,-1.749534912109375,2.990395478261433,-3.5955429687500002,-0.06878006744384765
1741422567.9139879,2.6044278740882874,-0.008097069333603914,0.03545762680343114,-0.9993383782131434,-0.1471128761768341,0.06618797034025192,1.0783803462982178,0.6539776921272278,3.9550960063934326,8.463774681091309,-0.08945560455322266,0.12874794006347656,0.31605249643325806,-1.2516448497772217,0.005149920005351305,-0.955024003982544,0.051689937710762024,1.2474485635757446,0.004005493130534887,0.9199283123016357,0.16117341816425323,-0.7146944403648376,-0.1676585078239441,-0.21000228822231293,1.506637692451477,-0.4443152844905853,0.007782622240483761,-0.5525673031806946,-0.08869306743144989,-0.2763790488243103,0.8024337887763977,-0.33391034603118896,-0.01637084409594536,0.13499382138252258,-0.14515535533428192,2.876742124557495,-0.564882218837738,-0.008908181451261044,0.31862932443618774,-3.850858449935913,-0.8362855315208435,-0.02445235103368759,0.2631298899650574,-1.0478265285491943,-5.877288818359375,0.2655274271965027,2.282850742340088,0.8225486278533936,-2.494597911834717,-0.31405365467071533,1.2407675981521606,0.9717094898223877,1.0405912399291992,0.33576294779777527,-1.264174222946167,0.4192720055580139,1741422567.938441,1741422568559,-0.8225579833984376,-1.749534912109375,2.990395478261433,-3.5955429687500002,-0.06878006744384765
1741422567.933739,2.612874925136566,-0.004743681193414467,0.03645909680736018,-0.9993238873101788,-0.048213936388492584,0.14233708381652832,0.32739752531051636,-0.49047696590423584,3.3697667121887207,9.68608283996582,-0.07572269439697266,0.12302589416503906,0.368314653635025,-1.2569855451583862,0.005149920005351305,-0.9477760195732117,0.00476844422519207,1.2340970039367676,0.004386968910694122,0.9225986003875732,0.14591439068317413,-0.8165484070777893,-0.16002899408340454,-0.16422522068023682,1.4654383659362793,-0.4843605160713196,-0.00882238894701004,-0.5384527444839478,-0.071908138692379,-0.2607385218143463,0.8093003630638123,-0.36914074420928955,-0.015525233931839466,0.36905375123023987,-0.21147923171520233,2.541239023208618,-0.25936004519462585,-0.009401220828294754,0.3329883813858032,-2.97676944732666,-0.8741109371185303,0.04257434979081154,0.1381961852312088,-0.5792414546012878,-5.027314186096191,0.44493651390075684,2.0334386825561523,-2.5006868839263916,-1.722200632095337,-0.8687275052070618,0.481542706489563,0.6225310564041138,0.6211879849433899,0.37813904881477356,-1.781442403793335,-0.14546053111553192,1741422567.938441,1741422568559,-0.8225579833984376,-1.749534912109375,2.990395478261433,-3.5955429687500002,-0.06878006744384765
1741422567.953768,2.611814320087433,-0.0003301498594787507,0.035841902007875404,-0.9993574180749989,0.024666663259267807,0.29874300956726074,-0.0663832277059555,0.7541868090629578,-2.579582691192627,8.976292610168457,-0.07000064849853516,0.11425209045410156,0.41103988885879517,-1.2596558332443237,0.005149920005351305,-0.9412909150123596,-0.04634927958250046,1.229519248008728,0.004386968910694122,0.927176296710968,0.13866636157035828,-0.890554666519165,-0.14362554252147675,-0.1363775134086609,1.3742656707763672,-0.4862200915813446,-0.01181208249181509,-0.5300602912902832,-0.06961929053068161,-0.2576867341995239,0.8241779208183289,-0.40443676710128784,-0.016313403844833374,0.20042794942855835,-0.24702481925487518,1.994738221168518,-0.2422526329755783,-0.0036843062844127417,0.3277205526828766,-3.830110788345337,-0.18147443234920502,-0.014335349202156067,0.4016324281692505,-0.5615983009338379,-3.4779813289642334,0.7952789068222046,1.2202699184417725,-4.852308750152588,0.2519643008708954,-0.0714816227555275,0.777328372001648,0.02990865707397461,0.13059967756271362,0.8807371854782104,-1.7711235284805298,0.06279651820659637,1741422567.949441,1741422568659,-0.9148004760742188,-1.7057131347656251,3.049275382052601,-3.680316162109375,0.004152881145477295
1741422567.973802,2.6152437329292297,0.013605176741096257,0.03709009510308753,-0.9992193072649704,-0.061015669256448746,0.6647337675094604,0.1290477067232132,5.116444110870361,-0.8176575899124146,11.239797592163086,-0.06313419342041016,0.10814857482910156,0.44728007912635803,-1.2604187726974487,0.005149920005351305,-0.9321355223655701,-0.08945601433515549,1.228756308555603,0.004005493130534887,0.9428167939186096,0.12493324279785156,-0.9325169920921326,-0.12455176562070847,-0.1203555315732956,1.2357900142669678,-0.45098719000816345,-0.013561765663325787,-0.5163271427154541,-0.0711451917886734,-0.25577935576438904,0.8382925391197205,-0.44175904989242554,-0.008963722735643387,0.19888435304164886,-0.18255431950092316,1.8479101657867432,-0.06036705896258354,-0.010823572054505348,0.4668762683868408,-2.501995801925659,-0.06496410816907883,-0.014171796850860119,1.0756765604019165,-0.7975199818611145,-2.045236110687256,1.0135263204574585,0.6680110096931458,-7.275959491729736,1.9100143909454346,0.0017480443930253386,0.5991792678833008,-0.029526125639677048,0.05682651698589325,0.6847584843635559,-1.903949499130249,0.3593885898590088,1741422567.949441,1741422568659,-0.9148004760742188,-1.7057131347656251,3.049275382052601,-3.680316162109375,0.004152881145477295
1741422567.9938393,2.6181305050849915,0.025242565933428333,0.036654345899542674,-0.9990091449990701,0.036463458091020584,0.6816205978393555,0.16110874712467194,1.8963338136672974,-2.1602325439453125,7.371071815490723,-0.056649208068847656,0.10585975646972656,0.47512778639793396,-1.2588928937911987,0.005149920005351305,-0.9222171306610107,-0.10967422276735306,1.2268489599227905,0.0036240178160369396,0.9561684727668762,0.09861142933368683,-0.9378576278686523,-0.09441519528627396,-0.11310750246047974,1.0473411083221436,-0.40788406133651733,-0.002939164172858,-0.5025940537452698,-0.06389715522527695,-0.2447165697813034,0.8566033244132996,-0.47739431262016296,-0.0014788630651310086,0.21480226516723633,-0.11589659750461578,1.1266835927963257,0.11562839895486832,-0.00022346965852193534,0.39087972044944763,-1.1647695302963257,-0.15128827095031738,-0.016179034486413002,0.9521188735961914,-1.3725683689117432,0.2340724766254425,1.6403768062591553,0.4777372479438782,-9.666276931762695,2.091506242752075,0.5958090424537659,0.9626369476318359,0.5476084351539612,0.7370150685310364,0.9639806151390076,-1.801196575164795,0.5308458805084229,1741422567.949441,1741422568659,-0.9148004760742188,-1.7057131347656251,3.049275382052601,-3.680316162109375,0.004152881145477295
1741422568.0138109,2.6233782172203064,0.03738387332532473,0.03709240861422303,-0.9986123368146379,-0.04947258159518242,0.48852261900901794,0.2713874280452728,6.617952823638916,-2.6790058612823486,6.596412658691406,-0.054360389709472656,0.11387062072753906,0.47779813408851624,-1.2566040754318237,0.005149920005351305,-0.916876494884491,-0.10814831405878067,1.2226526737213135,0.0036240178160369396,0.9657053351402283,0.06656748056411743,-0.9073395729064941,-0.05970092490315437,-0.08602273464202881,0.8451590538024902,-0.3727317452430725,0.0041380273178219795,-0.4800869822502136,-0.03833829239010811,-0.22678720951080322,0.8661402463912964,-0.5165172219276428,0.007599960081279278,0.06742336601018906,0.2216641902923584,0.044345609843730927,0.12117495387792587,-0.014326476491987705,0.2683465778827667,0.3651929199695587,-0.29570016264915466,0.00795920193195343,0.5544518828392029,-1.6708062887191772,1.407021164894104,1.6035853624343872,1.5835353136062622,-9.874579429626465,1.9252554178237915,0.24958841502666473,1.1303075551986694,1.509100317955017,0.7864976525306702,0.37867334485054016,-1.8612011671066284,0.6277232766151428,1741422568.0412364,1741422568759,-1.0089100952148438,-1.676633544921875,-3.1027192284531875,-3.762714599609375,0.07341998291015625
1741422568.0338345,2.6337236762046814,0.03690800929058595,0.039140855531921225,-0.9985518475664823,0.06249835342168808,0.12412095814943314,0.6401060819625854,-6.732313632965088,-5.022217750549316,15.725391387939453,-0.057030677795410156,0.13179969787597656,0.4716945290565491,-1.2512633800506592,0.005531395319849253,-0.9050507545471191,-0.08525978773832321,1.2218897342681885,0.0024795911740511656,0.9653238654136658,0.03757534176111221,-0.8569847941398621,-0.04749370738863945,-0.03223468363285065,0.8588922023773193,-0.29572930932044983,0.007955210283398628,-0.4377431869506836,-0.030708782374858856,-0.20923933386802673,0.8699550032615662,-0.5487173199653625,-0.002036104677245021,-0.16004987061023712,0.43480783700942993,-0.5253586173057556,0.41038042306900024,0.03648609668016434,0.5882829427719116,1.7381186485290527,0.05834680423140526,-0.12594741582870483,-0.05900377780199051,-0.8449068069458008,3.1520605087280273,0.5670099258422852,2.346676826477051,1.8657232522964478,3.749425172805786,0.35986387729644775,2.404573440551758,0.256258100271225,0.9176636338233948,0.00981245469301939,-1.422691822052002,-0.6909843683242798,1741422568.0412364,1741422568759,-1.0089100952148438,-1.676633544921875,-3.1027192284531875,-3.762714599609375,0.07341998291015625
1741422568.0538573,2.64619642496109,0.0412929376261293,0.030747861456874755,-0.9986738518245251,0.447648286819458,-0.03251580521464348,0.5353054404258728,-8.403607368469238,-8.450610160827637,5.835495471954346,-0.040246009826660156,0.13981056213378906,0.42820629477500916,-1.2474485635757446,0.005531395319849253,-0.9027618765830994,-0.03643091395497322,1.223797082901001,0.001716639962978661,0.9637979865074158,0.042153049260377884,-0.8196002244949341,-0.028038453310728073,-0.054741740226745605,0.8504997491836548,-0.24729473888874054,0.03422417491674423,-0.39616236090660095,-0.010109102353453636,-0.1989395022392273,0.8691920638084412,-0.5494340658187866,0.0001690153731033206,0.4445215165615082,0.36780846118927,-2.430453300476074,0.08631619065999985,0.04881638288497925,0.04332777112722397,3.492706775665283,0.07852169126272202,0.04185681417584419,-0.19500629603862762,-0.13401469588279724,1.8425829410552979,1.2628041505813599,-1.7189242839813232,-1.4731500148773193,2.012817144393921,1.1368515491485596,1.7968180179595947,1.0217554569244385,0.7005800008773804,0.257629930973053,0.2503417432308197,0.5274738073348999,1741422568.0412364,1741422568759,-1.0089100952148438,-1.676633544921875,-3.1027192284531875,-3.762714599609375,0.07341998291015625
1741422568.0738823,2.660583198070526,0.04125040500422332,0.027824519669763112,-0.9987613329480344,0.033052485436201096,0.11377153545618057,0.9061266183853149,-0.4442636966705322,3.6837475299835205,9.558282852172852,-0.059700965881347656,0.13408851623535156,0.3576333224773407,-1.2474485635757446,0.00476844422519207,-0.9084840416908264,0.012397955171763897,1.225704550743103,0.004386968910694122,0.9588387608528137,0.03337911143898964,-0.7547493577003479,-0.035667963325977325,-0.06427863240242004,0.8249408602714539,-0.22422298789024353,0.027027186006307602,-0.39463645219802856,-0.0036240178160369396,-0.17032882571220398,0.9233615398406982,-0.516826331615448,0.012592045590281487,-0.5818265080451965,-0.03993341699242592,-3.5868024826049805,0.0973847359418869,-0.024462664499878883,-0.23614872992038727,3.3036108016967773,0.22580751776695251,0.10377559810876846,-0.28813436627388,-0.30324164032936096,3.4198713302612305,-1.2131035327911377,0.007834941148757935,-0.25654882192611694,1.1704285144805908,-0.31675755977630615,-0.4553588628768921,0.3566475212574005,1.5709047317504883,3.1956934928894043,1.8351547718048096,0.2887329161167145,1741422568.0412364,1741422568759,-1.0089100952148438,-1.676633544921875,-3.1027192284531875,-3.762714599609375,0.07341998291015625
1741422568.0939536,2.6569570899009705,0.03935780932208833,0.025500289364213582,-0.9988997437619591,0.24044720828533173,-0.1689688116312027,-0.28477928042411804,-0.25214216113090515,-4.106747150421143,6.3654351234436035,-0.038720130920410156,0.15049171447753906,0.29812315106391907,-1.2443968057632446,0.00476844422519207,-0.9054322242736816,0.0558861680328846,1.2489745616912842,0.007438773289322853,0.9546425342559814,0.04253452271223068,-0.7345311641693115,-0.04558632895350456,-0.07724879682064056,0.8421072959899902,-0.23007524013519287,0.03843552991747856,-0.44766154885292053,0.00667582219466567,-0.1504921019077301,1.0488669872283936,-0.47336673736572266,0.011867615394294262,0.5673556923866272,0.7119358777999878,-2.8333487510681152,0.19163161516189575,-0.02652115747332573,0.15172939002513885,2.941267251968384,1.5938670635223389,0.30668336153030396,-0.2605186402797699,0.4787992537021637,1.1520085334777832,-0.3472193777561188,-0.7816725969314575,0.7586546540260315,-0.5991434454917908,0.5689666271209717,-3.090651035308838,0.8134007453918457,0.8083796501159668,6.6098480224609375,2.1858959197998047,-0.08249521255493164,1741422568.1435416,1741422568859,-1.11071435546875,-1.6418048095703126,-3.111272893988337,-3.84271630859375,0.14089515686035156
1741422568.1139152,2.6399349570274353,0.039594378150217914,0.024402041396061825,-0.9989178272483691,0.04514355584979057,0.11039722710847855,-0.8707374930381775,-1.2321360111236572,-0.5915579795837402,12.211525917053223,-0.047112464904785156,0.14133644104003906,0.23250934481620789,-1.2394375801086426,0.005149920005351305,-0.9061951637268066,0.10051880776882172,1.2630890607833862,0.0078202486038208,0.951972246170044,0.058175019919872284,-0.7074463963508606,-0.048256658017635345,-0.07495994865894318,0.8527885675430298,-0.2619367241859436,0.0412931926548481,-0.535400927066803,0.024223696440458298,-0.14248111844062805,1.2022202014923096,-0.4327051639556885,-9.202621004078537e-05,-0.2418866753578186,-0.114932119846344,-3.3237221240997314,0.3664439022541046,-0.0009592450223863125,-0.024812545627355576,2.9134106636047363,0.8013144135475159,-0.0442509800195694,-0.17530733346939087,0.8121210336685181,1.2403658628463745,-0.08855433762073517,0.18453457951545715,0.5426668524742126,-1.6805262565612793,0.27142980694770813,-4.177147388458252,0.8457853198051453,0.426096647977829,7.630368232727051,1.8232449293136597,-0.7074227333068848,1741422568.1435416,1741422568859,-1.11071435546875,-1.6418048095703126,-3.111272893988337,-3.84271630859375,0.14089515686035156
1741422568.133965,2.6178069710731506,0.04189995447808033,0.02364826924128856,-0.9988419059974538,0.1587780863046646,0.11170267313718796,-1.1056008338928223,-4.35685920715332,0.6412773132324219,11.781597137451172,-0.051308631896972656,0.13714027404785156,0.16079194843769073,-1.2333340644836426,0.005149920005351305,-0.9046692848205566,0.14782176911830902,1.2726260423660278,0.0078202486038208,0.9481574892997742,0.07495994865894318,-0.6795986890792847,-0.04253452271223068,-0.06656748056411743,0.8600366115570068,-0.30395230650901794,0.0463809072971344,-0.6307697892189026,0.03833829239010811,-0.13179980218410492,1.3189517259597778,-0.41928723454475403,-0.006914165336638689,-0.14408335089683533,-0.16492778062820435,-3.6111295223236084,0.4319497346878052,-0.016889743506908417,0.03864332288503647,3.2988638877868652,0.5616452097892761,0.01087336428463459,-0.2531048357486725,0.6945024728775024,1.483167052268982,0.302657812833786,0.2411937117576599,0.19434307515621185,-2.1692824363708496,0.24562929570674896,-4.597011566162109,0.8735556602478027,0.4392598867416382,5.4429707527160645,0.44632554054260254,-0.20581702888011932,1741422568.1435416,1741422568859,-1.11071435546875,-1.6418048095703126,-3.111272893988337,-3.84271630859375,0.14089515686035156
1741422568.1539614,2.596592605113983,0.044063784130239515,0.018012580709888475,-0.9988663223196051,0.31327685713768005,0.10332504659891129,-1.0279147624969482,-0.6386003494262695,-4.492528438568115,10.09546947479248,-0.047875404357910156,0.13828468322753906,0.086785688996315,-1.2306636571884155,0.005149920005351305,-0.9065766334533691,0.20428015291690826,1.2745333909988403,0.007057297509163618,0.9454871416091919,0.06885633617639542,-0.6391623020172119,-0.039101243019104004,-0.06046387553215027,0.8577477931976318,-0.3482946753501892,0.04433656856417656,-0.7116426229476929,0.054741740226745605,-0.12149996310472488,1.3689249753952026,-0.4284546375274658,0.0009524709894321859,0.09584538638591766,0.043940313160419464,-3.68395733833313,0.03807534649968147,0.004038666374981403,-0.10750769078731537,3.831467628479004,0.03881360962986946,-0.04491283372044563,-0.20095959305763245,-0.4810907244682312,2.0185258388519287,0.1954200714826584,0.3987375795841217,-0.16512787342071533,-2.2155327796936035,-0.06286074221134186,-4.002710342407227,0.7123026251792908,0.532527506351471,2.012986660003662,-0.5225529074668884,0.4471207857131958,1741422568.1435416,1741422568859,-1.11071435546875,-1.6418048095703126,-3.111272893988337,-3.84271630859375,0.14089515686035156
1741422568.1740005,2.586910665035248,0.04382657096054702,0.014319658429068733,-0.9989365240395982,0.20526930689811707,-0.0009117837762460113,-0.4203709065914154,0.49860718846321106,-4.587193012237549,8.403680801391602,-0.059700965881347656,0.13179969787597656,0.02193484455347061,-1.2314265966415405,0.005149920005351305,-0.9081025123596191,0.2653162479400635,1.2737704515457153,0.00667582219466567,0.9439612627029419,0.05664911866188049,-0.5903334021568298,-0.03032730519771576,-0.04749370738863945,0.8463035225868225,-0.38907280564308167,0.04226262494921684,-0.778782308101654,0.05970092490315437,-0.10738536715507507,1.3601510524749756,-0.4420509338378906,0.001257391064427793,-0.2915748059749603,-0.13580170273780823,-3.2483553886413574,-0.04016408696770668,-0.023901263251900673,-0.11967583000659943,4.00050163269043,-0.106364905834198,-0.0001700316643109545,-0.10215657949447632,-0.8884446620941162,2.594146728515625,0.4623561203479767,0.6132897138595581,-0.636025071144104,-2.004028558731079,-0.10418729484081268,-3.224050998687744,0.05628806725144386,0.6783234477043152,-0.7790544033050537,-0.6288185715675354,0.04287077486515045,1741422568.1435416,1741422568859,-1.11071435546875,-1.6418048095703126,-3.111272893988337,-3.84271630859375,0.14089515686035156
1741422568.1940193,2.589245021343231,0.04401133826775475,0.009003201316030395,-0.9989904626521438,0.28622037172317505,-0.031977422535419464,0.1639559119939804,2.1972267627716064,-0.7641468048095703,8.045977592468262,-0.06923770904541016,0.12722206115722656,-0.040245670825242996,-1.233715534210205,0.005531395319849253,-0.9115357995033264,0.325970858335495,1.2718631029129028,0.006294346414506435,0.9431982636451721,0.02689402550458908,-0.535400927066803,-0.023079270496964455,-0.02880140393972397,0.8276112079620361,-0.42421144247055054,0.03169972077012062,-0.8367666006088257,0.05054550990462303,-0.09746700525283813,1.3170443773269653,-0.44338253140449524,0.0026253776159137487,-0.28248801827430725,-0.15145404636859894,-3.0146167278289795,-0.20627987384796143,0.040453195571899414,-0.23732395470142365,3.9143903255462646,-0.11816439032554626,-0.01049371063709259,-0.04715019091963768,-1.417635202407837,2.7116496562957764,0.312153697013855,1.056449294090271,-1.0164631605148315,-1.7421756982803345,-0.34009239077568054,-2.887369155883789,-0.5203040242195129,0.46021801233291626,-2.3565657138824463,0.10134157538414001,0.0758766308426857,1741422568.1435416,1741422568859,-1.11071435546875,-1.6418048095703126,-3.111272893988337,-3.84271630859375,0.14089515686035156
1741422568.2140152,2.5902817845344543,0.042890857936701825,0.0024807527942729128,-0.9990766838291381,0.33373358845710754,-0.041887316852808,0.08876106888055801,-0.2025323212146759,2.1877098083496094,6.941701889038086,-0.07114505767822266,0.12111854553222656,-0.09403372555971146,-1.2340970039367676,0.00476844422519207,-0.9283207654953003,0.38242924213409424,1.2688112258911133,0.007057297509163618,0.9420538544654846,0.002861066721379757,-0.4812313914299011,-0.013923857361078262,0.0020981156267225742,0.8089188933372498,-0.4584161639213562,0.02759876661002636,-0.8878843188285828,0.031090257689356804,-0.09174486994743347,1.2594414949417114,-0.42433205246925354,0.006994725205004215,-0.09020818769931793,-0.1842455118894577,-2.461865186691284,0.03698505461215973,-0.015646779909729958,-0.9253950715065002,3.7516236305236816,-0.13698381185531616,0.033795446157455444,-0.10203618556261063,-1.1788513660430908,2.7518322467803955,0.43801841139793396,1.5381715297698975,-0.945299506187439,-1.696922779083252,-0.2620278000831604,-2.3850433826446533,-1.0368369817733765,0.16885779798030853,-3.001508951187134,1.1014682054519653,0.28497326374053955,1741422568.1435416,1741422568859,-1.11071435546875,-1.6418048095703126,-3.111272893988337,-3.84271630859375,0.14089515686035156
1741422568.2340462,2.587559401988983,0.04277940650794194,-0.0032306729346551263,-0.9990793187386162,0.27128466963768005,-0.020138148218393326,-0.16676782071590424,0.5980085730552673,-0.2658274173736572,8.410451889038086,-0.07000064849853516,0.11005592346191406,-0.12417028844356537,-1.2314265966415405,0.00476844422519207,-0.9470130205154419,0.4358358085155487,1.2669038772583008,0.00667582219466567,0.9363317489624023,-0.00858320016413927,-0.43087664246559143,-0.01125352829694748,0.022697795182466507,0.7894636392593384,-0.4906366765499115,0.01809144765138626,-0.9199283123016357,0.0032425422687083483,-0.09517814964056015,1.1877241134643555,-0.3870696723461151,0.00911665242165327,0.0014188882196322083,-0.3102538585662842,-1.294739842414856,0.190948486328125,-0.010942843742668629,-0.9498462080955505,3.3144919872283936,-0.23920565843582153,-0.004116590600460768,-0.40115049481391907,-0.46740418672561646,2.3571224212646484,0.001971702091395855,1.0222657918930054,-0.9647870659828186,-1.5938624143600464,-0.48258110880851746,-1.4223244190216064,-1.5131946802139282,-0.2554686665534973,-3.6934149265289307,1.9181586503982544,-0.06187395006418228,1741422568.1435416,1741422568859,-1.11071435546875,-1.6418048095703126,-3.111272893988337,-3.84271630859375,0.14089515686035156
1741422568.2541072,2.5792532563209534,0.039460044938294664,-0.007930066047249548,-0.9991896811446533,0.26075759530067444,-0.16264721751213074,-0.4396388828754425,0.7181004881858826,-0.3832729160785675,6.599097728729248,-0.07267093658447266,0.10624122619628906,-0.12836651504039764,-1.2276118993759155,0.00476844422519207,-0.9630350470542908,0.4663538634777069,1.2604187726974487,0.00667582219466567,0.9302281141281128,-0.004005493130534887,-0.37937742471694946,-0.014686808921396732,0.03032730519771576,0.7715343236923218,-0.5178288221359253,0.013328050263226032,-0.9267948269844055,-0.027656977996230125,-0.11005569249391556,1.0946440696716309,-0.344180703163147,0.0025849861558526754,-0.07262712717056274,-0.08822649717330933,-0.01765868067741394,0.23208989202976227,-0.01546975877135992,-0.7524585127830505,1.821008324623108,-0.4204190671443939,-0.020154284313321114,-0.4004260003566742,0.41208723187446594,3.0765247344970703,-0.17927813529968262,0.22209762036800385,-0.7488431930541992,-1.2264660596847534,-0.19251646101474762,-0.18966738879680634,-1.4550853967666626,-0.9119722843170166,-4.814970970153809,2.031493902206421,-0.3268253803253174,1741422568.3590357,1741422569059,-1.2787972412109376,-1.5254019775390626,3.0503840766713957,-3.9938391113281253,0.2682537536621094
1741422568.2741394,2.565890371799469,0.03477210554116032,-0.011669784760362862,-0.9993271320242844,0.20672065019607544,-0.3280182182788849,-0.6753776669502258,2.846658945083618,-3.2710142135620117,8.6952486038208,-0.07419681549072266,0.10433387756347656,-0.10967422276735306,-1.225704550743103,0.005149920005351305,-0.9718089699745178,0.47703516483306885,1.2554595470428467,0.006294346414506435,0.9225986003875732,0.010872052982449532,-0.31452658772468567,-0.019645990803837776,0.02841992862522602,0.7478827834129333,-0.5316135883331299,0.010618222877383232,-0.9126802682876587,-0.05436026677489281,-0.1359960287809372,0.9790570139884949,-0.3160999119281769,-0.004183784127235413,-0.04877062514424324,-0.01944197528064251,1.1013853549957275,0.11725468188524246,-0.006014678161591291,-0.31809723377227783,0.5267922282218933,-0.386594295501709,0.004059832077473402,-0.4816652834415436,0.6805830001831055,3.2058935165405273,-0.2995207905769348,-0.11268477886915207,-1.3049777746200562,-0.5098077654838562,-0.18400415778160095,0.8602770566940308,-1.3418866395950317,-1.3308229446411133,-5.911015033721924,1.1470203399658203,-0.2985993027687073,1741422568.3590357,1741422569059,-1.2787972412109376,-1.5254019775390626,3.0503840766713957,-3.9938391113281253,0.2682537536621094
1741422568.294157,2.5540496706962585,0.024508890377337177,-0.013606228790166212,-0.9996070151967629,0.12182644754648209,-0.474828839302063,-0.5530803203582764,-0.34460437297821045,0.25284287333488464,8.2969388961792,-0.07610416412353516,0.10166358947753906,-0.07419699430465698,-1.2234156131744385,0.005149920005351305,-0.9710460305213928,0.4720759987831116,1.2531707286834717,0.005912871100008488,0.917639434337616,0.02231631986796856,-0.24967575073242188,-0.038719769567251205,0.025749599561095238,0.735675573348999,-0.5263723731040955,0.02443884313106537,-0.8733882904052734,-0.07953765243291855,-0.15545128285884857,0.8501182794570923,-0.3211100697517395,-0.010469107888638973,-0.07678555697202682,-0.06182793155312538,1.7833768129348755,0.16710254549980164,-0.011133071035146713,0.04164424166083336,-0.5088068842887878,-0.11853946000337601,-0.012546663172543049,-0.2932911515235901,0.5415440797805786,3.248781442642212,-1.1918703317642212,-0.024671822786331177,-0.31209897994995117,0.36373743414878845,0.8264271020889282,2.2884938716888428,-1.2591452598571777,-0.7743577361106873,-6.463861465454102,-0.5590052604675293,-0.28824105858802795,1741422568.3590357,1741422569059,-1.2787972412109376,-1.5254019775390626,3.0503840766713957,-3.9938391113281253,0.2682537536621094
1741422568.314875,2.5474855303764343,0.01565564352385115,-0.020529768182366435,-0.9996666591640598,0.41064926981925964,-0.5272465348243713,-0.25829797983169556,-5.098178863525391,6.873830318450928,15.418803215026855,-0.07267093658447266,0.09937477111816406,-0.028038453310728073,-1.2211267948150635,0.005149920005351305,-0.9660868048667908,0.4537651538848877,1.2501189708709717,0.005912871100008488,0.916113555431366,0.024986648932099342,-0.20771344006061554,-0.06809338182210922,0.03337911143898964,0.7616159319877625,-0.5148875713348389,0.042440831661224365,-0.8279926776885986,-0.09479667246341705,-0.1646067053079605,0.7471198439598083,-0.3432486057281494,-0.015177969820797443,0.0696699321269989,-0.018263736739754677,2.5284676551818848,0.12187857925891876,-0.008470317348837852,0.28383055329322815,-1.2820390462875366,-0.22438089549541473,-0.006569643039256334,-0.09853938221931458,0.08219565451145172,1.860445499420166,-1.1667195558547974,0.3783014714717865,1.7305192947387695,0.5694156289100647,0.9287149906158447,1.8433754444122314,-0.6904940605163574,-0.3286699950695038,-4.312068939208984,-0.5744774341583252,-0.30105775594711304,1741422568.3590357,1741422569059,-1.2787972412109376,-1.5254019775390626,3.0503840766713957,-3.9938391113281253,0.2682537536621094
1741422568.3341584,2.5450662970542908,0.00646286894610891,-0.02988740793590242,-0.9995323777506452,0.3564226031303406,-0.23486082255840302,-0.21576367318630219,1.558370590209961,-17.90167808532715,9.629643440246582,-0.07190799713134766,0.09365177154541016,0.024986648932099342,-1.224560022354126,0.00476844422519207,-0.959220290184021,0.4217212200164795,1.2436338663101196,0.005531395319849253,0.9107728600502014,0.0032425422687083483,-0.200083926320076,-0.0558861680328846,0.040245670825242996,0.838674008846283,-0.4943568706512451,0.05965348705649376,-0.7909895181655884,-0.07457847148180008,-0.14667734503746033,0.8104447722434998,-0.3321457803249359,-0.033347584307193756,0.023327680304646492,-0.14493025839328766,2.65927791595459,-0.310638427734375,-0.0034570323769003153,0.2648455500602722,-2.4567954540252686,-0.3932585120201111,-0.03558739274740219,-0.3743308484554291,-1.3999022245407104,0.025078577920794487,0.09704010933637619,0.731591522693634,4.07625675201416,1.2456110715866089,0.6641241908073425,1.8992854356765747,1.1291669607162476,1.5984525680541992,3.75386905670166,0.16598989069461823,-0.909289538860321,1741422568.3590357,1741422569059,-1.2787972412109376,-1.5254019775390626,3.0503840766713957,-3.9938391113281253,0.2682537536621094
1741422568.3542104,2.5481414198875427,0.005561633234286636,-0.029062415165915956,-0.999562126263541,0.02520850859582424,-0.16802680492401123,0.12411192804574966,6.3768415451049805,2.2831833362579346,8.559083938598633,-0.08487796783447266,0.08754825592041016,0.08564125746488571,-1.232571005821228,0.00476844422519207,-0.9538795948028564,0.3591592311859131,1.2516448497772217,0.006294346414506435,0.9115357995033264,-0.026512550190091133,-0.24013885855674744,-0.06885633617639542,0.04406042397022247,0.959220290184021,-0.45106104016304016,0.06791259348392487,-0.7879377603530884,-0.06313420087099075,-0.09021896868944168,0.8344777822494507,-0.3482322692871094,-0.02589697390794754,-0.2028157263994217,-0.12103736400604248,3.2966654300689697,-0.5168673396110535,-0.10858482867479324,0.27726414799690247,-4.4283599853515625,0.5728182792663574,0.09987576305866241,0.14505524933338165,-1.4189993143081665,-2.6608314514160156,-0.5637192130088806,-0.2845134437084198,6.2252984046936035,2.1724190711975098,0.48275262117385864,0.39149078726768494,0.8378803133964539,2.70908522605896,0.5223404169082642,-0.8409488201141357,0.4377392530441284,1741422568.3590357,1741422569059,-1.2787972412109376,-1.5254019775390626,3.0503840766713957,-3.9938391113281253,0.2682537536621094
1741422568.3742123,2.558520257472992,0.005283548593913172,-0.03207026942315701,-0.9994716513905644,0.07411113381385803,0.1255141794681549,0.5188326239585876,0.4506770372390747,-3.9821126461029053,12.792503356933594,-0.07228946685791016,0.08030033111572266,0.14400701224803925,-1.2440153360366821,0.005149920005351305,-0.9496833682060242,0.28362706303596497,1.2505004405975342,0.005531395319849253,0.9134432077407837,-0.03528648987412453,-0.3278782367706299,-0.07610437273979187,0.02231631986796856,1.125162124633789,-0.4065000116825104,0.06639283895492554,-0.7513160705566406,-0.03643091395497322,-0.06656748056411743,0.8363851308822632,-0.3484037220478058,-0.019470175728201866,0.30958184599876404,-0.1944425255060196,2.762596607208252,-0.8025674223899841,-0.02922815829515457,0.11653923988342285,-5.004342079162598,-0.19274449348449707,-0.1271650493144989,0.013908743858337402,-0.2963940501213074,-4.531682014465332,-0.42913830280303955,-1.0547891855239868,8.389763832092285,2.081942319869995,-0.5117002725601196,1.9337596893310547,0.9719793200492859,1.1290429830551147,0.36718788743019104,0.06935228407382965,0.01855667307972908,1741422568.3590357,1741422569059,-1.2787972412109376,-1.5254019775390626,3.0503840766713957,-3.9938391113281253,0.2682537536621094
1741422568.394272,2.575855791568756,0.003893970682786331,-0.023271114265603687,-0.9997216073653499,-0.38858094811439514,-0.1078343540430069,0.8129100203514099,-4.53125,4.895394325256348,11.415361404418945,-0.09441566467285156,0.09212589263916016,0.20656901597976685,-1.2485930919647217,0.005149920005351305,-0.9500648379325867,0.21114671230316162,1.2489745616912842,0.00476844422519207,0.9130617380142212,-0.034142062067985535,-0.44308385252952576,-0.09365224838256836,0.019645990803837776,1.2842373847961426,-0.3857872188091278,0.017196442931890488,-0.7215610146522522,-0.03795681521296501,-0.05855649709701538,0.8440146446228027,-0.3499537408351898,-0.014585206285119057,-0.6403533220291138,0.3363398611545563,3.0545332431793213,-0.22624905407428741,-0.0036569214425981045,0.020897025242447853,-4.752842426300049,0.008268394507467747,0.008510570041835308,0.0165733452886343,0.07595912367105484,-5.812126159667969,-0.6757667660713196,0.10353100299835205,7.856787204742432,0.7626631259918213,-2.508931875228882,1.4417659044265747,-0.113404281437397,0.12506231665611267,0.3298895061016083,-0.11438878625631332,0.35587117075920105,1741422568.3590357,1741422569059,-1.2787972412109376,-1.5254019775390626,3.0503840766713957,-3.9938391113281253,0.2682537536621094
1741422568.4142878,2.595228612422943,-0.00046966106766864213,-0.01983380796525214,-0.9998031803710563,-0.16195565462112427,-0.20533230900764465,1.0173773765563965,-1.0059815645217896,3.5700936317443848,8.737833976745605,-0.07076358795166016,0.10051918029785156,0.26913100481033325,-1.2550780773162842,0.005149920005351305,-0.9531166553497314,0.13828489184379578,1.2478300333023071,0.00476844422519207,0.9153505563735962,-0.03452353551983833,-0.5556191205978394,-0.09060044586658478,0.03185320645570755,1.3982986211776733,-0.40761950612068176,0.0034398799762129784,-0.6765468716621399,-0.04749370738863945,-0.058175019919872284,0.8421072959899902,-0.3537719249725342,-0.009017817676067352,0.6205635666847229,0.2891382873058319,2.874645709991455,-0.5215018391609192,-0.008391817100346088,-0.1010751873254776,-4.799581527709961,-0.14708486199378967,-0.028392799198627472,0.1710965633392334,-0.07935614883899689,-5.522183418273926,0.06789734214544296,0.7284746766090393,5.219737529754639,-1.4165438413619995,-0.11243896931409836,2.342770576477051,-0.44001567363739014,0.09692739695310593,-0.1549801230430603,-0.2062363624572754,0.30332282185554504,1741422568.456299,1741422569159,-1.3588836669921875,-1.4608013916015625,3.008703153783791,-4.063659423828125,0.328537109375
1741422568.4342995,2.617535889148712,-0.007327915708787886,-0.018537435040117296,-0.9998013128384551,-0.027829544618725777,-0.35258159041404724,1.1284986734390259,4.261524200439453,0.7815590500831604,9.131315231323242,-0.07686710357666016,0.10204505920410156,0.33131152391433716,-1.2577484846115112,0.005149920005351305,-0.9508277773857117,0.0722896158695221,1.2421079874038696,0.004005493130534887,0.917639434337616,-0.040627144277095795,-0.649462103843689,-0.08220797777175903,0.0707637146115303,1.4433127641677856,-0.45485246181488037,0.0009587871027179062,-0.6303883194923401,-0.05130846053361893,-0.058175019919872284,0.8325703740119934,-0.36166590452194214,-0.00010517078771954402,-0.1144513487815857,0.07594078779220581,2.8117403984069824,-0.12205898016691208,0.0007130021112971008,0.11030681431293488,-4.363183975219727,-0.43282148241996765,-0.03769513592123985,0.1902686059474945,-0.19807791709899902,-4.770946025848389,0.49598923325538635,2.142902135848999,1.626205325126648,-2.3727633953094482,-0.2310197353363037,2.1954829692840576,-0.159184992313385,-0.0005172535311430693,-0.5521480441093445,-0.4758206605911255,0.4705595374107361,1741422568.456299,1741422569159,-1.3588836669921875,-1.4608013916015625,3.008703153783791,-4.063659423828125,0.328537109375
1741422568.454304,2.633835017681122,-0.014952479565642487,-0.020418754232582336,-0.9996796976184064,0.12373153120279312,-0.3153437376022339,0.6766631007194519,-0.8346144556999207,2.269584894180298,9.46876049041748,-0.06961917877197266,0.10242652893066406,0.3850995600223541,-1.2588928937911987,0.005149920005351305,-0.951209306716919,0.018501564860343933,1.2340970039367676,0.004005493130534887,0.9206912517547607,-0.045204851776361465,-0.7215610146522522,-0.06237125024199486,0.10700388997793198,1.4223315715789795,-0.4988265335559845,-0.006826135795563459,-0.5918593406677246,-0.0551232174038887,-0.05703059583902359,0.8237964510917664,-0.3767256736755371,0.005397064611315727,0.209841787815094,0.004495491739362478,2.5440773963928223,-0.12795798480510712,-0.016112107783555984,-0.048706937581300735,-3.4229354858398438,-0.5218791365623474,0.01908872462809086,0.17650006711483002,-0.19114427268505096,-3.4901111125946045,1.1173670291900635,1.648079514503479,-1.4898862838745117,-1.992875099182129,-0.361040323972702,1.9383808374404907,-0.17829599976539612,0.03665383160114288,-0.4161352813243866,-0.7916210293769836,0.3239682912826538,1741422568.456299,1741422569159,-1.3588836669921875,-1.4608013916015625,3.008703153783791,-4.063659423828125,0.328537109375
1741422568.474332,2.6396387219429016,-0.018419630307869056,-0.022822578283240795,-0.9995698310472495,0.11136338859796524,-0.12969060242176056,0.23717118799686432,-0.34129971265792847,-4.010174751281738,10.881189346313477,-0.06847476959228516,0.10318946838378906,0.4232471287250519,-1.2585114240646362,0.005149920005351305,-0.9515907764434814,-0.026131074875593185,1.231808066368103,0.004386968910694122,0.924124538898468,-0.04329747334122658,-0.777256429195404,-0.04253452271223068,0.12836651504039764,1.3483253717422485,-0.5118588209152222,-0.009389075450599194,-0.5540932416915894,-0.05893797054886818,-0.05397878959774971,0.8199816942214966,-0.39924782514572144,0.01564789190888405,0.019622590392827988,0.019022781401872635,1.803976058959961,-0.008718131110072136,0.026388997212052345,-0.006524666678160429,-3.153285264968872,-0.002470151986926794,0.0009003178565762937,0.28287526965141296,0.07902927696704865,-2.7320778369903564,1.01370370388031,0.9686147570610046,-4.051515102386475,-0.285332053899765,-0.091298408806324,1.8686074018478394,-0.2292928248643875,0.16669650375843048,-0.18326321244239807,-1.1914907693862915,0.5459804534912109,1741422568.456299,1741422569159,-1.3588836669921875,-1.4608013916015625,3.008703153783791,-4.063659423828125,0.328537109375
1741422568.4943774,2.6490020155906677,-0.012770400634266856,-0.024704287957992826,-0.999613232717599,0.10437258332967758,0.37501242756843567,0.506862223148346,3.5094048976898193,3.6796295642852783,8.580870628356934,-0.06961917877197266,0.08144474029541016,0.4648279547691345,-1.2592743635177612,0.005149920005351305,-0.9458686113357544,-0.07457847148180008,1.232571005821228,0.004386968910694122,0.9351872801780701,-0.05092698708176613,-0.8081559538841248,-0.02384222112596035,0.12951095402240753,1.2388418912887573,-0.4836779832839966,-0.013222062960267067,-0.5228122472763062,-0.06427863240242004,-0.05245288833975792,0.8196002244949341,-0.42285725474357605,0.026740755885839462,-0.02129785157740116,-0.6351571083068848,2.0033860206604004,0.014023483730852604,-0.008294527418911457,0.2916259169578552,-2.930647373199463,-0.03776839002966881,-0.00047669600462540984,0.8283378481864929,-0.45666930079460144,-1.4004576206207275,0.9603039026260376,0.04000643268227577,-5.6850128173828125,1.647628664970398,-0.2083001732826233,1.5493249893188477,-0.26593223214149475,0.05078168213367462,0.029332054778933525,-1.162717342376709,0.43727216124534607,1741422568.456299,1741422569159,-1.3588836669921875,-1.4608013916015625,3.008703153783791,-4.063659423828125,0.328537109375
1741422568.5143814,2.6552355885505676,-0.005760980567718261,-0.028320560936532586,-0.999582291225259,0.1898876577615738,0.3680669069290161,0.29850614070892334,3.453207492828369,1.437341570854187,7.610177040100098,-0.06733036041259766,0.07953739166259766,0.4884794354438782,-1.2562226057052612,0.005149920005351305,-0.9370946884155273,-0.1028076633810997,1.229519248008728,0.004005493130534887,0.9508277773857117,-0.06885633617639542,-0.8245593905448914,0.005531395319849253,0.12836651504039764,1.0931181907653809,-0.43983951210975647,-0.011778173968195915,-0.49420157074928284,-0.06885633617639542,-0.048638131469488144,0.8203631639480591,-0.4484540820121765,0.03505780175328255,0.021396363154053688,-0.13702037930488586,0.9861224889755249,0.15653342008590698,-0.013131354004144669,0.44672486186027527,-1.7625483274459839,-0.18593230843544006,-0.005533192772418261,0.9888229966163635,-1.0212557315826416,-0.5818077921867371,1.5672738552093506,-0.03870309516787529,-7.4271240234375,2.1959104537963867,0.33966901898384094,1.4719284772872925,-0.18602339923381805,0.2487768828868866,0.07207325845956802,-1.2902125120162964,0.3885748088359833,1741422568.5530088,1741422569259,-1.445564208984375,-1.4262281494140625,-3.1210407506472992,-4.132357421875,0.38590325927734376
1741422568.5345175,2.6613898873329163,0.0018201149496619527,-0.030227297620972645,-0.9995413936701688,0.06375590711832047,0.3723222017288208,0.3025074899196625,1.7582329511642456,0.07955527305603027,8.672735214233398,-0.06961917877197266,0.08068180084228516,0.49382010102272034,-1.2558410167694092,0.005149920005351305,-0.9287022352218628,-0.10929274559020996,1.2268489599227905,0.004005493130534887,0.9626535177230835,-0.09632257372140884,-0.8146410584449768,0.040245670825242996,0.13981078565120697,0.9370946884155273,-0.39405152201652527,-0.003535301424562931,-0.4640650153160095,-0.06008239835500717,-0.034142062067985535,0.8211261034011841,-0.4748663604259491,0.03886435553431511,-0.047427110373973846,0.0023323337081819773,0.14338362216949463,0.03344330936670303,0.0014323975192382932,0.4092239737510681,-0.1944422870874405,-0.2248026430606842,-0.0001375199790345505,0.7171062231063843,-1.4349392652511597,0.5230339169502258,1.6316566467285156,0.9218007922172546,-7.692566871643066,2.247234344482422,0.49033084511756897,1.478931188583374,0.6219627261161804,0.7744764089584351,0.008142963983118534,-1.2581499814987183,0.06620744615793228,1741422568.5530088,1741422569259,-1.445564208984375,-1.4262281494140625,-3.1210407506472992,-4.132357421875,0.38590325927734376
1741422568.5544658,2.66589492559433,0.006761830925288215,-0.02750200480427832,-0.9995988782378076,-0.16412974894046783,0.25794991850852966,0.17975957691669464,14.29202651977539,-1.4991583824157715,5.388420104980469,-0.07686710357666016,0.08106327056884766,0.4850461483001709,-1.2543151378631592,0.005149920005351305,-0.9218356609344482,-0.09632257372140884,1.221508264541626,0.004005493130534887,0.9683756828308105,-0.1199740618467331,-0.7940413355827332,0.06847485899925232,0.17986571788787842,0.7967116832733154,-0.3566204607486725,0.007947481237351894,-0.42858776450157166,-0.03185320645570755,-0.01201647985726595,0.8196002244949341,-0.4968193769454956,0.02187294326722622,-0.21633128821849823,0.020457742735743523,-0.5448693633079529,0.12764553725719452,0.011271707713603973,0.2572724521160126,1.0492199659347534,-0.3052128255367279,0.003624795936048031,0.31765303015708923,-1.069349765777588,1.0740842819213867,1.7223119735717773,2.0194966793060303,-6.6715264320373535,1.8302778005599976,0.7682322263717651,2.01587176322937,1.3798247575759888,1.1159849166870117,-0.03243672847747803,-1.0357455015182495,-1.1532620191574097,1741422568.5530088,1741422569259,-1.445564208984375,-1.4262281494140625,-3.1210407506472992,-4.132357421875,0.38590325927734376
1741422568.5744672,2.6724008917808533,0.0038108956958148484,-0.023945625390038545,-0.9997059988309941,-0.1337849497795105,-0.23563151061534882,0.3296646475791931,1.5863025188446045,-0.5155923366546631,12.64437198638916,-0.07953739166259766,0.10471534729003906,0.45986875891685486,-1.2493560314178467,0.005531395319849253,-0.9145876169204712,-0.06237125024199486,1.220745325088501,0.004005493130534887,0.967994213104248,-0.12951095402240753,-0.7646677494049072,0.08907453715801239,0.2286945879459381,0.7784008383750916,-0.31637224555015564,0.026845496147871017,-0.37823301553726196,-0.02727550081908703,0.007057297509163618,0.8192187547683716,-0.5038468241691589,0.00886551383882761,-0.07803825289011002,0.7748015522956848,-1.4621566534042358,0.30409878492355347,0.04251566901803017,0.3922213613986969,2.44744610786438,0.005920141004025936,-0.004330984782427549,-0.10146225988864899,-0.4423779249191284,1.9387956857681274,0.4742533266544342,2.368833541870117,0.3130417466163635,1.8710871934890747,1.1197214126586914,2.4680984020233154,0.0948224663734436,0.9286829829216003,-0.05569728836417198,-0.06476649641990662,-0.19654878973960876,1741422568.5530088,1741422569259,-1.445564208984375,-1.4262281494140625,-3.1210407506472992,-4.132357421875,0.38590325927734376
1741422568.5944612,2.6801170706748962,0.0049125396493891905,-0.02583450318163001,-0.9996541628981253,0.08973532915115356,0.1395372599363327,0.36292538046836853,3.8426902294158936,-0.4074532687664032,8.413615226745605,-0.07839298248291016,0.10051918029785156,0.40951400995254517,-1.2524077892303467,0.005149920005351305,-0.9126802682876587,-0.008964675478637218,1.2211267948150635,0.0036240178160369396,0.9645609259605408,-0.12569619715213776,-0.7135500311851501,0.08869306743144989,0.2283131182193756,0.7967116832733154,-0.31210458278656006,0.03781892731785774,-0.33321890234947205,-0.024223696440458298,0.023079270496964455,0.8287556171417236,-0.4842900037765503,0.01637626625597477,0.010102519765496254,-0.06112624704837799,-2.676257610321045,-0.3090722858905792,-0.0029674721881747246,-0.029821569100022316,3.6646220684051514,0.0011575523531064391,-0.014164809137582779,-0.17905887961387634,0.2963889539241791,2.232240915298462,0.009268599562346935,-0.5692808628082275,0.336618036031723,-0.040712181478738785,0.47112855315208435,2.207451820373535,0.19562669098377228,0.9709886908531189,0.8444314002990723,1.0589102506637573,0.07268614321947098,1741422568.5530088,1741422569259,-1.445564208984375,-1.4262281494140625,-3.1210407506472992,-4.132357421875,0.38590325927734376
1741422568.6144886,2.6858951449394226,0.004117237878765869,-0.027413342612110973,-0.9996157046580855,0.044023022055625916,-0.0633748322725296,0.30832183361053467,-21.3226261138916,5.025981426239014,14.722562789916992,-0.08831119537353516,0.11120033264160156,0.3419928252696991,-1.2566040754318237,0.005149920005351305,-0.9157320261001587,0.048638131469488144,1.222271203994751,0.004386968910694122,0.9596017599105835,-0.11463340371847153,-0.6822690367698669,0.07801175117492676,0.2004653960466385,0.8009079098701477,-0.31583455204963684,0.044979434460401535,-0.32978561520576477,-0.02193484455347061,0.05245288833975792,0.9023804068565369,-0.45665422081947327,0.006623101886361837,-0.28100326657295227,0.2895996570587158,-3.497732639312744,-0.16531844437122345,-0.008837130852043629,-0.1576211005449295,3.8089487552642822,0.1372186243534088,0.04518241435289383,-0.37410902976989746,0.6117247939109802,1.7984404563903809,-0.7681803107261658,-1.2225050926208496,0.37627413868904114,-0.15180012583732605,0.2896665930747986,-0.33558395504951477,-0.014932063408195972,1.6578677892684937,4.304844379425049,1.474780797958374,-0.5440372228622437,1741422568.6578767,1741422569359,-1.5473074951171875,-1.3861737060546875,-3.133078732525224,-4.19791845703125,0.44122714233398436
1741422568.6345184,2.681894361972809,0.006343901445637536,-0.02959839252825007,-0.9995417400359985,0.16754920780658722,0.0028743629809468985,-0.30708742141723633,-4.23885440826416,-2.2371504306793213,13.599852561950684,-0.09288883209228516,0.11997413635253906,0.2645532786846161,-1.2562226057052612,0.005149920005351305,-0.9172579646110535,0.10166323184967041,1.23600435256958,0.005149920005351305,0.9546425342559814,-0.1031891331076622,-0.648699164390564,0.04634927958250046,0.1668955534696579,0.8005264401435852,-0.3226388692855835,0.043275751173496246,-0.3892957866191864,-0.011635004542768002,0.0883115902543068,1.0523003339767456,-0.41531944274902344,-0.002913715783506632,-0.1833193451166153,0.2607906460762024,-3.729982852935791,-0.00021957416902296245,0.007185569033026695,-0.02693965472280979,3.5664379596710205,0.9591605067253113,0.09040773659944534,-0.3609597384929657,0.47404783964157104,1.5094006061553955,-1.5264885425567627,-1.6506037712097168,-0.09506477415561676,-0.3329313397407532,-0.21617744863033295,-3.595649003982544,0.7788141965866089,1.7551252841949463,8.088761329650879,2.1553566455841064,-0.4983174800872803,1741422568.6578767,1741422569359,-1.5473074951171875,-1.3861737060546875,-3.133078732525224,-4.19791845703125,0.44122714233398436
1741422568.6545556,2.6660974621772766,0.009292607560860876,-0.03506596080512255,-0.9993417963027132,0.27497491240501404,0.13138340413570404,-0.8352465629577637,-6.93241548538208,1.5124914646148682,10.6131010055542,-0.09327030181884766,0.12836647033691406,0.18596932291984558,-1.2554595470428467,0.005149920005351305,-0.916876494884491,0.152399480342865,1.2482116222381592,0.005149920005351305,0.9508277773857117,-0.09670405089855194,-0.6174181699752808,0.026512550190091133,0.1520180106163025,0.8020523190498352,-0.32616880536079407,0.038838982582092285,-0.4953460097312927,0.014686808921396732,0.10738536715507507,1.2350270748138428,-0.373340904712677,-0.008946542628109455,-0.024693645536899567,0.14624173939228058,-3.966198444366455,0.10448101907968521,-0.005010371096432209,0.0066304802894592285,3.346082925796509,0.6723731756210327,-0.01695980317890644,-0.2605092227458954,0.3208358585834503,1.6759870052337646,-0.8338224291801453,-0.5821172595024109,0.07451421022415161,-0.1559952199459076,-0.1430107057094574,-5.314168930053711,1.4886107444763184,0.7440314292907715,9.344305992126465,1.8697775602340698,-0.059668902307748795,1741422568.6578767,1741422569359,-1.5473074951171875,-1.3861737060546875,-3.133078732525224,-4.19791845703125,0.44122714233398436
1741422568.6745958,2.6407042145729065,0.013559441845966235,-0.03932926436341567,-0.9991343005329455,0.24384936690330505,0.10532914102077484,-1.2662968635559082,4.935946941375732,-2.557143211364746,10.281623840332031,-0.10280799865722656,0.13332557678222656,0.10776684433221817,-1.2516448497772217,0.005149920005351305,-0.9172579646110535,0.200083926320076,1.2566040754318237,0.005531395319849253,0.9470130205154419,-0.09365224838256836,-0.5796520709991455,0.027656977996230125,0.1520180106163025,0.8001449704170227,-0.33389005064964294,0.02723952941596508,-0.6074998378753662,0.04482337832450867,0.1024261862039566,1.3952468633651733,-0.3688235282897949,-0.007941557094454765,-0.2821449041366577,0.11421961337327957,-3.800875425338745,0.2956653833389282,0.015309044159948826,-0.0010749385692179203,3.198439598083496,0.5181453227996826,0.04257601127028465,-0.2321927845478058,0.10856328904628754,1.809670090675354,0.22471198439598083,-0.0020077507942914963,-0.11195779591798782,-0.4323495924472809,-0.5835573673248291,-5.626893043518066,1.462878704071045,-0.4349854588508606,7.565318584442139,-0.13958507776260376,0.006869038566946983,1741422568.6578767,1741422569359,-1.5473074951171875,-1.3861737060546875,-3.133078732525224,-4.19791845703125,0.44122714233398436
1741422568.694589,2.615871012210846,0.01322963982185807,-0.04332303727992796,-0.998973518703587,0.19124822318553925,-0.056649744510650635,-1.2403171062469482,-1.3336074352264404,-5.641363143920898,11.15163516998291,-0.11310768127441406,0.14400672912597656,0.04139009863138199,-1.2451597452163696,0.005149920005351305,-0.9172579646110535,0.24967575073242188,1.2604187726974487,0.005149920005351305,0.9443427324295044,-0.09517814964056015,-0.5380712747573853,0.03299763426184654,0.152399480342865,0.7997635006904602,-0.3485471308231354,0.018106505274772644,-0.7055390477180481,0.06466010212898254,0.0722896158695221,1.4845120906829834,-0.4009246230125427,-0.00800417736172676,-0.2745697498321533,0.24877847731113434,-3.1626803874969482,0.3971007168292999,-0.011064638383686543,-0.009842888452112675,3.3021745681762695,0.2609235346317291,-0.02391575649380684,-0.19442875683307648,0.02768068201839924,2.247542142868042,0.20100563764572144,-0.001537181087769568,-0.05348436161875725,-0.7630637884140015,-0.5096985101699829,-4.828054428100586,0.882134199142456,-1.7051938772201538,3.804206371307373,-1.7599636316299438,0.1128842681646347,1741422568.6578767,1741422569359,-1.5473074951171875,-1.3861737060546875,-3.133078732525224,-4.19791845703125,0.44122714233398436
1741422568.7146025,2.6055073142051697,0.012336242021521423,-0.04176014826869915,-0.9990515037521153,-0.1282978504896164,-0.12373965978622437,-0.48474377393722534,3.4210963249206543,-4.061406135559082,9.22382640838623,-0.12645912170410156,0.15201759338378906,-0.01201647985726595,-1.2413450479507446,0.005149920005351305,-0.917639434337616,0.29964902997016907,1.2630890607833862,0.005149920005351305,0.9412909150123596,-0.09479667246341705,-0.4888609051704407,0.03223468363285065,0.14667734503746033,0.7890821695327759,-0.37208184599876404,0.006903895642608404,-0.7833600640296936,0.07419699430465698,0.029182879254221916,1.4925230741500854,-0.44395381212234497,-0.0005323761142790318,-0.3945798873901367,0.24977102875709534,-2.491974353790283,0.2259703129529953,-0.019804561510682106,-0.04830462858080864,3.389187812805176,0.09559057652950287,0.003328499151393771,-0.2448890060186386,-0.07397755980491638,2.338175058364868,0.011988081969320774,-0.3520697355270386,-0.6432316899299622,-1.3581538200378418,-0.342964231967926,-3.9817333221435547,0.2817208468914032,-2.1988518238067627,-0.19994601607322693,-2.0569779872894287,0.5754066109657288,1741422568.757708,1741422569459,-1.6464316406250001,-1.337736328125,3.1201494534708796,-4.258625,0.49260516357421874
1741422568.7346547,2.6003963351249695,0.011482480033101084,-0.03578419634211365,-0.9992935724522791,-0.29019054770469666,0.01572016254067421,-0.27856576442718506,0.15072603523731232,-0.8627121448516846,8.234286308288574,-0.13218116760253906,0.15011024475097656,-0.0707637146115303,-1.23905611038208,0.005531395319849253,-0.9237430095672607,0.34924086928367615,1.2669038772583008,0.006294346414506435,0.9367132186889648,-0.09136339277029037,-0.4388876259326935,0.02994582988321781,0.1329442262649536,0.7722972631454468,-0.4064396321773529,0.0077259051613509655,-0.8421072959899902,0.0722896158695221,-0.010490577667951584,1.432249903678894,-0.47063010931015015,0.010092615149915218,-0.19123335182666779,-0.05270446464419365,-3.027327299118042,0.13218261301517487,0.03464876115322113,-0.3947429955005646,3.2756309509277344,0.29546868801116943,0.09958404302597046,-0.3054842948913574,0.3619263470172882,2.559201240539551,-0.10804642736911774,-0.665786862373352,-0.8367681503295898,-1.8049557209014893,0.06614691019058228,-2.7677507400512695,-0.1018417701125145,-1.9867714643478394,-3.491933584213257,-1.0340015888214111,0.3678540587425232,1741422568.757708,1741422569459,-1.6464316406250001,-1.337736328125,3.1201494534708796,-4.258625,0.49260516357421874
1741422568.754698,2.595793664455414,0.014827668239577006,-0.029791457318910076,-0.9994461512884988,-0.32659414410591125,0.17154324054718018,-0.25900381803512573,1.8399746417999268,-0.3443295657634735,7.4957733154296875,-0.13828468322753906,0.14705848693847656,-0.11692225188016891,-1.23600435256958,0.005149920005351305,-0.9405279755592346,0.39883267879486084,1.2695741653442383,0.006294346414506435,0.9306095838546753,-0.07686731964349747,-0.39806973934173584,0.029182879254221916,0.12569619715213776,0.7528420090675354,-0.44667813181877136,-0.0011694992426782846,-0.8791103959083557,0.06389715522527695,-0.03681239113211632,1.3250553607940674,-0.46354472637176514,0.013095066882669926,-0.18807590007781982,-0.06927778571844101,-2.142087936401367,0.242685467004776,0.01842082105576992,-0.8254989385604858,3.3628432750701904,0.08219434320926666,-0.02688046544790268,-0.4052124619483948,0.9187976717948914,1.8314435482025146,-0.06535203754901886,-0.28772157430648804,-1.0027779340744019,-2.0567445755004883,-0.4183456301689148,-1.7065976858139038,-0.46203550696372986,-1.2259407043457031,-5.600048065185547,0.6550731062889099,0.25339195132255554,1741422568.757708,1741422569459,-1.6464316406250001,-1.337736328125,3.1201494534708796,-4.258625,0.49260516357421874
1741422568.774685,2.5903932452201843,0.01895931568461589,-0.022163674057549976,-0.9995745674540953,-0.3572535812854767,0.2574702501296997,-0.23789764940738678,2.1296441555023193,1.9772112369537354,7.037197113037109,-0.14591407775878906,0.13523292541503906,-0.13790340721607208,-1.2306636571884155,0.00476844422519207,-0.9561684727668762,0.4369802474975586,1.2657594680786133,0.005912871100008488,0.924887478351593,-0.04940108209848404,-0.3686961233615875,0.024986648932099342,0.11272602528333664,0.7364385724067688,-0.488799124956131,0.004780478309839964,-0.8932250142097473,0.04291599988937378,-0.05054550990462303,1.19459068775177,-0.42470937967300415,0.013991434127092361,-0.23334233462810516,-0.2668852210044861,-0.9222562313079834,0.326511949300766,-0.014641305431723595,-0.784621000289917,2.2412428855895996,-0.2578659653663635,-0.0025214937049895525,-0.3067082464694977,1.4692169427871704,1.7841830253601074,-0.2598094940185547,-0.9113412499427795,-0.5892491936683655,-2.0124449729919434,0.47109416127204895,-0.48210781812667847,-1.0909239053726196,-0.6796833872795105,-6.675411701202393,2.0334134101867676,-0.05195876210927963,1741422568.757708,1741422569459,-1.6464316406250001,-1.337736328125,3.1201494534708796,-4.258625,0.49260516357421874
1741422568.7946823,2.5850414633750916,0.029691844874768485,-0.01841390485324708,-0.9993894748575193,-0.14983966946601868,0.49844521284103394,-0.26233214139938354,7.400957107543945,-1.770877480506897,4.829085826873779,-0.14782142639160156,0.12264442443847656,-0.13981078565120697,-1.2291377782821655,0.005149920005351305,-0.9699015617370605,0.45681697130203247,1.2600373029708862,0.005912871100008488,0.9218356609344482,-0.016594186425209045,-0.33436331152915955,0.013542382046580315,0.0871671661734581,0.726138710975647,-0.5198351740837097,-0.0003705505223479122,-0.8863584399223328,0.01506828423589468,-0.06923781335353851,1.043907880783081,-0.3772960901260376,0.00914677046239376,-0.07641730457544327,-0.33563095331192017,0.1363658756017685,0.05674520879983902,-0.001064438372850418,-0.6153491139411926,1.1947697401046753,-0.4213440716266632,0.004108044318854809,-0.18413041532039642,1.6867506504058838,1.6371471881866455,-0.7011160254478455,-1.181564211845398,-0.5763817429542542,-1.460655689239502,-0.5995869636535645,0.23630012571811676,-1.3506934642791748,-1.0956571102142334,-7.741632461547852,2.312349796295166,-0.19981487095355988,1741422568.757708,1741422569459,-1.6464316406250001,-1.337736328125,3.1201494534708796,-4.258625,0.49260516357421874
1741422568.814733,2.581428349018097,0.03438596812164567,-0.018361890325206465,-0.9992399342400313,0.07198411971330643,0.28206866979599,-0.17052887380123138,-1.2753640413284302,0.2151542752981186,7.280928611755371,-0.15239906311035156,0.12340736389160156,-0.11730372905731201,-1.2291377782821655,0.005149920005351305,-0.9752422571182251,0.46368351578712463,1.2535521984100342,0.005912871100008488,0.919165313243866,0.006294346414506435,-0.2943083941936493,-0.006294346414506435,0.07724879682064056,0.7223239541053772,-0.5261640548706055,-0.0022011990658938885,-0.8752956390380859,-0.014686808921396732,-0.09861142933368683,0.8936064839363098,-0.33679312467575073,-0.0030737638007849455,-0.13503503799438477,-0.018996480852365494,1.284047245979309,-0.02455068752169609,-0.002217841800302267,-0.2535456418991089,0.2475535273551941,-0.44050630927085876,-0.001081265159882605,-0.1123073548078537,1.0309220552444458,2.1822476387023926,-1.1540637016296387,-0.3069733679294586,0.00827301200479269,0.028073348104953766,0.12459327280521393,0.8545721173286438,-1.554235816001892,-1.3639339208602905,-7.3721022605896,1.7988120317459106,-0.5500231981277466,1741422568.8600833,1741422569559,-1.7368148193359376,-1.2830445556640626,3.046140469313407,-4.3208349609375,0.5415704956054688
1741422568.834733,2.5793407559394836,0.036051751687636635,-0.02407105982180493,-0.9990599858263307,0.33335626125335693,-0.09547258913516998,-0.08255527168512344,8.065189361572266,2.0241713523864746,6.859930992126465,-0.15087318420410156,0.12989234924316406,-0.07877469807863235,-1.230282187461853,0.005149920005351305,-0.9779125452041626,0.45643550157546997,1.2447782754898071,0.005531395319849253,0.918402373790741,0.010490577667951584,-0.25539788603782654,-0.03490501269698143,0.09098191559314728,0.735675573348999,-0.5163083076477051,0.016424793750047684,-0.8527885675430298,-0.04444190114736557,-0.1180666834115982,0.7726787328720093,-0.32440805435180664,-0.012158915400505066,0.01920240931212902,0.22186607122421265,2.170114040374756,-0.0725417360663414,-0.00758763263002038,-0.06974534690380096,-0.5513123273849487,-0.5926550030708313,-0.02273036725819111,-0.051825229078531265,0.03904259204864502,1.6941431760787964,-1.3131651878356934,0.7716845273971558,0.8911685347557068,0.4803495705127716,0.9879369139671326,0.9375283718109131,-1.4425840377807617,-0.8311896920204163,-5.7705912590026855,0.4484649896621704,-0.4256759285926819,1741422568.8600833,1741422569559,-1.7368148193359376,-1.2830445556640626,3.046140469313407,-4.3208349609375,0.5415704956054688
1741422568.8547728,2.578913986682892,0.025860205463266634,-0.03870166340253601,-0.9989161281225137,0.7742879390716553,-0.5291637182235718,0.008992292918264866,-16.052209854125977,-5.9772467613220215,20.32636260986328,-0.14476966857910156,0.14629554748535156,-0.02079041674733162,-1.2379117012023926,0.005531395319849253,-0.9740977883338928,0.4373617172241211,1.2348599433898926,0.00476844422519207,0.916876494884491,0.0009536888683214784,-0.23479819297790527,-0.028038453310728073,0.10166323184967041,0.7997635006904602,-0.5084816813468933,0.034483958035707474,-0.8230335116386414,-0.05359731614589691,-0.10776684433221817,0.7806897163391113,-0.30227163434028625,-0.022550219669938087,0.16861170530319214,0.5121986865997314,3.120896100997925,-0.7565414309501648,0.017458682879805565,0.2467721551656723,-1.4791896343231201,-0.6866398453712463,-0.06750175356864929,-0.16167519986629486,-0.5692107677459717,0.6977813243865967,0.563069760799408,0.5579436421394348,3.8811731338500977,0.4241441488265991,0.8565415143966675,2.1124348640441895,-0.22387759387493134,0.9993258118629456,1.9100888967514038,1.1155483722686768,-0.4900997281074524,1741422568.8600833,1741422569559,-1.7368148193359376,-1.2830445556640626,3.046140469313407,-4.3208349609375,0.5415704956054688
1741422568.874813,2.5769105553627014,0.026713944289928578,-0.04601069544540419,-0.9985836875721058,0.3336770534515381,-0.142818883061409,0.029609331861138344,-5.760256290435791,15.097978591918945,13.609628677368164,-0.15964794158935547,0.14743995666503906,0.05245288833975792,-1.2485930919647217,0.005531395319849253,-0.967994213104248,0.3885328471660614,1.230282187461853,0.00476844422519207,0.9138246774673462,-0.02231631986796856,-0.2580682039260864,-0.038719769567251205,0.10852979123592377,0.924887478351593,-0.478448748588562,0.03911173716187477,-0.805867075920105,-0.037193864583969116,-0.06466010212898254,0.8291370868682861,-0.30091822147369385,-0.027631819248199463,-0.5034133195877075,0.1164356991648674,3.7869114875793457,-0.4979027807712555,0.06604182720184326,0.36820709705352783,-3.48136830329895,-0.09976537525653839,0.047672830522060394,-0.14153844118118286,-1.1526215076446533,-1.852481722831726,-0.48104625940322876,0.021503673866391182,6.498281002044678,1.7742176055908203,0.16270048916339874,0.27917754650115967,0.852154016494751,2.1585497856140137,1.4729994535446167,-0.12076281756162643,-0.09086581319570541,1741422568.8600833,1741422569559,-1.7368148193359376,-1.2830445556640626,3.046140469313407,-4.3208349609375,0.5415704956054688
1741422568.8948162,2.5811296105384827,0.021461375672280226,-0.05269934744783752,-0.998379781512439,0.24017910659313202,-0.10767926275730133,0.2777547538280487,-12.459178924560547,-4.207049369812012,14.940449714660645,-0.14362525939941406,0.14629554748535156,0.12607766687870026,-1.2520263195037842,0.005149920005351305,-0.9580758213996887,0.31795987486839294,1.231045126914978,0.005531395319849253,0.9142061471939087,-0.03299763426184654,-0.33550775051116943,-0.04787518084049225,0.08182650804519653,1.0912108421325684,-0.432162880897522,0.04722047597169876,-0.7665750980377197,-0.013923857361078262,-0.023079270496964455,0.8398184180259705,-0.3018091022968292,-0.019880367442965508,0.36929193139076233,-0.07136954367160797,3.6481781005859375,-0.3211185038089752,0.0172312892973423,0.43297863006591797,-4.817750930786133,0.03974057361483574,0.004468646831810474,-0.06084272265434265,-0.5028578042984009,-4.221172332763672,-0.7471385598182678,-1.3288073539733887,8.93722152709961,2.3560590744018555,0.4991510212421417,2.666612148284912,1.0972415208816528,2.002473831176758,0.9381012916564941,0.09966025501489639,0.33912724256515503,1741422568.8600833,1741422569559,-1.7368148193359376,-1.2830445556640626,3.046140469313407,-4.3208349609375,0.5415704956054688
1741422568.914835,2.5965413451194763,0.014732292600528387,-0.046886739879811005,-0.998791566433245,-0.29359763860702515,-0.533044159412384,0.8414425253868103,-0.7999600768089294,-0.3640540838241577,12.373867988586426,-0.15812206268310547,0.17071056365966797,0.1962691694498062,-1.2546966075897217,0.005149920005351305,-0.9504463076591492,0.2481498420238495,1.23905611038208,0.005531395319849253,0.9115357995033264,-0.03337911143898964,-0.4396505653858185,-0.0711451917886734,0.05855649709701538,1.269741415977478,-0.39202141761779785,0.03402002155780792,-0.732623815536499,-0.008964675478637218,-0.005912871100008488,0.8554589152336121,-0.30292853713035583,-0.01432017795741558,-0.45110252499580383,0.7808446884155273,3.1944572925567627,-0.12389448285102844,-0.015557021833956242,0.388421893119812,-4.456686973571777,0.6003836989402771,0.06190768629312515,-0.1488649845123291,0.018886249512434006,-5.577202796936035,-1.065510630607605,-1.058048129081726,8.89422607421875,1.7815765142440796,-1.1603819131851196,1.4326746463775635,0.038134898990392685,0.6095232367515564,0.4056134521961212,-0.17626652121543884,0.24442709982395172,1741422568.8600833,1741422569559,-1.7368148193359376,-1.2830445556640626,3.046140469313407,-4.3208349609375,0.5415704956054688
1741422568.9348955,2.6177985072135925,0.003325701847067784,-0.04369323311593311,-0.9990394592242596,-0.1685848981142044,-0.35832861065864563,1.0641416311264038,1.757453441619873,1.1716384887695312,7.829782485961914,-0.14133644104003906,0.17032909393310547,0.2607385218143463,-1.2569855451583862,0.005149920005351305,-0.9466315507888794,0.17948424816131592,1.2432523965835571,0.00476844422519207,0.9145876169204712,-0.026512550190091133,-0.5487525463104248,-0.07763027399778366,0.0558861680328846,1.4005874395370483,-0.39037632942199707,-0.00249131815508008,-0.6834134459495544,-0.02536812424659729,-0.005531395319849253,0.8581292629241943,-0.30774447321891785,-0.012186412699520588,0.4340609014034271,0.020270561799407005,3.4377336502075195,-0.14889134466648102,-0.011715712025761604,0.17685715854167938,-4.641310691833496,0.22077050805091858,-0.0816025510430336,0.2564341723918915,0.433325856924057,-5.3957414627075195,-0.39426350593566895,0.12339756637811661,6.056920528411865,-0.34677931666374207,-1.281010627746582,3.023813247680664,-0.8404870629310608,0.059411413967609406,0.2606275677680969,-0.14723491668701172,0.18661732971668243,1741422568.9732957,1741422569659,-1.832837890625,-1.217858642578125,3.031400435023913,-4.38133349609375,0.5861187744140625
1741422568.954891,2.639400064945221,-0.004639716470407135,-0.041963018968436884,-0.9991083915522524,-0.0732957199215889,-0.45251935720443726,1.0787490606307983,7.123473644256592,5.745223045349121,8.750077247619629,-0.13866615295410156,0.16613292694091797,0.325970858335495,-1.2569855451583862,0.005149920005351305,-0.9412909150123596,0.11081864684820175,1.2417265176773071,0.0032425422687083483,0.9180209040641785,-0.016594186425209045,-0.6422140598297119,-0.07991912961006165,0.07801175117492676,1.4585717916488647,-0.4269019067287445,0.007928921841084957,-0.6330586671829224,-0.03376058489084244,-0.008201723918318748,0.8524070978164673,-0.316059410572052,-0.0032926974818110466,0.0818307176232338,-0.11380896717309952,3.0839476585388184,0.012232042849063873,0.0006671017035841942,0.31165677309036255,-4.502323627471924,-0.14390546083450317,-0.05950034782290459,0.18666741251945496,0.42193499207496643,-4.818561553955078,-0.030720757320523262,1.4294177293777466,2.2401819229125977,-1.9458684921264648,0.4745950400829315,2.2175722122192383,-0.5415332913398743,-0.1468098759651184,-0.4157882034778595,-0.5739166140556335,0.4619285762310028,1741422568.9732957,1741422569659,-1.832837890625,-1.217858642578125,3.031400435023913,-4.38133349609375,0.5861187744140625
1741422568.9749453,2.6514307856559753,-0.016523775200951905,-0.042448985666572174,-0.99896198549744,0.029720423743128777,-0.4423571527004242,0.5891619324684143,-4.399443626403809,5.870601654052734,9.868435859680176,-0.13408851623535156,0.15926647186279297,0.3858625292778015,-1.2581299543380737,0.005149920005351305,-0.9359502792358398,0.04940108209848404,1.2371487617492676,0.00476844422519207,0.9199283123016357,-0.00858320016413927,-0.7173647880554199,-0.07495994865894318,0.10700388997793198,1.4398794174194336,-0.4694279432296753,0.0008760272176004946,-0.5945296287536621,-0.03795681521296501,-0.010109102353453636,0.8485923409461975,-0.3426063656806946,-0.0004653625946957618,0.09554349631071091,-0.24282974004745483,2.792520761489868,-0.05265393480658531,-0.0082155866548419,0.19641119241714478,-3.9789178371429443,-0.28391438722610474,0.05277451127767563,0.17752273380756378,0.55559241771698,-3.4774844646453857,0.3116040825843811,1.3654675483703613,-1.4046788215637207,-2.036403179168701,-0.6059800386428833,2.2945544719696045,-0.304216593503952,0.0028783376328647137,-0.041943833231925964,-1.456483244895935,0.2107996940612793,1741422568.9732957,1741422569659,-1.832837890625,-1.217858642578125,3.031400435023913,-4.38133349609375,0.5861187744140625
1741422568.9951084,2.6488147377967834,-0.018379322040989635,-0.045863962031146725,-0.9987786028485587,0.19674517214298248,-0.12410087138414383,-0.16345420479774475,-5.073110580444336,-5.286465644836426,10.552085876464844,-0.13103675842285156,0.14896583557128906,0.438506156206131,-1.2600373029708862,0.005912871100008488,-0.9321355223655701,-0.00858320016413927,1.2405821084976196,0.004386968910694122,0.9237430095672607,0.0078202486038208,-0.7745860815048218,-0.06542305648326874,0.12226291000843048,1.3632028102874756,-0.48817214369773865,-0.016426196321845055,-0.5487525463104248,-0.043678950518369675,-0.010490577667951584,0.8436331748962402,-0.3823930025100708,0.0052815331146121025,0.09080718457698822,-0.2620040774345398,2.7339627742767334,-0.2229064553976059,0.027540501207113266,0.27054041624069214,-3.94673752784729,0.25732675194740295,0.04067104682326317,0.2794019877910614,0.6814118027687073,-2.6611993312835693,0.551774799823761,0.5874075889587402,-4.059175491333008,-0.5921084880828857,-0.6527031660079956,1.8133291006088257,-0.31594955921173096,-0.056229546666145325,-0.3912797272205353,-2.0433804988861084,0.5011586546897888,1741422568.9732957,1741422569659,-1.832837890625,-1.217858642578125,3.031400435023913,-4.38133349609375,0.5861187744140625
1741422569.0177932,2.649522602558136,-0.01063098104122793,-0.049378014362465625,-0.9987235823488506,0.15604732930660248,0.5814694762229919,0.030603207647800446,3.6273910999298096,6.0207929611206055,3.80647611618042,-0.13065528869628906,0.11387062072753906,0.4869535267353058,-1.2619446516036987,0.005149920005351305,-0.9252689480781555,-0.06771191209554672,1.2402005195617676,0.004386968910694122,0.9344243407249451,0.0036240178160369396,-0.8085374236106873,-0.056267641484737396,0.12951095402240753,1.2502861022949219,-0.46827927231788635,-0.011980073526501656,-0.5174715518951416,-0.053215838968753815,-0.010490577667951584,0.8470664620399475,-0.4214574992656708,0.011838424950838089,0.026768967509269714,-1.0372884273529053,2.120957374572754,0.01816687360405922,-0.013062522746622562,0.26320725679397583,-3.797746419906616,-0.11585050821304321,-0.0298785287886858,0.832050085067749,-0.25554922223091125,-1.7065188884735107,0.5249165892601013,0.21741122007369995,-6.00983190536499,1.2981404066085815,0.15621806681156158,1.7594773769378662,-0.5758591294288635,0.06287477165460587,0.27240556478500366,-1.912524700164795,0.41343986988067627,1741422568.9732957,1741422569659,-1.832837890625,-1.217858642578125,3.031400435023913,-4.38133349609375,0.5861187744140625
1741422569.035154,2.6462339758872986,0.00020940718087989415,-0.053859623222709416,-0.9985484951342826,0.227010577917099,0.48597443103790283,-0.15327173471450806,1.202855110168457,-0.03836369141936302,7.760815620422363,-0.12989234924316406,0.10967445373535156,0.5121309161186218,-1.2608002424240112,0.005149920005351305,-0.924124538898468,-0.11158160120248795,1.235241413116455,0.004005493130534887,0.9508277773857117,-0.010490577667951584,-0.8333333134651184,-0.03147173300385475,0.12569619715213776,1.109140157699585,-0.4242735803127289,-0.008006865158677101,-0.49038681387901306,-0.053215838968753815,-0.0024795911740511656,0.8432517051696777,-0.4602716267108917,0.01978304050862789,0.01497695967555046,-0.226284459233284,1.1623847484588623,-0.014928732067346573,0.008469234220683575,0.05057230591773987,-2.5958783626556396,-0.33682769536972046,-0.005078662186861038,1.004134178161621,-0.8500006794929504,-0.9812142252922058,1.314108967781067,-0.17679709196090698,-6.96315336227417,2.178720474243164,0.42562609910964966,1.3957374095916748,0.08677171170711517,0.5341110825538635,-0.14021170139312744,-1.893452763557434,0.4161071181297302,1741422568.9732957,1741422569659,-1.832837890625,-1.217858642578125,3.031400435023913,-4.38133349609375,0.5861187744140625
1741422569.0551474,2.6457449793815613,0.010805577230139219,-0.05577971768975342,-0.9983846265819476,0.059442341327667236,0.5005990862846375,-0.005612601526081562,4.3281569480896,-1.7094897031784058,6.762068748474121,-0.12989234924316406,0.10128211975097656,0.5178530812263489,-1.2588928937911987,0.005149920005351305,-0.924887478351593,-0.12722209095954895,1.229519248008728,0.004005493130534887,0.9634165167808533,-0.03299763426184654,-0.8352407217025757,0.004386968910694122,0.1363775134086609,0.9676127433776855,-0.37697818875312805,-0.0006116286385804415,-0.46063172817230225,-0.043678950518369675,0.013542382046580315,0.8432517051696777,-0.49574464559555054,0.02255142107605934,-0.00456264428794384,-0.2707412540912628,0.0983407199382782,0.13788177073001862,0.0016334963729605079,-0.06200205162167549,-0.786452054977417,-0.394122838973999,-0.0028349440544843674,0.7720583081245422,-1.1747525930404663,-0.05319772660732269,1.7456996440887451,0.788632333278656,-7.09947395324707,2.4044911861419678,0.4062272608280182,1.4937998056411743,0.5564005970954895,0.8268468976020813,-0.04059320315718651,-1.7213733196258545,0.014523913152515888,1741422568.9732957,1741422569659,-1.832837890625,-1.217858642578125,3.031400435023913,-4.38133349609375,0.5861187744140625
1741422569.0751905,2.6498826146125793,0.015885614342699285,-0.053029592113830945,-0.9984665791187984,-0.18022800981998444,0.261469304561615,0.2168629914522171,3.4416160583496094,-7.36345100402832,8.481111526489258,-0.13485145568847656,0.10891151428222656,0.5056458115577698,-1.2546966075897217,0.005149920005351305,-0.9275577664375305,-0.11539635062217712,1.2241785526275635,0.004005493130534887,0.9699015617370605,-0.05855649709701538,-0.8241779208183289,0.03223468363285065,0.17223620414733887,0.841725766658783,-0.334146648645401,0.003714378224685788,-0.422102689743042,-0.020027466118335724,0.023079270496964455,0.839436948299408,-0.5240455865859985,0.006482091266661882,-0.14838163554668427,0.2453632950782776,-0.7765321731567383,0.30304935574531555,-0.006629604380577803,-0.1792019009590149,1.0377819538116455,-0.4286404848098755,0.004767424426972866,0.32666221261024475,-1.2650744915008545,0.6854255795478821,1.3498480319976807,1.7916710376739502,-6.06981086730957,1.9288129806518555,0.1681380569934845,2.100539207458496,1.3009321689605713,0.4873315989971161,-0.14141066372394562,-1.2971045970916748,-1.078339695930481,1741422569.1765814,1741422569859,-2.023157958984375,-1.1393853759765624,3.098968208243457,-4.49509716796875,0.6617222900390625
1741422569.0951931,2.657790720462799,0.015480504395858956,-0.04668604387303798,-0.9987896511734263,-0.33953818678855896,-0.06280219554901123,0.4176437556743622,-5.082169055938721,1.1787322759628296,11.596604347229004,-0.13942909240722656,0.11768531799316406,0.47589075565338135,-1.2478300333023071,0.005149920005351305,-0.9279392957687378,-0.08106355369091034,1.2196009159088135,0.004005493130534887,0.9706645011901855,-0.06351567804813385,-0.8031967878341675,0.06771191209554672,0.20237277448177338,0.7436865568161011,-0.3141581416130066,0.011966541409492493,-0.3686961233615875,-0.00476844422519207,0.022697795182466507,0.8398184180259705,-0.5260024070739746,0.008449696004390717,-0.1041024923324585,0.25779834389686584,-1.6257779598236084,0.42475950717926025,-0.00197034259326756,0.004699667450040579,2.5168795585632324,-0.24639134109020233,0.007464907132089138,-0.02084997668862343,-0.139353945851326,1.0781428813934326,1.5417369604110718,1.5934864282608032,-4.515390872955322,0.9176843166351318,0.5601078867912292,2.740513801574707,0.6876813173294067,-0.13407990336418152,0.12513530254364014,0.22490431368350983,0.4372391700744629,1741422569.1765814,1741422569859,-2.023157958984375,-1.1393853759765624,3.098968208243457,-4.49509716796875,0.6617222900390625
1741422569.1152582,2.665993630886078,0.006475381003078417,-0.03741993590422765,-0.9992786487450777,-0.43947896361351013,-0.45986637473106384,0.44198402762413025,-8.052390098571777,2.5375349521636963,15.9269380569458,-0.14133644104003906,0.13332557678222656,0.43125811219215393,-1.2417265176773071,0.005149920005351305,-0.924124538898468,-0.030708782374858856,1.2203638553619385,0.004005493130534887,0.9653238654136658,-0.057793546468019485,-0.7658121585845947,0.06733043491840363,0.21915769577026367,0.7639048099517822,-0.2960589528083801,0.036171481013298035,-0.3282597064971924,-0.007438773289322853,0.020027466118335724,0.8638513684272766,-0.5160176157951355,-0.005747685208916664,-0.08047881722450256,0.5798762440681458,-2.353506565093994,0.36375340819358826,0.006915952544659376,0.19586099684238434,3.54856538772583,0.1341450810432434,0.007628937717527151,-0.39918866753578186,0.5196165442466736,2.381718397140503,-0.31614652276039124,0.37060630321502686,1.9920270442962646,0.8020702600479126,1.344234585762024,1.7728428840637207,-0.14411480724811554,-0.031164608895778656,1.4584518671035767,0.4993561804294586,-0.7049033641815186,1741422569.1765814,1741422569859,-2.023157958984375,-1.1393853759765624,3.098968208243457,-4.49509716796875,0.6617222900390625
1741422569.1358056,2.672732412815094,0.0049663587274306545,-0.0333989922459484,-0.9994297587114093,-0.18716835975646973,-0.146916925907135,0.28645098209381104,-5.191091537475586,2.7025306224823,9.023134231567383,-0.14171791076660156,0.13218116760253906,0.3606851398944855,-1.2451597452163696,0.005912871100008488,-0.9252689480781555,0.03032730519771576,1.227993369102478,0.004005493130534887,0.9596017599105835,-0.03490501269698143,-0.7429236173629761,0.05741206929087639,0.17795833945274353,0.7906080484390259,-0.30342796444892883,0.0493721179664135,-0.3221561014652252,-0.0024795911740511656,0.02231631986796856,0.9416723847389221,-0.48939913511276245,-0.017884045839309692,-0.0012155914446339011,0.008309164084494114,-3.6702725887298584,-0.30101829767227173,0.06267210096120834,-0.06526962667703629,4.110783100128174,0.49539825320243835,0.03287019953131676,-0.4082370698451996,1.1531851291656494,0.7955528497695923,-0.5062171816825867,-2.3265771865844727,0.722543478012085,-0.4945216774940491,0.5138800740242004,-0.3545956611633301,0.22468511760234833,0.3538432717323303,4.561781406402588,1.4865272045135498,-0.6480408310890198,1741422569.1765814,1741422569859,-2.023157958984375,-1.1393853759765624,3.098968208243457,-4.49509716796875,0.6617222900390625
1741422569.155777,2.672125518321991,0.0042380316908276925,-0.03145788514333755,-0.9994960933138739,-0.04660745710134506,0.09163454174995422,-0.01742374710738659,3.359562397003174,11.810881614685059,7.409430980682373,-0.14743995666503906,0.12836647033691406,0.273708701133728,-1.2508819103240967,0.00476844422519207,-0.9287022352218628,0.0883115902543068,1.2363858222961426,0.005149920005351305,0.9546425342559814,-0.01583123579621315,-0.7074463963508606,0.03833829239010811,0.14782176911830902,0.7974746227264404,-0.30438727140426636,0.05082385987043381,-0.3744182586669922,0.0032425422687083483,0.04291599988937378,1.0828183889389038,-0.4458763599395752,-0.02656092494726181,-0.19867081940174103,-0.1649928241968155,-4.405864238739014,-0.3169122040271759,-0.024023812264204025,-0.1621198207139969,3.8109068870544434,0.5585075616836548,0.01448754034936428,-0.280489981174469,0.8940163850784302,1.8739691972732544,-1.2875423431396484,-1.38816237449646,0.4644008278846741,0.05141110718250275,0.20016641914844513,-2.9076485633850098,0.46246278285980225,1.1252361536026,7.489471912384033,2.200735330581665,-0.4031115174293518,1741422569.1765814,1741422569859,-2.023157958984375,-1.1393853759765624,3.098968208243457,-4.49509716796875,0.6617222900390625
1741422569.1758142,2.657497465610504,0.004732557601446491,-0.03789065643815527,-0.9992706845761236,0.32316190004348755,-0.08280970901250839,-0.7985593676567078,-1.889495849609375,-3.5155365467071533,11.580448150634766,-0.14133644104003906,0.13485145568847656,0.18863965570926666,-1.2554595470428467,0.005149920005351305,-0.927176296710968,0.14019227027893066,1.2428709268569946,0.005149920005351305,0.951209306716919,-0.0020981156267225742,-0.6803616285324097,0.028038453310728073,0.1337071806192398,0.8016708493232727,-0.30449870228767395,0.04514242708683014,-0.4682612419128418,0.02231631986796856,0.05283436179161072,1.2514305114746094,-0.4081937074661255,-0.01634020172059536,0.1441076695919037,0.14626851677894592,-4.145147800445557,-0.30353182554244995,0.0014979843981564045,0.06418506801128387,3.4008164405822754,0.35006019473075867,0.02582693099975586,-0.26581889390945435,0.7393493056297302,1.2894433736801147,-0.2756277024745941,-0.4537450969219208,0.12305901944637299,-0.07853571325540543,-0.3594096601009369,-4.900213718414307,0.8281584978103638,0.29503464698791504,8.533475875854492,1.650345802307129,0.8586084842681885,1741422569.1765814,1741422569859,-2.023157958984375,-1.1393853759765624,3.098968208243457,-4.49509716796875,0.6617222900390625
1741422569.1958785,2.6334310173988342,0.005533014597578959,-0.04370154441398089,-0.9990293092623939,0.2741502523422241,0.062200289219617844,-1.2566139698028564,1.5665557384490967,-3.065112352371216,12.207883834838867,-0.14972877502441406,0.13828468322753906,0.10814831405878067,-1.2543151378631592,0.005149920005351305,-0.9290837049484253,0.18978407979011536,1.2478300333023071,0.005149920005351305,0.9473945498466492,0.013923857361078262,-0.6410696506500244,0.03376058489084244,0.134470134973526,0.802815318107605,-0.30955031514167786,0.03351299464702606,-0.571259617805481,0.03833829239010811,0.03795681521296501,1.3902876377105713,-0.4083876609802246,0.0009064695914275944,-0.1997208446264267,0.12383320182561874,-4.049097061157227,0.12446282804012299,-0.004567949566990137,-0.10577168315649033,3.3234643936157227,0.3704897165298462,-0.0066641755402088165,-0.21193845570087433,0.793092668056488,2.1075642108917236,0.3661781847476959,0.02519872598350048,0.03927907347679138,-0.2678847312927246,-0.6896858215332031,-5.048267364501953,0.6551057696342468,-1.0116486549377441,6.575631141662598,-0.35956141352653503,0.4564765989780426,1741422569.1765814,1741422569859,-2.023157958984375,-1.1393853759765624,3.098968208243457,-4.49509716796875,0.6617222900390625
1741422569.215847,2.60519140958786,0.005887497662176875,-0.046824058083122976,-0.9988858017590931,0.1247234046459198,-0.150594100356102,-1.4188634157180786,0.5655956268310547,-1.7875539064407349,10.677184104919434,-0.15583229064941406,0.14400672912597656,0.03795681521296501,-1.2482116222381592,0.005149920005351305,-0.9287022352218628,0.23975738883018494,1.2527892589569092,0.005149920005351305,0.9458686113357544,0.028038453310728073,-0.6021591424942017,0.037193864583969116,0.13179980218410492,0.8016708493232727,-0.3213849663734436,0.017640041187405586,-0.6624323129653931,0.0394827201962471,0.004386968910694122,1.4627679586410522,-0.4432448148727417,-0.010715549811720848,-0.1780928373336792,0.18904586136341095,-3.4377174377441406,0.40762636065483093,0.016472401097416878,0.011581378988921642,3.3610363006591797,0.24078033864498138,0.011894325725734234,-0.10117732733488083,0.6926699876785278,1.8466615676879883,0.06962257623672485,-0.21343906223773956,-0.09774947911500931,-0.6759040355682373,-0.6249916553497314,-4.678018093109131,-0.1424562633037567,-1.8212519884109497,3.063297986984253,-1.9017159938812256,-0.4984666109085083,1741422569.1765814,1741422569859,-2.023157958984375,-1.1393853759765624,3.098968208243457,-4.49509716796875,0.6617222900390625
1741422569.2384324,2.5808072686195374,0.00358278492441776,-0.04427859667155043,-0.999012797480084,-0.13687071204185486,-0.10776780545711517,-1.0855159759521484,-0.09243039786815643,-1.2646698951721191,9.19228744506836,-0.15964794158935547,0.14248085021972656,-0.013542382046580315,-1.2405821084976196,0.005149920005351305,-0.9290837049484253,0.28896772861480713,1.2554595470428467,0.00476844422519207,0.9424353241920471,0.046730753034353256,-0.5582894682884216,0.03681239113211632,0.12111848592758179,0.7997635006904602,-0.3474843502044678,0.0106165437027812,-0.7337682247161865,0.03147173300385475,-0.0394827201962471,1.4642938375473022,-0.48550719022750854,-0.000505999312736094,-0.13587945699691772,-0.030112838372588158,-2.4154326915740967,0.4799506366252899,0.0055148000828921795,-0.021064000204205513,3.2376506328582764,0.19506299495697021,-0.012380043044686317,-0.21486128866672516,0.8539819121360779,2.296175718307495,-0.01299244537949562,-0.616936206817627,-0.08472687751054764,-1.4422942399978638,-0.3193289339542389,-3.503070831298828,-0.4137054681777954,-2.08796763420105,-0.4443555474281311,-2.0147342681884766,0.7741362452507019,1741422569.2697825,1741422569959,-2.129377197265625,-1.102565673828125,-3.1195066534159177,-4.54824169921875,0.6947701416015625
