Freshhhhh-LC/Legged_odom/data/1/segments/booster_seg_9.89s.csv
time,yaw,projected_gravity_x,projected_gravity_y,projected_gravity_z,ang_vel_x,ang_vel_y,ang_vel_z,lin_acc_x,lin_acc_y,lin_acc_z,q_0,q_1,q_2,q_3,q_4,q_5,q_6,q_7,q_8,q_9,q_10,q_11,q_12,q_13,q_14,q_15,q_16,q_17,q_18,q_19,q_20,q_21,q_22,dq_0,dq_1,dq_2,dq_3,dq_4,dq_5,dq_6,dq_7,dq_8,dq_9,dq_10,dq_11,dq_12,dq_13,dq_14,dq_15,dq_16,dq_17,dq_18,dq_19,dq_20,dq_21,dq_22,mocap_time,mocap_timestamp,robot_x,robot_y,robot_yaw,ball_x,ball_y
1741422484.8243308,2.627268135547638,-0.010390951496512993,0.06963797852470009,-0.9975182103971789,0.8294311165809631,-0.42779839038848877,-1.5604711771011353,-0.7434791326522827,-2.8617734909057617,15.632320404052734,-0.4327840805053711,0.09517860412597656,0.18749523162841797,-1.314206838607788,0.005149920005351305,-0.7181277275085449,0.25310903787612915,1.3081032037734985,0.004386968910694122,0.7017242908477783,0.25387197732925415,-0.4350728690624237,0.09250781685113907,0.024223696440458298,0.761997401714325,-0.3800686001777649,-0.0012271354207769036,-0.5148012638092041,-0.05855649709701538,-0.36678874492645264,0.5331120491027832,-0.1761656403541565,-0.01128185074776411,0.45026931166648865,-0.1630791574716568,1.648564100265503,-0.048985693603754044,-0.0011654439149424434,-0.8697081804275513,-1.1443405151367188,-0.8937822580337524,0.006449528504163027,1.4797585010528564,0.4069805145263672,1.375474214553833,-1.0770642757415771,0.4515394866466522,0.538979709148407,0.28032100200653076,-0.07556314021348953,1.1926816701889038,-0.4791867136955261,-0.0469423346221447,-0.6029902100563049,-0.08733584731817245,-0.3966335952281952,1741422484.7856894,1741422485439,-1.30253271484375,-0.7065664672851563,2.863125204711179,-4.2768046875,2.217550537109375
1741422484.82629,2.591027081012726,-0.021843422635126463,0.03864137302321469,-0.9990143688548548,0.040506504476070404,0.3745037615299225,0.41431257128715515,-4.792201519012451,-0.3302615284919739,10.411944389343262,-0.3965435028076172,0.10776710510253906,0.2508201599121094,-1.2955145835876465,0.005149920005351305,-0.7852674126625061,0.17719538509845734,1.300473690032959,0.00476844422519207,0.7703898549079895,0.290112167596817,-0.5350194573402405,-0.03147173300385475,-0.20351719856262207,0.9893568158149719,-0.3787427842617035,0.007689028047025204,-0.47665369510650635,-0.035667963325977325,-0.24967575073242188,0.570496678352356,-0.2319025695323944,-0.030176643282175064,0.37231266498565674,0.217118501663208,-0.0034691959153860807,0.5568459033966064,-0.0006737036164849997,-1.4673267602920532,-1.4449399709701538,-0.2486848533153534,0.04902782663702965,1.222919225692749,0.21218812465667725,-4.604369640350342,-2.290019989013672,-3.481518030166626,7.3231706619262695,-1.259242057800293,0.2582642138004303,-0.9066459536552429,0.7334513664245605,1.1365383863449097,0.7743840217590332,-0.8217949867248535,-0.2488877922296524,1741422484.7856894,1741422485439,-1.30253271484375,-0.7065664672851563,2.863125204711179,-4.2768046875,2.217550537109375
1741422484.8367097,2.394122540950775,0.018618938267544072,0.023853459049506632,-0.9995420689641645,0.14829044044017792,-0.22244741022586823,0.4931555688381195,0.4790538549423218,5.7880730628967285,11.724496841430664,0.00705718994140625,0.10471534729003906,0.33665215969085693,-1.230282187461853,0.005149920005351305,-0.9069581031799316,0.07686731964349747,1.2447782754898071,0.0036240178160369396,0.9557870030403137,0.1359960287809372,-0.7299534678459167,-0.058175019919872284,-0.07686731964349747,0.8363851308822632,-0.4078349173069,0.017276329919695854,-0.3381780683994293,0.0024795911740511656,-0.25272753834724426,0.8978027105331421,-0.42122235894203186,-0.03923862427473068,0.012828059494495392,-0.29520079493522644,-3.5290756225585938,-0.4854271113872528,-0.010585536248981953,0.12630227208137512,3.2467434406280518,0.4605861306190491,-0.020308084785938263,-0.10648459941148758,-0.16221724450588226,2.189887762069702,-0.43901821970939636,-0.9997369647026062,0.1281123161315918,0.13721294701099396,0.21464550495147705,-2.2165064811706543,-0.793134331703186,1.7065627574920654,6.74139928817749,1.8929790258407593,-0.15179085731506348,1741422484.7868397,1741422485539,-1.35977001953125,-0.6460219116210938,2.8323309256720535,-4.3780498046875005,2.335509521484375
1741422484.8567939,2.386506736278534,0.012879627406339949,0.016493227096035287,-0.9997810203528733,0.2916824221611023,-0.31097203493118286,-0.4450524151325226,-2.697417974472046,-0.6631415486335754,9.749343872070312,0.02117156982421875,0.10471534729003906,0.2607385218143463,-1.2417265176773071,0.005149920005351305,-0.9065766334533691,0.12149996310472488,1.2524077892303467,0.006294346414506435,0.953498125076294,0.1367589831352234,-0.6944762468338013,-0.06351567804813385,-0.08373387902975082,0.8352407217025757,-0.4097460210323334,0.015567749738693237,-0.42553597688674927,-0.008201723918318748,-0.22106507420539856,1.0629816055297852,-0.3925670087337494,-0.010352530516684055,0.37599122524261475,-0.13159139454364777,-3.803551435470581,-0.7347185015678406,-0.03118610382080078,-0.0016247896710410714,2.8611948490142822,0.5144578814506531,0.16214382648468018,-0.15218493342399597,0.027923893183469772,1.8090766668319702,-0.1704273819923401,-0.13374654948711395,-0.13353364169597626,-0.1481262743473053,-0.12232198566198349,-4.629969120025635,-0.6551313996315002,1.6793694496154785,8.294994354248047,1.1920040845870972,1.7779688835144043,1741422484.8892825,1741422485639,-1.426822509765625,-0.591689697265625,2.911864077679334,-4.4702509765625,2.44203466796875
1741422484.8767703,2.367474138736725,0.009319974220887841,0.013298426611208905,-0.9998681362710726,0.17153605818748474,-0.13529235124588013,-1.041954755783081,3.736889123916626,-2.172642230987549,10.917889595031738,0.01468658447265625,0.10242652893066406,0.18520638346672058,-1.2440153360366821,0.00476844422519207,-0.9073395729064941,0.16422522068023682,1.2619446516036987,0.00667582219466567,0.951972246170044,0.14324407279491425,-0.6517509818077087,-0.0551232174038887,-0.08335240930318832,0.8241779208183289,-0.4156036078929901,0.013400371186435223,-0.5247195959091187,-0.01926451548933983,-0.18787670135498047,1.2212939262390137,-0.40447667241096497,0.0038244391325861216,-0.11760435998439789,-0.0074000912718474865,-3.7524209022521973,-0.06662337481975555,-0.01760280877351761,-0.03225800767540932,2.8935346603393555,0.620248019695282,0.01476815901696682,-0.12525708973407745,0.3659878671169281,2.1448986530303955,0.3850553631782532,0.048691876232624054,-0.587070882320404,-0.34821879863739014,-0.2755904197692871,-4.953413486480713,-0.40937185287475586,1.6101773977279663,7.43139123916626,-0.9777781367301941,0.333086758852005,1741422484.8892825,1741422485639,-1.426822509765625,-0.591689697265625,2.911864077679334,-4.4702509765625,2.44203466796875
1741422484.896805,2.3428301215171814,0.004904001852530839,0.007180269844661916,-0.999962196530843,0.3150807321071625,-0.23232701420783997,-1.2372064590454102,0.6769317984580994,-2.8271584510803223,10.932817459106445,0.01392364501953125,0.09250736236572266,0.11310750246047974,-1.2432523965835571,0.005149920005351305,-0.9077210426330566,0.212672621011734,1.2653779983520508,0.006294346414506435,0.9485389590263367,0.14744029939174652,-0.6086442470550537,-0.04139009863138199,-0.07000076025724411,0.8085374236106873,-0.42908743023872375,0.007719871122390032,-0.6174181699752808,-0.021171892061829567,-0.17032882571220398,1.3200961351394653,-0.44666653871536255,-0.0024399547837674618,-0.0441875159740448,-0.26983538269996643,-3.638690710067749,0.021864693611860275,-0.011249992065131664,-0.06034557521343231,3.2618415355682373,0.11583103239536285,0.0005985818570479751,-0.24047935009002686,0.07158815860748291,2.1874589920043945,0.7104511857032776,0.8384177088737488,-0.8247354030609131,-0.7624883651733398,-0.14264297485351562,-4.471046447753906,-0.06995635479688644,0.7581009864807129,4.2182230949401855,-2.20418643951416,-0.11789149045944214,1741422484.8892825,1741422485639,-1.426822509765625,-0.591689697265625,2.911864077679334,-4.4702509765625,2.44203466796875
1741422484.9168034,2.319455087184906,0.0008482831909904281,0.0020402143169642064,-0.9999975589676051,0.2533322870731354,-0.16466109454631805,-1.155243158340454,2.3788857460021973,-5.140779972076416,8.94603443145752,0.01049041748046875,0.08335208892822266,0.045204851776361465,-1.2428709268569946,0.005149920005351305,-0.9107728600502014,0.2630273997783661,1.2646150588989258,0.006294346414506435,0.9466315507888794,0.1340886503458023,-0.5605783462524414,-0.016975661739706993,-0.04901960864663124,0.7917525172233582,-0.4478287994861603,0.001564284902997315,-0.693331778049469,-0.028038453310728073,-0.1516365259885788,1.3483253717422485,-0.4925712049007416,0.004981578327715397,-0.1030765250325203,-0.2720504701137543,-3.453601837158203,0.006454004906117916,-0.0031254051718860865,-0.15763357281684875,3.346632242202759,-0.040324240922927856,0.0016691857017576694,-0.11608584225177765,-0.6770861744880676,2.437108278274536,1.305128812789917,1.1865791082382202,-0.8604883551597595,-0.9546287655830383,-0.41170352697372437,-3.6483380794525146,-0.34913215041160583,0.9256806373596191,0.9187808632850647,-2.212251901626587,0.30772486329078674,1741422484.8892825,1741422485639,-1.426822509765625,-0.591689697265625,2.911864077679334,-4.4702509765625,2.44203466796875
1741422484.9368334,2.309978425502777,-0.0002811299308890334,-0.0031484780190775444,-0.9999950040135828,0.25378262996673584,-0.06353188306093216,-0.43278107047080994,4.220871925354004,-0.9933851361274719,6.7829742431640625,0.00286102294921875,0.07343387603759766,-0.010872052982449532,-1.2432523965835571,0.005149920005351305,-0.917639434337616,0.31452658772468567,1.2627075910568237,0.005531395319849253,0.9462500810623169,0.10814831405878067,-0.5189974904060364,0.010109102353453636,-0.014686808921396732,0.769245445728302,-0.4697817265987396,-0.013910540379583836,-0.7543678879737854,-0.03681239113211632,-0.12874799966812134,1.3181887865066528,-0.5201035141944885,0.006509153638035059,-0.21422836184501648,-0.26719391345977783,-2.6596598625183105,-0.023841284215450287,-0.018293041735887527,-0.37792831659317017,3.4100940227508545,-0.19212950766086578,-0.044076453894376755,-0.027027614414691925,-1.4937078952789307,1.8083442449569702,1.3162548542022705,1.767975926399231,-1.2167675495147705,-1.1052974462509155,-0.6541510820388794,-2.9076366424560547,-0.41337689757347107,1.1762480735778809,-1.8502798080444336,-1.136064887046814,0.07345210760831833,1741422484.8892825,1741422485639,-1.426822509765625,-0.591689697265625,2.911864077679334,-4.4702509765625,2.44203466796875
1741422484.9568565,2.3088367581367493,0.0013748284289199044,-0.008679337037851814,-0.9999613887322722,0.27489998936653137,0.2228543907403946,-0.10268349945545197,4.106273174285889,-0.06766507029533386,5.880223751068115,0.00019073486328125,0.047112464904785156,-0.06923781335353851,-1.2443968057632446,0.005149920005351305,-0.9298466444015503,0.36297398805618286,1.2592743635177612,0.005149920005351305,0.9439612627029419,0.07877469807863235,-0.4716945290565491,0.03299763426184654,0.015449759550392628,0.7551308274269104,-0.4915343225002289,-0.0295840073376894,-0.8031967878341675,-0.046730753034353256,-0.10891126841306686,1.2518119812011719,-0.5158901214599609,0.011046363040804863,-0.08313432335853577,-0.8529341220855713,-2.754805088043213,-0.04341451823711395,0.00021527438366319984,-0.7519316673278809,3.1577260494232178,-0.17398019134998322,-0.02526113949716091,-0.16118945181369781,-1.33379328250885,2.503490447998047,1.0791568756103516,1.4500179290771484,-0.5371729135513306,-1.0743154287338257,-0.7315975427627563,-2.3492953777313232,-0.48787814378738403,1.0251001119613647,-3.488645553588867,0.4796174168586731,0.2679363489151001,1741422484.8892825,1741422485639,-1.426822509765625,-0.591689697265625,2.911864077679334,-4.4702509765625,2.44203466796875
1741422484.9769351,2.3051506876945496,0.005876010928238759,-0.013722540923831784,-0.9998885759754258,0.21913407742977142,0.21448437869548798,-0.2316809743642807,-0.9167949557304382,-1.321173071861267,8.037941932678223,-0.00400543212890625,0.034142494201660156,-0.11310750246047974,-1.2421079874038696,0.005149920005351305,-0.951972246170044,0.41409170627593994,1.2581299543380737,0.005912871100008488,0.9374761581420898,0.06618601083755493,-0.4373617172241211,0.04329747334122658,0.03757534176111221,0.7429236173629761,-0.516319751739502,-0.03895590454339981,-0.8230335116386414,-0.06733043491840363,-0.09403372555971146,1.1522468328475952,-0.48852360248565674,0.010966107249259949,-0.11037890613079071,-0.5435119271278381,-1.996821403503418,0.17875027656555176,-0.0013034621952101588,-1.0052287578582764,3.4053795337677,-0.0814642459154129,0.027045637369155884,-0.45728787779808044,-0.3458372950553894,1.634451150894165,0.3414481282234192,1.065163254737854,-0.502933144569397,-1.2095822095870972,-0.3731265068054199,-0.5578240156173706,-1.0640300512313843,0.7351516485214233,-5.217097282409668,1.39020836353302,-0.049311380833387375,1741422484.8892825,1741422485639,-1.426822509765625,-0.591689697265625,2.911864077679334,-4.4702509765625,2.44203466796875
1741422484.9969,2.296993672847748,0.013815315514840125,-0.015373989821745055,-0.9997863659273346,0.07832713425159454,0.347185343503952,-0.4235410690307617,3.9446022510528564,0.07608994096517563,6.238531589508057,-0.00934600830078125,0.02727508544921875,-0.13141833245754242,-1.2371487617492676,0.005149920005351305,-0.968757152557373,0.4491874575614929,1.2569855451583862,0.005149920005351305,0.9306095838546753,0.07953765243291855,-0.403410404920578,0.0394827201962471,0.03757534176111221,0.7421606779098511,-0.5394307374954224,-0.033416833728551865,-0.8188372850418091,-0.09098191559314728,-0.09822995215654373,1.0111008882522583,-0.46119964122772217,0.0013152543688192964,-0.15995152294635773,-0.2144058644771576,-0.7452524900436401,0.32826027274131775,0.0016565268160775304,-0.7952857613563538,2.1181609630584717,-0.07783674448728561,-0.017129193991422653,-0.4453674256801605,0.8079113960266113,1.6692674160003662,-0.3343174159526825,-0.14528587460517883,-0.11390597373247147,-1.2027479410171509,0.48720791935920715,0.39667463302612305,-1.1903870105743408,-0.3846574127674103,-7.565500736236572,1.2727771997451782,-0.5905072689056396,1741422484.8892825,1741422485639,-1.426822509765625,-0.591689697265625,2.911864077679334,-4.4702509765625,2.44203466796875
1741422485.0169418,2.2840195298194885,0.017515849472402367,-0.018503862382641845,-0.9996753483477445,0.19348447024822235,0.1776399314403534,-0.669684648513794,5.824617862701416,0.572079062461853,4.523053169250488,-0.00934600830078125,0.02422332763671875,-0.12340734153985977,-1.2306636571884155,0.005149920005351305,-0.9790570139884949,0.4663538634777069,1.2546966075897217,0.005149920005351305,0.924124538898468,0.10013733059167862,-0.36678874492645264,0.011635004542768002,0.023460745811462402,0.7417792081832886,-0.5598738789558411,-0.017828309908509254,-0.7833600640296936,-0.11730372905731201,-0.11348897218704224,0.8398184180259705,-0.45349210500717163,-0.005973838735371828,-0.013140812516212463,-0.10211485624313354,0.5640830993652344,0.45776620507240295,0.00043758878018707037,-0.44000929594039917,0.9596719741821289,-0.18570713698863983,-0.022026872262358665,-0.3790881931781769,0.9702630639076233,2.021613836288452,-1.7704898118972778,-0.7614982724189758,0.06157798692584038,-0.92051762342453,0.8522288203239441,1.9733977317810059,-1.3434922695159912,-0.7907326221466064,-8.832015991210938,0.16842730343341827,-0.2813088893890381,1741422484.8892825,1741422485639,-1.426822509765625,-0.591689697265625,2.911864077679334,-4.4702509765625,2.44203466796875
1741422485.0384464,2.271048843860626,0.011857003594968872,-0.02528642152844569,-0.999609928097973,0.37358003854751587,-0.5286411643028259,-0.5408248901367188,-20.848575592041016,1.0047874450683594,6.080096244812012,-0.00820159912109375,0.042916297912597656,-0.09403372555971146,-1.223797082901001,0.005149920005351305,-0.9790570139884949,0.4686427116394043,1.2482116222381592,0.00476844422519207,0.916876494884491,0.11272602528333664,-0.31795987486839294,-0.0009536888683214784,0.0032425422687083483,0.7471198439598083,-0.558148980140686,-0.012210228480398655,-0.7520790696144104,-0.1329442262649536,-0.14591439068317413,0.7906080484390259,-0.41716253757476807,0.013804512098431587,-0.02027028426527977,0.584765613079071,1.53203284740448,0.42103004455566406,-0.027967089787125587,0.05791303142905235,0.07672830671072006,-0.5130820870399475,-0.0038089065346866846,-0.5417147874832153,0.48111072182655334,2.4445505142211914,-0.08872086554765701,-1.2459543943405151,0.1989581435918808,0.4252275228500366,0.012862274423241615,1.7141532897949219,-0.2348223477602005,-1.8993499279022217,0.1100425198674202,2.1079931259155273,0.8929175138473511,1741422484.8892825,1741422485639,-1.426822509765625,-0.591689697265625,2.911864077679334,-4.4702509765625,2.44203466796875
1741422485.0569832,2.25405353307724,0.008872341373006245,-0.021456717283932357,-0.9997304090813474,-0.15947851538658142,-0.05993509292602539,-0.7406497001647949,2.0299155712127686,-4.1912760734558105,0.5914348363876343,-0.02613067626953125,0.036812782287597656,-0.04482337832450867,-1.223797082901001,0.005531395319849253,-0.9737163186073303,0.44346532225608826,1.2413450479507446,0.005149920005351305,0.9088655114173889,0.08258945494890213,-0.2752346098423004,-0.024223696440458298,-0.011635004542768002,0.7528420090675354,-0.5253384113311768,-0.00911357905715704,-0.7078278660774231,-0.11234454810619354,-0.14553292095661163,0.837911069393158,-0.38690850138664246,0.04236631467938423,-0.6153329014778137,-0.1590668112039566,2.837782144546509,0.06043350324034691,0.053982533514499664,0.21993355453014374,-2.112546682357788,-0.368547648191452,0.050349339842796326,-0.31260231137275696,-1.6139618158340454,2.1702499389648438,-1.144517183303833,-0.5386635065078735,0.5229378342628479,1.8301008939743042,0.36223718523979187,1.6871963739395142,0.49777498841285706,0.7523573637008667,1.5379638671875,1.1306157112121582,1.0477793216705322,1741422484.8892825,1741422485639,-1.426822509765625,-0.591689697265625,2.911864077679334,-4.4702509765625,2.44203466796875
1741422485.0769973,2.2483425736427307,0.00549700742047642,-0.016546086206518748,-0.9998479934173322,-0.12434517592191696,-0.2296869158744812,-0.29478713870048523,-15.358996391296387,-0.21908460557460785,15.886566162109375,-0.01239776611328125,0.041771888732910156,0.012397955171763897,-1.2218897342681885,0.005531395319849253,-0.969520092010498,0.4003585875034332,1.2455412149429321,0.005531395319849253,0.9084840416908264,0.04177157208323479,-0.26684215664863586,-0.03452353551983833,-0.005912871100008488,0.8157854676246643,-0.48820629715919495,0.013894579373300076,-0.6879911422729492,-0.1024261862039566,-0.09288929402828217,0.8207446336746216,-0.3751230239868164,0.027888098731637,0.2827511131763458,0.14236710965633392,2.655639410018921,0.13876399397850037,0.006861987989395857,0.22181835770606995,-2.778297185897827,0.24062654376029968,0.026844453066587448,-0.09466350823640823,-1.9528814554214478,-0.01993577554821968,-0.15832938253879547,0.42429155111312866,3.987396478652954,1.7680968046188354,1.2327470779418945,1.2945080995559692,0.7013483047485352,2.6753358840942383,-0.7992239594459534,0.5570012927055359,-0.9782196879386902,1741422484.8892825,1741422485639,-1.426822509765625,-0.591689697265625,2.911864077679334,-4.4702509765625,2.44203466796875
1741422485.0970411,2.251299798488617,0.007784494272219465,-0.011629846958059083,-0.9999020693591237,-0.2655440866947174,0.1272827684879303,0.30577757954597473,-2.9204154014587402,-2.3123414516448975,11.21213436126709,-0.01659393310546875,0.036431312561035156,0.06733043491840363,-1.2260860204696655,0.006294346414506435,-0.9637979865074158,0.35191118717193604,1.2459226846694946,0.004005493130534887,0.9069581031799316,-0.0036240178160369396,-0.31910428404808044,-0.024605173617601395,0.01430533267557621,0.9683756828308105,-0.4502023458480835,0.03660031780600548,-0.6609063744544983,-0.06198977679014206,-0.06542305648326874,0.8245593905448914,-0.35971716046333313,0.0173623226583004,-0.1579696089029312,-0.10916248708963394,2.7133798599243164,-0.4829753637313843,0.13546405732631683,0.32425227761268616,-3.383829116821289,0.02056511491537094,-0.11416735500097275,-0.04137171432375908,-2.1547582149505615,-3.164252281188965,0.4711240231990814,1.0855371952056885,8.192412376403809,1.9985836744308472,0.954857349395752,0.9734713435173035,1.8507112264633179,1.505990743637085,0.28619638085365295,0.6548542976379395,-0.5213699340820312,1741422484.8892825,1741422485639,-1.426822509765625,-0.591689697265625,2.911864077679334,-4.4702509765625,2.44203466796875
1741422485.1170914,2.2716380953788757,0.010961722837221377,-0.0060675214660966675,-0.9999215098274956,-0.22552873194217682,0.20096859335899353,1.1175898313522339,1.5362575054168701,4.990048885345459,13.87389850616455,-0.01850128173828125,0.036812782287597656,0.1199740618467331,-1.2424894571304321,0.005149920005351305,-0.9596017599105835,0.2954528033733368,1.2463041543960571,0.004005493130534887,0.9081025123596191,-0.043678950518369675,-0.4232471287250519,-0.022697795182466507,0.0398641936480999,1.1591134071350098,-0.4097142517566681,0.03187981992959976,-0.6418325901031494,-0.04558632895350456,-0.04482337832450867,0.8306630253791809,-0.35622671246528625,0.01114836148917675,-0.07777174562215805,-0.01560184545814991,2.6485748291015625,-1.0449330806732178,-0.03631804883480072,0.1835968941450119,-3.7211415767669678,0.018407167866826057,0.04248379170894623,0.09723898768424988,-2.0033910274505615,-5.281389236450195,-0.04736993461847305,1.3822511434555054,9.720840454101562,1.8574162721633911,-0.7736592292785645,1.0797162055969238,0.7323920130729675,0.6667373180389404,0.22174668312072754,0.105780228972435,-0.20981653034687042,1741422484.8892825,1741422485639,-1.426822509765625,-0.591689697265625,2.911864077679334,-4.4702509765625,2.44203466796875
1741422485.1370687,2.3015559315681458,0.014463976428342868,-0.005508501811658527,-0.9998802177229387,-0.04544999450445175,0.15106534957885742,1.5346782207489014,2.631075143814087,1.4465306997299194,12.233960151672363,-0.00858306884765625,0.042534828186035156,0.17910276353359222,-1.2546966075897217,0.005531395319849253,-0.952735185623169,0.23594263195991516,1.2432523965835571,0.004005493130534887,0.9077210426330566,-0.07763027399778366,-0.5357823967933655,-0.020027466118335724,0.06656748056411743,1.3311588764190674,-0.4000436067581177,-0.0018828324973583221,-0.6147478222846985,-0.043678950518369675,-0.03643091395497322,0.8302815556526184,-0.3578336238861084,0.010071033611893654,0.23936940729618073,0.17532527446746826,3.2849247455596924,-0.8540335893630981,-0.0031600985676050186,0.3699691891670227,-3.9031615257263184,-0.2364785075187683,-0.01657203771173954,-0.014174798503518105,-1.671391487121582,-5.661045551300049,0.3105754256248474,1.3888028860092163,8.298652648925781,0.022664625197649002,-1.218352198600769,1.4048100709915161,0.047284629195928574,0.3637924790382385,-0.008887412957847118,-0.09001768380403519,0.0050542522221803665,1741422484.8892825,1741422485639,-1.426822509765625,-0.591689697265625,2.911864077679334,-4.4702509765625,2.44203466796875
1741422485.1571054,2.3367454409599304,0.013906522347589058,-0.004298785131628018,-0.9998940589295389,-0.07656710594892502,-0.0359833650290966,1.583340048789978,1.5367296934127808,1.5223950147628784,12.00719928741455,-0.00476837158203125,0.048638343811035156,0.2454795092344284,-1.2619446516036987,0.005149920005351305,-0.9462500810623169,0.17109178006649017,1.2371487617492676,0.004005493130534887,0.9081025123596191,-0.10547798871994019,-0.6345845460891724,-0.011635004542768002,0.09403372555971146,1.4353017807006836,-0.4326225221157074,0.010739997029304504,-0.579270601272583,-0.04558632895350456,-0.02841992862522602,0.8234149813652039,-0.3652811646461487,0.008432992734014988,0.11864200234413147,0.13847565650939941,3.3406758308410645,-0.40573081374168396,0.007546077016741037,0.2669266164302826,-4.422264575958252,-0.46869853138923645,0.014098909683525562,0.022442294284701347,-1.30806303024292,-4.89903450012207,0.2593246102333069,1.4890497922897339,4.510969638824463,-1.7800971269607544,0.6464875340461731,1.9068063497543335,-0.011707756668329239,0.36989113688468933,-0.42636987566947937,-0.4261012077331543,-0.09123467653989792,1741422484.8892825,1741422485639,-1.426822509765625,-0.591689697265625,2.911864077679334,-4.4702509765625,2.44203466796875
1741422485.177147,2.3648423552513123,0.012560489914036512,-0.003644013688216049,-0.999914473971329,-0.058108072727918625,-0.06702582538127899,1.323136329650879,0.40850695967674255,1.9521499872207642,12.53645133972168,0.00362396240234375,0.052834510803222656,0.31834134459495544,-1.2638521194458008,0.005149920005351305,-0.9393835067749023,0.10585946589708328,1.229519248008728,0.004005493130534887,0.9084840416908264,-0.11577782779932022,-0.7120240926742554,-0.00667582219466567,0.13141833245754242,1.4604791402816772,-0.4766295552253723,0.0024369987659156322,-0.5327305793762207,-0.05054550990462303,-0.024986648932099342,0.8054856061935425,-0.3826044797897339,0.018194133415818214,0.23937742412090302,0.09867673367261887,3.7081592082977295,-0.1142520010471344,-0.009033611975610256,0.36169224977493286,-4.2584404945373535,-0.486037015914917,-0.0027302426751703024,0.0189091544598341,-0.44598355889320374,-3.803511381149292,0.24547921121120453,1.7203763723373413,0.6471558809280396,-2.222827911376953,-0.722444474697113,2.293327569961548,-0.21895308792591095,0.1945139616727829,-0.9403453469276428,-0.9525861740112305,0.6502747535705566,1741422484.8892825,1741422485639,-1.426822509765625,-0.591689697265625,2.911864077679334,-4.4702509765625,2.44203466796875
1741422485.1972184,2.374293029308319,0.01215605765457445,-0.002997021788308459,-0.9999216209897149,-0.038333188742399216,-0.01129720639437437,0.39780303835868835,-0.18894997239112854,2.344675302505493,8.355806350708008,0.01468658447265625,0.051690101623535156,0.3843366205692291,-1.2638521194458008,0.005149920005351305,-0.9363317489624023,0.04787518084049225,1.2253230810165405,0.00476844422519207,0.9088655114173889,-0.11310750246047974,-0.7681010365486145,0.0078202486038208,0.15735866129398346,1.4173723459243774,-0.506618857383728,-0.010685457848012447,-0.48962387442588806,-0.0551232174038887,-0.01926451548933983,0.7852674126625061,-0.40704846382141113,0.028662804514169693,0.317954957485199,-0.01792927086353302,3.252861976623535,0.05184711888432503,0.03141368553042412,0.10494823753833771,-3.7955315113067627,-0.25572746992111206,0.06375409662723541,0.08560249209403992,0.2633121907711029,-2.595646858215332,0.7651458382606506,1.3327878713607788,-2.57718563079834,-1.2580362558364868,-0.4144154489040375,2.0958361625671387,-0.16790643334388733,0.2646644711494446,-1.010671854019165,-1.2235560417175293,0.39958181977272034,1741422484.8892825,1741422485639,-1.426822509765625,-0.591689697265625,2.911864077679334,-4.4702509765625,2.44203466796875
1741422485.2171848,2.373719274997711,0.014440303749750805,-0.00142553075576786,-0.9998947172026059,-0.06266896426677704,0.16336266696453094,0.010177696123719215,-1.1255759000778198,-1.4999258518218994,7.633656978607178,0.01850128173828125,0.046349525451660156,0.44537270069122314,-1.2665224075317383,0.005149920005351305,-0.9336614012718201,-0.00667582219466567,1.2306636571884155,0.00476844422519207,0.9122987985610962,-0.11539635062217712,-0.8073930144309998,0.03337911143898964,0.1836804747581482,1.3254368305206299,-0.5038468241691589,-0.00886551383882761,-0.44422826170921326,-0.05664911866188049,-0.009346150793135166,0.7616159319877625,-0.4343854784965515,0.03784235194325447,0.12479309737682343,-0.1451590657234192,2.995871067047119,-0.27343183755874634,-0.0246425848454237,0.2347506731748581,-3.68546986579895,0.4783034026622772,-0.003074872773140669,0.3417581617832184,-0.34068191051483154,-1.8425790071487427,1.4154486656188965,1.2645028829574585,-4.809595584869385,0.43789100646972656,0.04248412698507309,2.3340818881988525,-0.043285220861434937,0.523127019405365,-1.1649144887924194,-1.3247628211975098,0.28060632944107056,1741422484.8892825,1741422485639,-1.426822509765625,-0.591689697265625,2.911864077679334,-4.4702509765625,2.44203466796875
1741422485.2372584,2.3806377053260803,0.02110005592955507,-0.0015810767696612764,-0.9997761188566259,-0.02121737226843834,0.3373863101005554,0.3360264301300049,-0.4884854555130005,1.7918033599853516,8.4996919631958,0.02307891845703125,0.034523963928222656,0.5018310546875,-1.2657594680786133,0.005149920005351305,-0.926413357257843,-0.05893797054886818,1.2348599433898926,0.004386968910694122,0.9252689480781555,-0.14248111844062805,-0.8245593905448914,0.07267109304666519,0.20084688067436218,1.2087053060531616,-0.46872395277023315,-0.014570404775440693,-0.404173344373703,-0.056267641484737396,0.006294346414506435,0.7352941036224365,-0.4592571258544922,0.048176102340221405,0.1563795804977417,-0.29310426115989685,2.5061168670654297,0.152556911110878,-0.005345155950635672,0.3356940746307373,-3.2877283096313477,0.15721751749515533,0.004696917720139027,0.9789406061172485,-1.4687793254852295,-0.6708937883377075,2.0038201808929443,0.9315553307533264,-5.9978461265563965,1.9180383682250977,-0.2862642705440521,1.9273171424865723,0.019180897623300552,0.8702298402786255,-1.21625554561615,-1.2457385063171387,0.6349665522575378,1741422484.8892825,1741422485639,-1.426822509765625,-0.591689697265625,2.911864077679334,-4.4702509765625,2.44203466796875
1741422485.2571957,2.3869215846061707,0.031346944387223484,-0.0007499314465602691,-0.999508282447129,-0.039251577109098434,0.5453928112983704,0.34891006350517273,5.168154239654541,1.1975412368774414,6.619290828704834,0.02155303955078125,0.02422332763671875,0.5296788215637207,-1.2634705305099487,0.005149920005351305,-0.9229800701141357,-0.09441519528627396,1.23295259475708,0.004386968910694122,0.9443427324295044,-0.18520638346672058,-0.8161669373512268,0.1199740618467331,0.21152819693088531,1.0748074054718018,-0.42369261384010315,-0.01108802855014801,-0.36564430594444275,-0.05054550990462303,0.034142062067985535,0.7139315009117126,-0.4800538420677185,0.051771849393844604,-0.04608587175607681,-0.2951776683330536,1.302146553993225,0.07444904744625092,-0.00020613758533727378,0.1543857753276825,-2.0943350791931152,-0.17523780465126038,-0.0025214720517396927,1.2640184164047241,-2.2060835361480713,0.4759672284126282,2.474076986312866,0.5244036316871643,-6.788926601409912,2.2155263423919678,0.31962937116622925,1.966348648071289,0.40961599349975586,1.5796397924423218,-1.125177264213562,-0.9928966164588928,0.1577204465866089,1741422485.2976084,1741422485939,-1.588826904296875,-0.3602222595214844,2.8203501540370874,-4.7513564453125,2.751086181640625
1741422485.2772167,2.395550310611725,0.03695509461862119,0.0004083517112496848,-0.999316843764083,-0.1031627431511879,0.22857318818569183,0.4365406930446625,1.9627162218093872,-0.6976127624511719,5.791263580322266,0.02155303955078125,0.02384185791015625,0.5380712747573853,-1.2623261213302612,0.005149920005351305,-0.9195467829704285,-0.1035706102848053,1.2299007177352905,0.004386968910694122,0.9584572911262512,-0.2302204966545105,-0.802815318107605,0.16422522068023682,0.23823148012161255,0.9340428709983826,-0.3795042634010315,-0.0008115628734230995,-0.31719690561294556,-0.03299763426184654,0.0711451917886734,0.6876096725463867,-0.4930970370769501,0.0332191102206707,-0.0011724807554855943,-0.04992314428091049,0.2056419849395752,0.08668848127126694,-0.009709659032523632,0.16395434737205505,-0.32214704155921936,-0.17410238087177277,0.0024281989317387342,0.8372336626052856,-2.2017099857330322,0.831440269947052,1.9680800437927246,1.7044469118118286,-7.104778289794922,2.115590810775757,0.4786885976791382,2.583866596221924,0.9217324256896973,1.8869563341140747,-1.3136394023895264,-0.5888490676879883,-1.1568660736083984,1741422485.2976084,1741422485939,-1.588826904296875,-0.3602222595214844,2.8203501540370874,-4.7513564453125,2.751086181640625
1741422485.2972455,2.4055160880088806,0.03714583998607383,0.007828259774678487,-0.9992791926787173,-0.41773197054862976,-0.021895060315728188,0.49284350872039795,-3.9542789459228516,-0.038525838404893875,16.847640991210938,0.01697540283203125,0.031853675842285156,0.5281528830528259,-1.2581299543380737,0.005149920005351305,-0.9157320261001587,-0.08945601433515549,1.227993369102478,0.004386968910694122,0.9668498039245605,-0.2626459002494812,-0.7734416723251343,0.19550621509552002,0.2794308364391327,0.8112077713012695,-0.347597599029541,0.013389799743890762,-0.25310903787612915,-0.010490577667951584,0.10128175467252731,0.6658655405044556,-0.48292720317840576,0.037533652037382126,-0.12626977264881134,0.2678244411945343,-0.5906122326850891,0.36184951663017273,-0.005009583663195372,0.18599022924900055,1.097041368484497,-0.15252526104450226,0.008271212689578533,0.48585039377212524,-1.3392094373703003,1.5137975215911865,1.8577027320861816,2.079180955886841,-5.786064624786377,1.5637123584747314,0.7771918177604675,3.3948912620544434,1.0873448848724365,1.3356428146362305,-0.9348096251487732,0.8159562349319458,0.7205855846405029,1741422485.2976084,1741422485939,-1.588826904296875,-0.3602222595214844,2.8203501540370874,-4.7513564453125,2.751086181640625
1741422485.317267,2.418166935443878,0.028857558783211064,0.013991624886564712,-0.9994856055662368,-0.24972359836101532,-0.464641273021698,0.6309875845909119,2.6209828853607178,-1.247456669807434,16.179061889648438,0.01316070556640625,0.049401283264160156,0.4972533881664276,-1.2489745616912842,0.005149920005351305,-0.9107728600502014,-0.05436026677489281,1.2234156131744385,0.004005493130534887,0.967994213104248,-0.27065691351890564,-0.733386754989624,0.20313572883605957,0.3126192092895508,0.80663001537323,-0.3197407126426697,0.032161954790353775,-0.20237277448177338,-0.01201647985726595,0.12340734153985977,0.6731135845184326,-0.46474629640579224,0.045617565512657166,-0.10973906517028809,0.5658493041992188,-1.756353497505188,0.5320644974708557,-0.010965566150844097,0.19709260761737823,2.531538486480713,-0.3541805148124695,-0.0051812706515192986,-0.01842034049332142,-0.26267433166503906,2.2827250957489014,0.013942528516054153,1.2126065492630005,0.5791565775871277,1.2507822513580322,1.0476562976837158,2.1281070709228516,-0.12556928396224976,1.0692286491394043,0.7583550214767456,0.743009090423584,-0.1722797006368637,1741422485.2976084,1741422485939,-1.588826904296875,-0.3602222595214844,2.8203501540370874,-4.7513564453125,2.751086181640625
1741422485.337357,2.428739607334137,0.026389809342143043,0.019157992148271144,-0.9994681332087242,-0.27536913752555847,0.033691488206386566,0.4671950936317444,-0.3957549035549164,-0.7570425868034363,10.663311004638672,0.01125335693359375,0.042916297912597656,0.4369802474975586,-1.2505004405975342,0.005149920005351305,-0.9122987985610962,-0.00667582219466567,1.220745325088501,0.004005493130534887,0.9657053351402283,-0.2645532786846161,-0.6845578551292419,0.182154580950737,0.28667888045310974,0.8161669373512268,-0.322735071182251,0.04955693334341049,-0.20122835040092468,-0.013923857361078262,0.1516365259885788,0.7501716613769531,-0.44246089458465576,0.03457672521471977,-0.07467962056398392,-0.1619514375925064,-3.3542628288269043,-0.10287635773420334,-0.00991041399538517,-0.11056403070688248,3.1640663146972656,-0.1604280322790146,0.003306294558569789,-0.14084741473197937,0.4348273277282715,2.2347588539123535,-1.2286231517791748,-1.662744402885437,0.039451710879802704,-0.293600469827652,0.7392727136611938,-0.3101329207420349,-0.04637676104903221,1.668564796447754,4.684329509735107,1.3078402280807495,-0.470737099647522,1741422485.2976084,1741422485939,-1.588826904296875,-0.3602222595214844,2.8203501540370874,-4.7513564453125,2.751086181640625
1741422485.3573349,2.432290732860565,0.028504905893256768,0.02080694369370695,-0.999377076700353,0.03192136809229851,0.08707337081432343,0.12176825106143951,-5.8907389640808105,2.163224697113037,10.968194007873535,0.00514984130859375,0.039864540100097656,0.3591592311859131,-1.2512633800506592,0.005149920005351305,-0.9145876169204712,0.039101243019104004,1.2268489599227905,0.005149920005351305,0.9630350470542908,-0.2458609938621521,-0.6616693139076233,0.1340886503458023,0.25425344705581665,0.8146410584449768,-0.32680290937423706,0.05602211877703667,-0.26760509610176086,0.000572213320992887,0.1981765478849411,0.9115357995033264,-0.4028627276420593,0.023625127971172333,-0.1743389070034027,-0.014345744624733925,-3.9479472637176514,-0.10196823626756668,-0.002951474627479911,-0.08987484872341156,3.066511869430542,0.5563445091247559,0.07503185421228409,-0.18175972998142242,0.9354633092880249,1.2844064235687256,-2.5665857791900635,-1.6959763765335083,0.024052651599049568,-0.20654520392417908,0.5103055238723755,-3.6280007362365723,0.9544187188148499,2.533202886581421,8.50684642791748,2.0592386722564697,-0.43728095293045044,1741422485.2976084,1741422485939,-1.588826904296875,-0.3602222595214844,2.8203501540370874,-4.7513564453125,2.751086181640625
1741422485.3773863,2.425767481327057,0.03201866425528407,0.011725090114414622,-0.9994184946263084,0.45732781291007996,0.14572861790657043,-0.3387734889984131,-0.9151570796966553,-7.105109214782715,13.747424125671387,0.00629425048828125,0.036431312561035156,0.26913100481033325,-1.2558410167694092,0.005149920005351305,-0.916113555431366,0.08335240930318832,1.23600435256958,0.00476844422519207,0.9611276388168335,-0.2317463904619217,-0.6319142580032349,0.0864042118191719,0.22755016386508942,0.8093003630638123,-0.33142200112342834,0.062193144112825394,-0.3709849715232849,0.0398641936480999,0.2458609938621521,1.1217288970947266,-0.3612035810947418,0.005084162577986717,0.015516768209636211,-0.010069078765809536,-4.519806861877441,-0.23903845250606537,-0.019834008067846298,-0.06364709138870239,2.976498603820801,0.5302515625953674,0.000952180998865515,-0.1653287708759308,0.6776115894317627,1.572712779045105,-2.2690160274505615,-0.991837739944458,-0.3812274932861328,-0.15911830961704254,0.07872536033391953,-5.238218784332275,2.0144097805023193,2.290907382965088,10.702866554260254,1.8322213888168335,-1.0803860425949097,1741422485.2976084,1741422485939,-1.588826904296875,-0.3602222595214844,2.8203501540370874,-4.7513564453125,2.751086181640625
1741422485.3974564,2.414967954158783,0.030948902223811223,-0.0013337890409209775,-0.9995200780664365,0.7074073553085327,-0.12692435085773468,-0.5383152365684509,5.04058837890625,0.1234758272767067,6.92632532119751,-0.00362396240234375,0.047112464904785156,0.17261768877506256,-1.2562226057052612,0.005149920005351305,-0.9164950251579285,0.1363775134086609,1.2409635782241821,0.00476844422519207,0.9573128819465637,-0.22373540699481964,-0.5853742361068726,0.06771191209554672,0.21801327168941498,0.7921339869499207,-0.33154985308647156,0.05361528322100639,-0.4808499217033386,0.08335240930318832,0.27027541399002075,1.3094148635864258,-0.3582347631454468,-0.019308818504214287,-0.25930115580558777,0.4231475293636322,-4.847361087799072,-0.01703413389623165,-0.012774479575455189,-0.012987948954105377,3.62542724609375,0.25958341360092163,-0.002897447207942605,-0.2784087359905243,0.36941224336624146,2.3213014602661133,-0.7409530878067017,-0.30162137746810913,-0.8821276426315308,0.009270252659916878,-0.47127100825309753,-5.398942470550537,2.1630895137786865,0.9450300335884094,8.813545227050781,-0.18604139983654022,-0.9537596702575684,1741422485.2976084,1741422485939,-1.588826904296875,-0.3602222595214844,2.8203501540370874,-4.7513564453125,2.751086181640625
1741422485.417414,2.4016098380088806,0.025745849199493354,-0.01395343086033853,-0.9995711345453222,0.589576005935669,-0.29054924845695496,-0.6340135931968689,2.693031072616577,-4.630859375,12.135677337646484,-0.01087188720703125,0.056267738342285156,0.08106355369091034,-1.2546966075897217,0.005149920005351305,-0.9164950251579285,0.19321736693382263,1.2474485635757446,0.005149920005351305,0.9531166553497314,-0.21648737788200378,-0.5315861701965332,0.058175019919872284,0.22449836134910583,0.7806897163391113,-0.333520770072937,0.034891754388809204,-0.580033540725708,0.12264438718557358,0.25234606862068176,1.4253833293914795,-0.3902818560600281,-0.011997121386229992,-0.21998824179172516,0.34567534923553467,-4.482394218444824,0.14417868852615356,-0.008340542204678059,-0.018768439069390297,3.8609979152679443,0.49581068754196167,0.027936339378356934,-0.28644609451293945,0.3954916298389435,2.5895838737487793,-0.4864601194858551,0.3674493432044983,-0.5654616355895996,-0.12454389035701752,-1.0159828662872314,-4.865811347961426,1.7316961288452148,-1.24228835105896,5.243144512176514,-1.8351541757583618,0.4930048882961273,1741422485.2976084,1741422485939,-1.588826904296875,-0.3602222595214844,2.8203501540370874,-4.7513564453125,2.751086181640625
1741422485.437436,2.3899356722831726,0.01975039861862133,-0.015862627198828014,-0.999679097917305,0.018642161041498184,-0.2846457064151764,-0.5718305110931396,-3.192121744155884,-1.565028190612793,10.065464973449707,-0.02346038818359375,0.055886268615722656,0.00667582219466567,-1.2482116222381592,0.005149920005351305,-0.9172579646110535,0.2508201599121094,1.2585114240646362,0.005149920005351305,0.9477760195732117,-0.20809490978717804,-0.4827573001384735,0.04291599988937378,0.21648737788200378,0.7665750980377197,-0.3480498492717743,0.02034788951277733,-0.6738765835762024,0.134470134973526,0.20160982012748718,1.4623864889144897,-0.4379989206790924,-0.0017971540801227093,-0.3669246733188629,0.02610456757247448,-3.6336829662323,0.44686785340309143,-0.004300043918192387,-0.04624611511826515,3.7633488178253174,0.7819721102714539,0.006191709544509649,-0.3645647168159485,0.506121814250946,2.4790916442871094,-0.8246809244155884,-0.5349586606025696,-0.7527107000350952,-0.8653061985969543,-0.6234745383262634,-4.557769775390625,0.31883230805397034,-2.7597689628601074,1.2842128276824951,-2.3844635486602783,0.2864628732204437,1741422485.2976084,1741422485939,-1.588826904296875,-0.3602222595214844,2.8203501540370874,-4.7513564453125,2.751086181640625
1741422485.4574614,2.3823034167289734,0.01929253409179395,-0.011690080460326255,-0.9997455376980424,-0.23167288303375244,-0.005119620822370052,-0.36461299657821655,-1.0365294218063354,2.702169179916382,7.68424654006958,-0.03070831298828125,0.046349525451660156,-0.05092698708176613,-1.239819049835205,0.00476844422519207,-0.9195467829704285,0.30498969554901123,1.2661409378051758,0.005149920005351305,0.9412909150123596,-0.19130998849868774,-0.4396505653858185,0.024986648932099342,0.19245441257953644,0.7455939650535583,-0.3797491192817688,0.017836794257164,-0.763523280620575,0.12874799966812134,0.13218127191066742,1.4326313734054565,-0.47522100806236267,0.004698750097304583,-0.23213961720466614,-0.1825798749923706,-2.831489324569702,0.5366399884223938,-0.009648486040532589,-0.1689281016588211,3.6532602310180664,0.43028783798217773,-0.005167899653315544,-0.4567772448062897,0.7536910176277161,2.0286519527435303,-0.904984176158905,-1.2469346523284912,-1.1199264526367188,-1.7489118576049805,-0.037327248603105545,-4.56389045715332,-0.3720467984676361,-3.4985034465789795,-1.963850736618042,-1.645666480064392,0.4267224967479706,1741422485.2976084,1741422485939,-1.588826904296875,-0.3602222595214844,2.8203501540370874,-4.7513564453125,2.751086181640625
1741422485.4775386,2.370806634426117,0.02505838253131815,-0.005149549096368605,-0.9996727262504556,-0.30360671877861023,0.3163682520389557,-0.4989897310733795,3.461338996887207,-3.2069931030273438,6.557484149932861,-0.038720130920410156,0.02269744873046875,-0.11043716967105865,-1.235241413116455,0.00476844422519207,-0.9313725233078003,0.3549630045890808,1.2703371047973633,0.005531395319849253,0.9363317489624023,-0.17109178006649017,-0.41294726729393005,0.012779430486261845,0.17452506721019745,0.7265201807022095,-0.4240468144416809,0.015586324036121368,-0.8421072959899902,0.12417028844356537,0.06771191209554672,1.356717824935913,-0.47706085443496704,0.011394106782972813,-0.2607732117176056,-0.5967916250228882,-2.859618663787842,0.30064594745635986,-0.07449899613857269,-0.7784678936004639,3.249189853668213,0.2743261158466339,0.021925607696175575,-0.2870723605155945,0.9223452806472778,1.0997138023376465,-0.4650014638900757,-0.6803798079490662,-0.8830932974815369,-2.2843334674835205,-0.013475297950208187,-3.9668471813201904,-0.21078164875507355,-3.1018056869506836,-3.945455551147461,0.27121198177337646,0.3375293016433716,1741422485.2976084,1741422485939,-1.588826904296875,-0.3602222595214844,2.8203501540370874,-4.7513564453125,2.751086181640625
1741422485.4975078,2.3646846413612366,0.03728621591880243,0.003096586556682505,-0.9992998295077176,-0.40756720304489136,0.7000161409378052,-0.2490239292383194,-1.294556975364685,-2.4831879138946533,3.3674328327178955,-0.047493934631347656,0.00743865966796875,-0.15354390442371368,-1.2291377782821655,0.005149920005351305,-0.9493018984794617,0.39463645219802856,1.2707185745239258,0.005149920005351305,0.9340428709983826,-0.1520180106163025,-0.3912031650543213,0.009727626107633114,0.16231784224510193,0.7249943017959595,-0.46746063232421875,0.025441447272896767,-0.9012359976768494,0.1184481605887413,0.02727550081908703,1.2571526765823364,-0.4415624439716339,0.013115310110151768,-0.26239779591560364,-0.4832321107387543,-1.9957010746002197,0.4009716808795929,-0.011527360416948795,-0.8789204955101013,2.4835309982299805,-0.023538360372185707,-0.00875100027769804,-0.09955669194459915,0.9163942337036133,0.9690130949020386,-0.17738044261932373,-0.7109148502349854,-0.02113357186317444,-2.1178228855133057,0.5085885524749756,-2.708775043487549,-0.3313102424144745,-1.8182954788208008,-5.14067268371582,1.9398146867752075,0.04451011121273041,1741422485.2976084,1741422485939,-1.588826904296875,-0.3602222595214844,2.8203501540370874,-4.7513564453125,2.751086181640625
1741422485.5176146,2.364539682865143,0.05561711043500403,0.008468799378300782,-0.9984162541064475,-0.242889866232872,0.9093054533004761,-0.01026016566902399,6.655632019042969,1.3244377374649048,5.8782782554626465,-0.050927162170410156,-0.00019073486328125,-0.17528800666332245,-1.224941611289978,0.005149920005351305,-0.9664682745933533,0.43163958191871643,1.2699556350708008,0.005531395319849253,0.9317540526390076,-0.12722209095954895,-0.3694590628147125,0.00019073777366429567,0.14019227027893066,0.7265201807022095,-0.5006453990936279,0.021996688097715378,-0.9405279755592346,0.10509651154279709,0.00476844422519207,1.128213882446289,-0.39587104320526123,0.00965564139187336,-0.11673658341169357,-0.22092020511627197,-0.8792901635169983,0.24356862902641296,-0.01198788732290268,-0.8249625563621521,2.6448333263397217,-0.07462875545024872,-0.005461505614221096,-0.2639632225036621,1.3854188919067383,1.2216869592666626,-0.4212150275707245,-1.1991742849349976,0.08956141024827957,-1.5376778841018677,-0.4033135771751404,-2.0042026042938232,-0.7708151936531067,-1.066066026687622,-6.677845478057861,2.263375759124756,-0.15629376471042633,1741422485.2976084,1741422485939,-1.588826904296875,-0.3602222595214844,2.8203501540370874,-4.7513564453125,2.751086181640625
1741422485.5375345,2.3659388422966003,0.06779710642577128,0.012147941379065722,-0.9976251700315824,-0.1986563354730606,0.6072391271591187,0.09041133522987366,7.962793350219727,1.6549339294433594,5.28116512298584,-0.052834510803222656,0.00095367431640625,-0.16880293190479279,-1.2218897342681885,0.005149920005351305,-0.9752422571182251,0.46368351578712463,1.2646150588989258,0.00476844422519207,0.9252689480781555,-0.09861142933368683,-0.33627068996429443,-0.016975661739706993,0.11730372905731201,0.7234683632850647,-0.5152745842933655,0.011774178594350815,-0.953498125076294,0.07724879682064056,-0.023079270496964455,0.9924086332321167,-0.34683576226234436,0.003246254287660122,-0.08303626626729965,-0.0022326300386339426,0.4919429421424866,0.2170044332742691,0.009566172026097775,-0.40089744329452515,1.84905207157135,-0.4096982777118683,-0.028927596285939217,-0.377071350812912,1.3524378538131714,1.8721954822540283,-1.0529147386550903,-1.1316556930541992,-0.19579410552978516,-0.4812467098236084,-0.26897919178009033,-0.3312455415725708,-1.428646445274353,-1.6309462785720825,-6.6646809577941895,2.457228660583496,-0.3658774793148041,1741422485.2976084,1741422485939,-1.588826904296875,-0.3602222595214844,2.8203501540370874,-4.7513564453125,2.751086181640625
1741422485.557563,2.3689382672309875,0.0687315488803008,0.010652069338569475,-0.9975783215403797,0.12249837815761566,-0.07827674597501755,0.1610894799232483,1.1311814785003662,-1.3198866844177246,7.930577754974365,-0.051690101623535156,0.02880096435546875,-0.13790340721607208,-1.219219446182251,0.005149920005351305,-0.9779125452041626,0.47741663455963135,1.2573670148849487,0.00476844422519207,0.9187838435173035,-0.07724879682064056,-0.2904936373233795,-0.04558632895350456,0.10891126841306686,0.7204165458679199,-0.5106785893440247,0.03935929387807846,-0.9401465058326721,0.03795681521296501,-0.06504157930612564,0.8691920638084412,-0.3075813353061676,-0.003823488252237439,0.02961544133722782,0.8426350951194763,1.741346001625061,0.15195882320404053,-0.009250512346625328,-0.04556090012192726,0.829724907875061,-0.4848097264766693,-0.010184995830059052,-0.4394680857658386,0.9655963778495789,2.3489837646484375,-1.540832757949829,-0.17324276268482208,-0.026547836139798164,0.32152125239372253,1.742193341255188,0.8416206240653992,-2.112180709838867,-2.191342353820801,-6.025589466094971,1.6994695663452148,-0.24866053462028503,1741422485.2976084,1741422485939,-1.588826904296875,-0.3602222595214844,2.8203501540370874,-4.7513564453125,2.751086181640625
1741422485.577632,2.371084988117218,0.05982098024069308,0.0013973730357134226,-0.9982081434608924,0.5322937369346619,-0.4985402822494507,0.1738518625497818,2.2776691913604736,2.605325937271118,6.692672252655029,-0.053215980529785156,0.045968055725097656,-0.08030059933662415,-1.219982385635376,0.005149920005351305,-0.9744792580604553,0.4736018776893616,1.2489745616912842,0.00476844422519207,0.9130617380142212,-0.06961929053068161,-0.2466239482164383,-0.08564125746488571,0.12722209095954895,0.7475013136863708,-0.504652738571167,0.060821738094091415,-0.8989471197128296,-0.0078202486038208,-0.08564125746488571,0.7570382356643677,-0.3041330575942993,-0.011382690630853176,-0.0555371455848217,0.5609437227249146,2.9947257041931152,-0.1819799691438675,0.005967604462057352,0.16499507427215576,-0.4137299656867981,-0.5893341898918152,-0.00961774680763483,-0.345054030418396,0.26346850395202637,2.108360528945923,-1.8291711807250977,0.9888692498207092,1.8289215564727783,0.2695850431919098,0.7546973824501038,2.1757657527923584,-2.1948137283325195,-0.4839116036891937,-5.5256500244140625,-0.16498464345932007,-0.3522565960884094,1741422485.2976084,1741422485939,-1.588826904296875,-0.3602222595214844,2.8203501540370874,-4.7513564453125,2.751086181640625
1741422485.5975971,2.3746437430381775,0.04290074692233643,-0.020561781299961265,-0.9988677285122781,1.1726772785186768,-0.924265444278717,0.3370886445045471,-5.8823323249816895,8.557366371154785,23.449737548828125,-0.051308631896972656,0.055123329162597656,-0.006294346414506435,-1.2356228828430176,0.005531395319849253,-0.9725719094276428,0.4545281231403351,1.2402005195617676,0.004386968910694122,0.9115357995033264,-0.07343403995037079,-0.23441672325134277,-0.0883115902543068,0.14820325374603271,0.840199887752533,-0.48745056986808777,0.07334259897470474,-0.8562218546867371,-0.02689402550458908,-0.0558861680328846,0.7230868935585022,-0.2916940450668335,-0.014913114719092846,0.021925877779722214,0.31191200017929077,3.8719704151153564,-1.155052900314331,0.00321279838681221,0.11825559288263321,-1.3615820407867432,-0.6075376272201538,-0.006571535021066666,-0.14683888852596283,-0.18838384747505188,0.21542221307754517,0.2959933578968048,0.9606472253799438,5.2705254554748535,1.029007077217102,0.6434757113456726,1.9624470472335815,-0.33793318271636963,1.6912537813186646,0.31654858589172363,1.1501048803329468,-0.10980094224214554,1741422485.2976084,1741422485939,-1.588826904296875,-0.3602222595214844,2.8203501540370874,-4.7513564453125,2.751086181640625
1741422485.617651,2.376275956630707,0.033372250745234595,-0.030778207953482625,-0.9989689658820085,0.383072167634964,-0.37324485182762146,0.2080833613872528,1.0778297185897827,-2.2472925186157227,3.0007925033569336,-0.06847476959228516,0.052071571350097656,0.07381551712751389,-1.2485930919647217,0.005149920005351305,-0.9653238654136658,0.41103988885879517,1.231045126914978,0.005149920005351305,0.9046692848205566,-0.09250781685113907,-0.2790493667125702,-0.09365224838256836,0.16193637251853943,0.9901197552680969,-0.4464007318019867,0.08089380711317062,-0.8340963125228882,0.0024795911740511656,-0.005149920005351305,0.7936598658561707,-0.24431979656219482,-0.01306985318660736,-0.6268335580825806,-0.19427433609962463,4.0721516609191895,-0.6633821725845337,0.0398939810693264,0.37511035799980164,-3.328920602798462,-0.5754990577697754,0.07964229583740234,-0.37420594692230225,-0.7226672768592834,-2.765946388244629,-0.45365217328071594,0.6927409768104553,7.837589740753174,2.1476991176605225,0.27140700817108154,0.6276946663856506,1.0984092950820923,2.9354422092437744,2.551649808883667,2.5960795879364014,0.22014962136745453,1741422485.2976084,1741422485939,-1.588826904296875,-0.3602222595214844,2.8203501540370874,-4.7513564453125,2.751086181640625
1741422485.6376574,2.3922809958457947,0.020935214727047645,-0.03337325997868439,-0.9992236698070796,0.127032071352005,-0.49396753311157227,0.7887101769447327,-3.9247803688049316,8.502481460571289,17.22237205505371,-0.060082435607910156,0.052071571350097656,0.14820325374603271,-1.2493560314178467,0.004386968910694122,-0.9573128819465637,0.33207446336746216,1.2306636571884155,0.00476844422519207,0.9077210426330566,-0.09632257372140884,-0.3747997283935547,-0.10051880776882172,0.14209964871406555,1.176279902458191,-0.40393325686454773,0.07327676564455032,-0.7879377603530884,0.012397955171763897,0.04291599988937378,0.7928969264030457,-0.21359841525554657,-0.009499899111688137,0.22967560589313507,-0.062213651835918427,3.6513352394104004,0.02814984694123268,-0.11932612955570221,0.32291513681411743,-5.528452396392822,0.11002738773822784,-0.0517122782766819,0.2706890106201172,-0.04042690992355347,-4.700807571411133,-0.21944938600063324,-1.2030372619628906,9.543550491333008,1.8787592649459839,-0.9327767491340637,2.664370059967041,0.6385977268218994,1.8922369480133057,-0.14752615988254547,1.237215518951416,0.2820424437522888,1741422485.2976084,1741422485939,-1.588826904296875,-0.3602222595214844,2.8203501540370874,-4.7513564453125,2.751086181640625
1741422485.6576817,2.4193660616874695,0.011557087990216043,-0.03314052998067329,-0.9993838796927769,-0.17003360390663147,-0.5400408506393433,1.3553029298782349,1.285512089729309,-0.5445685982704163,14.117637634277344,-0.058556556701660156,0.057030677795410156,0.2141985148191452,-1.2539336681365967,0.005531395319849253,-0.9500648379325867,0.2508201599121094,1.233715534210205,0.00476844422519207,0.9077210426330566,-0.09479667246341705,-0.4850461483001709,-0.09288929402828217,0.12188144028186798,1.336499571800232,-0.39152178168296814,0.01844889298081398,-0.7555122971534729,0.013542382046580315,0.056267641484737396,0.8047226667404175,-0.2027740180492401,-0.0072042979300022125,0.005493771750479937,0.11629079282283783,3.094980001449585,-0.37872645258903503,-0.022783873602747917,0.3578647971153259,-5.1480607986450195,0.13920626044273376,0.08156901597976685,-0.18762627243995667,-0.002448903163895011,-5.595258712768555,0.2873430550098419,-0.8118324875831604,7.222777366638184,0.32016831636428833,-2.4613566398620605,1.0998172760009766,-0.3609659671783447,0.8298540711402893,0.7366092205047607,0.3799268305301666,0.07310350239276886,1741422485.2976084,1741422485939,-1.588826904296875,-0.3602222595214844,2.8203501540370874,-4.7513564453125,2.751086181640625
1741422485.6777012,2.443567216396332,0.0031799308448588835,-0.025828547100522594,-0.9996613297484793,-0.28715991973876953,-0.2752792239189148,1.165209174156189,2.6341915130615234,4.644062042236328,11.105921745300293,-0.06771183013916016,0.049401283264160156,0.2817196846008301,-1.2543151378631592,0.00476844422519207,-0.9447242021560669,0.17566949129104614,1.2394375801086426,0.00476844422519207,0.9077210426330566,-0.0883115902543068,-0.580033540725708,-0.08945601433515549,0.13218127191066742,1.4173723459243774,-0.42212480306625366,0.01731821894645691,-0.7146944403648376,0.0013351644156500697,0.061226826161146164,0.8272297382354736,-0.2142324298620224,0.0014973655343055725,-0.21328023076057434,-0.2231295108795166,3.448474407196045,-0.026718225330114365,-0.006720514036715031,0.28211578726768494,-5.090935707092285,0.37351876497268677,-0.011487950570881367,0.0641368180513382,0.5551934242248535,-4.332745552062988,0.32941100001335144,0.7135475873947144,3.4088947772979736,-1.7919286489486694,0.14852651953697205,2.3584470748901367,-0.7791632413864136,0.07459992915391922,0.9954314827919006,-0.7071880102157593,0.5189992785453796,1741422485.2976084,1741422485939,-1.588826904296875,-0.3602222595214844,2.8203501540370874,-4.7513564453125,2.751086181640625
1741422485.6977105,2.456987202167511,-0.005447648063110223,-0.023743979075046155,-0.9997032292576954,-0.12762385606765747,-0.49711838364601135,0.5884811282157898,-0.4630568027496338,2.689131498336792,14.072561264038086,-0.051308631896972656,0.049401283264160156,0.34809643030166626,-1.2562226057052612,0.005149920005351305,-0.9370946884155273,0.10013733059167862,1.236767292022705,0.005149920005351305,0.9081025123596191,-0.08335240930318832,-0.655947208404541,-0.0711451917886734,0.14057374000549316,1.421187162399292,-0.469590425491333,0.012554343789815903,-0.6807430982589722,-0.00858320016413927,0.0558861680328846,0.8291370868682861,-0.24020865559577942,0.016941696405410767,0.4209694564342499,-0.07926767319440842,3.4821279048919678,-0.15645785629749298,0.0007014974835328758,0.4050489366054535,-5.037970066070557,-0.2591772675514221,0.06126398220658302,-0.001311718369834125,0.3040316104888916,-3.8452348709106445,1.0984256267547607,0.23684397339820862,-0.3101043999195099,-2.3948090076446533,-0.32297733426094055,1.2968169450759888,-0.4519841969013214,-0.3075212240219116,0.06650574505329132,-1.3581095933914185,0.7807657718658447,1741422485.2976084,1741422485939,-1.588826904296875,-0.3602222595214844,2.8203501540370874,-4.7513564453125,2.751086181640625
1741422485.717758,2.4610299468040466,-0.00805215497274456,-0.020363784843745777,-0.9997602107841324,-0.17043441534042358,0.0622362345457077,0.13433367013931274,2.810649871826172,-1.3619459867477417,9.943217277526855,-0.061608314514160156,0.034523963928222656,0.4060807228088379,-1.2608002424240112,0.005149920005351305,-0.9325169920921326,0.023460745811462402,1.239819049835205,0.00476844422519207,0.9119172692298889,-0.07457847148180008,-0.7185091972351074,-0.04940108209848404,0.152399480342865,1.3696879148483276,-0.5071042776107788,-0.009510846808552742,-0.6433585286140442,-0.015449759550392628,0.0551232174038887,0.8356221914291382,-0.2755357623100281,0.030695145949721336,-0.2311636060476303,-0.38499316573143005,2.7887232303619385,-0.3187442421913147,-0.01587999239563942,0.19009509682655334,-5.263892650604248,0.3848697245121002,-0.05047121271491051,0.35665544867515564,0.4616565406322479,-3.1073451042175293,1.0761117935180664,0.5191090703010559,-2.903451919555664,-1.6409598588943481,-1.076863408088684,2.245276927947998,-0.4523860812187195,0.04863451421260834,0.4129032790660858,-1.8128180503845215,0.8834986686706543,1741422485.2976084,1741422485939,-1.588826904296875,-0.3602222595214844,2.8203501540370874,-4.7513564453125,2.751086181640625
1741422485.737756,2.4650283455848694,-0.001640407098496225,-0.020301739638757015,-0.9997925526989043,0.0014025088166818023,0.3111671507358551,0.26053234934806824,-6.723780632019043,6.012173652648926,8.523100852966309,-0.057412147521972656,0.01430511474609375,0.46063172817230225,-1.2627075910568237,0.005149920005351305,-0.9237430095672607,-0.054741740226745605,1.2417265176773071,0.005149920005351305,0.924124538898468,-0.07267109304666519,-0.7654306888580322,-0.02384222112596035,0.1527809500694275,1.2914854288101196,-0.5120323300361633,-0.009922071360051632,-0.620088517665863,-0.023460745811462402,0.05207141116261482,0.8299000263214111,-0.31825733184814453,0.040994592010974884,0.10078257322311401,-0.5642768144607544,2.601170539855957,-0.10602504014968872,-0.027572179213166237,0.4179537296295166,-4.991482734680176,0.006841909606009722,0.048485755920410156,0.8274096250534058,0.0017428542487323284,-2.1289637088775635,1.2399054765701294,0.035421356558799744,-4.091557025909424,0.055860988795757294,0.21746473014354706,0.8754721879959106,-0.35368433594703674,-0.23563237488269806,-0.22134463489055634,-2.0960006713867188,0.5164968371391296,1741422485.2976084,1741422485939,-1.588826904296875,-0.3602222595214844,2.8203501540370874,-4.7513564453125,2.751086181640625
1741422485.7578018,2.468059003353119,0.01569206307532818,-0.019073443130084137,-0.9996949349294529,-0.06330864131450653,0.864287257194519,0.12983669340610504,2.247629404067993,0.6374737024307251,7.0886735916137695,-0.057030677795410156,-0.00553131103515625,0.49496451020240784,-1.2623261213302612,0.005531395319849253,-0.9203097820281982,-0.11463340371847153,1.2363858222961426,0.0032425422687083483,0.9424353241920471,-0.08182650804519653,-0.8119707107543945,0.009727626107633114,0.1508735716342926,1.187342643737793,-0.4799380898475647,-0.011020741425454617,-0.5903334021568298,-0.035667963325977325,0.05092698708176613,0.8321889042854309,-0.3564353287220001,0.048805028200149536,-0.005276299547404051,-0.5198004841804504,1.5754910707473755,0.03254116699099541,0.006591034587472677,0.16877083480358124,-3.863760471343994,-0.41582387685775757,-0.12428506463766098,1.24489164352417,-0.504930853843689,-2.2577104568481445,1.8215148448944092,-0.18126989901065826,-5.2528395652771,1.8160126209259033,-0.16588792204856873,1.4460325241088867,-0.6431416869163513,0.07792934775352478,-0.035117898136377335,-1.9627182483673096,0.35273048281669617,1741422485.2976084,1741422485939,-1.588826904296875,-0.3602222595214844,2.8203501540370874,-4.7513564453125,2.751086181640625
1741422485.7778876,2.4737213253974915,0.029643122769641712,-0.018252419143461523,-0.9993938835453594,-0.03722764551639557,0.6809335947036743,0.30125319957733154,3.4553260803222656,-0.1307559609413147,6.7860260009765625,-0.060845375061035156,-0.00133514404296875,0.5102235674858093,-1.2619446516036987,0.005149920005351305,-0.916113555431366,-0.14782176911830902,1.2291377782821655,0.0032425422687083483,0.9580758213996887,-0.10013733059167862,-0.8360036611557007,0.053215838968753815,0.15316243469715118,1.0812923908233643,-0.4355343282222748,-0.0066735874861478806,-0.5605783462524414,-0.03681239113211632,0.0558861680328846,0.8272297382354736,-0.39246073365211487,0.05947284400463104,-0.1127663403749466,0.10361531376838684,0.6093028783798218,0.039428286254405975,-0.001980910776183009,0.19886648654937744,-1.9289499521255493,-0.489793062210083,-0.0037769831251353025,0.9990195631980896,-0.9666752815246582,-1.0458556413650513,2.3092434406280518,0.24638545513153076,-5.352991580963135,2.2342450618743896,0.2915021777153015,1.7041215896606445,-0.032709673047065735,0.40707531571388245,-0.11478721350431442,-1.6876139640808105,0.5479377508163452,1741422485.2976084,1741422485939,-1.588826904296875,-0.3602222595214844,2.8203501540370874,-4.7513564453125,2.751086181640625
1741422485.797855,2.4824493527412415,0.036001035002597395,-0.017264491355442536,-0.9992026134958713,-0.06853342056274414,0.2565212845802307,0.4589689075946808,4.870946407318115,0.7567815780639648,5.836156368255615,-0.06542301177978516,0.01163482666015625,0.5064088106155396,-1.2600373029708862,0.005149920005351305,-0.9134432077407837,-0.1516365259885788,1.223034143447876,0.0032425422687083483,0.9691386222839355,-0.12722209095954895,-0.8344777822494507,0.10204470902681351,0.17528800666332245,0.969520092010498,-0.38877665996551514,0.0007083156378939748,-0.5201418995857239,-0.029564354568719864,0.07686731964349747,0.8230335116386414,-0.42232197523117065,0.05289135500788689,-0.1430186927318573,0.4283270537853241,-0.2986302673816681,0.13358768820762634,-0.005867756903171539,0.09094571322202682,0.05787369981408119,-0.4397069811820984,0.002478330861777067,0.6665729880332947,-1.4368343353271484,0.3002636134624481,2.4642436504364014,1.4282541275024414,-5.729716777801514,2.333961009979248,0.403797447681427,2.1295242309570312,0.4829501211643219,1.0472419261932373,-0.2622738778591156,-1.4460147619247437,-0.53859543800354,1741422485.2976084,1741422485939,-1.588826904296875,-0.3602222595214844,2.8203501540370874,-4.7513564453125,2.751086181640625
1741422485.8178804,2.4946109652519226,0.033623414068330124,-0.01657081397199972,-0.9992971901044729,-0.08551712334156036,-0.14750315248966217,0.5942670702934265,3.9584109783172607,1.3857003450393677,3.9015450477600098,-0.07038211822509766,0.031853675842285156,0.4873350262641907,-1.2569855451583862,0.005149920005351305,-0.9164950251579285,-0.12951095402240753,1.219219446182251,0.0032425422687083483,0.9725719094276428,-0.15659570693969727,-0.805867075920105,0.1329442262649536,0.22144655883312225,0.8463035225868225,-0.34814342856407166,0.003785747103393078,-0.4697871506214142,-0.009346150793135166,0.09937438368797302,0.8134965896606445,-0.4456779658794403,0.026549972593784332,-0.12186003476381302,0.6110650897026062,-1.0974483489990234,0.1385183185338974,-0.008870285004377365,-0.1583695411682129,1.73458993434906,-0.2245791256427765,0.008030219934880733,0.18935665488243103,-1.3948357105255127,1.6181927919387817,1.2550731897354126,2.504701852798462,-6.296065807342529,1.8406387567520142,0.09275846183300018,2.655017375946045,1.2859796285629272,1.0817338228225708,-0.45500466227531433,-1.0866591930389404,-1.3754240274429321,1741422485.2976084,1741422485939,-1.588826904296875,-0.3602222595214844,2.8203501540370874,-4.7513564453125,2.751086181640625
1741422485.8378868,2.5051819682121277,0.023406152302897883,-0.01050862114754151,-0.9996708062737207,-0.349449098110199,-0.6024646759033203,0.4834776520729065,-14.855538368225098,1.7775617837905884,19.11857032775879,-0.07534122467041016,0.049019813537597656,0.45719844102859497,-1.2543151378631592,0.005149920005351305,-0.9157320261001587,-0.086785688996315,1.2188379764556885,0.0032425422687083483,0.9706645011901855,-0.17414358258247375,-0.7623788714408875,0.16231784224510193,0.2653162479400635,0.7654306888580322,-0.3119800388813019,0.00953319575637579,-0.41447317600250244,-0.000572213320992887,0.12302586436271667,0.8157854676246643,-0.4503036439418793,0.02659481391310692,-0.14291203022003174,0.481242299079895,-1.644137978553772,0.2280193269252777,-0.02211991511285305,0.10351859778165817,3.032512664794922,0.012862036004662514,0.0009462261805310845,-0.14395378530025482,-0.8145168423652649,2.227756977081299,1.0821377038955688,2.300257444381714,-2.5707521438598633,1.9238512516021729,0.3820748031139374,2.72255802154541,0.11605770140886307,1.3019438982009888,0.3413870334625244,0.04551450163125992,0.5500713586807251,1741422485.2976084,1741422485939,-1.588826904296875,-0.3602222595214844,2.8203501540370874,-4.7513564453125,2.751086181640625
1741422485.8579676,2.511272370815277,0.010881731655962049,-0.010547750021106854,-0.9998851598486996,0.022445708513259888,-0.4700149595737457,0.3034457266330719,-7.497177600860596,0.03043089434504509,5.904902458190918,-0.07991886138916016,0.050545692443847656,0.41065841913223267,-1.2562226057052612,0.005149920005351305,-0.9138246774673462,-0.030708782374858856,1.2188379764556885,0.0032425422687083483,0.9653238654136658,-0.16880293190479279,-0.6948577165603638,0.14858472347259521,0.2920195460319519,0.7906080484390259,-0.2950914204120636,0.02738402597606182,-0.3717479109764099,0.000572213320992887,0.1520180106163025,0.8337147831916809,-0.43339502811431885,0.0272532869130373,-0.10944616049528122,0.07018280029296875,-2.4872281551361084,-0.31324926018714905,-0.0054802908562123775,-0.06400249898433685,3.9269535541534424,0.0008344202651642263,-0.0025045129004865885,-0.35571959614753723,0.44228288531303406,3.235872745513916,-0.7669211030006409,0.8111593127250671,0.8964701890945435,0.37768763303756714,0.7273903489112854,2.0357391834259033,0.1572132110595703,1.4141591787338257,1.1652801036834717,1.0479624271392822,-0.2510247826576233,1741422485.2976084,1741422485939,-1.588826904296875,-0.3602222595214844,2.8203501540370874,-4.7513564453125,2.751086181640625
1741422485.8779876,2.511695683002472,0.007145738417274114,-0.0062214004300317725,-0.999955115292262,-0.26777806878089905,-0.2144586443901062,-0.05981580168008804,-1.243074655532837,0.20082376897335052,10.096945762634277,-0.08602237701416016,0.045205116271972656,0.3400854468345642,-1.2596558332443237,0.005149920005351305,-0.9180209040641785,0.028038453310728073,1.219219446182251,0.0036240178160369396,0.961509108543396,-0.15506981313228607,-0.6563286781311035,0.13218127191066742,0.2595941126346588,0.7795453071594238,-0.3073398172855377,0.03586909919977188,-0.36793315410614014,0.0009536888683214784,0.18673227727413177,0.9042877554893494,-0.4010421931743622,0.01840602234005928,-0.1865425705909729,-0.12162712961435318,-3.4797377586364746,-0.15154415369033813,-0.040960799902677536,-0.1542845070362091,3.916149616241455,0.03688791021704674,0.0156012661755085,-0.31035369634628296,0.5352423191070557,1.9461811780929565,-0.9113720059394836,-1.8698437213897705,-0.5632658004760742,-0.5724236965179443,0.34565630555152893,-0.36807793378829956,-0.007117226254194975,1.811952829360962,4.195738315582275,1.675141453742981,-0.5504944920539856,1741422485.2976084,1741422485939,-1.588826904296875,-0.3602222595214844,2.8203501540370874,-4.7513564453125,2.751086181640625
1741422485.8979578,2.507947027683258,0.008683350707949072,-0.006053847460224563,-0.9999439736062271,0.08056067675352097,0.15829119086265564,-0.22930854558944702,6.48302698135376,6.588829517364502,5.908522605895996,-0.09632301330566406,0.037194252014160156,0.2645532786846161,-1.2588928937911987,0.005149920005351305,-0.916876494884491,0.0871671661734581,1.228756308555603,0.004005493130534887,0.9573128819465637,-0.14324407279491425,-0.614366352558136,0.11005569249391556,0.24319066107273102,0.7776378989219666,-0.31514090299606323,0.03822484239935875,-0.4175249934196472,0.01583123579621315,0.2157244235277176,1.0442893505096436,-0.355661541223526,0.007484325673431158,-0.29350119829177856,-0.2431716024875641,-3.746560573577881,0.03476601094007492,-0.013797037303447723,0.05559922009706497,3.988886594772339,0.7557734847068787,0.02275066450238228,-0.2559661865234375,0.5155251622200012,2.067821979522705,-1.3300796747207642,-0.749162495136261,-0.05833255499601364,-0.39235904812812805,0.2779719829559326,-2.9894590377807617,1.0116145610809326,1.4729174375534058,7.44284725189209,2.3805742263793945,-0.6050958633422852,1741422485.2976084,1741422485939,-1.588826904296875,-0.3602222595214844,2.8203501540370874,-4.7513564453125,2.751086181640625
1741422485.9180474,2.489412248134613,0.010206375945502584,-0.010803273956769712,-0.9998895534817204,0.2269028127193451,0.07650647312402725,-0.9129162430763245,0.39154866337776184,-1.664718508720398,7.732157230377197,-0.09708595275878906,0.042534828186035156,0.1832990050315857,-1.2592743635177612,0.005149920005351305,-0.9164950251579285,0.14248111844062805,1.2421079874038696,0.005149920005351305,0.953498125076294,-0.14782176911830902,-0.580033540725708,0.09327077120542526,0.2458609938621521,0.7722972631454468,-0.32550573348999023,0.03470936417579651,-0.5163271427154541,0.050164032727479935,0.23594263195991516,1.2201495170593262,-0.3243935704231262,-0.0072311642579734325,-0.08521270751953125,0.17474119365215302,-4.028685092926025,0.03785458207130432,-0.0025549717247486115,0.013632788322865963,3.692620277404785,0.8126224875450134,0.04498249292373657,-0.23781141638755798,-0.3289850652217865,1.6584495306015015,-0.7461286783218384,0.3730127513408661,-0.3373850882053375,-0.4773496687412262,-0.37897586822509766,-5.146788120269775,1.7617052793502808,0.8304643630981445,8.988212585449219,1.1650426387786865,-0.7767388224601746,1741422485.2976084,1741422485939,-1.588826904296875,-0.3602222595214844,2.8203501540370874,-4.7513564453125,2.751086181640625
1741422485.9380717,2.4690181612968445,0.01460864303474498,-0.017747023664277117,-0.9997357804438846,0.3751073479652405,0.1903943419456482,-1.0377849340438843,2.819720506668091,-0.7596038579940796,10.123703002929688,-0.10814857482910156,0.036812782287597656,0.1039520874619484,-1.2562226057052612,0.005149920005351305,-0.916876494884491,0.1997024416923523,1.2493560314178467,0.00476844422519207,0.951209306716919,-0.16231784224510193,-0.5357823967933655,0.08983749151229858,0.2576867341995239,0.7654306888580322,-0.33513614535331726,0.02422356605529785,-0.6296253800392151,0.0883115902543068,0.2298390120267868,1.3776988983154297,-0.33680635690689087,-0.012162566184997559,-0.2876645028591156,-0.09324062615633011,-3.9199459552764893,0.22035099565982819,-0.0032554680947214365,-0.027862679213285446,3.9222099781036377,0.44400349259376526,-0.013627425767481327,-0.2016497254371643,-0.80890291929245,2.2378902435302734,-0.1196015253663063,0.6084280610084534,-0.3790318965911865,-0.49414554238319397,-0.46965497732162476,-5.5653910636901855,1.8318380117416382,-0.46235358715057373,7.497032642364502,-0.9404897689819336,-0.13463105261325836,1741422485.2976084,1741422485939,-1.588826904296875,-0.3602222595214844,2.8203501540370874,-4.7513564453125,2.751086181640625
1741422485.9580762,2.4475329518318176,0.017216602922762923,-0.02469239153074264,-0.9995468345126668,0.3234815299510956,0.06180976331233978,-1.0400300025939941,-0.0666726678609848,-2.9080007076263428,10.618966102600098,-0.11692237854003906,0.043297767639160156,0.03452353551983833,-1.2516448497772217,0.005149920005351305,-0.916876494884491,0.2580682039260864,1.2524077892303467,0.00476844422519207,0.9473945498466492,-0.17681391537189484,-0.49305713176727295,0.08907453715801239,0.2725642919540405,0.7585641145706177,-0.34867730736732483,0.021808234974741936,-0.7303349375724792,0.11730372905731201,0.19092851877212524,1.4696345329284668,-0.38140392303466797,-0.006094899494200945,-0.23755185306072235,0.1454574167728424,-3.336010694503784,0.292301207780838,-0.004190106876194477,0.008648077957332134,3.762605905532837,0.1929478943347931,0.026640912517905235,-0.2539398968219757,-0.4390561878681183,2.1424508094787598,-0.06158852577209473,0.7788382768630981,-0.32963991165161133,-0.7087721824645996,-0.18942420184612274,-4.969377517700195,1.289003610610962,-2.133183240890503,4.0047383308410645,-2.373403310775757,0.37825897336006165,1741422485.2976084,1741422485939,-1.588826904296875,-0.3602222595214844,2.8203501540370874,-4.7513564453125,2.751086181640625
1741422485.978128,2.4371108412742615,0.01984864133851646,-0.024164416097190982,-0.9995109366243556,-0.09129433333873749,0.1468728482723236,-0.46928268671035767,0.5728862285614014,-4.269878387451172,10.475837707519531,-0.12989234924316406,0.044442176818847656,-0.01773861236870289,-1.2459226846694946,0.00476844422519207,-0.9180209040641785,0.3114747703075409,1.2569855451583862,0.00476844422519207,0.9420538544654846,-0.17986571788787842,-0.4495689272880554,0.08487831056118011,0.2725642919540405,0.7486457824707031,-0.37116819620132446,0.008216037414968014,-0.811589241027832,0.13065537810325623,0.14019227027893066,1.4829862117767334,-0.4316719174385071,0.0005468484596349299,-0.34379732608795166,0.043169520795345306,-2.4486327171325684,0.41012299060821533,-0.026669101789593697,-0.0723646730184555,3.5453176498413086,0.35825803875923157,0.009500304237008095,-0.47258806228637695,-0.17948970198631287,2.1313400268554688,-0.2070319652557373,-0.12220645695924759,-0.5968013405799866,-1.1968625783920288,-0.5463439226150513,-3.775879383087158,0.5343173146247864,-2.611288070678711,0.13545167446136475,-2.4391770362854004,0.3697606325149536,1741422485.2976084,1741422485939,-1.588826904296875,-0.3602222595214844,2.8203501540370874,-4.7513564453125,2.751086181640625
1741422485.998106,2.4290085434913635,0.024882709794306963,-0.01591844632224717,-0.999563631701343,-0.3995082974433899,0.2624236047267914,-0.4873194396495819,0.6469572186470032,-3.425698757171631,7.3193840980529785,-0.13828468322753906,0.037957191467285156,-0.07495994865894318,-1.239819049835205,0.005149920005351305,-0.924887478351593,0.3603036403656006,1.2665224075317383,0.006294346414506435,0.9344243407249451,-0.17376211285591125,-0.4087510406970978,0.07801175117492676,0.2637903392314911,0.735675573348999,-0.40237993001937866,0.009659569710493088,-0.8714808821678162,0.1348516047000885,0.07991912961006165,1.429961085319519,-0.46200084686279297,0.008557958528399467,-0.2830063998699188,-0.1638857126235962,-2.685542345046997,0.43845972418785095,-0.005085596814751625,-0.4440610110759735,3.1986215114593506,0.5631100535392761,0.11991094052791595,-0.4913821518421173,0.480387806892395,1.9468077421188354,-0.38473212718963623,-0.38858985900878906,-0.6343883872032166,-1.6348899602890015,0.2907373309135437,-2.7951431274414062,0.23951828479766846,-2.892791509628296,-3.148794412612915,-1.235408902168274,0.4836224317550659,1741422485.2976084,1741422485939,-1.588826904296875,-0.3602222595214844,2.8203501540370874,-4.7513564453125,2.751086181640625
1741422486.0181282,2.420163094997406,0.032674865839831604,-0.006281757309087216,-0.9994462930380295,-0.5048459768295288,0.4037981927394867,-0.5046055316925049,-0.8977379202842712,-1.7134449481964111,6.953431606292725,-0.14324378967285156,0.02803802490234375,-0.11615930497646332,-1.233715534210205,0.005149920005351305,-0.9412909150123596,0.4030289053916931,1.2703371047973633,0.006294346414506435,0.9283207654953003,-0.152399480342865,-0.3751811981201172,0.06923781335353851,0.24967575073242188,0.7215610146522522,-0.4374465346336365,0.006828441750258207,-0.9111543297767639,0.1340886503458023,0.032616160809993744,1.3330663442611694,-0.45749402046203613,0.012783953920006752,-0.1513734608888626,-0.36438223719596863,-1.9045451879501343,0.4333723485469818,0.03419487178325653,-0.7879672646522522,2.912381172180176,0.1198907420039177,0.021997636184096336,-0.5016030669212341,1.2568070888519287,1.6083754301071167,-0.4784771502017975,-0.7403675317764282,-0.6875145435333252,-1.7878645658493042,-0.2744230628013611,-1.8567602634429932,-0.0661768838763237,-2.106172561645508,-4.979044437408447,0.48938408493995667,0.15586566925048828,1741422485.2976084,1741422485939,-1.588826904296875,-0.3602222595214844,2.8203501540370874,-4.7513564453125,2.751086181640625
1741422486.0381253,2.409190833568573,0.04142406730881914,0.006791245038317009,-0.9991185743636357,-0.6145474910736084,0.4156990945339203,-0.5648718476295471,1.9391820430755615,0.8960540294647217,7.5147929191589355,-0.14972877502441406,0.02498626708984375,-0.135233074426651,-1.2268489599227905,0.005149920005351305,-0.9569314122200012,0.44193941354751587,1.2691926956176758,0.006294346414506435,0.9222171306610107,-0.12073700875043869,-0.3538185656070709,0.057793546468019485,0.2313649207353592,0.7051575779914856,-0.47182798385620117,0.00015308281581383198,-0.9298466444015503,0.12073700875043869,0.008964675478637218,1.2201495170593262,-0.42289072275161743,0.011177752166986465,-0.21108569204807281,-0.14070294797420502,-0.8188089728355408,0.4503030478954315,0.007244521286338568,-0.7546602487564087,2.3380119800567627,-0.10727257281541824,-0.009444148279726505,-0.37261542677879333,1.6414493322372437,1.0260637998580933,-0.6847154498100281,-1.016034483909607,-0.7782666683197021,-1.6708003282546997,-0.24836759269237518,-0.7378923892974854,-0.6968446373939514,-1.1450563669204712,-5.698476314544678,1.9181231260299683,-0.12236402183771133,1741422485.2976084,1741422485939,-1.588826904296875,-0.3602222595214844,2.8203501540370874,-4.7513564453125,2.751086181640625
1741422486.0583532,2.402787148952484,0.05099066571163619,0.013025741907954923,-0.9986141807815627,-0.23262527585029602,0.5282089114189148,-0.3164166808128357,3.8462204933166504,-1.98346745967865,6.939826011657715,-0.15011024475097656,0.01659393310546875,-0.1356145590543747,-1.2226526737213135,0.005149920005351305,-0.967994213104248,0.4655908942222595,1.2669038772583008,0.005912871100008488,0.9199283123016357,-0.08602273464202881,-0.31910428404808044,0.038719769567251205,0.21038375794887543,0.6940947771072388,-0.49274975061416626,0.005928288213908672,-0.926413357257843,0.10090028494596481,-0.013542382046580315,1.0896848440170288,-0.3751053810119629,0.006514222826808691,-0.019234223291277885,-0.2912791669368744,0.08202316612005234,0.2708929777145386,0.00467673921957612,-0.5203431844711304,1.4572452306747437,-0.2103007286787033,-0.024987947195768356,-0.18925966322422028,1.6972769498825073,1.8097803592681885,-0.9917742013931274,-1.0674951076507568,-0.6489776372909546,-0.8684865832328796,0.3179677724838257,0.20488999783992767,-1.0542712211608887,-1.1915271282196045,-6.467524528503418,2.403661012649536,-0.3850310444831848,1741422485.2976084,1741422485939,-1.588826904296875,-0.3602222595214844,2.8203501540370874,-4.7513564453125,2.751086181640625
1741422486.0789373,2.4006524682044983,0.05651890114309876,0.01282459220448742,-0.9983191592113041,0.07591960579156876,0.22785457968711853,-0.045621998608112335,2.4618325233459473,0.15027186274528503,8.503403663635254,-0.15125465393066406,0.01926422119140625,-0.11501488089561462,-1.219982385635376,0.005149920005351305,-0.9699015617370605,0.47665369510650635,1.2592743635177612,0.005531395319849253,0.916876494884491,-0.06389715522527695,-0.2759975492954254,0.014686808921396732,0.19550621509552002,0.6746395230293274,-0.4918748140335083,0.0182997714728117,-0.9206912517547607,0.07000076025724411,-0.04634927958250046,0.962272047996521,-0.329203724861145,-6.89011430949904e-05,-0.0438295379281044,0.020535800606012344,1.216378927230835,0.13666659593582153,-0.013897313736379147,-0.0321657769382,0.5825088620185852,-0.5569069385528564,-0.03780343756079674,-0.16837558150291443,0.9866023063659668,2.273097515106201,-1.273873209953308,-0.6551908850669861,-0.9749985337257385,0.2000865787267685,0.7521546483039856,0.44626355171203613,-1.7036324739456177,-1.6217976808547974,-6.340177059173584,2.2112746238708496,-0.2889323830604553,1741422485.2976084,1741422485939,-1.588826904296875,-0.3602222595214844,2.8203501540370874,-4.7513564453125,2.751086181640625
1741422486.0984092,2.4022558331489563,0.05676662574382373,0.003924812741509602,-0.9983797604351786,0.4969402253627777,-0.02671436034142971,0.11788373440504074,1.4293347597122192,-0.046246521174907684,6.528607368469238,-0.15049171447753906,0.02803802490234375,-0.07686731964349747,-1.220745325088501,0.005149920005351305,-0.9660868048667908,0.4728389382362366,1.2489745616912842,0.00476844422519207,0.9149690866470337,-0.05893797054886818,-0.2290760725736618,-0.019645990803837776,0.20237277448177338,0.6719691753387451,-0.48515135049819946,0.037687454372644424,-0.8951323628425598,0.02689402550458908,-0.07305257022380829,0.84592205286026,-0.3054647743701935,-0.007133367005735636,0.014992043375968933,0.283351868391037,2.121981382369995,-0.16393955051898956,-0.0012015640968456864,0.23144389688968658,-0.43241453170776367,-0.665273129940033,-0.039909712970256805,-0.1242431178689003,0.1590111404657364,2.224059581756592,-1.8742763996124268,0.5276404023170471,0.18102867901325226,0.327994704246521,0.8445948958396912,1.4870890378952026,-2.054751396179199,-1.3098371028900146,-5.879656791687012,0.8442180752754211,-0.31611132621765137,1741422485.2976084,1741422485939,-1.588826904296875,-0.3602222595214844,2.8203501540370874,-4.7513564453125,2.751086181640625
1741422486.11872,2.4052241444587708,0.04986432113406971,-0.012259964387952285,-0.9986807511667802,0.8325284719467163,-0.3689376413822174,0.19201438128948212,-1.325191617012024,2.8632965087890625,5.498037338256836,-0.15011024475097656,0.034523963928222656,-0.019645990803837776,-1.2333340644836426,0.005149920005351305,-0.959983229637146,0.4518577754497528,1.2409635782241821,0.00476844422519207,0.9145876169204712,-0.059319447726011276,-0.20351719856262207,-0.05970092490315437,0.21953918039798737,0.725375771522522,-0.4749324321746826,0.04592345654964447,-0.8501182794570923,-0.0013351644156500697,-0.07000076025724411,0.7310978770256042,-0.3203839361667633,-0.011285051703453064,-0.0008944094879552722,0.2213512361049652,3.213181495666504,-0.8044906854629517,-0.01943216286599636,0.24129316210746765,-1.5785108804702759,-0.5179386734962463,-0.004051839001476765,-0.012873885221779346,-0.03563899174332619,1.0117721557617188,-1.6606779098510742,0.6862240433692932,3.4657578468322754,0.6181790828704834,0.5027673244476318,2.265657424926758,-1.3446723222732544,0.6338253617286682,-5.626594543457031,-0.9545753598213196,-0.1578321009874344,1741422485.2976084,1741422485939,-1.588826904296875,-0.3602222595214844,2.8203501540370874,-4.7513564453125,2.751086181640625
1741422486.1384728,2.4077988266944885,0.03913062999843043,-0.034295736912861564,-0.998645380615927,1.0751869678497314,-0.6302220821380615,0.24008047580718994,-47.7066764831543,-21.109432220458984,20.158977508544922,-0.14705848693847656,0.048638343811035156,0.050164032727479935,-1.2432523965835571,0.005149920005351305,-0.9554055333137512,0.41485464572906494,1.23295259475708,0.004386968910694122,0.9122987985610962,-0.06084534898400307,-0.22449836134910583,-0.05207141116261482,0.21190966665744781,0.8524070978164673,-0.4475827217102051,0.05941141024231911,-0.8134965896606445,0.00019073777366429567,-0.023079270496964455,0.7368200421333313,-0.3006765842437744,-0.019755762070417404,0.053492795675992966,0.5000016689300537,3.540400505065918,-0.8014461398124695,0.002955199684947729,0.23045353591442108,-2.5592572689056396,-0.5271013975143433,-0.03030179813504219,-0.2986578643321991,-0.17725811898708344,-1.6272004842758179,0.7147333025932312,-0.7326458096504211,6.70200777053833,1.4918931722640991,0.6909897923469543,1.947908639907837,0.5872371196746826,2.4168152809143066,2.183109998703003,1.4012175798416138,-0.45658695697784424,1741422485.2976084,1741422485939,-1.588826904296875,-0.3602222595214844,2.8203501540370874,-4.7513564453125,2.751086181640625
1741422486.1584933,2.406375467777252,0.03688196862686354,-0.0350164231196678,-0.998705947965722,0.004895186983048916,-0.315035879611969,0.12194449454545975,-6.457220554351807,2.408019542694092,4.982341289520264,-0.15583229064941406,0.053597450256347656,0.12455176562070847,-1.2482116222381592,0.005912871100008488,-0.9504463076591492,0.3534370958805084,1.2306636571884155,0.006294346414506435,0.9061951637268066,-0.06313420087099075,-0.30384528636932373,-0.06923781335353851,0.18673227727413177,1.0240710973739624,-0.40155357122421265,0.06493668258190155,-0.7982375621795654,0.02689402550458908,0.04100862145423889,0.7837415337562561,-0.24940066039562225,-0.038977134972810745,-0.3699406087398529,0.39596760272979736,3.794598340988159,-0.16521254181861877,0.09623660892248154,0.2691187858581543,-4.422445774078369,0.032562028616666794,0.147579625248909,-0.2606172561645508,0.22189216315746307,-4.462184906005859,-1.1319078207015991,-1.337589979171753,9.119667053222656,2.3629682064056396,0.27612045407295227,0.9158908128738403,1.0311641693115234,3.1438682079315186,1.3397159576416016,2.3901631832122803,-0.5204869508743286,1741422485.2976084,1741422485939,-1.588826904296875,-0.3602222595214844,2.8203501540370874,-4.7513564453125,2.751086181640625
1741422486.1792798,2.4146081805229187,0.03200110851253984,-0.03586531873594476,-0.9988441359721434,0.043104853481054306,-0.15021713078022003,0.4225357472896576,5.312636852264404,1.0039235353469849,12.835270881652832,-0.13599586486816406,0.048638343811035156,0.19359883666038513,-1.2443968057632446,0.00476844422519207,-0.9496833682060242,0.26722362637519836,1.2356228828430176,0.005531395319849253,0.9103913903236389,-0.04634927958250046,-0.41065841913223267,-0.08373387902975082,0.13866636157035828,1.2140458822250366,-0.35883891582489014,0.05250422656536102,-0.7448310256004333,0.03757534176111221,0.07686731964349747,0.776493489742279,-0.22554416954517365,-0.02235550433397293,0.5585312247276306,-0.06969896703958511,3.5512895584106445,0.22384954988956451,0.005807667504996061,-0.020140772685408592,-5.815450668334961,0.2865254580974579,-0.06930271536111832,0.27352577447891235,0.7594649791717529,-5.419598579406738,-0.6276716589927673,-2.492691993713379,9.177423477172852,1.8521939516067505,-1.1480599641799927,2.780521869659424,0.5594661831855774,1.4182835817337036,0.01786295510828495,1.177619457244873,1.0370339155197144,1741422485.2976084,1741422485939,-1.588826904296875,-0.3602222595214844,2.8203501540370874,-4.7513564453125,2.751086181640625
1741422486.1985521,2.4384354948997498,0.022380541462085058,-0.03354373335527607,-0.9991866338760012,-0.2362968623638153,-0.5127197504043579,1.1972061395645142,-0.23293638229370117,1.0355099439620972,9.975516319274902,-0.14629554748535156,0.06580448150634766,0.25463491678237915,-1.2497375011444092,0.005149920005351305,-0.9508277773857117,0.17795833945274353,1.2379117012023926,0.00476844422519207,0.9122987985610962,-0.031090257689356804,-0.5205233693122864,-0.08525978773832321,0.11081864684820175,1.352521538734436,-0.3530367612838745,0.009861288592219353,-0.7169833183288574,0.02689402550458908,0.09060044586658478,0.7917525172233582,-0.2168980836868286,-0.01131570152938366,-0.2396332174539566,0.6464630961418152,3.1639373302459717,-0.3533339500427246,-0.07158498466014862,-0.1335560530424118,-5.801644802093506,0.1768655627965927,-0.011320055462419987,0.11574965715408325,0.7606226205825806,-5.517796516418457,-0.19072240591049194,-1.1258562803268433,6.300265312194824,-0.1341482251882553,-1.6136629581451416,1.2339897155761719,-0.8675309419631958,0.8805904388427734,0.6964852213859558,0.14486177265644073,0.40826648473739624,1741422485.2976084,1741422485939,-1.588826904296875,-0.3602222595214844,2.8203501540370874,-4.7513564453125,2.751086181640625
1741422486.218546,2.4564362168312073,0.01266293097462395,-0.029039437552692605,-0.9994980546483095,-0.21269485354423523,-0.35961127281188965,0.7565283179283142,0.9136788249015808,4.776843547821045,12.21276569366455,-0.13523292541503906,0.057793617248535156,0.31528952717781067,-1.2512633800506592,0.00476844422519207,-0.9523537158966064,0.1035706102848053,1.2405821084976196,0.005149920005351305,0.9138246774673462,-0.014686808921396732,-0.614366352558136,-0.0883115902543068,0.1188296303153038,1.415464997291565,-0.39211925864219666,0.013686293736100197,-0.6719691753387451,0.012397955171763897,0.09060044586658478,0.805867075920105,-0.23330342769622803,0.002746292157098651,0.2852480709552765,-0.15144623816013336,3.2065517902374268,-0.07867304235696793,0.007238647434860468,-0.03323831781744957,-4.857182502746582,0.11604451388120651,0.003248897148296237,0.09573923796415329,0.7476418018341064,-4.490251064300537,-0.0892660915851593,0.6892491579055786,2.5718274116516113,-2.155484914779663,0.18385550379753113,2.461193084716797,-0.7658213376998901,-0.18648755550384521,0.5898132920265198,-0.9110949635505676,0.9314960837364197,1741422485.2976084,1741422485939,-1.588826904296875,-0.3602222595214844,2.8203501540370874,-4.7513564453125,2.751086181640625
1741422486.2385678,2.4613649249076843,0.0056391683479410344,-0.027574322890947734,-0.9996038497812267,-0.08396492153406143,-0.37364619970321655,0.13207000494003296,-3.279182195663452,0.9459623098373413,12.354015350341797,-0.12836647033691406,0.050545692443847656,0.3736552894115448,-1.2546966075897217,0.005531395319849253,-0.9493018984794617,0.0394827201962471,1.2386746406555176,0.005149920005351305,0.9145876169204712,0.00667582219466567,-0.6906614899635315,-0.07534141838550568,0.12264438718557358,1.4055466651916504,-0.444137305021286,0.008272014558315277,-0.6372548937797546,0.0009536888683214784,0.08869306743144989,0.8085374236106873,-0.2650013267993927,0.018989600241184235,0.21036504209041595,-0.2370164841413498,2.7830212116241455,-0.3823010325431824,0.012431589886546135,0.17221693694591522,-4.0971360206604,-0.1043439656496048,0.014128336682915688,0.0052820430137217045,1.1622755527496338,-3.641756057739258,0.7248134016990662,0.12964023649692535,-0.9587209820747375,-2.6010756492614746,-0.4645051062107086,1.4283849000930786,-0.7203680872917175,-0.06100292503833771,0.06684567034244537,-1.6677885055541992,0.8532493114471436,1741422485.2976084,1741422485939,-1.588826904296875,-0.3602222595214844,2.8203501540370874,-4.7513564453125,2.751086181640625
1741422486.2586107,2.456572473049164,0.0037259312749907043,-0.023558337204887692,-0.9997155206278808,-0.21036793291568756,0.02867525815963745,-0.26805025339126587,1.7447072267532349,2.550783157348633,8.552214622497559,-0.13218116760253906,0.037194252014160156,0.42591744661331177,-1.2619446516036987,0.005149920005351305,-0.9477760195732117,-0.02841992862522602,1.2459226846694946,0.005149920005351305,0.918402373790741,0.02536812424659729,-0.7574197053909302,-0.06427863240242004,0.12417028844356537,1.342221736907959,-0.48134440183639526,-0.011373897083103657,-0.6025406122207642,-0.009346150793135166,0.08411535620689392,0.8146410584449768,-0.30675211548805237,0.03576799854636192,-0.11266972869634628,-0.37136805057525635,2.6616361141204834,-0.40661394596099854,-0.0006489779916591942,0.1012379601597786,-4.724196910858154,0.5323042869567871,0.0033116512931883335,0.3585280776023865,0.7809266448020935,-3.333975076675415,0.6194374561309814,-0.04673529043793678,-3.4013259410858154,-1.5541099309921265,-0.9607195258140564,2.1348862648010254,-0.6093138456344604,-0.20305988192558289,0.3885246515274048,-2.1699514389038086,0.8042944669723511,1741422485.2976084,1741422485939,-1.588826904296875,-0.3602222595214844,2.8203501540370874,-4.7513564453125,2.751086181640625
1741422486.2786257,2.4546234011650085,0.010890791956371475,-0.022625896534216153,-0.9996846800149466,-0.04723169282078743,0.3408370912075043,-0.1559242308139801,-5.999185562133789,-0.2849738299846649,9.012245178222656,-0.12302589416503906,0.01697540283203125,0.4728389382362366,-1.2627075910568237,0.005149920005351305,-0.9412909150123596,-0.09021896868944168,1.2459226846694946,0.005149920005351305,0.9340428709983826,0.03528648987412453,-0.8054856061935425,-0.05130846053361893,0.10776684433221817,1.2521934509277344,-0.48299115896224976,-0.011158310808241367,-0.5804150700569153,-0.023460745811462402,0.07877469807863235,0.8134965896606445,-0.35264262557029724,0.048055097460746765,0.2494307905435562,-0.5397339463233948,2.146087884902954,-0.04971054568886757,0.003898424096405506,0.33618783950805664,-3.921370029449463,-0.10787561535835266,-0.020587440580129623,1.12932288646698,0.5290353298187256,-2.161375045776367,0.6151565909385681,-0.8737993240356445,-4.828115463256836,0.22118064761161804,0.17295698821544647,0.8894002437591553,-0.6066217422485352,-0.34658047556877136,0.0193696990609169,-2.262119770050049,0.5496668219566345,1741422485.2976084,1741422485939,-1.588826904296875,-0.3602222595214844,2.8203501540370874,-4.7513564453125,2.751086181640625
1741422486.2986279,2.4490484595298767,0.027314942013338436,-0.019836750806609404,-0.999430036200756,-0.1253923922777176,0.8215602040290833,-0.2745709717273712,2.881075382232666,0.576967179775238,5.226905345916748,-0.12493324279785156,0.00019073486328125,0.4964904189109802,-1.2627075910568237,0.005531395319849253,-0.9340428709983826,-0.1359960287809372,1.2402005195617676,0.004386968910694122,0.953498125076294,0.02994582988321781,-0.8424887657165527,-0.02841992862522602,0.08144503086805344,1.1331731081008911,-0.451352596282959,-0.01092523243278265,-0.5582894682884216,-0.032616160809993744,0.07305257022380829,0.8257037997245789,-0.393854558467865,0.05503121018409729,-0.07270818948745728,-0.44910451769828796,1.0416377782821655,-0.00420326367020607,0.009090621024370193,0.32755228877067566,-2.7332205772399902,-0.40388140082359314,-0.016200894489884377,1.2457942962646484,-0.303870290517807,-1.884842872619629,1.3310508728027344,-1.4353183507919312,-6.253700256347656,1.7468193769454956,-0.039033662527799606,1.0654258728027344,-0.4655197858810425,-0.1398981809616089,0.5672659873962402,-2.103024959564209,0.22295106947422028,1741422485.2976084,1741422485939,-1.588826904296875,-0.3602222595214844,2.8203501540370874,-4.7513564453125,2.751086181640625
1741422486.3186905,2.4460728764533997,0.04027559593444225,-0.017703406830988776,-0.9990317641390097,-0.10134229809045792,0.629111647605896,-0.11965637654066086,2.0463154315948486,0.9254902601242065,2.619370222091675,-0.12760353088378906,0.00209808349609375,0.5014495849609375,-1.2619446516036987,0.005149920005351305,-0.927176296710968,-0.1504921019077301,1.2321895360946655,0.004386968910694122,0.968757152557373,0.012397955171763897,-0.8527885675430298,0.007057297509163618,0.059319447726011276,0.995078980922699,-0.4086264371871948,-0.0038399221375584602,-0.5392156839370728,-0.02841992862522602,0.07381551712751389,0.838674008846283,-0.4330647587776184,0.053202588111162186,-0.0913904681801796,0.03441007435321808,0.09574084728956223,0.0927346721291542,-0.011928709223866463,0.3666905462741852,-0.7226176857948303,-0.5395958423614502,-0.022808723151683807,1.018556833267212,-1.0371156930923462,-0.2680169641971588,1.8264870643615723,-0.8473377227783203,-7.160712718963623,2.0405337810516357,0.4548695683479309,1.0611106157302856,0.3434673845767975,0.06716274470090866,0.7821207046508789,-1.918561577796936,-0.15310977399349213,1741422485.2976084,1741422485939,-1.588826904296875,-0.3602222595214844,2.8203501540370874,-4.7513564453125,2.751086181640625
1741422486.3386683,2.447927176952362,0.04694365757197743,-0.013713723261832756,-0.9988033974752303,-0.23000887036323547,0.2697296440601349,0.10142102837562561,1.7688546180725098,-1.385025143623352,3.549995183944702,-0.12874794006347656,0.01544952392578125,0.4892423748970032,-1.2566040754318237,0.005149920005351305,-0.9237430095672607,-0.13942931592464447,1.2253230810165405,0.004386968910694122,0.9763866662979126,-0.012779430486261845,-0.8321889042854309,0.037193864583969116,0.06580453366041183,0.8375295400619507,-0.3806624114513397,0.006963137071579695,-0.5209048390388489,-0.002861066721379757,0.0707637146115303,0.8619440197944641,-0.46768081188201904,0.032143786549568176,-0.045879192650318146,0.41084301471710205,-0.7123653888702393,0.38278791308403015,-0.004666783846914768,0.09849103540182114,1.0150445699691772,-0.4352336823940277,0.004226240329444408,0.4165850579738617,-1.2813597917556763,1.2315821647644043,1.2405420541763306,0.5443615317344666,-7.7546515464782715,1.2311745882034302,0.34254083037376404,0.8641632795333862,1.5882526636123657,-0.33707374334335327,1.273403525352478,-1.7050786018371582,-1.287619948387146,1741422485.2976084,1741422485939,-1.588826904296875,-0.3602222595214844,2.8203501540370874,-4.7513564453125,2.751086181640625
